;FLAVOR:Marlin
;TIME:13672
;Filament used: 10.9949m
;Layer height: 0.16
;Generated with Cura_SteamEngine 3.6.0
M140 S70
M105
M190 S70
M104 S215
M105
M109 S215
M82 ;absolute extrusion mode
G28 ; home all axes
M117 Purge extruder
G92 E0 ; reset extruder
G1 Z1.0 F3000 ; move z up little to prevent scratching of surface
G1 X0.1 Y20 Z0.3 F5000.0 ; move to start-line position G1 X0.1 Y200.0 Z0.3 F1500.0 E15 ; draw 1st line
G1 X0.4 Y200.0 Z0.3 F5000.0 ; move to side a little
G1 X0.4 Y20 Z0.3 F1500.0 E30 ; draw 2nd line
G92 E0 ; reset extruder
G1 Z1.0 F3000 ; move z up little to prevent scratching of surface
M117 All systems go!
G92 E0
G1 F6000 E-5
;LAYER_COUNT:344
;LAYER:0
M107
M204 S5000
M205 X30 Y30
G0 F7200 X89.017 Y89.34 Z0.2
M204 S500
M205 X20 Y20
;TYPE:SKIRT
G1 F6000 E0
G1 F900 X89.368 Y88.99 E0.01814
G1 X91.893 Y86.701 E0.14282
G1 X92.275 Y86.387 E0.16092
G1 X95.035 Y84.338 E0.28668
G1 X95.451 Y84.06 E0.30498
G1 X98.398 Y82.295 E0.43066
G1 X98.833 Y82.063 E0.4487
G1 X101.938 Y80.593 E0.57439
G1 X102.397 Y80.402 E0.59258
G1 X105.633 Y79.243 E0.71833
G1 X106.11 Y79.099 E0.73656
G1 X109.429 Y78.268 E0.86174
G1 X109.915 Y78.171 E0.87987
G1 X113.322 Y77.665 E1.00589
G1 X113.816 Y77.616 E1.02405
G1 X117.246 Y77.447 E1.14969
G1 X117.743 Y77.447 E1.16788
G1 X121.172 Y77.615 E1.29348
G1 X121.666 Y77.664 E1.31164
G1 X125.074 Y78.169 E1.43769
G1 X125.56 Y78.265 E1.45581
G1 X128.879 Y79.095 E1.58098
G1 X129.355 Y79.239 E1.59918
G1 X132.591 Y80.396 E1.72491
G1 X133.05 Y80.587 E1.7431
G1 X136.156 Y82.056 E1.8688
G1 X136.593 Y82.289 E1.88692
G1 X139.54 Y84.054 E2.0126
G1 X139.956 Y84.332 E2.03091
G1 X142.715 Y86.38 E2.15662
G1 X143.095 Y86.692 E2.17461
G1 X145.62 Y88.978 E2.29922
G1 X145.97 Y89.328 E2.31733
G1 X148.296 Y91.89 E2.44393
G1 X148.612 Y92.274 E2.46213
G1 X150.66 Y95.032 E2.58781
G1 X150.939 Y95.449 E2.60617
G1 X152.705 Y98.398 E2.73192
G1 X152.937 Y98.833 E2.74996
G1 X154.407 Y101.938 E2.87565
G1 X154.598 Y102.397 E2.89384
G1 X155.757 Y105.633 E3.0196
G1 X155.901 Y106.109 E3.03779
G1 X156.732 Y109.425 E3.16286
G1 X156.829 Y109.912 E3.18103
G1 X157.335 Y113.32 E3.30708
G1 X157.384 Y113.814 E3.32524
G1 X157.553 Y117.245 E3.45092
G1 X157.553 Y117.742 E3.46911
G1 X157.385 Y121.172 E3.59475
G1 X157.336 Y121.666 E3.61291
G1 X156.831 Y125.074 E3.73896
G1 X156.735 Y125.56 E3.75708
G1 X155.905 Y128.879 E3.88225
G1 X155.761 Y129.354 E3.90041
G1 X154.605 Y132.588 E4.02606
G1 X154.414 Y133.048 E4.04428
G1 X152.944 Y136.156 E4.17007
G1 X152.711 Y136.593 E4.18819
G1 X150.946 Y139.54 E4.31387
G1 X150.668 Y139.956 E4.33217
G1 X148.62 Y142.715 E4.45788
G1 X148.308 Y143.095 E4.47587
G1 X146.004 Y145.64 E4.60147
G1 X145.651 Y145.993 E4.61974
G1 X143.107 Y148.299 E4.74536
G1 X142.725 Y148.613 E4.76345
G1 X139.965 Y150.662 E4.88921
G1 X139.549 Y150.94 E4.90752
G1 X136.602 Y152.705 E5.0332
G1 X136.167 Y152.937 E5.05123
G1 X133.062 Y154.407 E5.17692
G1 X132.603 Y154.598 E5.19511
G1 X129.367 Y155.757 E5.32087
G1 X128.89 Y155.901 E5.3391
G1 X125.571 Y156.732 E5.46427
G1 X125.085 Y156.829 E5.48241
G1 X121.678 Y157.335 E5.60842
G1 X121.184 Y157.384 E5.62658
G1 X117.754 Y157.553 E5.75223
G1 X117.257 Y157.553 E5.77041
G1 X113.828 Y157.385 E5.89601
G1 X113.334 Y157.336 E5.91418
G1 X109.926 Y156.831 E6.04022
G1 X109.44 Y156.735 E6.05835
G1 X106.121 Y155.905 E6.18352
G1 X105.645 Y155.761 E6.20171
G1 X102.409 Y154.604 E6.32744
G1 X101.95 Y154.413 E6.34563
G1 X98.844 Y152.944 E6.47134
G1 X98.407 Y152.711 E6.48946
G1 X95.46 Y150.946 E6.61513
G1 X95.044 Y150.668 E6.63344
G1 X92.284 Y148.619 E6.7592
G1 X91.904 Y148.307 E6.77719
G1 X89.358 Y146.002 E6.90284
G1 X88.998 Y145.642 E6.92147
G1 X86.646 Y143.037 E7.04988
G1 X86.338 Y142.661 E7.06766
G1 X84.337 Y139.964 E7.19052
G1 X84.06 Y139.549 E7.20878
G1 X82.295 Y136.602 E7.33446
G1 X82.063 Y136.167 E7.35249
G1 X80.592 Y133.06 E7.47826
G1 X80.401 Y132.601 E7.49645
G1 X79.243 Y129.367 E7.62213
G1 X79.099 Y128.89 E7.64036
G1 X78.268 Y125.571 E7.76554
G1 X78.171 Y125.085 E7.78367
G1 X77.665 Y121.678 E7.90968
G1 X77.616 Y121.184 E7.92785
G1 X77.447 Y117.755 E8.05345
G1 X77.447 Y117.258 E8.07163
G1 X77.615 Y113.828 E8.19728
G1 X77.664 Y113.335 E8.2154
G1 X78.169 Y109.924 E8.34156
G1 X78.265 Y109.436 E8.35975
G1 X79.095 Y106.12 E8.48482
G1 X79.239 Y105.646 E8.50294
G1 X80.395 Y102.412 E8.62859
G1 X80.586 Y101.952 E8.64681
G1 X82.056 Y98.844 E8.7726
G1 X82.289 Y98.407 E8.79072
G1 X84.054 Y95.46 E8.9164
G1 X84.332 Y95.044 E8.9347
G1 X86.38 Y92.285 E9.06041
G1 X86.694 Y91.902 E9.07853
G1 X88.529 Y89.878 E9.17849
G0 F810 X89.017 Y89.34
M204 S5000
M205 X30 Y30
G0 F7200 X89.343 Y89.636
M204 S500
M205 X20 Y20
G1 F6000 E9.20509
G1 F900 X89.663 Y89.316 E9.22164
G1 X92.188 Y87.027 E9.34633
G1 X92.537 Y86.74 E9.36286
G1 X95.297 Y84.691 E9.48863
G1 X95.677 Y84.437 E9.50535
G1 X98.624 Y82.672 E9.63103
G1 X99.021 Y82.46 E9.64749
G1 X102.126 Y80.99 E9.77318
G1 X102.545 Y80.817 E9.78977
G1 X105.781 Y79.658 E9.91552
G1 X106.217 Y79.525 E9.9322
G1 X109.536 Y78.694 E10.05738
G1 X109.979 Y78.606 E10.0739
G1 X113.386 Y78.1 E10.19992
G1 X113.838 Y78.056 E10.21653
G1 X117.268 Y77.887 E10.34218
G1 X117.721 Y77.887 E10.35875
G1 X121.15 Y78.055 E10.48435
G1 X121.601 Y78.099 E10.50093
G1 X125.009 Y78.604 E10.62698
G1 X125.453 Y78.692 E10.64354
G1 X128.772 Y79.522 E10.76871
G1 X129.206 Y79.654 E10.7853
G1 X132.442 Y80.811 E10.91104
G1 X132.862 Y80.985 E10.92767
G1 X135.968 Y82.454 E11.05338
G1 X136.367 Y82.666 E11.06991
G1 X139.314 Y84.431 E11.19558
G1 X139.694 Y84.685 E11.21231
G1 X142.453 Y86.733 E11.33802
G1 X142.8 Y87.018 E11.35445
G1 X145.325 Y89.304 E11.47906
G1 X145.645 Y89.624 E11.49562
G1 X147.971 Y92.186 E11.62222
G1 X148.259 Y92.537 E11.63883
G1 X150.307 Y95.295 E11.76451
G1 X150.562 Y95.675 E11.78126
G1 X152.328 Y98.624 E11.90702
G1 X152.54 Y99.021 E11.92348
G1 X154.01 Y102.126 E12.04917
G1 X154.183 Y102.545 E12.06575
G1 X155.342 Y105.781 E12.19151
G1 X155.474 Y106.216 E12.20814
G1 X156.305 Y109.532 E12.33321
G1 X156.394 Y109.976 E12.34978
G1 X156.9 Y113.384 E12.47583
G1 X156.944 Y113.836 E12.49245
G1 X157.113 Y117.267 E12.61813
G1 X157.113 Y117.72 E12.6347
G1 X156.945 Y121.15 E12.76034
G1 X156.901 Y121.601 E12.77692
G1 X156.396 Y125.009 E12.90297
G1 X156.308 Y125.453 E12.91953
G1 X155.478 Y128.772 E13.0447
G1 X155.346 Y129.206 E13.06129
G1 X154.19 Y132.44 E13.18695
G1 X154.016 Y132.86 E13.20358
G1 X152.546 Y135.968 E13.32937
G1 X152.334 Y136.367 E13.3459
G1 X150.569 Y139.314 E13.47157
G1 X150.315 Y139.694 E13.4883
G1 X148.267 Y142.453 E13.61401
G1 X147.982 Y142.8 E13.63044
G1 X145.678 Y145.345 E13.75604
G1 X145.356 Y145.667 E13.7727
G1 X142.812 Y147.973 E13.89832
G1 X142.463 Y148.26 E13.91485
G1 X139.703 Y150.309 E14.04061
G1 X139.323 Y150.563 E14.05734
G1 X136.376 Y152.328 E14.18301
G1 X135.979 Y152.54 E14.19948
G1 X132.874 Y154.01 E14.32517
G1 X132.455 Y154.183 E14.34175
G1 X129.219 Y155.342 E14.46751
G1 X128.783 Y155.475 E14.48419
G1 X125.464 Y156.306 E14.60936
G1 X125.021 Y156.394 E14.62589
G1 X121.614 Y156.9 E14.7519
G1 X121.162 Y156.944 E14.76852
G1 X117.732 Y157.113 E14.89416
G1 X117.279 Y157.113 E14.91074
G1 X113.85 Y156.945 E15.03634
G1 X113.399 Y156.901 E15.05292
G1 X109.991 Y156.396 E15.17897
G1 X109.547 Y156.308 E15.19553
G1 X106.228 Y155.478 E15.3207
G1 X105.794 Y155.346 E15.33729
G1 X102.558 Y154.189 E15.46302
G1 X102.138 Y154.015 E15.47966
G1 X99.032 Y152.546 E15.60536
G1 X98.633 Y152.334 E15.62189
G1 X95.686 Y150.569 E15.74757
G1 X95.306 Y150.315 E15.76429
G1 X92.546 Y148.266 E15.89006
G1 X92.199 Y147.981 E15.90648
G1 X89.653 Y145.676 E16.03214
G1 X89.325 Y145.347 E16.04913
G1 X86.973 Y142.742 E16.17754
G1 X86.692 Y142.399 E16.19376
G1 X84.691 Y139.702 E16.31663
G1 X84.437 Y139.323 E16.33332
G1 X82.672 Y136.376 E16.459
G1 X82.46 Y135.979 E16.47546
G1 X80.989 Y132.872 E16.60123
G1 X80.815 Y132.452 E16.61786
G1 X79.657 Y129.218 E16.74354
G1 X79.525 Y128.783 E16.76017
G1 X78.694 Y125.464 E16.88535
G1 X78.606 Y125.021 E16.90187
G1 X78.1 Y121.614 E17.02789
G1 X78.056 Y121.162 E17.04451
G1 X77.887 Y117.733 E17.17011
G1 X77.887 Y117.28 E17.18669
G1 X78.055 Y113.85 E17.31233
G1 X78.099 Y113.399 E17.32891
G1 X78.604 Y109.988 E17.45506
G1 X78.692 Y109.543 E17.47166
G1 X79.522 Y106.227 E17.59672
G1 X79.654 Y105.794 E17.61328
G1 X80.81 Y102.56 E17.73893
G1 X80.984 Y102.14 E17.75556
G1 X82.454 Y99.032 E17.88135
G1 X82.666 Y98.633 E17.89788
G1 X84.431 Y95.686 E18.02356
G1 X84.685 Y95.306 E18.04028
G1 X86.733 Y92.547 E18.16599
G1 X87.02 Y92.198 E18.18253
G1 X88.855 Y90.174 E18.28248
G0 F810 X89.343 Y89.636
M204 S5000
M205 X30 Y30
G0 F7200 X89.669 Y89.931
M204 S500
M205 X20 Y20
G1 F6000 E18.30908
G1 F900 X89.959 Y89.642 E18.32406
G1 X92.484 Y87.353 E18.44875
G1 X92.799 Y87.094 E18.46367
G1 X95.559 Y85.045 E18.58943
G1 X95.903 Y84.815 E18.60457
G1 X98.85 Y83.05 E18.73025
G1 X99.209 Y82.858 E18.74514
G1 X102.314 Y81.388 E18.87083
G1 X102.694 Y81.231 E18.88587
G1 X105.93 Y80.072 E19.01163
G1 X106.324 Y79.952 E19.0267
G1 X109.643 Y79.121 E19.15187
G1 X110.044 Y79.041 E19.16683
G1 X113.451 Y78.535 E19.29285
G1 X113.859 Y78.495 E19.30785
G1 X117.289 Y78.326 E19.43349
G1 X117.7 Y78.326 E19.44853
G1 X121.129 Y78.494 E19.57413
G1 X121.537 Y78.534 E19.58913
G1 X124.945 Y79.039 E19.71518
G1 X125.346 Y79.119 E19.73014
G1 X128.665 Y79.949 E19.85531
G1 X129.058 Y80.068 E19.87033
G1 X132.294 Y81.225 E19.99606
G1 X132.674 Y81.382 E20.01111
G1 X135.78 Y82.851 E20.13681
G1 X136.141 Y83.044 E20.15179
G1 X139.088 Y84.809 E20.27747
G1 X139.431 Y85.039 E20.29258
G1 X142.19 Y87.087 E20.41829
G1 X142.504 Y87.344 E20.43313
G1 X145.029 Y89.63 E20.55775
G1 X145.319 Y89.919 E20.57273
G1 X147.645 Y92.481 E20.69933
G1 X147.906 Y92.799 E20.71438
G1 X149.954 Y95.557 E20.84006
G1 X150.184 Y95.901 E20.8552
G1 X151.95 Y98.85 E20.98096
G1 X152.142 Y99.209 E20.99586
G1 X153.612 Y102.314 E21.12154
G1 X153.769 Y102.694 E21.13659
G1 X154.928 Y105.93 E21.26234
G1 X155.048 Y106.323 E21.27738
G1 X155.879 Y109.639 E21.40245
G1 X155.959 Y110.041 E21.41744
G1 X156.465 Y113.449 E21.5435
G1 X156.505 Y113.857 E21.5585
G1 X156.674 Y117.288 E21.68417
G1 X156.674 Y117.698 E21.69917
G1 X156.506 Y121.128 E21.82482
G1 X156.466 Y121.537 E21.83985
G1 X155.961 Y124.945 E21.9659
G1 X155.881 Y125.346 E21.98086
G1 X155.051 Y128.665 E22.10603
G1 X154.932 Y129.058 E22.12105
G1 X153.776 Y132.292 E22.2467
G1 X153.619 Y132.672 E22.26174
G1 X152.149 Y135.78 E22.38753
G1 X151.956 Y136.141 E22.40251
G1 X150.191 Y139.088 E22.52819
G1 X149.961 Y139.431 E22.54329
G1 X147.913 Y142.19 E22.66901
G1 X147.656 Y142.504 E22.68385
G1 X145.352 Y145.049 E22.80945
G1 X145.06 Y145.341 E22.82456
G1 X142.516 Y147.647 E22.95018
G1 X142.201 Y147.906 E22.9651
G1 X139.441 Y149.955 E23.09086
G1 X139.097 Y150.185 E23.106
G1 X136.15 Y151.95 E23.23168
G1 X135.791 Y152.142 E23.24658
G1 X132.686 Y153.612 E23.37226
G1 X132.306 Y153.769 E23.38731
G1 X129.07 Y154.928 E23.51306
G1 X128.676 Y155.048 E23.52813
G1 X125.357 Y155.879 E23.65331
G1 X124.956 Y155.959 E23.66827
G1 X121.549 Y156.465 E23.79429
G1 X121.141 Y156.505 E23.80929
G1 X117.711 Y156.674 E23.93493
G1 X117.3 Y156.674 E23.94997
G1 X113.871 Y156.506 E24.07557
G1 X113.463 Y156.466 E24.09057
G1 X110.055 Y155.961 E24.21662
G1 X109.654 Y155.881 E24.23158
G1 X106.335 Y155.051 E24.35674
G1 X105.942 Y154.932 E24.37177
G1 X102.706 Y153.775 E24.4975
G1 X102.326 Y153.618 E24.51254
G1 X99.22 Y152.149 E24.63825
G1 X98.859 Y151.956 E24.65322
G1 X95.912 Y150.191 E24.7789
G1 X95.568 Y149.961 E24.79404
G1 X92.808 Y147.912 E24.9198
G1 X92.495 Y147.655 E24.93462
G1 X89.949 Y145.35 E25.06027
G1 X89.651 Y145.052 E25.07569
G1 X87.299 Y142.447 E25.2041
G1 X87.045 Y142.137 E25.21876
G1 X85.044 Y139.44 E25.34163
G1 X84.815 Y139.097 E25.35672
G1 X83.05 Y136.15 E25.48239
G1 X82.858 Y135.791 E25.49729
G1 X81.387 Y132.684 E25.62306
G1 X81.23 Y132.304 E25.6381
G1 X80.072 Y129.07 E25.76378
G1 X79.952 Y128.676 E25.77884
G1 X79.121 Y125.357 E25.90402
G1 X79.041 Y124.956 E25.91898
G1 X78.535 Y121.549 E26.045
G1 X78.495 Y121.141 E26.06
G1 X78.326 Y117.712 E26.1856
G1 X78.326 Y117.302 E26.2006
G1 X78.494 Y113.872 E26.32624
G1 X78.534 Y113.464 E26.34124
G1 X79.039 Y110.053 E26.4674
G1 X79.119 Y109.65 E26.48243
G1 X79.949 Y106.334 E26.60749
G1 X80.068 Y105.942 E26.62248
G1 X81.224 Y102.708 E26.74813
G1 X81.381 Y102.328 E26.76318
G1 X82.851 Y99.22 E26.88896
G1 X83.044 Y98.859 E26.90394
G1 X84.809 Y95.912 E27.02962
G1 X85.039 Y95.569 E27.04473
G1 X87.087 Y92.81 E27.17044
G1 X87.346 Y92.493 E27.18541
G1 X89.181 Y90.469 E27.28537
G0 F810 X89.669 Y89.931
M204 S5000
M205 X30 Y30
G0 F7200 X89.995 Y90.227
M204 S500
M205 X20 Y20
G1 F6000 E27.31197
G1 F900 X90.254 Y89.968 E27.32537
G1 X92.779 Y87.679 E27.45006
G1 X93.062 Y87.447 E27.46344
G1 X95.822 Y85.398 E27.58921
G1 X96.129 Y85.192 E27.60273
G1 X99.076 Y83.427 E27.72841
G1 X99.398 Y83.256 E27.74175
G1 X102.503 Y81.786 E27.86744
G1 X102.842 Y81.645 E27.88087
G1 X106.078 Y80.486 E28.00663
G1 X106.431 Y80.379 E28.02012
G1 X109.75 Y79.548 E28.1453
G1 X110.109 Y79.477 E28.15869
G1 X113.516 Y78.971 E28.28471
G1 X113.881 Y78.935 E28.29812
G1 X117.311 Y78.766 E28.42377
G1 X117.678 Y78.765 E28.43719
G1 X121.107 Y78.933 E28.5628
G1 X121.472 Y78.969 E28.57622
G1 X124.88 Y79.474 E28.70226
G1 X125.239 Y79.546 E28.71566
G1 X128.558 Y80.376 E28.84083
G1 X128.91 Y80.482 E28.85428
G1 X132.146 Y81.639 E28.98001
G1 X132.486 Y81.78 E28.99348
G1 X135.592 Y83.249 E29.11918
G1 X135.915 Y83.421 E29.13257
G1 X138.862 Y85.186 E29.25825
G1 X139.169 Y85.392 E29.27178
G1 X141.928 Y87.44 E29.39749
G1 X142.209 Y87.67 E29.41077
G1 X144.734 Y89.956 E29.53539
G1 X144.993 Y90.215 E29.54879
G1 X147.319 Y92.777 E29.67539
G1 X147.553 Y93.061 E29.68885
G1 X149.601 Y95.819 E29.81454
G1 X149.807 Y96.128 E29.82812
G1 X151.573 Y99.077 E29.95388
G1 X151.744 Y99.398 E29.96719
G1 X153.214 Y102.503 E30.09288
G1 X153.355 Y102.842 E30.10631
G1 X154.514 Y106.078 E30.23207
G1 X154.621 Y106.43 E30.24553
G1 X155.452 Y109.746 E30.3706
G1 X155.523 Y110.106 E30.38402
G1 X156.029 Y113.514 E30.51007
G1 X156.065 Y113.879 E30.52349
G1 X156.234 Y117.31 E30.64917
G1 X156.235 Y117.677 E30.6626
G1 X156.067 Y121.107 E30.78824
G1 X156.031 Y121.472 E30.80166
G1 X155.526 Y124.88 E30.92771
G1 X155.454 Y125.239 E30.9411
G1 X154.624 Y128.558 E31.06627
G1 X154.518 Y128.91 E31.07972
G1 X153.362 Y132.144 E31.20537
G1 X153.221 Y132.484 E31.21884
G1 X151.751 Y135.592 E31.34463
G1 X151.579 Y135.915 E31.35801
G1 X149.814 Y138.862 E31.48369
G1 X149.608 Y139.169 E31.49722
G1 X147.56 Y141.928 E31.62293
G1 X147.33 Y142.209 E31.63622
G1 X145.026 Y144.754 E31.76182
G1 X144.765 Y145.015 E31.77532
G1 X142.221 Y147.321 E31.90094
G1 X141.938 Y147.553 E31.91433
G1 X139.178 Y149.602 E32.04009
G1 X138.871 Y149.808 E32.05362
G1 X135.924 Y151.573 E32.1793
G1 X135.602 Y151.744 E32.19264
G1 X132.497 Y153.214 E32.31832
G1 X132.158 Y153.355 E32.33176
G1 X128.922 Y154.514 E32.45751
G1 X128.569 Y154.621 E32.47101
G1 X125.25 Y155.452 E32.59619
G1 X124.891 Y155.523 E32.60957
G1 X121.484 Y156.029 E32.73559
G1 X121.119 Y156.065 E32.74901
G1 X117.689 Y156.234 E32.87465
G1 X117.322 Y156.235 E32.88808
G1 X113.893 Y156.067 E33.01368
G1 X113.528 Y156.031 E33.0271
G1 X110.12 Y155.526 E33.15315
G1 X109.761 Y155.454 E33.16655
G1 X106.442 Y154.624 E33.29171
G1 X106.09 Y154.518 E33.30516
G1 X102.854 Y153.361 E33.4309
G1 X102.514 Y153.22 E33.44436
G1 X99.408 Y151.751 E33.57007
G1 X99.085 Y151.579 E33.58346
G1 X96.138 Y149.814 E33.70913
G1 X95.831 Y149.608 E33.72266
G1 X93.071 Y147.559 E33.84842
G1 X92.79 Y147.329 E33.86171
G1 X90.244 Y145.024 E33.98736
G1 X89.978 Y144.757 E34.00115
G1 X87.626 Y142.152 E34.12956
G1 X87.398 Y141.874 E34.14271
G1 X85.397 Y139.177 E34.26558
G1 X85.192 Y138.871 E34.27905
G1 X83.427 Y135.924 E34.40473
G1 X83.256 Y135.602 E34.41807
G1 X81.785 Y132.495 E34.54384
G1 X81.644 Y132.156 E34.55727
G1 X80.486 Y128.922 E34.68295
G1 X80.379 Y128.569 E34.69644
G1 X79.548 Y125.25 E34.82162
G1 X79.477 Y124.891 E34.83501
G1 X78.971 Y121.484 E34.96102
G1 X78.935 Y121.119 E34.97444
G1 X78.766 Y117.69 E35.10005
G1 X78.765 Y117.323 E35.11348
G1 X78.933 Y113.893 E35.23912
G1 X78.969 Y113.528 E35.25254
G1 X79.474 Y110.117 E35.37869
