;FLAVOR:Marlin
;TIME:434
;Filament used: 0.192016m
;Layer height: 0.1
;Generated with Cura_SteamEngine 3.6.0
M140 S70
M105
M190 S70
M104 S215
M105
M109 S215
M82 ;absolute extrusion mode
G28 ; home all axes
M117 Purge extruder
G92 E0 ; reset extruder
G1 Z1.0 F3000 ; move z up little to prevent scratching of surface
G1 X0.1 Y20 Z0.3 F5000.0 ; move to start-line position G1 X0.1 Y200.0 Z0.3 F1500.0 E15 ; draw 1st line
G1 X0.4 Y200.0 Z0.3 F5000.0 ; move to side a little
G1 X0.4 Y20 Z0.3 F1500.0 E30 ; draw 2nd line
G92 E0 ; reset extruder
G1 Z1.0 F3000 ; move z up little to prevent scratching of surface
M117 All systems go!
G92 E0
G1 F6000 E-5
;LAYER_COUNT:14
;LAYER:0
M107
M204 S5000
M205 X30 Y30
G0 F7200 X108.229 Y98.42 Z0.2
M204 S500
M205 X20 Y20
;TYPE:SKIRT
G1 F6000 E0
G1 F900 X108.358 Y98.291 E0.00667
G1 X108.835 Y97.871 E0.02993
G1 X109.361 Y97.513 E0.05321
G1 X109.928 Y97.225 E0.07647
G1 X110.526 Y97.009 E0.09973
G1 X111.147 Y96.871 E0.12301
G1 X111.936 Y96.809 E0.15196
G1 X123.064 Y96.809 E0.5591
G1 X123.699 Y96.849 E0.58237
G1 X124.323 Y96.968 E0.60561
G1 X124.928 Y97.165 E0.62889
G1 X125.503 Y97.436 E0.65215
G1 X126.04 Y97.777 E0.67542
G1 X126.642 Y98.291 E0.70438
G1 X126.771 Y98.42 E0.71106
G1 X127.191 Y98.897 E0.73431
G1 X127.549 Y99.423 E0.75759
G1 X127.837 Y99.99 E0.78086
G1 X128.053 Y100.588 E0.80412
G1 X128.191 Y101.209 E0.82739
G1 X128.253 Y101.998 E0.85635
G1 X128.253 Y133.002 E1.99066
G1 X128.213 Y133.637 E2.01394
G1 X128.094 Y134.261 E2.03718
G1 X127.897 Y134.866 E2.06046
G1 X127.626 Y135.441 E2.08372
G1 X127.285 Y135.978 E2.10699
G1 X126.771 Y136.58 E2.13595
G1 X126.642 Y136.709 E2.14263
G1 X126.165 Y137.129 E2.16588
G1 X125.639 Y137.487 E2.18916
G1 X125.072 Y137.775 E2.21243
G1 X124.474 Y137.991 E2.23569
G1 X123.853 Y138.129 E2.25896
G1 X123.064 Y138.191 E2.28792
G1 X111.936 Y138.191 E2.69505
G1 X111.301 Y138.151 E2.71833
G1 X110.677 Y138.032 E2.74157
G1 X110.072 Y137.835 E2.76485
G1 X109.497 Y137.564 E2.7881
G1 X108.96 Y137.223 E2.81138
G1 X108.358 Y136.709 E2.84034
G1 X108.229 Y136.58 E2.84701
G1 X107.809 Y136.103 E2.87026
G1 X107.451 Y135.577 E2.89354
G1 X107.163 Y135.01 E2.91681
G1 X106.947 Y134.412 E2.94007
G1 X106.809 Y133.791 E2.96335
G1 X106.747 Y133.002 E2.9923
G1 X106.747 Y101.998 E4.12662
G1 X106.787 Y101.363 E4.1499
G1 X106.906 Y100.739 E4.17314
G1 X107.103 Y100.134 E4.19642
G1 X107.374 Y99.559 E4.21967
G1 X107.715 Y99.022 E4.24295
G1 X107.757 Y98.973 E4.24531
G0 F810 X108.229 Y98.42
M204 S5000
M205 X30 Y30
G0 F7200 X108.54 Y98.731
M204 S500
M205 X20 Y20
G1 F6000 E4.2719
G1 F900 X108.669 Y98.602 E4.27858
G1 X109.126 Y98.202 E4.3008
G1 X109.632 Y97.865 E4.32304
G1 X110.177 Y97.597 E4.34526
G1 X110.753 Y97.403 E4.3675
G1 X111.349 Y97.286 E4.38972
G1 X111.936 Y97.249 E4.41124
G1 X123.064 Y97.249 E4.81837
G1 X123.67 Y97.289 E4.84059
G1 X124.266 Y97.408 E4.86282
G1 X124.841 Y97.604 E4.88505
G1 X125.385 Y97.875 E4.90729
G1 X125.89 Y98.214 E4.92954
G1 X126.331 Y98.602 E4.95103
G1 X126.46 Y98.731 E4.9577
G1 X126.86 Y99.188 E4.97992
G1 X127.197 Y99.694 E5.00217
G1 X127.465 Y100.239 E5.02439
G1 X127.659 Y100.815 E5.04662
G1 X127.776 Y101.411 E5.06884
G1 X127.813 Y101.998 E5.09036
G1 X127.813 Y133.002 E6.22468
G1 X127.773 Y133.608 E6.2469
G1 X127.654 Y134.204 E6.26914
G1 X127.458 Y134.779 E6.29136
G1 X127.187 Y135.323 E6.3136
G1 X126.848 Y135.828 E6.33585
G1 X126.46 Y136.269 E6.35734
G1 X126.331 Y136.398 E6.36401
G1 X125.874 Y136.798 E6.38623
G1 X125.368 Y137.135 E6.40848
G1 X124.823 Y137.403 E6.4307
G1 X124.247 Y137.597 E6.45293
G1 X123.651 Y137.714 E6.47515
G1 X123.064 Y137.751 E6.49667
G1 X111.936 Y137.751 E6.9038
G1 X111.33 Y137.711 E6.92602
G1 X110.734 Y137.592 E6.94826
G1 X110.159 Y137.396 E6.97049
G1 X109.615 Y137.125 E6.99272
G1 X109.11 Y136.786 E7.01497
G1 X108.669 Y136.398 E7.03646
G1 X108.54 Y136.269 E7.04314
G1 X108.14 Y135.812 E7.06536
G1 X107.803 Y135.306 E7.0876
G1 X107.535 Y134.761 E7.10982
G1 X107.341 Y134.185 E7.13206
G1 X107.224 Y133.589 E7.15428
G1 X107.187 Y133.002 E7.1758
G1 X107.187 Y101.998 E8.31011
G1 X107.227 Y101.392 E8.33233
G1 X107.346 Y100.796 E8.35457
G1 X107.542 Y100.221 E8.3768
G1 X107.813 Y99.677 E8.39903
G1 X108.074 Y99.288 E8.41617
G0 F810 X108.152 Y99.172
G0 X108.54 Y98.731
M204 S5000
M205 X30 Y30
G0 F7200 X108.851 Y99.042
M204 S500
M205 X20 Y20
G1 F6000 E8.44277
G1 F900 X108.98 Y98.913 E8.44944
G1 X109.416 Y98.534 E8.47058
G1 X109.9 Y98.218 E8.49173
G1 X110.423 Y97.972 E8.51287
G1 X110.975 Y97.801 E8.53401
G1 X111.546 Y97.707 E8.55519
G1 X111.936 Y97.689 E8.56947
G1 X123.064 Y97.689 E8.9766
G1 X123.641 Y97.729 E8.99776
G1 X124.206 Y97.848 E9.01889
G1 X124.75 Y98.044 E9.04004
G1 X125.261 Y98.313 E9.06117
G1 X125.731 Y98.65 E9.08233
G1 X126.02 Y98.913 E9.09662
G1 X126.149 Y99.042 E9.1033
G1 X126.528 Y99.478 E9.12443
G1 X126.844 Y99.962 E9.14558
G1 X127.09 Y100.485 E9.16673
G1 X127.261 Y101.037 E9.18787
G1 X127.355 Y101.608 E9.20904
G1 X127.373 Y101.998 E9.22333
G1 X127.373 Y133.002 E10.35764
G1 X127.333 Y133.579 E10.3788
G1 X127.214 Y134.144 E10.39993
G1 X127.018 Y134.688 E10.42108
G1 X126.749 Y135.199 E10.44221
G1 X126.412 Y135.669 E10.46337
G1 X126.149 Y135.958 E10.47767
G1 X126.02 Y136.087 E10.48434
G1 X125.584 Y136.466 E10.50548
G1 X125.1 Y136.782 E10.52662
G1 X124.577 Y137.028 E10.54777
G1 X124.025 Y137.199 E10.56891
G1 X123.454 Y137.293 E10.59008
G1 X123.064 Y137.311 E10.60437
G1 X111.936 Y137.311 E11.0115
G1 X111.359 Y137.271 E11.03266
G1 X110.794 Y137.152 E11.05378
G1 X110.25 Y136.956 E11.07494
G1 X109.739 Y136.687 E11.09607
G1 X109.269 Y136.35 E11.11723
G1 X108.98 Y136.087 E11.13152
G1 X108.851 Y135.958 E11.1382
G1 X108.472 Y135.522 E11.15933
G1 X108.156 Y135.038 E11.18048
G1 X107.91 Y134.515 E11.20163
G1 X107.739 Y133.963 E11.22277
G1 X107.645 Y133.392 E11.24394
G1 X107.627 Y133.002 E11.25822
G1 X107.627 Y101.998 E12.39254
G1 X107.667 Y101.421 E12.4137
G1 X107.786 Y100.856 E12.43483
G1 X107.982 Y100.312 E12.45598
G1 X108.251 Y99.801 E12.47711
G1 X108.392 Y99.605 E12.48594
G0 F810 X108.588 Y99.331
G0 X108.851 Y99.042
M204 S5000
M205 X30 Y30
G0 F7200 X109.162 Y99.353
M204 S500
M205 X20 Y20
G1 F6000 E12.51254
G1 F900 X109.291 Y99.224 E12.51922
G1 X109.705 Y98.867 E12.53922
G1 X110.167 Y98.574 E12.55923
G1 X110.666 Y98.351 E12.57923
G1 X111.192 Y98.204 E12.59921
G1 X111.936 Y98.129 E12.62657
G1 X123.064 Y98.129 E13.0337
G1 X123.609 Y98.169 E13.05369
G1 X124.143 Y98.288 E13.07371
G1 X124.653 Y98.483 E13.09368
G1 X125.13 Y98.751 E13.1137
G1 X125.709 Y99.224 E13.14106
G1 X125.838 Y99.353 E13.14773
G1 X126.195 Y99.767 E13.16773
G1 X126.488 Y100.229 E13.18775
G1 X126.711 Y100.728 E13.20774
G1 X126.858 Y101.254 E13.22772
G1 X126.933 Y101.998 E13.25508
G1 X126.933 Y133.002 E14.3894
G1 X126.893 Y133.547 E14.40939
G1 X126.774 Y134.081 E14.42941
G1 X126.579 Y134.591 E14.44938
G1 X126.311 Y135.068 E14.4694
G1 X125.838 Y135.647 E14.49676
G1 X125.709 Y135.776 E14.50343
G1 X125.295 Y136.133 E14.52343
G1 X124.833 Y136.426 E14.54345
G1 X124.334 Y136.649 E14.56344
G1 X123.808 Y136.796 E14.58342
G1 X123.064 Y136.871 E14.61078
G1 X111.936 Y136.871 E15.01791
G1 X111.391 Y136.831 E15.03791
G1 X110.857 Y136.712 E15.05792
G1 X110.347 Y136.517 E15.0779
G1 X109.87 Y136.249 E15.09792
G1 X109.291 Y135.776 E15.12527
G1 X109.162 Y135.647 E15.13194
G1 X108.805 Y135.233 E15.15194
G1 X108.512 Y134.771 E15.17196
G1 X108.289 Y134.272 E15.19196
G1 X108.142 Y133.746 E15.21194
G1 X108.067 Y133.002 E15.2393
G1 X108.067 Y101.998 E16.37361
G1 X108.107 Y101.453 E16.39361
G1 X108.226 Y100.919 E16.41362
G1 X108.421 Y100.409 E16.4336
G1 X108.689 Y99.932 E16.45362
G1 X108.702 Y99.916 E16.45437
G0 F810 X109.162 Y99.353
M204 S5000
M205 X30 Y30
G0 F7200 X109.474 Y99.665
M204 S500
M205 X20 Y20
G1 F6000 E16.48097
G1 F900 X109.603 Y99.536 E16.48764
G1 X109.993 Y99.202 E16.50643
G1 X110.43 Y98.933 E16.5252
G1 X110.904 Y98.735 E16.544
G1 X111.402 Y98.612 E16.56277
G1 X111.936 Y98.569 E16.58237
G1 X123.064 Y98.569 E16.9895
G1 X123.576 Y98.609 E17.00829
G1 X124.075 Y98.728 E17.02705
G1 X124.55 Y98.923 E17.04584
G1 X124.989 Y99.189 E17.06462
G1 X125.397 Y99.536 E17.08421
G1 X125.526 Y99.665 E17.09089
G1 X125.86 Y100.055 E17.10968
G1 X126.129 Y100.492 E17.12845
G1 X126.327 Y100.966 E17.14724
G1 X126.45 Y101.464 E17.16601
G1 X126.493 Y101.998 E17.18561
G1 X126.493 Y133.002 E18.31993
G1 X126.453 Y133.514 E18.33872
G1 X126.334 Y134.013 E18.35749
G1 X126.139 Y134.488 E18.37627
G1 X125.873 Y134.927 E18.39505
G1 X125.526 Y135.335 E18.41465
G1 X125.397 Y135.464 E18.42132
G1 X125.007 Y135.798 E18.44011
G1 X124.57 Y136.067 E18.45888
G1 X124.096 Y136.265 E18.47768
G1 X123.598 Y136.388 E18.49644
G1 X123.064 Y136.431 E18.51604
G1 X111.936 Y136.431 E18.92317
G1 X111.424 Y136.391 E18.94196
G1 X110.925 Y136.272 E18.96073
G1 X110.45 Y136.077 E18.97952
G1 X110.011 Y135.811 E18.9983
G1 X109.603 Y135.464 E19.01789
G1 X109.474 Y135.335 E19.02457
G1 X109.14 Y134.945 E19.04335
G1 X108.871 Y134.508 E19.06213
G1 X108.673 Y134.034 E19.08092
G1 X108.55 Y133.536 E19.09969
G1 X108.507 Y133.002 E19.11929
G1 X108.507 Y101.998 E20.25361
G1 X108.547 Y101.486 E20.2724
G1 X108.666 Y100.987 E20.29117
G1 X108.861 Y100.512 E20.30995
G1 X109.028 Y100.237 E20.32172
G0 F810 X109.127 Y100.073
G0 X109.474 Y99.665
M204 S5000
M205 X30 Y30
G0 F7200 X109.785 Y99.976
M204 S500
M205 X20 Y20
G1 F6000 E20.34832
G1 F900 X109.914 Y99.847 E20.35499
G1 X110.279 Y99.538 E20.37249
G1 X110.69 Y99.295 E20.38996
G1 X111.136 Y99.123 E20.40745
G1 X111.604 Y99.028 E20.42492
G1 X111.936 Y99.009 E20.43709
G1 X123.064 Y99.009 E20.84422
G1 X123.54 Y99.049 E20.86169
G1 X124.003 Y99.168 E20.87918
G1 X124.44 Y99.362 E20.89668
G1 X124.838 Y99.626 E20.91415
G1 X125.086 Y99.847 E20.9263
G1 X125.215 Y99.976 E20.93298
G1 X125.524 Y100.341 E20.95047
G1 X125.767 Y100.752 E20.96794
G1 X125.939 Y101.198 E20.98543
G1 X126.034 Y101.666 E21.0029
G1 X126.053 Y101.998 E21.01507
G1 X126.053 Y133.002 E22.14939
G1 X126.013 Y133.478 E22.16686
G1 X125.894 Y133.941 E22.18435
G1 X125.7 Y134.378 E22.20185
G1 X125.436 Y134.776 E22.21932
G1 X125.215 Y135.024 E22.23147
G1 X125.086 Y135.153 E22.23815
G1 X124.721 Y135.462 E22.25564
G1 X124.31 Y135.705 E22.27311
G1 X123.864 Y135.877 E22.2906
G1 X123.396 Y135.972 E22.30807
G1 X123.064 Y135.991 E22.32024
G1 X111.936 Y135.991 E22.72737
G1 X111.46 Y135.951 E22.74485
G1 X110.997 Y135.832 E22.76234
G1 X110.56 Y135.638 E22.77983
G1 X110.162 Y135.374 E22.7973
G1 X109.914 Y135.153 E22.80946
G1 X109.785 Y135.024 E22.81613
G1 X109.476 Y134.659 E22.83363
G1 X109.233 Y134.248 E22.8511
G1 X109.061 Y133.802 E22.86858
G1 X108.966 Y133.334 E22.88606
G1 X108.947 Y133.002 E22.89822
G1 X108.947 Y101.998 E24.03254
G1 X108.987 Y101.522 E24.05002
G1 X109.106 Y101.059 E24.06751
G1 X109.3 Y100.622 E24.085
G1 X109.346 Y100.553 E24.08803
G0 F810 X109.564 Y100.224
G0 X109.785 Y99.976
M204 S5000
M205 X30 Y30
G0 F7200 X110.096 Y100.287
M204 S500
M205 X20 Y20
G1 F6000 E24.11463
G1 F900 X110.225 Y100.158 E24.1213
G1 X110.563 Y99.877 E24.13739
G1 X110.946 Y99.661 E24.15347
G1 X111.361 Y99.518 E24.16953
G1 X111.936 Y99.449 E24.19072
G1 X123.064 Y99.449 E24.59785
G1 X123.502 Y99.489 E24.61394
G1 X123.925 Y99.607 E24.63001
G1 X124.32 Y99.8 E24.64609
G1 X124.775 Y100.158 E24.66728
G1 X124.904 Y100.287 E24.67395
G1 X125.185 Y100.625 E24.69003
G1 X125.401 Y101.008 E24.70612
G1 X125.544 Y101.423 E24.72218
G1 X125.613 Y101.998 E24.74337
G1 X125.613 Y133.002 E25.87768
G1 X125.573 Y133.44 E25.89377
G1 X125.455 Y133.863 E25.90984
G1 X125.262 Y134.258 E25.92593
G1 X124.904 Y134.713 E25.94711
G1 X124.775 Y134.842 E25.95378
G1 X124.437 Y135.123 E25.96986
G1 X124.054 Y135.339 E25.98595
G1 X123.639 Y135.482 E26.00201
G1 X123.064 Y135.551 E26.0232
G1 X111.936 Y135.551 E26.43033
G1 X111.498 Y135.511 E26.44642
G1 X111.075 Y135.393 E26.46249
G1 X110.68 Y135.2 E26.47857
G1 X110.225 Y134.842 E26.49975
G1 X110.096 Y134.713 E26.50643
G1 X109.815 Y134.375 E26.52251
G1 X109.599 Y133.992 E26.5386
G1 X109.456 Y133.577 E26.55466
G1 X109.387 Y133.002 E26.57584
G1 X109.387 Y101.998 E27.71016
G1 X109.427 Y101.56 E27.72625
G1 X109.545 Y101.137 E27.74232
G1 X109.673 Y100.876 E27.75295
G0 F810 X109.738 Y100.742
G0 X110.096 Y100.287
M204 S5000
M205 X30 Y30
G0 F7200 X110.407 Y100.598
M204 S500
M205 X20 Y20
G1 F6000 E27.77955
G1 F900 X110.536 Y100.469 E27.78623
G1 X110.844 Y100.217 E27.80079
G1 X111.196 Y100.033 E27.81532
G1 X111.577 Y99.922 E27.82984
G1 X111.936 Y99.889 E27.84303
G1 X123.064 Y99.889 E28.25016
G1 X123.459 Y99.929 E28.26468
G1 X123.839 Y100.047 E28.27924
G1 X124.187 Y100.239 E28.29378
G1 X124.464 Y100.469 E28.30695
G1 X124.593 Y100.598 E28.31363
G1 X124.845 Y100.906 E28.32819
G1 X125.029 Y101.258 E28.34272
G1 X125.14 Y101.639 E28.35724
G1 X125.173 Y101.998 E28.37043
G1 X125.173 Y133.002 E29.50475
G1 X125.133 Y133.397 E29.51927
G1 X125.015 Y133.777 E29.53383
G1 X124.823 Y134.125 E29.54837
G1 X124.593 Y134.402 E29.56154
G1 X124.464 Y134.531 E29.56822
G1 X124.156 Y134.783 E29.58278
G1 X123.804 Y134.967 E29.59731
G1 X123.423 Y135.078 E29.61183
G1 X123.064 Y135.111 E29.62502
G1 X111.936 Y135.111 E30.03215
G1 X111.541 Y135.071 E30.04667
G1 X111.161 Y134.953 E30.06123
G1 X110.813 Y134.761 E30.07577
G1 X110.536 Y134.531 E30.08894
G1 X110.407 Y134.402 E30.09562
G1 X110.155 Y134.094 E30.11018
G1 X109.971 Y133.742 E30.12471
G1 X109.86 Y133.361 E30.13923
G1 X109.827 Y133.002 E30.15242
G1 X109.827 Y101.998 E31.28674
G1 X109.867 Y101.603 E31.30126
G1 X109.985 Y101.223 E31.31582
G1 X110 Y101.196 E31.31695
G0 F810 X110.177 Y100.875
G0 X110.407 Y100.598
M204 S5000
M205 X30 Y30
G0 F7200 X110.718 Y100.909
M204 S500
M205 X20 Y20
G1 F6000 E31.34355
G1 F900 X110.847 Y100.78 E31.35022
G1 X111.121 Y100.562 E31.36303
G1 X111.438 Y100.412 E31.37586
G1 X111.936 Y100.329 E31.39433
G1 X123.064 Y100.329 E31.80146
G1 X123.412 Y100.369 E31.81428
G1 X123.742 Y100.486 E31.82709
G1 X124.153 Y100.78 E31.84558
G1 X124.282 Y100.909 E31.85225
G1 X124.5 Y101.183 E31.86506
G1 X124.65 Y101.5 E31.87789
G1 X124.733 Y101.998 E31.89637
G1 X124.733 Y133.002 E33.03068
G1 X124.693 Y133.35 E33.0435
G1 X124.576 Y133.68 E33.05631
G1 X124.282 Y134.091 E33.0748
G1 X124.153 Y134.22 E33.08147
G1 X123.879 Y134.438 E33.09428
G1 X123.562 Y134.588 E33.10711
G1 X123.064 Y134.671 E33.12558
G1 X111.936 Y134.671 E33.53271
G1 X111.588 Y134.631 E33.54553
G1 X111.258 Y134.514 E33.55834
G1 X110.847 Y134.22 E33.57683
G1 X110.718 Y134.091 E33.5835
G1 X110.5 Y133.817 E33.59631
G1 X110.35 Y133.5 E33.60914
G1 X110.267 Y133.002 E33.62761
G1 X110.267 Y101.998 E34.76193
G1 X110.307 Y101.65 E34.77475
G1 X110.35 Y101.529 E34.77944
G0 F810 X110.424 Y101.32
G0 X110.718 Y100.909
M204 S5000
M205 X30 Y30
G0 F7200 X111.029 Y101.22
M204 S500
M205 X20 Y20
G1 F6000 E34.80604
G1 F900 X111.158 Y101.091 E34.81272
G1 X111.394 Y100.912 E34.82355
G1 X111.669 Y100.802 E34.83439
G1 X111.936 Y100.769 E34.84423
G1 X123.064 Y100.769 E35.25136
G1 X123.357 Y100.809 E35.26218
G1 X123.629 Y100.925 E35.273
G1 X123.842 Y101.091 E35.28288
G1 X123.971 Y101.22 E35.28956
G1 X124.15 Y101.456 E35.30039
G1 X124.26 Y101.731 E35.31123
G1 X124.293 Y101.998 E35.32107
G1 X124.293 Y133.002 E36.45539
G1 X124.253 Y133.295 E36.46621
G1 X124.137 Y133.567 E36.47703
G1 X123.971 Y133.78 E36.48691
G1 X123.842 Y133.909 E36.49358
G1 X123.606 Y134.088 E36.50442
G1 X123.331 Y134.198 E36.51526
G1 X123.064 Y134.231 E36.5251
G1 X111.936 Y134.231 E36.93223
G1 X111.643 Y134.191 E36.94305
G1 X111.371 Y134.075 E36.95387
G1 X111.158 Y133.909 E36.96375
G1 X111.029 Y133.78 E36.97042
G1 X110.85 Y133.544 E36.98126
G1 X110.74 Y133.269 E36.99209
G1 X110.707 Y133.002 E37.00194
G1 X110.707 Y101.998 E38.13625
G1 X110.726 Y101.865 E38.14117
G0 F810 X110.747 Y101.705
G0 X110.863 Y101.433
G0 X111.029 Y101.22
M204 S5000
M205 X30 Y30
G0 F7200 X111.34 Y101.531
M204 S500
M205 X20 Y20
G1 F6000 E38.16777
G1 F900 X111.469 Y101.402 E38.17444
G1 X111.657 Y101.271 E38.18283
G1 X111.936 Y101.209 E38.19328
G1 X123.064 Y101.209 E38.60041
G1 X123.289 Y101.249 E38.60877
G1 X123.531 Y101.402 E38.61925
G1 X123.66 Y101.531 E38.62592
G1 X123.791 Y101.719 E38.63431
G1 X123.853 Y101.998 E38.64476
G1 X123.853 Y133.002 E39.77908
