;FLAVOR:Marlin
;TIME:10668
;Filament used: 13.9669m
;Layer height: 0.2
;Generated with Cura_SteamEngine 3.6.0
M140 S70
M105
M190 S70
M104 S215
M105
M109 S215
M82 ;absolute extrusion mode
G28 ; home all axes
M117 Purge extruder
G92 E0 ; reset extruder
G1 Z1.0 F3000 ; move z up little to prevent scratching of surface
G1 X0.1 Y20 Z0.3 F5000.0 ; move to start-line position G1 X0.1 Y200.0 Z0.3 F1500.0 E15 ; draw 1st line
G1 X0.4 Y200.0 Z0.3 F5000.0 ; move to side a little
G1 X0.4 Y20 Z0.3 F1500.0 E30 ; draw 2nd line
G92 E0 ; reset extruder
G1 Z1.0 F3000 ; move z up little to prevent scratching of surface
M117 All systems go!
G92 E0
G1 F6000 E-5
;LAYER_COUNT:96
;LAYER:0
M107
M204 S5000
M205 X30 Y30
G0 F7200 X85.536 Y85.797 Z0.2
M204 S500
M205 X20 Y20
;TYPE:SKIRT
G1 F6000 E0
G1 F900 X86.007 Y85.37 E0.02326
G1 X86.647 Y84.934 E0.05159
G1 X87.629 Y84.371 E0.09301
G1 X88.2 Y84.09 E0.11629
G1 X88.801 Y83.883 E0.13954
G1 X89.423 Y83.753 E0.16279
G1 X90.147 Y83.701 E0.18935
G1 X144.898 Y83.715 E2.19248
G1 X145.533 Y83.755 E2.21576
G1 X146.158 Y83.875 E2.23904
G1 X146.762 Y84.071 E2.26227
G1 X147.545 Y84.463 E2.29431
G1 X148.532 Y85.069 E2.33668
G1 X149.051 Y85.435 E2.35992
G1 X149.521 Y85.863 E2.38317
G1 X149.934 Y86.348 E2.40648
G1 X150.282 Y86.879 E2.42971
G1 X150.614 Y87.583 E2.45819
G1 X150.969 Y88.517 E2.49474
G1 X151.157 Y89.125 E2.51803
G1 X151.267 Y89.751 E2.54128
G1 X151.299 Y90.316 E2.56198
G1 X151.289 Y144.847 E4.55706
G1 X151.249 Y145.482 E4.58034
G1 X151.13 Y146.106 E4.60358
G1 X150.808 Y147 E4.63835
G1 X150.418 Y147.829 E4.67187
G1 X150.111 Y148.386 E4.69513
G1 X149.737 Y148.901 E4.71842
G1 X149.302 Y149.364 E4.74166
G1 X148.812 Y149.769 E4.76492
G1 X148.33 Y150.079 E4.78589
G1 X147.333 Y150.643 E4.8278
G1 X146.761 Y150.921 E4.85106
G1 X146.159 Y151.125 E4.87432
G1 X145.536 Y151.251 E4.89757
G1 X144.841 Y151.299 E4.92306
G1 X90.091 Y151.284 E6.92615
G1 X89.456 Y151.244 E6.94943
G1 X88.831 Y151.124 E6.97272
G1 X88.227 Y150.928 E6.99595
G1 X87.439 Y150.533 E7.0282
G1 X86.463 Y149.932 E7.07013
G1 X85.943 Y149.565 E7.09342
G1 X85.474 Y149.136 E7.11667
G1 X85.062 Y148.651 E7.13996
G1 X84.714 Y148.119 E7.16321
G1 X84.471 Y147.629 E7.18322
G1 X84.116 Y146.807 E7.21598
G1 X83.901 Y146.209 E7.23923
G1 X83.763 Y145.588 E7.26251
G1 X83.701 Y144.8 E7.29143
G1 X83.709 Y90.273 E9.28636
G1 X83.749 Y89.639 E9.3096
G1 X83.868 Y89.014 E9.33288
G1 X84.097 Y88.331 E9.35923
G1 X84.492 Y87.381 E9.39687
G1 X84.772 Y86.811 E9.42011
G1 X85.072 Y86.356 E9.44005
G0 F810 X85.122 Y86.28
G0 X85.536 Y85.797
M204 S5000
M205 X30 Y30
G0 F7200 X85.909 Y86.046
M204 S500
M205 X20 Y20
G1 F6000 E9.46665
G1 F900 X86.367 Y85.647 E9.48887
G1 X86.866 Y85.316 E9.51078
G1 X87.848 Y84.753 E9.55219
G1 X88.394 Y84.486 E9.57443
G1 X88.97 Y84.293 E9.59665
G1 X89.567 Y84.177 E9.6189
G1 X90.147 Y84.141 E9.64016
G1 X144.898 Y84.155 E11.64329
G1 X145.504 Y84.195 E11.66551
G1 X146.1 Y84.314 E11.68775
G1 X146.675 Y84.511 E11.70999
G1 X147.314 Y84.838 E11.73625
G1 X148.301 Y85.444 E11.77862
G1 X148.797 Y85.795 E11.80085
G1 X149.242 Y86.208 E11.82306
G1 X149.63 Y86.677 E11.84533
G1 X149.952 Y87.192 E11.86756
G1 X150.203 Y87.74 E11.88961
G1 X150.558 Y88.674 E11.92616
G1 X150.736 Y89.255 E11.9484
G1 X150.836 Y89.854 E11.97061
G1 X150.859 Y90.316 E11.98754
G1 X150.849 Y144.847 E13.98262
G1 X150.809 Y145.453 E14.00484
G1 X150.69 Y146.049 E14.02707
G1 X150.409 Y146.813 E14.05685
G1 X150.019 Y147.642 E14.09037
G1 X149.725 Y148.173 E14.11258
G1 X149.364 Y148.662 E14.13482
G1 X148.941 Y149.098 E14.15704
G1 X148.465 Y149.476 E14.17928
G1 X148.114 Y149.696 E14.19444
G1 X147.117 Y150.26 E14.23634
G1 X146.569 Y150.524 E14.2586
G1 X145.992 Y150.714 E14.28082
G1 X145.395 Y150.826 E14.30305
G1 X144.841 Y150.859 E14.32335
G1 X90.091 Y150.844 E16.32644
G1 X89.484 Y150.804 E16.3487
G1 X88.889 Y150.685 E16.3709
G1 X88.314 Y150.488 E16.39314
G1 X87.67 Y150.158 E16.41961
G1 X86.694 Y149.557 E16.46155
G1 X86.198 Y149.205 E16.4838
G1 X85.753 Y148.791 E16.50604
G1 X85.367 Y148.322 E16.52826
G1 X85.045 Y147.807 E16.55048
G1 X84.875 Y147.455 E16.56478
G1 X84.52 Y146.633 E16.59754
G1 X84.316 Y146.06 E16.61979
G1 X84.189 Y145.466 E16.64202
G1 X84.141 Y144.8 E16.66645
G1 X84.149 Y90.273 E18.66138
G1 X84.189 Y89.667 E18.6836
G1 X84.308 Y89.071 E18.70584
G1 X84.503 Y88.5 E18.72791
G1 X84.898 Y87.55 E18.76555
G1 X85.168 Y87.006 E18.78777
G1 X85.441 Y86.6 E18.80567
G0 F810 X85.507 Y86.501
G0 X85.909 Y86.046
M204 S5000
M205 X30 Y30
G0 F7200 X86.279 Y86.299
M204 S500
M205 X20 Y20
G1 F6000 E18.83227
G1 F900 X86.724 Y85.93 E18.85342
G1 X87.085 Y85.698 E18.86912
G1 X88.067 Y85.135 E18.91053
G1 X88.587 Y84.883 E18.93167
G1 X89.137 Y84.705 E18.95282
G1 X89.706 Y84.604 E18.97397
G1 X90.147 Y84.581 E18.99012
G1 X144.898 Y84.595 E20.99325
G1 X145.475 Y84.635 E21.01441
G1 X146.04 Y84.754 E21.03554
G1 X146.584 Y84.95 E21.05669
G1 X147.084 Y85.213 E21.07736
G1 X148.071 Y85.819 E21.11974
G1 X148.542 Y86.155 E21.1409
G1 X148.961 Y86.552 E21.16202
G1 X149.322 Y87.003 E21.18316
G1 X149.617 Y87.5 E21.2043
G1 X149.791 Y87.896 E21.22013
G1 X150.146 Y88.83 E21.25668
G1 X150.314 Y89.383 E21.27783
G1 X150.403 Y89.954 E21.29897
G1 X150.419 Y90.316 E21.31223
G1 X150.409 Y144.847 E23.30731
G1 X150.369 Y145.423 E23.32843
G1 X150.25 Y145.989 E23.34959
G1 X150.011 Y146.625 E23.37445
G1 X149.621 Y147.454 E23.40797
G1 X149.34 Y147.959 E23.42911
G1 X148.991 Y148.42 E23.45027
G1 X148.583 Y148.829 E23.4714
G1 X147.897 Y149.313 E23.50212
G1 X146.9 Y149.877 E23.54403
G1 X146.379 Y150.126 E23.56515
G1 X145.828 Y150.301 E23.5863
G1 X145.258 Y150.398 E23.60746
G1 X144.841 Y150.419 E23.62273
G1 X90.091 Y150.404 E25.62583
G1 X89.514 Y150.364 E25.64699
G1 X88.949 Y150.245 E25.66811
G1 X88.405 Y150.049 E25.68927
G1 X87.9 Y149.783 E25.71015
G1 X86.924 Y149.182 E25.75208
G1 X86.454 Y148.846 E25.77322
G1 X86.035 Y148.448 E25.79436
G1 X85.675 Y147.996 E25.81551
G1 X85.279 Y147.28 E25.84544
G1 X84.924 Y146.458 E25.8782
G1 X84.732 Y145.913 E25.89934
G1 X84.617 Y145.347 E25.92047
G1 X84.581 Y144.8 E25.94053
G1 X84.589 Y90.273 E27.93546
G1 X84.629 Y89.697 E27.95658
G1 X84.748 Y89.131 E27.97774
G1 X84.909 Y88.669 E27.99564
G1 X85.304 Y87.719 E28.03329
G1 X85.563 Y87.202 E28.05444
G1 X85.805 Y86.849 E28.0701
G0 F810 X85.89 Y86.726
G0 X86.279 Y86.299
M204 S5000
M205 X30 Y30
G0 F7200 X86.648 Y86.557
M204 S500
M205 X20 Y20
G1 F6000 E28.0967
G1 F900 X87.304 Y86.079 E28.12639
G1 X88.286 Y85.516 E28.16781
G1 X88.779 Y85.28 E28.18781
G1 X89.301 Y85.118 E28.2078
G1 X89.841 Y85.033 E28.2278
G1 X90.147 Y85.021 E28.23901
G1 X144.898 Y85.035 E30.24213
G1 X145.443 Y85.075 E30.26213
G1 X145.977 Y85.194 E30.28214
G1 X146.487 Y85.39 E30.30213
G1 X146.854 Y85.588 E30.31739
G1 X147.841 Y86.194 E30.35976
G1 X148.285 Y86.513 E30.37976
G1 X148.677 Y86.894 E30.39976
G1 X149.01 Y87.327 E30.41975
G1 X149.38 Y88.052 E30.44953
G1 X149.735 Y88.986 E30.48609
G1 X149.891 Y89.51 E30.50609
G1 X149.979 Y90.316 E30.53575
G1 X149.969 Y144.847 E32.53083
G1 X149.929 Y145.392 E32.55082
G1 X149.81 Y145.925 E32.5708
G1 X149.613 Y146.438 E32.59091
G1 X149.223 Y147.267 E32.62443
G1 X148.955 Y147.743 E32.64441
G1 X148.62 Y148.175 E32.66441
G1 X148.226 Y148.554 E32.68442
G1 X147.68 Y148.93 E32.70867
G1 X146.683 Y149.494 E32.75058
G1 X146.189 Y149.728 E32.77058
G1 X145.666 Y149.887 E32.79058
G1 X145.126 Y149.968 E32.81055
G1 X144.841 Y149.979 E32.82099
G1 X90.091 Y149.964 E34.82408
G1 X89.546 Y149.924 E34.84407
G1 X89.012 Y149.805 E34.86409
G1 X88.502 Y149.609 E34.88408
G1 X88.131 Y149.409 E34.8995
G1 X87.155 Y148.808 E34.94144
G1 X86.712 Y148.488 E34.96143
G1 X86.32 Y148.107 E34.98143
G1 X85.988 Y147.673 E35.00142
G1 X85.683 Y147.106 E35.02498
G1 X85.328 Y146.284 E35.05773
G1 X85.148 Y145.768 E35.07773
G1 X85.046 Y145.231 E35.09773
G1 X85.021 Y144.8 E35.11352
G1 X85.029 Y90.273 E37.10845
G1 X85.069 Y89.728 E37.12845
G1 X85.188 Y89.195 E37.14843
G1 X85.316 Y88.838 E37.1623
G1 X85.711 Y87.888 E37.19994
G1 X85.957 Y87.4 E37.21994
G1 X86.168 Y87.101 E37.23333
G0 F810 X86.272 Y86.953
G0 X86.648 Y86.557
M204 S5000
M205 X30 Y30
G0 F7200 X86.652 Y87.184
M204 S500
M205 X20 Y20
G1 F6000 E37.25993
G1 F900 X87.014 Y86.82 E37.27871
G1 X87.523 Y86.461 E37.3015
G1 X88.505 Y85.898 E37.34291
G1 X88.969 Y85.678 E37.3617
G1 X89.461 Y85.533 E37.38046
G1 X90.147 Y85.461 E37.4057
G1 X144.898 Y85.475 E39.40883
G1 X145.41 Y85.515 E39.42762
G1 X145.909 Y85.634 E39.44638
G1 X146.384 Y85.829 E39.46517
G1 X146.624 Y85.963 E39.47523
G1 X147.611 Y86.569 E39.5176
G1 X148.026 Y86.871 E39.53638
G1 X148.389 Y87.233 E39.55513
G1 X148.692 Y87.648 E39.57393
G1 X148.969 Y88.209 E39.59682
G1 X149.324 Y89.143 E39.63338
G1 X149.468 Y89.635 E39.65214
G1 X149.539 Y90.316 E39.67719
G1 X149.529 Y144.847 E41.67227
G1 X149.489 Y145.358 E41.69102
G1 X149.37 Y145.858 E41.70982
G1 X149.215 Y146.251 E41.72528
G1 X148.825 Y147.08 E41.7588
G1 X148.571 Y147.526 E41.77758
G1 X148.251 Y147.927 E41.79635
G1 X147.872 Y148.274 E41.81515
G1 X147.464 Y148.547 E41.83311
G1 X146.467 Y149.111 E41.87502
G1 X146.002 Y149.329 E41.8938
G1 X145.508 Y149.471 E41.91261
G1 X144.841 Y149.539 E41.93714
G1 X90.091 Y149.524 E43.94023
G1 X89.579 Y149.484 E43.95902
G1 X89.08 Y149.365 E43.97779
G1 X88.605 Y149.17 E43.99657
G1 X88.362 Y149.034 E44.00676
G1 X87.386 Y148.433 E44.0487
G1 X86.971 Y148.131 E44.06748
G1 X86.608 Y147.767 E44.08628
G1 X86.305 Y147.352 E44.10508
G1 X86.086 Y146.931 E44.12244
G1 X85.731 Y146.109 E44.1552
G1 X85.565 Y145.624 E44.17396
G1 X85.476 Y145.118 E44.19276
G1 X85.461 Y144.801 E44.20437
G1 X85.469 Y90.274 E46.1993
G1 X85.509 Y89.762 E46.21809
G1 X85.628 Y89.262 E46.23689
G1 X85.722 Y89.007 E46.24684
G1 X86.117 Y88.057 E46.28448
G1 X86.254 Y87.79 E46.29546
G0 F810 X86.35 Y87.6
G0 X86.652 Y87.184
M204 S5000
M205 X30 Y30
G0 F7200 X87.03 Y87.42
M204 S500
M205 X20 Y20
G1 F6000 E46.32205
G1 F900 X87.377 Y87.091 E46.33955
G1 X87.742 Y86.843 E46.35569
G1 X88.724 Y86.28 E46.39711
G1 X89.157 Y86.078 E46.41459
G1 X89.617 Y85.95 E46.43206
G1 X90.147 Y85.901 E46.45153
G1 X144.898 Y85.915 E48.45466
G1 X145.374 Y85.955 E48.47213
G1 X145.837 Y86.074 E48.48962
G1 X146.393 Y86.338 E48.51214
G1 X147.38 Y86.944 E48.55452
G1 X147.765 Y87.227 E48.572
G1 X148.098 Y87.57 E48.58949
G1 X148.368 Y87.964 E48.60696
G1 X148.557 Y88.365 E48.62318
G1 X148.912 Y89.299 E48.65974
G1 X149.044 Y89.758 E48.67721
G1 X149.099 Y90.316 E48.69773
G1 X149.089 Y144.847 E50.69281
G1 X149.049 Y145.323 E50.71028
G1 X148.93 Y145.786 E50.72777
G1 X148.817 Y146.063 E50.73872
G1 X148.427 Y146.892 E50.77224
G1 X148.188 Y147.306 E50.78973
G1 X147.884 Y147.675 E50.80722
G1 X147.522 Y147.987 E50.8247
G1 X147.247 Y148.164 E50.83667
G1 X146.25 Y148.728 E50.87858
G1 X145.816 Y148.928 E50.89606
G1 X145.355 Y149.053 E50.91353
G1 X144.841 Y149.099 E50.93241
G1 X90.091 Y149.084 E52.93551
G1 X89.615 Y149.044 E52.95298
G1 X89.152 Y148.925 E52.97047
G1 X88.592 Y148.659 E52.99315
G1 X87.616 Y148.058 E53.03509
G1 X87.232 Y147.775 E53.05254
G1 X86.9 Y147.431 E53.07003
G1 X86.63 Y147.037 E53.08751
G1 X86.49 Y146.757 E53.09896
G1 X86.135 Y145.935 E53.13172
G1 X85.983 Y145.482 E53.1492
G1 X85.901 Y144.801 E53.1743
G1 X85.909 Y90.274 E55.16923
G1 X85.949 Y89.797 E55.18674
G1 X86.128 Y89.176 E55.21039
G1 X86.523 Y88.226 E55.24803
G1 X86.628 Y88.024 E55.25636
G0 F810 X86.743 Y87.802
G0 X87.03 Y87.42
M204 S5000
M205 X30 Y30
G0 F7200 X87.406 Y87.661
M204 S500
M205 X20 Y20
G1 F6000 E55.28296
G1 F900 X87.736 Y87.37 E55.29905
G1 X87.96 Y87.225 E55.30882
G1 X88.942 Y86.662 E55.35023
G1 X89.342 Y86.478 E55.36634
G1 X89.768 Y86.371 E55.38241
G1 X90.147 Y86.341 E55.39632
G1 X144.898 Y86.355 E57.39945
G1 X145.335 Y86.395 E57.4155
G1 X145.759 Y86.514 E57.43161
G1 X146.163 Y86.713 E57.44809
G1 X147.15 Y87.319 E57.49046
G1 X147.502 Y87.582 E57.50654
G1 X147.801 Y87.904 E57.52262
G1 X148.037 Y88.275 E57.5387
G1 X148.146 Y88.521 E57.54855
G1 X148.501 Y89.455 E57.5851
G1 X148.619 Y89.879 E57.6012
G1 X148.659 Y90.315 E57.61722
G1 X148.649 Y144.846 E59.6123
G1 X148.609 Y145.284 E59.62839
G1 X148.419 Y145.876 E59.65114
G1 X148.029 Y146.705 E59.68466
G1 X147.806 Y147.084 E59.70075
G1 X147.519 Y147.417 E59.71683
G1 X147.031 Y147.781 E59.73911
G1 X146.034 Y148.345 E59.78101
G1 X145.633 Y148.526 E59.79711
G1 X145.206 Y148.631 E59.8132
G1 X144.841 Y148.659 E59.82659
G1 X90.091 Y148.644 E61.82968
G1 X89.654 Y148.604 E61.84574
G1 X89.23 Y148.485 E61.86185
G1 X88.823 Y148.285 E61.87844
G1 X87.847 Y147.684 E61.92038
G1 X87.495 Y147.42 E61.93647
G1 X87.197 Y147.097 E61.95255
G1 X86.894 Y146.582 E61.97441
G1 X86.539 Y145.76 E62.00717
G1 X86.402 Y145.343 E62.02323
G1 X86.341 Y144.801 E62.04319
G1 X86.349 Y90.274 E64.03812
G1 X86.389 Y89.836 E64.05421
G1 X86.534 Y89.345 E64.07294
G1 X86.929 Y88.395 E64.11058
G1 X87 Y88.261 E64.11613
G0 F810 X87.134 Y88.006
G0 X87.406 Y87.661
M204 S5000
M205 X30 Y30
G0 F7200 X87.779 Y87.909
M204 S500
M205 X20 Y20
G1 F6000 E64.14273
G1 F900 X88.179 Y87.606 E64.16109
G1 X89.161 Y87.043 E64.2025
G1 X89.524 Y86.881 E64.21704
G1 X89.912 Y86.795 E64.23158
G1 X90.147 Y86.781 E64.2402
G1 X144.898 Y86.795 E66.24333
G1 X145.293 Y86.835 E66.25785
G1 X145.672 Y86.953 E66.27237
G1 X145.933 Y87.088 E66.28312
G1 X146.92 Y87.694 E66.3255
G1 X147.236 Y87.935 E66.34004
G1 X147.498 Y88.234 E66.35458
G1 X147.735 Y88.678 E66.373
G1 X148.09 Y89.612 E66.40955
G1 X148.193 Y89.995 E66.42406
G1 X148.219 Y90.315 E66.43581
G1 X148.209 Y144.846 E68.43089
G1 X148.169 Y145.242 E68.44545
G1 X148.021 Y145.689 E68.46268
G1 X147.631 Y146.518 E68.4962
G1 X147.426 Y146.859 E68.51075
G1 X147.158 Y147.152 E68.52528
G1 X146.814 Y147.398 E68.54075
G1 X145.817 Y147.962 E68.58266
G1 X145.453 Y148.122 E68.59721
G1 X145.065 Y148.206 E68.61173
G1 X144.841 Y148.219 E68.61994
G1 X90.091 Y148.204 E70.62303
G1 X89.696 Y148.164 E70.63756
G1 X89.316 Y148.046 E70.65212
G1 X89.054 Y147.91 E70.66292
G1 X88.078 Y147.309 E70.70485
G1 X87.762 Y147.068 E70.71939
G1 X87.501 Y146.768 E70.73394
G1 X87.298 Y146.408 E70.74906
G1 X86.943 Y145.586 E70.78182
G1 X86.823 Y145.207 E70.79636
G1 X86.781 Y144.801 E70.8113
G1 X86.789 Y90.274 E72.80623
G1 X86.829 Y89.878 E72.82079
G1 X86.941 Y89.514 E72.83473
G1 X87.336 Y88.564 E72.87237
G1 X87.368 Y88.504 E72.87486
G0 F810 X87.524 Y88.214
G0 X87.779 Y87.909
M204 S5000
M205 X30 Y30
G0 F7200 X88.148 Y88.167
M204 S500
M205 X20 Y20
G1 F6000 E72.90145
G1 F900 X88.398 Y87.988 E72.9127
G1 X89.38 Y87.425 E72.95412
G1 X89.702 Y87.286 E72.96695
G1 X90.146 Y87.221 E72.98336
G1 X144.897 Y87.235 E74.98649
G1 X145.246 Y87.275 E74.99935
G1 X145.703 Y87.463 E75.01742
G1 X146.69 Y88.069 E75.0598
G1 X146.966 Y88.285 E75.07262
G1 X147.185 Y88.558 E75.08543
G1 X147.324 Y88.834 E75.09673
G1 X147.679 Y89.768 E75.13329
G1 X147.765 Y90.107 E75.14608
G1 X147.779 Y90.315 E75.15371
G1 X147.769 Y144.846 E77.14879
G1 X147.729 Y145.194 E77.16161
G1 X147.622 Y145.502 E77.17354
G1 X147.232 Y146.331 E77.20705
G1 X147.048 Y146.629 E77.21987
G1 X146.801 Y146.877 E77.23267
G1 X146.597 Y147.015 E77.24168
G1 X145.6 Y147.579 E77.28359
G1 X145.278 Y147.716 E77.2964
G1 X144.842 Y147.779 E77.31251
G1 X90.092 Y147.764 E79.3156
G1 X89.743 Y147.724 E79.32846
G1 X89.285 Y147.535 E79.34658
G1 X88.309 Y146.934 E79.38852
G1 X88.033 Y146.718 E79.40134
G1 X87.813 Y146.445 E79.41417
G1 X87.702 Y146.234 E79.42289
G1 X87.347 Y145.412 E79.45565
G1 X87.246 Y145.076 E79.46849
G1 X87.221 Y144.801 E79.47859
G1 X87.229 Y90.274 E81.47352
G1 X87.269 Y89.926 E81.48634
G1 X87.347 Y89.683 E81.49567
G1 X87.733 Y88.757 E81.53238
G0 F810 X87.742 Y88.733
G0 X87.912 Y88.427
G0 X88.148 Y88.167
M204 S5000
M205 X30 Y30
G0 F7200 X88.298 Y88.646
M204 S500
M205 X20 Y20
G1 F6000 E81.55898
G1 F900 X88.617 Y88.37 E81.57441
G1 X89.599 Y87.807 E81.61582
G1 X89.873 Y87.695 E81.62665
G1 X90.146 Y87.661 E81.63672
G1 X144.897 Y87.675 E83.63985
G1 X145.191 Y87.715 E83.6507
G1 X145.473 Y87.838 E83.66196
G1 X146.46 Y88.444 E83.70433
G1 X146.689 Y88.631 E83.71515
G1 X146.912 Y88.99 E83.73061
G1 X147.267 Y89.924 E83.76717
G1 X147.339 Y90.315 E83.78171
G1 X147.329 Y144.846 E85.77679
G1 X147.289 Y145.139 E85.78761
G1 X147.224 Y145.314 E85.79444
G1 X146.834 Y146.143 E85.82796
G1 X146.673 Y146.392 E85.83881
