;FLAVOR:Marlin
;TIME:3442
;Filament used: 3.20904m
;Layer height: 0.2
;Generated with Cura_SteamEngine 4.0.0
M140 S70
M105
M190 S70
M104 S215
M105
M109 S215
M82 ;absolute extrusion mode
G28 ; home all axes
M117 Purge extruder
G92 E0 ; reset extruder
G1 Z1.0 F3000 ; move z up little to prevent scratching of surface
G1 X0.1 Y20 Z0.3 F5000.0 ; move to start-line position G1 X0.1 Y200.0 Z0.3 F1500.0 E15 ; draw 1st line
G1 X0.4 Y200.0 Z0.3 F5000.0 ; move to side a little
G1 X0.4 Y20 Z0.3 F1500.0 E30 ; draw 2nd line
G92 E0 ; reset extruder
G1 Z1.0 F3000 ; move z up little to prevent scratching of surface
M117 All systems go!
G92 E0
G1 F6000 E-5
;LAYER_COUNT:158
;LAYER:0
M107
M204 S5000
M205 X30 Y30
G0 F7200 X91.702 Y25.222 Z0.2
M204 S500
M205 X20 Y20
;TYPE:SKIRT
G1 F6000 E0
G1 F900 X91.977 Y24.381 E0.02943
G1 X92.327 Y23.568 E0.05887
G1 X92.81 Y22.691 E0.09217
G1 X92.87 Y22.594 E0.09596
G1 X93.369 Y21.863 E0.1254
G1 X93.932 Y21.18 E0.15484
G1 X94.554 Y20.55 E0.18429
G1 X95.231 Y19.98 E0.21372
G1 X95.956 Y19.472 E0.24317
G1 X96.98 Y18.906 E0.28208
G1 X100.141 Y17.396 E0.3986
G1 X100.536 Y17.218 E0.41301
G1 X103.733 Y15.861 E0.52852
G1 X104.144 Y15.697 E0.54324
G1 X107.379 Y14.493 E0.65805
G1 X107.819 Y14.341 E0.67353
G1 X111.033 Y13.316 E0.78573
G1 X111.484 Y13.184 E0.80136
G1 X114.737 Y12.316 E0.91334
G1 X115.328 Y12.178 E0.93353
G1 X120.195 Y11.197 E1.09866
G1 X120.927 Y11.078 E1.12333
G1 X125.678 Y10.49 E1.28255
G1 X126.561 Y10.421 E1.31201
G1 X127.446 Y10.432 E1.34145
G1 X128.327 Y10.523 E1.3709
G1 X129.195 Y10.693 E1.40032
G1 X130.045 Y10.941 E1.42977
G1 X130.869 Y11.264 E1.45921
G1 X131.661 Y11.66 E1.48866
G1 X132.413 Y12.126 E1.51808
G1 X133.121 Y12.658 E1.54754
G1 X133.502 Y12.99 E1.56435
G1 X133.633 Y13.11 E1.57026
G1 X134.258 Y13.736 E1.59968
G1 X134.824 Y14.417 E1.62913
G1 X135.326 Y15.146 E1.65857
G1 X135.76 Y15.917 E1.688
G1 X136.123 Y16.725 E1.71746
G1 X136.412 Y17.561 E1.74688
G1 X136.624 Y18.421 E1.77634
G1 X136.758 Y19.296 E1.80578
G1 X136.813 Y20.336 E1.84042
G1 X136.813 Y25.199 E2.00216
G1 X136.812 Y25.221 E2.0029
G1 X137.409 Y25.527 E2.02521
G1 X138.157 Y26 E2.05464
G1 X138.859 Y26.539 E2.08408
G1 X139.51 Y27.14 E2.11355
G1 X140.104 Y27.796 E2.14298
G1 X140.636 Y28.503 E2.17241
G1 X141.102 Y29.256 E2.20187
G1 X141.499 Y30.047 E2.2313
G1 X141.822 Y30.871 E2.26074
G1 X142.096 Y31.834 E2.29404
G1 X143.043 Y35.94 E2.43419
G1 X143.203 Y36.81 E2.46361
G1 X143.288 Y37.807 E2.49689
G1 X143.385 Y40.639 E2.59114
G1 X143.376 Y41.524 E2.62058
G1 X143.286 Y42.404 E2.65
G1 X143.117 Y43.273 E2.67944
G1 X142.886 Y44.08 E2.70736
G1 X142.244 Y46.001 E2.77473
G1 X141.925 Y46.827 E2.80418
G1 X141.534 Y47.621 E2.83362
G1 X141.073 Y48.377 E2.86307
G1 X140.545 Y49.087 E2.8925
G1 X140.486 Y49.153 E2.89544
G1 X140.467 Y49.189 E2.89679
G1 X139.983 Y49.93 E2.92623
G1 X139.434 Y50.624 E2.95566
G1 X138.824 Y51.266 E2.98512
G1 X138.159 Y51.85 E3.01455
G1 X137.444 Y52.372 E3.044
G1 X136.794 Y52.761 E3.06919
G1 X136.813 Y53.358 E3.08906
G1 X136.813 Y58.221 E3.2508
G1 X136.773 Y59.105 E3.28024
G1 X136.653 Y59.982 E3.30968
G1 X136.455 Y60.845 E3.33913
G1 X136.18 Y61.686 E3.36856
G1 X135.83 Y62.499 E3.398
G1 X135.408 Y63.278 E3.42746
G1 X134.917 Y64.014 E3.45689
G1 X134.362 Y64.704 E3.48634
G1 X133.633 Y65.447 E3.52096
G1 X133.502 Y65.567 E3.52687
G1 X132.823 Y66.135 E3.55631
G1 X132.095 Y66.639 E3.58576
G1 X131.325 Y67.076 E3.61521
G1 X130.519 Y67.441 E3.64464
G1 X129.683 Y67.732 E3.67408
G1 X128.824 Y67.947 E3.70353
G1 X127.949 Y68.083 E3.73299
G1 X127.066 Y68.139 E3.76241
G1 X125.807 Y68.082 E3.80433
G1 X122.671 Y67.736 E3.90927
G1 X122.053 Y67.648 E3.93003
G1 X117.194 Y66.796 E4.09411
G1 X116.478 Y66.642 E4.11846
G1 X111.616 Y65.409 E4.28529
G1 X110.931 Y65.209 E4.30903
G1 X106.087 Y63.597 E4.47883
G1 X105.557 Y63.403 E4.4976
G1 X102.321 Y62.115 E4.61344
G1 X101.818 Y61.899 E4.63165
G1 X97.077 Y59.698 E4.8055
G1 X96.292 Y59.289 E4.83494
G1 X95.547 Y58.811 E4.86438
G1 X94.848 Y58.268 E4.89382
G1 X94.201 Y57.664 E4.92326
G1 X93.611 Y57.004 E4.9527
G1 X92.87 Y55.964 E4.99518
G1 X92.81 Y55.867 E4.99897
G1 X92.378 Y55.094 E5.02842
G1 X92.019 Y54.285 E5.05786
G1 X91.733 Y53.447 E5.08731
G1 X91.525 Y52.587 E5.11674
G1 X91.395 Y51.711 E5.14619
G1 X91.344 Y50.712 E5.17946
G1 X91.344 Y50.114 E5.19935
G1 X91.384 Y49.23 E5.22879
G1 X91.504 Y48.353 E5.25823
G1 X91.702 Y47.49 E5.28768
G1 X91.977 Y46.649 E5.3171
G1 X92.327 Y45.836 E5.34654
G1 X92.749 Y45.057 E5.37601
G1 X93.24 Y44.321 E5.40544
G1 X93.795 Y43.631 E5.43489
G1 X94.41 Y42.994 E5.46434
G1 X95.08 Y42.416 E5.49377
G1 X95.546 Y42.07 E5.51308
G1 X95.717 Y41.951 E5.52
G1 X96.466 Y41.479 E5.54945
G1 X97.254 Y41.076 E5.57889
G1 X98.076 Y40.746 E5.60835
G1 X98.077 Y40.746 E5.60838
G1 X98.077 Y40.547 E5.615
G1 X98.158 Y39.666 E5.64443
G1 X98.319 Y38.795 E5.67389
G1 X98.547 Y37.974 E5.70223
G1 X98.551 Y37.96 E5.70271
G1 X97.8 Y37.71 E5.72904
G1 X96.989 Y37.355 E5.75848
G1 X96.213 Y36.929 E5.78793
G1 X95.717 Y36.606 E5.80761
G1 X95.546 Y36.487 E5.81454
G1 X94.843 Y35.949 E5.84398
G1 X94.192 Y35.35 E5.87341
G1 X93.597 Y34.694 E5.90286
G1 X93.063 Y33.988 E5.93231
G1 X92.596 Y33.236 E5.96175
G1 X92.198 Y32.445 E5.9912
G1 X91.874 Y31.622 E6.02062
G1 X91.625 Y30.772 E6.05008
G1 X91.453 Y29.904 E6.07951
G1 X91.361 Y29.023 E6.10897
G1 X91.344 Y28.443 E6.12827
G1 X91.344 Y27.846 E6.14813
G1 X91.384 Y26.962 E6.17756
G1 X91.504 Y26.085 E6.207
G1 X91.524 Y26.002 E6.20984
G0 F810 X91.702 Y25.222
M204 S5000
M205 X30 Y30
G0 F7200 X92.102 Y25.277
M204 S500
M205 X20 Y20
G1 F6000 E6.23645
G1 F900 X92.377 Y24.455 E6.26528
G1 X92.727 Y23.662 E6.29411
G1 X93.15 Y22.901 E6.32306
G1 X93.21 Y22.804 E6.32686
G1 X93.699 Y22.089 E6.35567
G1 X94.253 Y21.421 E6.38453
G1 X94.865 Y20.808 E6.41334
G1 X95.532 Y20.253 E6.4422
G1 X96.246 Y19.763 E6.471
G1 X97.152 Y19.267 E6.50536
G1 X100.313 Y17.757 E6.62187
G1 X100.692 Y17.586 E6.6357
G1 X103.889 Y16.229 E6.75122
G1 X104.283 Y16.072 E6.76532
G1 X107.518 Y14.868 E6.88013
G1 X107.941 Y14.722 E6.89501
G1 X111.155 Y13.697 E7.00722
G1 X111.588 Y13.571 E7.02222
G1 X114.841 Y12.703 E7.1342
G1 X115.407 Y12.57 E7.15353
G1 X120.274 Y11.589 E7.31867
G1 X120.976 Y11.475 E7.34232
G1 X125.727 Y10.887 E7.50155
G1 X126.592 Y10.82 E7.5304
G1 X127.459 Y10.834 E7.55924
G1 X128.321 Y10.927 E7.58808
G1 X129.17 Y11.099 E7.61689
G1 X130.001 Y11.348 E7.64574
G1 X130.804 Y11.673 E7.67456
G1 X131.575 Y12.071 E7.70342
G1 X132.305 Y12.538 E7.73224
G1 X133.231 Y13.285 E7.77181
G1 X133.362 Y13.405 E7.77772
G1 X133.974 Y14.019 E7.80655
G1 X134.526 Y14.687 E7.83537
G1 X135.015 Y15.403 E7.86421
G1 X135.435 Y16.162 E7.89306
G1 X135.784 Y16.955 E7.92188
G1 X136.058 Y17.778 E7.95073
G1 X136.255 Y18.622 E7.97956
G1 X136.374 Y19.481 E8.0084
G1 X136.413 Y20.336 E8.03687
G1 X136.413 Y25.199 E8.19861
G1 X136.4 Y25.471 E8.20767
G1 X136.633 Y25.571 E8.2161
G1 X137.396 Y25.983 E8.24494
G1 X138.117 Y26.464 E8.27377
G1 X138.791 Y27.009 E8.3026
G1 X139.412 Y27.614 E8.33143
G1 X139.974 Y28.274 E8.36027
G1 X140.473 Y28.983 E8.3891
G1 X140.905 Y29.735 E8.41795
G1 X141.266 Y30.523 E8.44678
G1 X141.552 Y31.341 E8.4756
G1 X141.707 Y31.923 E8.49563
G1 X142.654 Y36.029 E8.63578
G1 X142.809 Y36.882 E8.66462
G1 X142.888 Y37.82 E8.69593
G1 X142.985 Y40.652 E8.79017
G1 X142.975 Y41.519 E8.81901
G1 X142.885 Y42.381 E8.84784
G1 X142.716 Y43.232 E8.8767
G1 X142.506 Y43.954 E8.9017
G1 X141.864 Y45.875 E8.96907
G1 X141.552 Y46.683 E8.99788
G1 X141.166 Y47.46 E9.02673
G1 X140.711 Y48.197 E9.05554
G1 X140.189 Y48.89 E9.0844
G1 X140.138 Y48.946 E9.08692
G1 X140.049 Y49.108 E9.09307
G1 X139.563 Y49.826 E9.1219
G1 X139.013 Y50.496 E9.15073
G1 X138.404 Y51.112 E9.17955
G1 X137.74 Y51.67 E9.20839
G1 X137.027 Y52.164 E9.23724
G1 X136.367 Y52.538 E9.26247
G1 X136.402 Y52.913 E9.275
G1 X136.413 Y53.358 E9.28981
G1 X136.413 Y58.221 E9.45155
G1 X136.373 Y59.087 E9.48038
G1 X136.253 Y59.946 E9.50923
G1 X136.055 Y60.79 E9.53807
G1 X135.78 Y61.612 E9.56689
G1 X135.43 Y62.405 E9.59572
G1 X135.009 Y63.163 E9.62456
G1 X134.52 Y63.878 E9.65337
G1 X133.967 Y64.546 E9.68222
G1 X133.362 Y65.152 E9.7107
G1 X133.231 Y65.272 E9.71661
G1 X132.566 Y65.828 E9.74544
G1 X131.852 Y66.32 E9.77428
G1 X131.096 Y66.744 E9.80311
G1 X130.304 Y67.096 E9.83193
G1 X129.482 Y67.374 E9.86079
G1 X128.639 Y67.575 E9.88962
G1 X127.781 Y67.698 E9.91845
G1 X126.915 Y67.741 E9.94729
G1 X125.851 Y67.684 E9.98273
G1 X122.715 Y67.338 E10.08766
G1 X122.123 Y67.254 E10.10755
G1 X117.264 Y66.402 E10.27163
G1 X116.576 Y66.255 E10.29503
G1 X111.714 Y65.022 E10.46186
G1 X111.057 Y64.829 E10.48463
G1 X106.213 Y63.217 E10.65443
G1 X105.705 Y63.032 E10.67241
G1 X102.469 Y61.744 E10.78825
G1 X101.987 Y61.536 E10.80571
G1 X97.246 Y59.335 E10.97956
G1 X96.477 Y58.934 E11.00841
G1 X95.749 Y58.464 E11.03723
G1 X95.067 Y57.929 E11.06606
G1 X94.437 Y57.333 E11.09491
G1 X93.864 Y56.682 E11.12375
G1 X93.21 Y55.754 E11.16151
G1 X93.15 Y55.657 E11.1653
G1 X92.728 Y54.899 E11.19416
G1 X92.378 Y54.106 E11.22299
G1 X92.103 Y53.284 E11.25182
G1 X91.904 Y52.44 E11.28066
G1 X91.784 Y51.582 E11.30947
G1 X91.744 Y50.712 E11.33844
G1 X91.744 Y50.114 E11.35833
G1 X91.784 Y49.248 E11.38717
G1 X91.904 Y48.389 E11.41601
G1 X92.102 Y47.545 E11.44485
G1 X92.377 Y46.723 E11.47368
G1 X92.727 Y45.93 E11.50251
G1 X93.148 Y45.172 E11.53134
G1 X93.637 Y44.457 E11.56016
G1 X94.19 Y43.789 E11.589
G1 X94.803 Y43.175 E11.61786
G1 X95.775 Y42.398 E11.65924
G1 X95.946 Y42.279 E11.66617
G1 X96.679 Y41.818 E11.69497
G1 X97.452 Y41.425 E11.72382
G1 X98.258 Y41.106 E11.75265
G1 X98.476 Y41.042 E11.7602
G1 X98.48 Y40.494 E11.77843
G1 X98.567 Y39.632 E11.80725
G1 X98.733 Y38.781 E11.83608
G1 X98.927 Y38.098 E11.8597
G1 X99.064 Y37.678 E11.87439
G1 X98.629 Y37.57 E11.8893
G1 X97.81 Y37.284 E11.91815
G1 X97.022 Y36.924 E11.94697
G1 X95.946 Y36.278 E11.98871
G1 X95.775 Y36.159 E11.99564
G1 X95.087 Y35.631 E12.02449
G1 X94.45 Y35.042 E12.05334
G1 X93.871 Y34.398 E12.08214
G1 X93.353 Y33.702 E12.111
G1 X92.902 Y32.962 E12.13982
G1 X92.52 Y32.184 E12.16865
G1 X92.212 Y31.373 E12.19751
G1 X91.98 Y30.538 E12.22633
G1 X91.826 Y29.685 E12.25516
G1 X91.744 Y28.443 E12.29656
G1 X91.744 Y27.846 E12.31641
G1 X91.784 Y26.98 E12.34525
G1 X91.904 Y26.121 E12.3741
G1 X91.92 Y26.056 E12.37632
G0 F810 X92.102 Y25.277
M204 S5000
M205 X30 Y30
G0 F7200 X92.502 Y25.334
M204 S500
M205 X20 Y20
G1 F6000 E12.40293
G1 F900 X92.777 Y24.531 E12.43116
G1 X93.126 Y23.758 E12.45937
G1 X93.49 Y23.112 E12.48403
G1 X93.55 Y23.015 E12.48783
G1 X94.03 Y22.315 E12.51606
G1 X94.573 Y21.664 E12.54425
G1 X95.176 Y21.066 E12.5725
G1 X95.832 Y20.528 E12.60072
G1 X96.535 Y20.055 E12.6289
G1 X97.325 Y19.628 E12.65877
G1 X100.486 Y18.118 E12.77528
G1 X100.849 Y17.954 E12.78853
G1 X104.046 Y16.597 E12.90404
G1 X104.423 Y16.447 E12.91754
G1 X107.658 Y15.243 E13.03235
G1 X108.062 Y15.103 E13.04657
G1 X111.276 Y14.078 E13.15877
G1 X111.691 Y13.957 E13.17315
G1 X114.944 Y13.089 E13.28513
G1 X115.486 Y12.962 E13.30364
G1 X120.353 Y11.981 E13.46878
G1 X121.026 Y11.872 E13.49145
G1 X125.777 Y11.284 E13.65068
G1 X126.622 Y11.22 E13.67886
G1 X127.471 Y11.235 E13.7071
G1 X128.313 Y11.331 E13.73529
G1 X129.144 Y11.505 E13.76353
G1 X129.954 Y11.756 E13.79173
G1 X130.737 Y12.083 E13.81996
G1 X131.485 Y12.482 E13.84815
G1 X132.193 Y12.95 E13.87638
G1 X132.961 Y13.58 E13.90942
G1 X133.092 Y13.7 E13.91533
G1 X133.69 Y14.301 E13.94353
G1 X134.229 Y14.957 E13.97177
G1 X134.703 Y15.66 E13.99997
G1 X135.109 Y16.405 E14.02819
G1 X135.443 Y17.185 E14.05641
G1 X135.702 Y17.992 E14.0846
G1 X135.885 Y18.821 E14.11283
G1 X135.988 Y19.663 E14.14105
G1 X136.013 Y20.336 E14.16345
G1 X136.013 Y25.199 E14.32519
G1 X135.988 Y25.725 E14.3427
G1 X136.639 Y26.02 E14.36648
G1 X137.376 Y26.441 E14.39471
G1 X138.069 Y26.929 E14.4229
G1 X138.714 Y27.481 E14.45113
G1 X139.304 Y28.09 E14.47934
G1 X139.833 Y28.753 E14.50755
G1 X140.298 Y29.462 E14.53575
G1 X140.694 Y30.213 E14.56399
G1 X141.018 Y30.997 E14.5922
G1 X141.317 Y32.013 E14.62743
G1 X142.264 Y36.119 E14.76758
G1 X142.415 Y36.954 E14.7958
G1 X142.489 Y37.834 E14.82517
G1 X142.586 Y40.666 E14.91942
G1 X142.575 Y41.514 E14.94763
G1 X142.484 Y42.358 E14.97586
G1 X142.314 Y43.189 E15.00407
G1 X142.127 Y43.827 E15.02619
G1 X141.485 Y45.748 E15.09355
G1 X141.178 Y46.539 E15.12177
G1 X140.799 Y47.297 E15.14996
G1 X140.349 Y48.017 E15.1782
G1 X139.834 Y48.691 E15.20641
G1 X139.798 Y48.73 E15.20818
G1 X139.631 Y49.023 E15.21939
G1 X139.143 Y49.717 E15.24761
G1 X138.592 Y50.362 E15.27583
G1 X137.983 Y50.953 E15.30405
G1 X137.321 Y51.483 E15.33226
G1 X136.612 Y51.949 E15.36048
G1 X135.946 Y52.302 E15.38555
G1 X136.013 Y53.358 E15.42074
G1 X136.013 Y58.221 E15.58248
G1 X135.973 Y59.068 E15.61069
G1 X135.853 Y59.908 E15.63891
G1 X135.655 Y60.733 E15.66713
G1 X135.38 Y61.536 E15.69536
G1 X135.031 Y62.309 E15.72357
G1 X134.611 Y63.045 E15.75175
G1 X134.123 Y63.739 E15.77997
G1 X133.572 Y64.384 E15.80819
G1 X133.092 Y64.857 E15.8306
G1 X132.961 Y64.977 E15.83651
G1 X132.309 Y65.52 E15.86473
G1 X131.609 Y65.999 E15.89294
G1 X130.867 Y66.411 E15.92117
G1 X130.09 Y66.75 E15.94936
G1 X129.284 Y67.015 E15.97758
G1 X128.457 Y67.202 E16.00578
G1 X127.615 Y67.311 E16.03402
G1 X126.768 Y67.34 E16.06221
G1 X125.895 Y67.287 E16.0913
G1 X122.759 Y66.941 E16.19624
G1 X122.192 Y66.86 E16.21529
G1 X117.333 Y66.008 E16.37936
G1 X116.675 Y65.867 E16.40175
G1 X111.813 Y64.634 E16.56858
G1 X111.183 Y64.45 E16.5904
G1 X106.339 Y62.838 E16.7602
G1 X105.853 Y62.66 E16.77742
G1 X102.617 Y61.372 E16.89326
G1 X102.155 Y61.173 E16.90999
G1 X97.414 Y58.972 E17.08384
G1 X96.663 Y58.579 E17.11203
G1 X95.951 Y58.117 E17.14026
G1 X95.286 Y57.59 E17.16848
G1 X94.674 Y57.003 E17.19669
G1 X94.12 Y56.36 E17.22492
G1 X93.55 Y55.543 E17.25805
G1 X93.49 Y55.446 E17.26185
G1 X93.078 Y54.705 E17.29004
G1 X92.738 Y53.928 E17.31825
G1 X92.473 Y53.122 E17.34647
G1 X92.284 Y52.295 E17.37469
G1 X92.175 Y51.454 E17.40289
G1 X92.144 Y50.712 E17.42759
G1 X92.144 Y50.114 E17.44748
G1 X92.184 Y49.267 E17.47569
G1 X92.304 Y48.427 E17.50391
G1 X92.502 Y47.602 E17.53213
G1 X92.777 Y46.799 E17.56036
G1 X93.126 Y46.026 E17.58857
G1 X93.546 Y45.29 E17.61675
G1 X94.034 Y44.596 E17.64497
G1 X94.585 Y43.951 E17.67318
G1 X95.195 Y43.361 E17.70141
G1 X96.003 Y42.727 E17.73557
G1 X96.174 Y42.608 E17.7425
G1 X96.893 Y42.157 E17.77073
G1 X97.65 Y41.775 E17.79893
G1 X98.44 Y41.466 E17.82714
G1 X98.874 Y41.343 E17.84215
G1 X98.87 Y41.291 E17.84388
G1 X98.884 Y40.443 E17.87209
G1 X98.977 Y39.6 E17.9003
G1 X99.149 Y38.769 E17.92852
G1 X99.308 Y38.222 E17.94747
G1 X99.58 Y37.388 E17.97665
G1 X99.441 Y37.365 E17.98133
G1 X98.621 Y37.149 E18.00954
G1 X97.824 Y36.857 E18.03777
G1 X97.059 Y36.492 E18.06596
G1 X96.174 Y35.949 E18.10049
G1 X96.003 Y35.83 E18.10742
G1 X95.33 Y35.313 E18.13565
G1 X94.709 Y34.736 E18.16384
G1 X94.146 Y34.102 E18.19205
G1 X93.644 Y33.418 E18.22027
G1 X93.209 Y32.69 E18.24847
G1 X92.844 Y31.924 E18.27669
G1 X92.553 Y31.127 E18.30491
G1 X92.339 Y30.306 E18.33313
G1 X92.203 Y29.469 E18.36134
G1 X92.144 Y28.443 E18.39552
G1 X92.144 Y27.846 E18.41537
G1 X92.184 Y26.999 E18.44358
G1 X92.304 Y26.159 E18.4718
G1 X92.316 Y26.112 E18.47341
G0 F810 X92.502 Y25.334
M204 S5000
M205 X30 Y30
G0 F7200 X92.902 Y25.392
M204 S500
M205 X20 Y20
G1 F6000 E18.50002
G1 F900 X93.176 Y24.61 E18.52758
G1 X93.525 Y23.857 E18.55518
G1 X93.83 Y23.322 E18.57567
G1 X93.89 Y23.225 E18.57946
G1 X94.36 Y22.542 E18.60704
G1 X94.893 Y21.907 E18.63461
G1 X95.485 Y21.326 E18.6622
G1 X96.13 Y20.805 E18.68978
G1 X96.823 Y20.349 E18.71737
G1 X97.497 Y19.989 E18.74278
G1 X100.658 Y18.479 E18.8593
G1 X101.005 Y18.323 E18.87195
G1 X104.202 Y16.966 E18.98747
G1 X104.562 Y16.822 E19.00036
G1 X107.797 Y15.618 E19.11517
G1 X108.184 Y15.485 E19.12878
G1 X111.398 Y14.46 E19.24098
G1 X111.794 Y14.344 E19.25471
G1 X115.047 Y13.476 E19.36669
G1 X115.565 Y13.355 E19.38438
G1 X120.432 Y12.374 E19.54951
G1 X121.075 Y12.269 E19.57118
G1 X125.826 Y11.681 E19.73041
G1 X126.653 Y11.619 E19.75799
G1 X127.482 Y11.637 E19.78557
G1 X128.305 Y11.735 E19.81314
G1 X129.115 Y11.911 E19.8407
G1 X129.905 Y12.165 E19.86831
G1 X130.666 Y12.493 E19.89587
