;FLAVOR:Marlin
;TIME:2310
;Filament used: 1.78245m
;Layer height: 0.2
;Generated with Cura_SteamEngine 4.0.0
M140 S70
M105
M190 S70
M104 S215
M105
M109 S215
M82 ;absolute extrusion mode
G28 ; home all axes
M117 Purge extruder
G92 E0 ; reset extruder
G1 Z1.0 F3000 ; move z up little to prevent scratching of surface
G1 X0.1 Y20 Z0.3 F5000.0 ; move to start-line position G1 X0.1 Y200.0 Z0.3 F1500.0 E15 ; draw 1st line
G1 X0.4 Y200.0 Z0.3 F5000.0 ; move to side a little
G1 X0.4 Y20 Z0.3 F1500.0 E30 ; draw 2nd line
G92 E0 ; reset extruder
G1 Z1.0 F3000 ; move z up little to prevent scratching of surface
M117 All systems go!
G92 E0
G1 F6000 E-5
;LAYER_COUNT:169
;LAYER:0
M107
M204 S5000
M205 X30 Y30
G0 F7200 X110.433 Y19.213 Z0.2
M204 S500
M205 X20 Y20
;TYPE:SKIRT
G1 F6000 E0
G1 F900 X110.631 Y18.35 E0.02945
G1 X110.907 Y17.509 E0.05889
G1 X111.257 Y16.696 E0.08833
G1 X111.679 Y15.918 E0.11777
G1 X112.17 Y15.181 E0.14722
G1 X112.725 Y14.492 E0.17665
G1 X113.143 Y14.046 E0.19698
G1 X113.26 Y13.929 E0.20248
G1 X113.914 Y13.332 E0.23193
G1 X114.619 Y12.797 E0.26137
G1 X115.369 Y12.327 E0.29081
G1 X116.159 Y11.927 E0.32026
G1 X116.981 Y11.599 E0.3497
G1 X117.83 Y11.348 E0.37914
G1 X118.683 Y11.176 E0.40808
G1 X118.876 Y11.099 E0.41499
G1 X119.725 Y10.848 E0.44444
G1 X120.593 Y10.673 E0.47389
G1 X121.473 Y10.578 E0.50333
G1 X122.085 Y10.559 E0.5237
G1 X125.045 Y10.559 E0.62215
G1 X125.929 Y10.599 E0.65158
G1 X126.806 Y10.719 E0.68102
G1 X127.669 Y10.917 E0.71047
G1 X128.51 Y11.192 E0.7399
G1 X128.524 Y11.198 E0.7404
G1 X129.013 Y11.281 E0.7569
G1 X129.869 Y11.507 E0.78635
G1 X130.701 Y11.81 E0.8158
G1 X131.502 Y12.186 E0.84523
G1 X132.266 Y12.633 E0.87467
G1 X132.987 Y13.148 E0.90414
G1 X133.869 Y13.929 E0.94332
G1 X133.986 Y14.046 E0.94882
G1 X134.583 Y14.7 E0.97828
G1 X135.118 Y15.405 E1.00771
G1 X135.588 Y16.155 E1.03715
G1 X135.988 Y16.945 E1.0666
G1 X136.316 Y17.767 E1.09604
G1 X136.567 Y18.616 E1.12548
G1 X136.742 Y19.484 E1.15493
G1 X136.837 Y20.364 E1.18437
G1 X136.856 Y20.976 E1.20474
G1 X136.856 Y34.543 E1.65598
G1 X136.816 Y35.427 E1.68541
G1 X136.696 Y36.304 E1.71485
G1 X136.498 Y37.167 E1.7443
G1 X136.272 Y37.857 E1.76845
G1 X136.316 Y37.967 E1.77239
G1 X136.567 Y38.816 E1.80184
G1 X136.742 Y39.684 E1.83129
G1 X136.837 Y40.564 E1.86073
G1 X136.856 Y41.175 E1.88106
G1 X136.857 Y54.741 E2.33227
G1 X136.817 Y55.626 E2.36173
G1 X136.698 Y56.503 E2.39117
G1 X136.499 Y57.365 E2.42059
G1 X136.224 Y58.207 E2.45005
G1 X135.874 Y59.02 E2.47949
G1 X135.452 Y59.798 E2.50893
G1 X134.962 Y60.535 E2.53837
G1 X134.407 Y61.225 E2.56782
G1 X133.987 Y61.672 E2.58822
G1 X133.87 Y61.789 E2.59372
G1 X133.216 Y62.386 E2.62317
G1 X132.511 Y62.921 E2.65261
G1 X131.761 Y63.391 E2.68205
G1 X130.971 Y63.791 E2.7115
G1 X130.149 Y64.119 E2.74094
G1 X129.3 Y64.37 E2.77038
G1 X128.434 Y64.545 E2.79977
G1 X127.888 Y64.737 E2.81902
G1 X127.03 Y64.955 E2.84846
G1 X126.156 Y65.095 E2.8779
G1 X125.05 Y65.158 E2.91475
G1 X122.09 Y65.159 E3.0132
G1 X121.206 Y65.119 E3.04263
G1 X120.329 Y65 E3.07207
G1 X119.466 Y64.802 E3.10151
G1 X118.625 Y64.527 E3.13094
G1 X118.622 Y64.526 E3.13105
G1 X118.427 Y64.499 E3.1376
G1 X117.564 Y64.301 E3.16705
G1 X116.723 Y64.026 E3.19648
G1 X115.91 Y63.676 E3.22591
G1 X115.131 Y63.254 E3.25538
G1 X114.395 Y62.763 E3.28481
G1 X113.705 Y62.208 E3.31426
G1 X113.258 Y61.789 E3.33464
G1 X113.141 Y61.672 E3.34014
G1 X112.544 Y61.018 E3.36959
G1 X112.009 Y60.313 E3.39903
G1 X111.539 Y59.563 E3.42847
G1 X111.139 Y58.773 E3.45792
G1 X110.811 Y57.951 E3.48736
G1 X110.56 Y57.102 E3.5168
G1 X110.385 Y56.234 E3.54625
G1 X110.29 Y55.354 E3.57569
G1 X110.271 Y54.742 E3.59606
G1 X110.271 Y41.177 E4.04723
G1 X110.311 Y40.293 E4.07666
G1 X110.431 Y39.416 E4.1061
G1 X110.629 Y38.553 E4.13555
G1 X110.855 Y37.862 E4.15973
G1 X110.811 Y37.751 E4.1637
G1 X110.56 Y36.902 E4.19315
G1 X110.385 Y36.034 E4.2226
G1 X110.29 Y35.154 E4.25204
G1 X110.271 Y34.541 E4.27244
G1 X110.273 Y20.975 E4.72365
G1 X110.313 Y20.09 E4.75311
G1 X110.325 Y20.005 E4.75597
G0 F810 X110.433 Y19.213
M204 S5000
M205 X30 Y30
G0 F7200 X110.833 Y19.25
M204 S500
M205 X20 Y20
G1 F6000 E4.78257
G1 F900 X111.031 Y18.406 E4.81141
G1 X111.306 Y17.584 E4.84024
G1 X111.656 Y16.791 E4.86907
G1 X112.078 Y16.033 E4.89792
G1 X112.567 Y15.317 E4.92676
G1 X113.12 Y14.65 E4.95558
G1 X113.426 Y14.329 E4.97033
G1 X113.543 Y14.212 E4.97583
G1 X114.184 Y13.628 E5.00467
G1 X114.876 Y13.105 E5.03352
G1 X115.613 Y12.649 E5.06235
G1 X116.388 Y12.262 E5.09116
G1 X117.197 Y11.948 E5.12002
G1 X118.03 Y11.71 E5.14884
G1 X118.78 Y11.569 E5.17422
G1 X119.092 Y11.448 E5.18535
G1 X119.925 Y11.21 E5.21416
G1 X120.777 Y11.05 E5.243
G1 X121.64 Y10.97 E5.27182
G1 X122.085 Y10.959 E5.28663
G1 X125.045 Y10.959 E5.38508
G1 X125.911 Y10.999 E5.41391
G1 X126.77 Y11.119 E5.44276
G1 X127.614 Y11.317 E5.47159
G1 X128.415 Y11.585 E5.49969
G1 X128.964 Y11.68 E5.51822
G1 X129.801 Y11.905 E5.54705
G1 X130.614 Y12.207 E5.57589
G1 X131.395 Y12.582 E5.60471
G1 X132.139 Y13.028 E5.63356
G1 X132.838 Y13.54 E5.66238
G1 X133.586 Y14.212 E5.69582
G1 X133.703 Y14.329 E5.70132
G1 X134.287 Y14.97 E5.73017
G1 X134.81 Y15.662 E5.75902
G1 X135.266 Y16.399 E5.78784
G1 X135.653 Y17.174 E5.81665
G1 X135.967 Y17.983 E5.84552
G1 X136.205 Y18.816 E5.87433
G1 X136.365 Y19.668 E5.90316
G1 X136.445 Y20.531 E5.93199
G1 X136.456 Y20.976 E5.94679
G1 X136.456 Y34.543 E6.39803
G1 X136.416 Y35.409 E6.42687
G1 X136.296 Y36.268 E6.45572
G1 X136.098 Y37.112 E6.48455
G1 X135.845 Y37.868 E6.51107
G1 X135.967 Y38.183 E6.5223
G1 X136.205 Y39.016 E6.55112
G1 X136.365 Y39.868 E6.57995
G1 X136.445 Y40.731 E6.60877
G1 X136.456 Y41.175 E6.62355
G1 X136.457 Y54.741 E7.07475
G1 X136.417 Y55.607 E7.10359
G1 X136.298 Y56.466 E7.13243
G1 X136.099 Y57.31 E7.16127
G1 X135.824 Y58.132 E7.1901
G1 X135.475 Y58.925 E7.21892
G1 X135.054 Y59.683 E7.24776
G1 X134.564 Y60.399 E7.27661
G1 X134.011 Y61.067 E7.30546
G1 X133.704 Y61.389 E7.32025
G1 X133.587 Y61.506 E7.32576
G1 X132.946 Y62.09 E7.3546
G1 X132.254 Y62.613 E7.38345
G1 X131.517 Y63.069 E7.41227
G1 X130.742 Y63.456 E7.44109
G1 X129.933 Y63.77 E7.46995
G1 X129.1 Y64.008 E7.49876
G1 X128.383 Y64.143 E7.52303
G1 X127.634 Y64.395 E7.54931
G1 X126.791 Y64.595 E7.57813
G1 X125.932 Y64.716 E7.60698
G1 X125.05 Y64.758 E7.63635
G1 X122.09 Y64.759 E7.7348
G1 X121.224 Y64.719 E7.76364
G1 X120.365 Y64.6 E7.79248
G1 X119.521 Y64.402 E7.82131
G1 X118.724 Y64.136 E7.84926
G1 X118.463 Y64.099 E7.85803
G1 X117.619 Y63.901 E7.88686
G1 X116.797 Y63.626 E7.91569
G1 X116.004 Y63.276 E7.94452
G1 X115.246 Y62.855 E7.97336
G1 X114.531 Y62.366 E8.00217
G1 X113.863 Y61.813 E8.03101
G1 X113.541 Y61.506 E8.04581
G1 X113.424 Y61.389 E8.05131
G1 X112.84 Y60.748 E8.08015
G1 X112.317 Y60.056 E8.109
G1 X111.861 Y59.319 E8.13783
G1 X111.474 Y58.544 E8.16664
G1 X111.16 Y57.735 E8.1955
G1 X110.922 Y56.902 E8.22432
G1 X110.762 Y56.05 E8.25315
G1 X110.682 Y55.187 E8.28198
G1 X110.671 Y54.742 E8.29678
G1 X110.671 Y41.177 E8.74796
G1 X110.711 Y40.311 E8.77679
G1 X110.831 Y39.452 E8.80564
G1 X111.029 Y38.608 E8.83447
G1 X111.282 Y37.85 E8.86105
G1 X111.16 Y37.535 E8.87229
G1 X110.922 Y36.702 E8.9011
G1 X110.762 Y35.85 E8.92993
G1 X110.682 Y34.987 E8.95876
G1 X110.671 Y34.541 E8.9736
G1 X110.673 Y20.975 E9.42481
G1 X110.713 Y20.109 E9.45364
G1 X110.723 Y20.042 E9.45589
G0 F810 X110.833 Y19.25
M204 S5000
M205 X30 Y30
G0 F7200 X111.233 Y19.288
M204 S500
M205 X20 Y20
G1 F6000 E9.4825
G1 F900 X111.431 Y18.463 E9.51072
G1 X111.706 Y17.66 E9.53895
G1 X112.055 Y16.887 E9.56716
G1 X112.476 Y16.151 E9.59536
G1 X112.964 Y15.457 E9.62358
G1 X113.709 Y14.612 E9.66105
G1 X113.826 Y14.495 E9.66655
G1 X114.453 Y13.924 E9.69476
G1 X115.132 Y13.415 E9.72298
G1 X115.855 Y12.972 E9.75118
G1 X116.617 Y12.599 E9.7794
G1 X117.411 Y12.299 E9.80763
G1 X118.229 Y12.075 E9.83584
G1 X118.87 Y11.964 E9.85748
G1 X119.306 Y11.799 E9.87298
G1 X120.124 Y11.575 E9.90119
G1 X120.96 Y11.43 E9.92941
G1 X122.085 Y11.359 E9.9669
G1 X125.045 Y11.359 E10.06535
G1 X125.892 Y11.399 E10.09356
G1 X126.732 Y11.519 E10.12178
G1 X127.557 Y11.717 E10.15
G1 X128.292 Y11.969 E10.17584
G1 X128.913 Y12.078 E10.19681
G1 X129.731 Y12.303 E10.22503
G1 X130.524 Y12.604 E10.25324
G1 X131.286 Y12.978 E10.28147
G1 X132.008 Y13.422 E10.30966
G1 X132.686 Y13.933 E10.3379
G1 X133.303 Y14.495 E10.36566
G1 X133.42 Y14.612 E10.37116
G1 X133.991 Y15.239 E10.39937
G1 X134.5 Y15.918 E10.42759
G1 X134.943 Y16.641 E10.45579
G1 X135.316 Y17.403 E10.48401
G1 X135.616 Y18.197 E10.51224
G1 X135.84 Y19.015 E10.54045
G1 X135.985 Y19.851 E10.56867
G1 X136.056 Y20.976 E10.60616
G1 X136.056 Y34.543 E11.0574
G1 X136.016 Y35.39 E11.08561
G1 X135.896 Y36.23 E11.11383
G1 X135.698 Y37.055 E11.14205
G1 X135.423 Y37.858 E11.17028
G1 X135.417 Y37.871 E11.17075
G1 X135.616 Y38.397 E11.18946
G1 X135.84 Y39.215 E11.21767
G1 X135.985 Y40.051 E11.24589
G1 X136.056 Y41.175 E11.28335
G1 X136.057 Y54.741 E11.73455
G1 X136.017 Y55.589 E11.76279
G1 X135.898 Y56.429 E11.79101
G1 X135.7 Y57.253 E11.81919
G1 X135.425 Y58.056 E11.84743
G1 X135.076 Y58.829 E11.87563
G1 X134.655 Y59.566 E11.90386
G1 X134.167 Y60.26 E11.93208
G1 X133.421 Y61.106 E11.9696
G1 X133.304 Y61.223 E11.9751
G1 X132.677 Y61.794 E12.00331
G1 X131.998 Y62.303 E12.03153
G1 X131.275 Y62.746 E12.05973
G1 X130.513 Y63.119 E12.08795
G1 X129.719 Y63.419 E12.11618
G1 X128.901 Y63.643 E12.14439
G1 X128.289 Y63.749 E12.16505
G1 X128.191 Y63.791 E12.16859
G1 X127.384 Y64.049 E12.19677
G1 X126.555 Y64.231 E12.225
G1 X125.713 Y64.333 E12.25321
G1 X125.05 Y64.358 E12.27528
G1 X122.09 Y64.359 E12.37373
G1 X121.243 Y64.319 E12.40193
G1 X120.403 Y64.2 E12.43015
G1 X119.578 Y64.002 E12.45837
G1 X118.826 Y63.745 E12.4848
G1 X118.501 Y63.699 E12.49572
G1 X117.676 Y63.501 E12.52394
G1 X116.873 Y63.226 E12.55217
G1 X116.1 Y62.877 E12.58038
G1 X115.364 Y62.457 E12.60856
G1 X114.67 Y61.969 E12.63678
G1 X113.824 Y61.223 E12.67429
G1 X113.707 Y61.106 E12.6798
G1 X113.136 Y60.479 E12.708
G1 X112.627 Y59.8 E12.73623
G1 X112.184 Y59.077 E12.76443
G1 X111.811 Y58.315 E12.79265
G1 X111.511 Y57.521 E12.82088
G1 X111.287 Y56.703 E12.84909
G1 X111.142 Y55.867 E12.87731
G1 X111.071 Y54.742 E12.9148
G1 X111.071 Y41.177 E13.36597
G1 X111.111 Y40.33 E13.39418
G1 X111.231 Y39.49 E13.4224
G1 X111.429 Y38.665 E13.45062
G1 X111.704 Y37.862 E13.47885
G1 X111.71 Y37.848 E13.47936
G1 X111.511 Y37.321 E13.49809
G1 X111.287 Y36.503 E13.5263
G1 X111.142 Y35.667 E13.55452
G1 X111.071 Y34.541 E13.59205
G1 X111.073 Y20.975 E14.04325
G1 X111.113 Y20.127 E14.07149
G1 X111.12 Y20.08 E14.07307
G0 F810 X111.233 Y19.288
M204 S5000
M205 X30 Y30
G0 F7200 X111.633 Y19.326
M204 S500
M205 X20 Y20
G1 F6000 E14.09968
G1 F900 X111.831 Y18.521 E14.12725
G1 X112.106 Y17.738 E14.15485
G1 X112.455 Y16.986 E14.18243
G1 X112.874 Y16.271 E14.20999
G1 X113.361 Y15.6 E14.23757
G1 X113.992 Y14.895 E14.26903
G1 X114.109 Y14.778 E14.27454
G1 X114.723 Y14.22 E14.30213
G1 X115.388 Y13.725 E14.32971
G1 X116.097 Y13.295 E14.35728
G1 X116.844 Y12.936 E14.38485
G1 X117.623 Y12.651 E14.41244
G1 X118.425 Y12.442 E14.44001
G1 X118.954 Y12.357 E14.45783
G1 X119.518 Y12.151 E14.4778
G1 X120.32 Y11.942 E14.50536
G1 X121.139 Y11.811 E14.53295
G1 X122.085 Y11.759 E14.56446
G1 X125.045 Y11.759 E14.66291
G1 X125.873 Y11.799 E14.69048
G1 X126.694 Y11.919 E14.71808
G1 X127.499 Y12.117 E14.74565
G1 X128.171 Y12.353 E14.76934
G1 X128.862 Y12.477 E14.79269
G1 X129.66 Y12.701 E14.82026
G1 X130.433 Y13.001 E14.84783
G1 X131.174 Y13.374 E14.87543
G1 X131.875 Y13.817 E14.90301
G1 X132.53 Y14.325 E14.93058
G1 X133.02 Y14.778 E14.95277
G1 X133.137 Y14.895 E14.95828
G1 X133.695 Y15.509 E14.98587
G1 X134.19 Y16.174 E15.01344
G1 X134.62 Y16.883 E15.04102
G1 X134.979 Y17.63 E15.06859
G1 X135.264 Y18.409 E15.09618
G1 X135.473 Y19.211 E15.12374
G1 X135.604 Y20.03 E15.15133
G1 X135.656 Y20.976 E15.18284
G1 X135.656 Y34.543 E15.63408
G1 X135.616 Y35.371 E15.66165
G1 X135.496 Y36.192 E15.68925
G1 X135.298 Y36.997 E15.71682
G1 X135.024 Y37.779 E15.74438
G1 X134.988 Y37.856 E15.74721
G1 X135.264 Y38.609 E15.77388
G1 X135.473 Y39.411 E15.80145
G1 X135.604 Y40.23 E15.82904
G1 X135.656 Y41.175 E15.86051
G1 X135.657 Y54.741 E16.31172
G1 X135.617 Y55.57 E16.33933
G1 X135.498 Y56.39 E16.36688
G1 X135.3 Y57.195 E16.39446
G1 X135.025 Y57.978 E16.42206
G1 X134.676 Y58.73 E16.44963
G1 X134.257 Y59.445 E16.4772
G1 X133.77 Y60.117 E16.5048
G1 X133.138 Y60.823 E16.53632
G1 X133.021 Y60.94 E16.54182
G1 X132.407 Y61.498 E16.56941
G1 X131.742 Y61.993 E16.59699
G1 X131.033 Y62.423 E16.62457
G1 X130.286 Y62.782 E16.65213
G1 X129.507 Y63.067 E16.67972
G1 X128.705 Y63.276 E16.70729
G1 X128.171 Y63.361 E16.72527
G1 X127.929 Y63.461 E16.73398
G1 X127.135 Y63.701 E16.76157
G1 X126.322 Y63.863 E16.78914
G1 X125.497 Y63.946 E16.81672
G1 X125.05 Y63.958 E16.83159
G1 X122.09 Y63.959 E16.93004
G1 X121.262 Y63.919 E16.95761
G1 X120.441 Y63.8 E16.9852
G1 X119.636 Y63.602 E17.01278
G1 X118.936 Y63.357 E17.03744
G1 X118.539 Y63.299 E17.05079
G1 X117.734 Y63.101 E17.07836
G1 X116.952 Y62.827 E17.10592
G1 X116.199 Y62.478 E17.13352
G1 X115.484 Y62.058 E17.16111
G1 X114.813 Y61.572 E17.18866
G1 X114.107 Y60.94 E17.22018
G1 X113.99 Y60.823 E17.22568
G1 X113.432 Y60.209 E17.25328
G1 X112.937 Y59.544 E17.28085
G1 X112.507 Y58.835 E17.30843
G1 X112.148 Y58.088 E17.33599
G1 X111.863 Y57.309 E17.36358
G1 X111.654 Y56.507 E17.39115
G1 X111.523 Y55.688 E17.41873
G1 X111.471 Y54.742 E17.45025
G1 X111.471 Y41.177 E17.90142
G1 X111.511 Y40.349 E17.92899
G1 X111.631 Y39.528 E17.95659
G1 X111.829 Y38.723 E17.98416
G1 X112.103 Y37.941 E18.01172
G1 X112.139 Y37.863 E18.01458
G1 X111.863 Y37.109 E18.04128
G1 X111.654 Y36.307 E18.06885
G1 X111.523 Y35.488 E18.09644
G1 X111.471 Y34.541 E18.12798
G1 X111.473 Y20.975 E18.57919
G1 X111.513 Y20.146 E18.60679
G1 X111.518 Y20.118 E18.60774
G0 F810 X111.633 Y19.326
M204 S5000
M205 X30 Y30
G0 F7200 X112.033 Y19.365
M204 S500
M205 X20 Y20
G1 F6000 E18.63435
G1 F900 X112.231 Y18.58 E18.66127
G1 X112.505 Y17.818 E18.68821
G1 X112.854 Y17.088 E18.71512
G1 X113.272 Y16.394 E18.74206
G1 X113.757 Y15.746 E18.76898
G1 X114.275 Y15.178 E18.79455
G1 X114.392 Y15.061 E18.80006
G1 X114.992 Y14.517 E18.82699
G1 X115.643 Y14.035 E18.85393
G1 X116.338 Y13.62 E18.88086
G1 X117.07 Y13.276 E18.90776
G1 X117.834 Y13.005 E18.93472
G1 X118.62 Y12.811 E18.96165
G1 X119.036 Y12.751 E18.97563
G1 X119.729 Y12.505 E19.00009
G1 X120.515 Y12.311 E19.02701
G1 X121.316 Y12.195 E19.05393
G1 X122.085 Y12.159 E19.07954
G1 X125.045 Y12.159 E19.17799
G1 X125.854 Y12.199 E19.20493
G1 X126.655 Y12.319 E19.23187
G1 X127.44 Y12.516 E19.25878
G1 X128.052 Y12.737 E19.28043
G1 X128.81 Y12.875 E19.30605
G1 X129.588 Y13.099 E19.33298
G1 X130.34 Y13.398 E19.3599
G1 X131.06 Y13.769 E19.38683
G1 X131.739 Y14.21 E19.41376
G1 X132.371 Y14.716 E19.44069
G1 X132.737 Y15.061 E19.45742
G1 X132.854 Y15.178 E19.46292
G1 X133.398 Y15.778 E19.48986
G1 X133.88 Y16.429 E19.5168
G1 X134.295 Y17.124 E19.54373
G1 X134.639 Y17.856 E19.57063
G1 X134.91 Y18.62 E19.59759
G1 X135.104 Y19.406 E19.62452
G1 X135.22 Y20.207 E19.65143
G1 X135.256 Y20.976 E19.67704
G1 X135.256 Y34.543 E20.12828
G1 X135.216 Y35.352 E20.15522
G1 X135.096 Y36.153 E20.18216
G1 X134.899 Y36.938 E20.20908
G1 X134.624 Y37.699 E20.23599
G1 X134.547 Y37.86 E20.24193
G1 X134.639 Y38.056 E20.24913
G1 X134.91 Y38.82 E20.27609
G1 X135.104 Y39.606 E20.30302
G1 X135.22 Y40.407 E20.32994
G1 X135.256 Y41.175 E20.35551
G1 X135.257 Y54.741 E20.80671
G1 X135.217 Y55.55 E20.83366
G1 X135.098 Y56.351 E20.86059
G1 X134.9 Y57.136 E20.88752
G1 X134.625 Y57.898 E20.91446
G1 X134.277 Y58.629 E20.94139
G1 X133.859 Y59.322 E20.96831
G1 X133.374 Y59.97 E20.99523
G1 X132.855 Y60.54 E21.02087
G1 X132.738 Y60.657 E21.02637
G1 X132.138 Y61.201 E21.05331
G1 X131.487 Y61.683 E21.08025
G1 X130.792 Y62.098 E21.10717
G1 X130.06 Y62.442 E21.13407
G1 X129.296 Y62.713 E21.16103
G1 X128.51 Y62.907 E21.18796
G1 X128.066 Y62.971 E21.20288
G1 X127.669 Y63.128 E21.21708
G1 X126.89 Y63.348 E21.244
G1 X126.093 Y63.491 E21.27093
G1 X125.05 Y63.558 E21.3057
G1 X122.09 Y63.559 E21.40415
G1 X121.281 Y63.519 E21.43109
