;FLAVOR:Marlin
;TIME:7104
;Filament used: 8.63627m
;Layer height: 0.2
;Generated with Cura_SteamEngine 3.6.0
M140 S70
M105
M190 S70
M104 S215
M105
M109 S215
M82 ;absolute extrusion mode
G28 ; home all axes
M117 Purge extruder
G92 E0 ; reset extruder
G1 Z1.0 F3000 ; move z up little to prevent scratching of surface
G1 X0.1 Y20 Z0.3 F5000.0 ; move to start-line position G1 X0.1 Y200.0 Z0.3 F1500.0 E15 ; draw 1st line
G1 X0.4 Y200.0 Z0.3 F5000.0 ; move to side a little
G1 X0.4 Y20 Z0.3 F1500.0 E30 ; draw 2nd line
G92 E0 ; reset extruder
G1 Z1.0 F3000 ; move z up little to prevent scratching of surface
M117 All systems go!
G92 E0
G1 F6000 E-5
;LAYER_COUNT:62
;LAYER:0
M107
M204 S5000
M205 X30 Y30
G0 F7200 X59.505 Y101.337 Z0.2
M204 S500
M205 X20 Y20
;TYPE:SKIRT
G1 F6000 E0
G1 F900 X60.072 Y101.049 E0.02327
G1 X60.67 Y100.833 E0.04653
G1 X61.291 Y100.695 E0.0698
G1 X62.08 Y100.633 E0.09876
G1 X172.92 Y100.633 E4.15397
G1 X173.555 Y100.673 E4.17725
G1 X174.179 Y100.792 E4.20049
G1 X174.784 Y100.989 E4.22377
G1 X175.359 Y101.26 E4.24702
G1 X175.896 Y101.601 E4.27029
G1 X176.498 Y102.115 E4.29926
G1 X176.627 Y102.244 E4.30593
G1 X177.047 Y102.721 E4.32918
G1 X177.405 Y103.247 E4.35246
G1 X177.693 Y103.814 E4.37573
G1 X177.909 Y104.412 E4.39899
G1 X178.047 Y105.033 E4.42226
G1 X178.109 Y105.822 E4.45122
G1 X178.109 Y129.178 E5.30573
G1 X178.069 Y129.813 E5.329
G1 X177.95 Y130.437 E5.35225
G1 X177.753 Y131.042 E5.37552
G1 X177.482 Y131.617 E5.39878
G1 X177.141 Y132.154 E5.42205
G1 X176.627 Y132.756 E5.45101
G1 X176.498 Y132.885 E5.45769
G1 X176.021 Y133.305 E5.48094
G1 X175.495 Y133.663 E5.50422
G1 X174.928 Y133.951 E5.52749
G1 X174.33 Y134.167 E5.55075
G1 X173.709 Y134.305 E5.57402
G1 X172.92 Y134.367 E5.60298
G1 X62.08 Y134.367 E9.65819
G1 X61.445 Y134.327 E9.68147
G1 X60.821 Y134.208 E9.70471
G1 X60.216 Y134.011 E9.72799
G1 X59.641 Y133.74 E9.75124
G1 X59.104 Y133.399 E9.77452
G1 X58.502 Y132.885 E9.80348
G1 X58.373 Y132.756 E9.81015
G1 X57.953 Y132.279 E9.8334
G1 X57.595 Y131.753 E9.85668
G1 X57.307 Y131.186 E9.87995
G1 X57.091 Y130.588 E9.90321
G1 X56.953 Y129.967 E9.92649
G1 X56.891 Y129.178 E9.95544
G1 X56.891 Y105.822 E10.80995
G1 X56.931 Y105.187 E10.83323
G1 X57.05 Y104.563 E10.85647
G1 X57.247 Y103.958 E10.87974
G1 X57.518 Y103.383 E10.903
G1 X57.859 Y102.846 E10.92627
G1 X58.373 Y102.244 E10.95524
G1 X58.502 Y102.115 E10.96191
G1 X58.911 Y101.755 E10.98184
G0 F810 X58.979 Y101.695
G0 X59.505 Y101.337
M204 S5000
M205 X30 Y30
G0 F7200 X59.776 Y101.689
M204 S500
M205 X20 Y20
G1 F6000 E11.00844
G1 F900 X60.321 Y101.421 E11.03066
G1 X60.897 Y101.227 E11.0529
G1 X61.493 Y101.11 E11.07512
G1 X62.08 Y101.073 E11.09664
G1 X172.92 Y101.073 E15.15185
G1 X173.526 Y101.113 E15.17407
G1 X174.122 Y101.232 E15.1963
G1 X174.697 Y101.428 E15.21853
G1 X175.241 Y101.699 E15.24076
G1 X175.746 Y102.038 E15.26302
G1 X176.187 Y102.426 E15.28451
G1 X176.316 Y102.555 E15.29118
G1 X176.716 Y103.012 E15.3134
G1 X177.053 Y103.518 E15.33564
G1 X177.321 Y104.063 E15.35786
G1 X177.515 Y104.639 E15.3801
G1 X177.632 Y105.235 E15.40232
G1 X177.669 Y105.822 E15.42384
G1 X177.669 Y129.178 E16.27835
G1 X177.629 Y129.784 E16.30057
G1 X177.51 Y130.38 E16.3228
G1 X177.314 Y130.955 E16.34503
G1 X177.043 Y131.499 E16.36726
G1 X176.704 Y132.004 E16.38952
G1 X176.316 Y132.445 E16.41101
G1 X176.187 Y132.574 E16.41768
G1 X175.73 Y132.974 E16.4399
G1 X175.224 Y133.311 E16.46214
G1 X174.679 Y133.579 E16.48436
G1 X174.103 Y133.773 E16.5066
G1 X173.507 Y133.89 E16.52882
G1 X172.92 Y133.927 E16.55034
G1 X62.08 Y133.927 E20.60555
G1 X61.474 Y133.887 E20.62777
G1 X60.878 Y133.768 E20.65001
G1 X60.303 Y133.572 E20.67223
G1 X59.759 Y133.301 E20.69447
G1 X59.254 Y132.962 E20.71672
G1 X58.813 Y132.574 E20.73821
G1 X58.684 Y132.445 E20.74488
G1 X58.284 Y131.988 E20.7671
G1 X57.947 Y131.482 E20.78935
G1 X57.679 Y130.937 E20.81157
G1 X57.485 Y130.361 E20.8338
G1 X57.368 Y129.765 E20.85602
G1 X57.331 Y129.178 E20.87754
G1 X57.331 Y105.822 E21.73205
G1 X57.371 Y105.216 E21.75427
G1 X57.49 Y104.62 E21.7765
G1 X57.686 Y104.045 E21.79873
G1 X57.957 Y103.501 E21.82097
G1 X58.296 Y102.996 E21.84322
G1 X58.684 Y102.555 E21.86471
G1 X58.813 Y102.426 E21.87138
G1 X59.18 Y102.105 E21.88922
G0 F810 X59.27 Y102.026
G0 X59.776 Y101.689
M204 S5000
M205 X30 Y30
G0 F7200 X60.044 Y102.042
M204 S500
M205 X20 Y20
G1 F6000 E21.91582
G1 F900 X60.567 Y101.796 E21.93697
G1 X61.119 Y101.625 E21.95811
G1 X61.69 Y101.531 E21.97928
G1 X62.08 Y101.513 E21.99356
G1 X172.92 Y101.513 E26.04877
G1 X173.497 Y101.553 E26.06993
G1 X174.062 Y101.672 E26.09106
G1 X174.606 Y101.868 E26.11221
G1 X175.117 Y102.137 E26.13334
G1 X175.587 Y102.474 E26.1545
G1 X175.876 Y102.737 E26.1688
G1 X176.005 Y102.866 E26.17547
G1 X176.384 Y103.302 E26.19661
G1 X176.7 Y103.786 E26.21775
G1 X176.946 Y104.309 E26.2389
G1 X177.117 Y104.861 E26.26004
G1 X177.211 Y105.432 E26.28121
G1 X177.229 Y105.822 E26.2955
G1 X177.229 Y129.178 E27.15
G1 X177.189 Y129.755 E27.17117
G1 X177.07 Y130.32 E27.19229
G1 X176.874 Y130.864 E27.21345
G1 X176.605 Y131.375 E27.23457
G1 X176.268 Y131.845 E27.25573
G1 X176.005 Y132.134 E27.27003
G1 X175.876 Y132.263 E27.2767
G1 X175.44 Y132.642 E27.29784
G1 X174.956 Y132.958 E27.31899
G1 X174.433 Y133.204 E27.34013
G1 X173.881 Y133.375 E27.36127
G1 X173.31 Y133.469 E27.38245
G1 X172.92 Y133.487 E27.39673
G1 X62.08 Y133.487 E31.45194
G1 X61.503 Y133.447 E31.4731
G1 X60.938 Y133.328 E31.49422
G1 X60.394 Y133.132 E31.51538
G1 X59.883 Y132.863 E31.53651
G1 X59.413 Y132.526 E31.55767
G1 X59.124 Y132.263 E31.57196
G1 X58.995 Y132.134 E31.57864
G1 X58.616 Y131.698 E31.59977
G1 X58.3 Y131.214 E31.62092
G1 X58.054 Y130.691 E31.64207
G1 X57.883 Y130.139 E31.66321
G1 X57.789 Y129.568 E31.68438
G1 X57.771 Y129.178 E31.69866
G1 X57.771 Y105.822 E32.55317
G1 X57.811 Y105.245 E32.57433
G1 X57.93 Y104.68 E32.59546
G1 X58.126 Y104.136 E32.61661
G1 X58.395 Y103.625 E32.63774
G1 X58.732 Y103.155 E32.6589
G1 X58.995 Y102.866 E32.67319
G1 X59.124 Y102.737 E32.67987
G1 X59.448 Y102.455 E32.69558
G0 F810 X59.56 Y102.358
G0 X60.044 Y102.042
M204 S5000
M205 X30 Y30
G0 F7200 X60.311 Y102.398
M204 S500
M205 X20 Y20
G1 F6000 E32.72218
G1 F900 X60.81 Y102.175 E32.74218
G1 X61.336 Y102.028 E32.76216
G1 X62.08 Y101.953 E32.78952
G1 X172.92 Y101.953 E36.84473
G1 X173.465 Y101.993 E36.86472
G1 X173.999 Y102.112 E36.88474
G1 X174.509 Y102.307 E36.90471
G1 X174.986 Y102.575 E36.92473
G1 X175.565 Y103.048 E36.95208
G1 X175.694 Y103.177 E36.95876
G1 X176.051 Y103.591 E36.97876
G1 X176.344 Y104.053 E36.99877
G1 X176.567 Y104.552 E37.01877
G1 X176.714 Y105.078 E37.03875
G1 X176.789 Y105.822 E37.06611
G1 X176.789 Y129.178 E37.92062
G1 X176.749 Y129.723 E37.94061
G1 X176.63 Y130.257 E37.96063
G1 X176.435 Y130.767 E37.9806
G1 X176.167 Y131.244 E38.00062
G1 X175.694 Y131.823 E38.02797
G1 X175.565 Y131.952 E38.03465
G1 X175.151 Y132.309 E38.05465
G1 X174.689 Y132.602 E38.07466
G1 X174.19 Y132.825 E38.09466
G1 X173.664 Y132.972 E38.11464
G1 X172.92 Y133.047 E38.142
G1 X62.08 Y133.047 E42.19721
G1 X61.535 Y133.007 E42.2172
G1 X61.001 Y132.888 E42.23722
G1 X60.491 Y132.693 E42.25719
G1 X60.014 Y132.425 E42.27721
G1 X59.435 Y131.952 E42.30456
G1 X59.306 Y131.823 E42.31124
G1 X58.949 Y131.409 E42.33124
G1 X58.656 Y130.947 E42.35125
G1 X58.433 Y130.448 E42.37125
G1 X58.286 Y129.922 E42.39123
G1 X58.211 Y129.178 E42.41859
G1 X58.211 Y105.822 E43.2731
G1 X58.251 Y105.277 E43.29309
G1 X58.37 Y104.743 E43.31311
G1 X58.565 Y104.233 E43.33308
G1 X58.833 Y103.756 E43.3531
G1 X59.306 Y103.177 E43.38045
G1 X59.435 Y103.048 E43.38713
G1 X59.713 Y102.808 E43.40056
G0 F810 X59.849 Y102.691
G0 X60.311 Y102.398
M204 S5000
M205 X30 Y30
G0 F7200 X60.574 Y102.757
M204 S500
M205 X20 Y20
G1 F6000 E43.42716
G1 F900 X61.048 Y102.559 E43.44596
G1 X61.546 Y102.436 E43.46472
G1 X62.08 Y102.393 E43.48432
G1 X172.92 Y102.393 E47.53953
G1 X173.432 Y102.433 E47.55832
G1 X173.931 Y102.552 E47.57709
G1 X174.406 Y102.747 E47.59588
G1 X174.845 Y103.013 E47.61466
G1 X175.253 Y103.36 E47.63425
G1 X175.382 Y103.489 E47.64093
G1 X175.716 Y103.879 E47.65971
G1 X175.985 Y104.316 E47.67849
G1 X176.183 Y104.79 E47.69728
G1 X176.306 Y105.288 E47.71605
G1 X176.349 Y105.822 E47.73565
G1 X176.349 Y129.178 E48.59016
G1 X176.309 Y129.69 E48.60894
G1 X176.19 Y130.189 E48.62771
G1 X175.995 Y130.664 E48.6465
G1 X175.729 Y131.103 E48.66528
G1 X175.382 Y131.511 E48.68487
G1 X175.253 Y131.64 E48.69155
G1 X174.863 Y131.974 E48.71033
G1 X174.426 Y132.243 E48.72911
G1 X173.952 Y132.441 E48.7479
G1 X173.454 Y132.564 E48.76667
G1 X172.92 Y132.607 E48.78627
G1 X62.08 Y132.607 E52.84148
G1 X61.568 Y132.567 E52.86027
G1 X61.069 Y132.448 E52.87904
G1 X60.594 Y132.253 E52.89782
G1 X60.155 Y131.987 E52.9166
G1 X59.747 Y131.64 E52.9362
G1 X59.618 Y131.511 E52.94287
G1 X59.284 Y131.121 E52.96166
G1 X59.015 Y130.684 E52.98043
G1 X58.817 Y130.21 E52.99923
G1 X58.694 Y129.712 E53.01799
G1 X58.651 Y129.178 E53.0376
G1 X58.651 Y105.822 E53.8921
G1 X58.691 Y105.31 E53.91089
G1 X58.81 Y104.811 E53.92966
G1 X59.005 Y104.336 E53.94844
G1 X59.271 Y103.897 E53.96722
G1 X59.618 Y103.489 E53.98682
G1 X59.747 Y103.36 E53.99349
G1 X59.975 Y103.165 E54.00447
G0 F810 X60.137 Y103.026
G0 X60.574 Y102.757
M204 S5000
M205 X30 Y30
G0 F7200 X60.834 Y103.119
M204 S500
M205 X20 Y20
G1 F6000 E54.03107
G1 F900 X61.28 Y102.947 E54.04856
G1 X61.748 Y102.852 E54.06603
G1 X62.08 Y102.833 E54.0782
G1 X172.92 Y102.833 E58.1334
G1 X173.396 Y102.873 E58.15088
G1 X173.859 Y102.992 E58.16837
G1 X174.296 Y103.186 E58.18586
G1 X174.694 Y103.45 E58.20334
G1 X174.942 Y103.671 E58.21549
G1 X175.071 Y103.8 E58.22216
G1 X175.38 Y104.165 E58.23966
G1 X175.623 Y104.576 E58.25713
G1 X175.795 Y105.022 E58.27462
G1 X175.89 Y105.49 E58.29209
G1 X175.909 Y105.822 E58.30426
G1 X175.909 Y129.178 E59.15876
G1 X175.869 Y129.654 E59.17624
G1 X175.75 Y130.117 E59.19373
G1 X175.556 Y130.554 E59.21122
G1 X175.292 Y130.952 E59.2287
G1 X175.071 Y131.2 E59.24085
G1 X174.942 Y131.329 E59.24752
G1 X174.577 Y131.638 E59.26502
G1 X174.166 Y131.881 E59.28249
G1 X173.72 Y132.053 E59.29998
G1 X173.252 Y132.148 E59.31745
G1 X172.92 Y132.167 E59.32962
G1 X62.08 Y132.167 E63.38482
G1 X61.604 Y132.127 E63.4023
G1 X61.141 Y132.008 E63.41979
G1 X60.704 Y131.814 E63.43728
G1 X60.306 Y131.55 E63.45476
G1 X60.058 Y131.329 E63.46691
G1 X59.929 Y131.2 E63.47358
G1 X59.62 Y130.835 E63.49108
G1 X59.377 Y130.424 E63.50855
G1 X59.205 Y129.978 E63.52604
G1 X59.11 Y129.51 E63.54351
G1 X59.091 Y129.178 E63.55568
G1 X59.091 Y105.822 E64.41018
G1 X59.131 Y105.346 E64.42766
G1 X59.25 Y104.883 E64.44515
G1 X59.444 Y104.446 E64.46264
G1 X59.708 Y104.048 E64.48012
G1 X59.929 Y103.8 E64.49227
G1 X60.058 Y103.671 E64.49894
G1 X60.233 Y103.523 E64.50733
G0 F810 X60.423 Y103.362
G0 X60.834 Y103.119
M204 S5000
M205 X30 Y30
G0 F7200 X60.707 Y103.701
M204 S500
M205 X20 Y20
G1 F6000 E64.53393
G1 F900 X61.09 Y103.485 E64.55001
G1 X61.505 Y103.342 E64.56607
G1 X62.08 Y103.273 E64.58726
G1 X172.92 Y103.273 E68.64247
G1 X173.358 Y103.313 E68.65856
G1 X173.781 Y103.431 E68.67463
G1 X174.176 Y103.624 E68.69071
G1 X174.631 Y103.982 E68.71189
G1 X174.76 Y104.111 E68.71857
G1 X175.041 Y104.449 E68.73465
G1 X175.257 Y104.832 E68.75074
G1 X175.4 Y105.247 E68.7668
G1 X175.469 Y105.822 E68.78798
G1 X175.469 Y129.178 E69.64249
G1 X175.429 Y129.616 E69.65858
G1 X175.311 Y130.039 E69.67465
G1 X175.118 Y130.434 E69.69073
G1 X174.76 Y130.889 E69.71192
G1 X174.631 Y131.018 E69.71859
G1 X174.293 Y131.299 E69.73467
G1 X173.91 Y131.515 E69.75076
G1 X173.495 Y131.658 E69.76682
G1 X172.92 Y131.727 E69.78801
G1 X62.08 Y131.727 E73.84321
G1 X61.642 Y131.687 E73.85931
G1 X61.219 Y131.569 E73.87537
G1 X60.824 Y131.376 E73.89146
G1 X60.369 Y131.018 E73.91264
G1 X60.24 Y130.889 E73.91931
G1 X59.959 Y130.551 E73.93539
G1 X59.743 Y130.168 E73.95148
G1 X59.6 Y129.753 E73.96754
G1 X59.531 Y129.178 E73.98873
G1 X59.531 Y105.822 E74.84324
G1 X59.571 Y105.384 E74.85933
G1 X59.689 Y104.961 E74.87539
G1 X59.882 Y104.566 E74.89148
G1 X60.175 Y104.194 E74.9088
G0 F810 X60.24 Y104.111
G0 X60.369 Y103.982
G0 X60.707 Y103.701
M204 S5000
M205 X30 Y30
G0 F7200 X60.988 Y104.041
M204 S500
M205 X20 Y20
G1 F6000 E74.9354
G1 F900 X61.34 Y103.857 E74.94993
G1 X61.721 Y103.746 E74.96445
G1 X62.08 Y103.713 E74.97764
G1 X172.92 Y103.713 E79.03285
G1 X173.315 Y103.753 E79.04738
G1 X173.695 Y103.871 E79.06193
G1 X174.043 Y104.063 E79.07647
G1 X174.32 Y104.293 E79.08965
G1 X174.449 Y104.422 E79.09632
G1 X174.701 Y104.73 E79.11088
G1 X174.885 Y105.082 E79.12541
G1 X174.996 Y105.463 E79.13993
G1 X175.029 Y105.822 E79.15312
G1 X175.029 Y129.178 E80.00763
G1 X174.989 Y129.573 E80.02215
G1 X174.871 Y129.953 E80.03671
G1 X174.679 Y130.301 E80.05125
G1 X174.449 Y130.578 E80.06442
G1 X174.32 Y130.707 E80.0711
G1 X174.012 Y130.959 E80.08566
G1 X173.66 Y131.143 E80.10019
G1 X173.279 Y131.254 E80.11471
G1 X172.92 Y131.287 E80.1279
G1 X62.08 Y131.287 E84.18311
G1 X61.685 Y131.247 E84.19763
G1 X61.305 Y131.129 E84.21219
G1 X60.957 Y130.937 E84.22673
G1 X60.68 Y130.707 E84.2399
G1 X60.551 Y130.578 E84.24658
G1 X60.299 Y130.27 E84.26114
G1 X60.115 Y129.918 E84.27567
G1 X60.004 Y129.537 E84.29019
G1 X59.971 Y129.178 E84.30338
G1 X59.971 Y105.822 E85.15788
G1 X60.011 Y105.427 E85.17241
G1 X60.129 Y105.047 E85.18697
G1 X60.321 Y104.699 E85.20151
G1 X60.457 Y104.535 E85.2093
G0 F810 X60.551 Y104.422
G0 X60.68 Y104.293
G0 X60.988 Y104.041
M204 S5000
M205 X30 Y30
G0 F7200 X61.265 Y104.386
M204 S500
M205 X20 Y20
G1 F6000 E85.2359
G1 F900 X61.582 Y104.236 E85.24873
G1 X62.08 Y104.153 E85.2672
G1 X172.92 Y104.153 E89.32241
G1 X173.268 Y104.193 E89.33523
G1 X173.598 Y104.31 E89.34804
G1 X174.009 Y104.604 E89.36653
G1 X174.138 Y104.733 E89.3732
G1 X174.356 Y105.007 E89.38601
G1 X174.506 Y105.324 E89.39884
G1 X174.589 Y105.822 E89.41731
G1 X174.589 Y129.178 E90.27182
G1 X174.549 Y129.526 E90.28463
G1 X174.432 Y129.856 E90.29744
G1 X174.138 Y130.267 E90.31593
G1 X174.009 Y130.396 E90.32261
G1 X173.735 Y130.614 E90.33542
G1 X173.418 Y130.764 E90.34825
G1 X172.92 Y130.847 E90.36672
G1 X62.08 Y130.847 E94.42193
G1 X61.732 Y130.807 E94.43474
G1 X61.402 Y130.69 E94.44755
G1 X60.991 Y130.396 E94.46604
G1 X60.862 Y130.267 E94.47272
G1 X60.644 Y129.993 E94.48553
G1 X60.494 Y129.676 E94.49836
G1 X60.411 Y129.178 E94.51683
G1 X60.411 Y105.822 E95.37133
G1 X60.451 Y105.474 E95.38415
G1 X60.568 Y105.144 E95.39696
G1 X60.749 Y104.891 E95.40834
G0 F810 X60.862 Y104.733
G0 X60.991 Y104.604
G0 X61.265 Y104.386
M204 S5000
M205 X30 Y30
G0 F7200 X61.538 Y104.736
M204 S500
M205 X20 Y20
G1 F6000 E95.43494
G1 F900 X61.813 Y104.626 E95.44578
G1 X62.08 Y104.593 E95.45562
G1 X172.92 Y104.593 E99.51083
G1 X173.213 Y104.633 E99.52165
G1 X173.485 Y104.749 E99.53247
G1 X173.698 Y104.915 E99.54235
G1 X173.827 Y105.044 E99.54902
G1 X174.006 Y105.28 E99.55986
G1 X174.116 Y105.555 E99.57069
G1 X174.149 Y105.822 E99.58054
G1 X174.149 Y129.178 E100.43504
G1 X174.109 Y129.471 E100.44586
G1 X173.993 Y129.743 E100.45668
G1 X173.827 Y129.956 E100.46656
G1 X173.698 Y130.085 E100.47323
G1 X173.462 Y130.264 E100.48407
G1 X173.187 Y130.374 E100.49491
G1 X172.92 Y130.407 E100.50475
G1 X62.08 Y130.407 E104.55996
G1 X61.787 Y130.367 E104.57078
G1 X61.515 Y130.251 E104.5816
G1 X61.302 Y130.085 E104.59148
G1 X61.173 Y129.956 E104.59815
G1 X60.994 Y129.72 E104.60899
G1 X60.884 Y129.445 E104.61982
G1 X60.851 Y129.178 E104.62967
G1 X60.851 Y105.822 E105.48417
G1 X60.891 Y105.529 E105.49499
G1 X61.007 Y105.257 E105.50581
G1 X61.02 Y105.24 E105.50659
G0 F810 X61.173 Y105.044
G0 X61.302 Y104.915
G0 X61.538 Y104.736
M204 S5000
M205 X30 Y30
G0 F7200 X61.801 Y105.095
M204 S500
M205 X20 Y20
G1 F6000 E105.53319
G1 F900 X62.08 Y105.033 E105.54365
G1 X172.92 Y105.033 E109.59886
G1 X173.145 Y105.073 E109.60722
G1 X173.387 Y105.226 E109.61769
G1 X173.516 Y105.355 E109.62437
G1 X173.647 Y105.543 E109.63275
G1 X173.709 Y105.822 E109.64321
G1 X173.709 Y129.178 E110.49771
G1 X173.669 Y129.403 E110.50607
G1 X173.516 Y129.645 E110.51655
G1 X173.387 Y129.774 E110.52322
G1 X173.199 Y129.905 E110.53161
G1 X172.92 Y129.967 E110.54206
