;FLAVOR:Marlin
;TIME:1256
;Filament used: 0.908298m
;Layer height: 0.2
;Generated with Cura_SteamEngine 3.6.0
M140 S70
M105
M190 S70
M104 S215
M105
M109 S215
M82 ;absolute extrusion mode
G28 ; home all axes
M117 Purge extruder
G92 E0 ; reset extruder
G1 Z1.0 F3000 ; move z up little to prevent scratching of surface
G1 X0.1 Y20 Z0.3 F5000.0 ; move to start-line position G1 X0.1 Y200.0 Z0.3 F1500.0 E15 ; draw 1st line
G1 X0.4 Y200.0 Z0.3 F5000.0 ; move to side a little
G1 X0.4 Y20 Z0.3 F1500.0 E30 ; draw 2nd line
G92 E0 ; reset extruder
G1 Z1.0 F3000 ; move z up little to prevent scratching of surface
M117 All systems go!
G92 E0
G1 F6000 E-5
;LAYER_COUNT:47
;LAYER:0
M107
M204 S5000
M205 X30 Y30
G0 F7200 X93.744 Y103.995 Z0.2
M204 S500
M205 X20 Y20
;TYPE:SKIRT
G1 F6000 E0
G1 F900 X94.446 Y103.373 E0.03431
G1 X95.181 Y102.834 E0.06766
G1 X95.716 Y102.49 E0.09093
G1 X96.29 Y102.217 E0.11419
G1 X96.598 Y102.105 E0.12618
G1 X97.462 Y101.822 E0.15944
G1 X98.078 Y101.663 E0.18272
G1 X99.02 Y101.571 E0.21734
G1 X99.93 Y101.568 E0.25064
G1 X100.565 Y101.606 E0.27391
G1 X101.495 Y101.811 E0.30875
G1 X102.36 Y102.089 E0.34199
G1 X102.952 Y102.321 E0.36526
G1 X103.51 Y102.626 E0.38852
G1 X103.779 Y102.807 E0.40039
G1 X104.514 Y103.339 E0.43358
G1 X105.005 Y103.744 E0.45687
G1 X105.627 Y104.446 E0.49118
G1 X106.166 Y105.181 E0.52453
G1 X106.51 Y105.716 E0.5478
G1 X106.783 Y106.29 E0.57105
G1 X106.895 Y106.598 E0.58304
G1 X107.178 Y107.462 E0.61631
G1 X107.337 Y108.078 E0.63958
G1 X107.429 Y109.02 E0.67421
G1 X107.432 Y109.93 E0.7075
G1 X107.394 Y110.565 E0.73078
G1 X107.189 Y111.495 E0.76562
G1 X106.911 Y112.36 E0.79886
G1 X106.679 Y112.952 E0.82212
G1 X106.374 Y113.51 E0.84539
G1 X106.193 Y113.779 E0.85725
G1 X105.661 Y114.514 E0.89045
G1 X105.256 Y115.005 E0.91373
G1 X104.554 Y115.627 E0.94805
G1 X103.819 Y116.166 E0.9814
G1 X103.284 Y116.51 E1.00467
G1 X102.71 Y116.783 E1.02792
G1 X102.402 Y116.895 E1.03991
G1 X101.538 Y117.178 E1.07317
G1 X100.922 Y117.337 E1.09645
G1 X99.98 Y117.429 E1.13108
G1 X99.07 Y117.432 E1.16437
G1 X98.435 Y117.394 E1.18765
G1 X97.81 Y117.277 E1.21091
G1 X97.503 Y117.189 E1.22259
G1 X96.636 Y116.91 E1.25592
G1 X96.044 Y116.677 E1.27919
G1 X95.486 Y116.372 E1.30246
G1 X95.215 Y116.189 E1.31442
G1 X94.48 Y115.656 E1.34764
G1 X93.99 Y115.251 E1.3709
G1 X93.369 Y114.55 E1.40516
G1 X92.832 Y113.817 E1.4384
G1 X92.489 Y113.282 E1.46165
G1 X92.216 Y112.707 E1.48494
G1 X92.105 Y112.402 E1.49682
G1 X91.822 Y111.538 E1.53008
G1 X91.663 Y110.922 E1.55336
G1 X91.571 Y109.98 E1.58798
G1 X91.568 Y109.07 E1.62128
G1 X91.606 Y108.435 E1.64455
G1 X91.811 Y107.505 E1.67939
G1 X92.089 Y106.64 E1.71263
G1 X92.321 Y106.048 E1.7359
G1 X92.626 Y105.49 E1.75916
G1 X92.807 Y105.221 E1.77103
G1 X93.286 Y104.559 E1.80092
G0 F810 X93.339 Y104.486
G0 X93.744 Y103.995
M204 S5000
M205 X30 Y30
G0 F7200 X94.083 Y104.276
M204 S500
M205 X20 Y20
G1 F6000 E1.82752
G1 F900 X94.706 Y103.727 E1.8579
G1 X95.441 Y103.188 E1.89125
G1 X95.953 Y102.862 E1.91345
G1 X96.735 Y102.524 E1.94462
G1 X97.599 Y102.241 E1.97788
G1 X98.188 Y102.09 E2.00013
G1 X99.022 Y102.011 E2.03078
G1 X99.932 Y102.008 E2.06407
G1 X100.538 Y102.046 E2.08629
G1 X101.361 Y102.23 E2.11714
G1 X102.226 Y102.508 E2.15038
G1 X102.791 Y102.731 E2.17261
G1 X103.521 Y103.163 E2.20364
G1 X104.256 Y103.695 E2.23684
G1 X104.724 Y104.083 E2.25908
G1 X105.273 Y104.706 E2.28946
G1 X105.812 Y105.441 E2.3228
G1 X106.138 Y105.953 E2.34501
G1 X106.476 Y106.735 E2.37618
G1 X106.759 Y107.599 E2.40944
G1 X106.91 Y108.188 E2.43169
G1 X106.989 Y109.022 E2.46234
G1 X106.992 Y109.932 E2.49563
G1 X106.954 Y110.538 E2.51785
G1 X106.77 Y111.361 E2.5487
G1 X106.492 Y112.226 E2.58194
G1 X106.269 Y112.791 E2.60416
G1 X105.837 Y113.521 E2.6352
G1 X105.305 Y114.256 E2.66839
G1 X104.917 Y114.724 E2.69064
G1 X104.294 Y115.273 E2.72102
G1 X103.559 Y115.812 E2.75436
G1 X103.047 Y116.138 E2.77657
G1 X102.265 Y116.476 E2.80774
G1 X101.401 Y116.759 E2.841
G1 X100.812 Y116.91 E2.86325
G1 X99.978 Y116.989 E2.8939
G1 X99.068 Y116.992 E2.92719
G1 X98.462 Y116.954 E2.9494
G1 X97.638 Y116.77 E2.98029
G1 X96.771 Y116.491 E3.01362
G1 X96.206 Y116.267 E3.03585
G1 X95.474 Y115.833 E3.06699
G1 X94.739 Y115.3 E3.1002
G1 X94.271 Y114.912 E3.12245
G1 X93.724 Y114.29 E3.15275
G1 X93.187 Y113.557 E3.18599
G1 X92.861 Y113.045 E3.2082
G1 X92.524 Y112.265 E3.23929
G1 X92.241 Y111.401 E3.27255
G1 X92.09 Y110.812 E3.2948
G1 X92.011 Y109.978 E3.32545
G1 X92.008 Y109.068 E3.35874
G1 X92.046 Y108.462 E3.38096
G1 X92.23 Y107.639 E3.41181
G1 X92.508 Y106.774 E3.44505
G1 X92.731 Y106.209 E3.46727
G1 X93.163 Y105.479 E3.49831
G1 X93.625 Y104.841 E3.52713
G0 F810 X93.695 Y104.744
G0 X94.083 Y104.276
M204 S5000
M205 X30 Y30
G0 F7200 X94.422 Y104.559
M204 S500
M205 X20 Y20
G1 F6000 E3.55372
G1 F900 X94.966 Y104.082 E3.5802
G1 X95.701 Y103.543 E3.61354
G1 X96.19 Y103.234 E3.6347
G1 X96.872 Y102.942 E3.66185
G1 X97.736 Y102.659 E3.69511
G1 X98.296 Y102.517 E3.71625
G1 X99.023 Y102.451 E3.74295
G1 X99.933 Y102.448 E3.77625
G1 X100.51 Y102.486 E3.7974
G1 X101.226 Y102.648 E3.82426
G1 X102.091 Y102.926 E3.8575
G1 X102.628 Y103.141 E3.87867
G1 X103.263 Y103.52 E3.90572
G1 X103.998 Y104.052 E3.93892
G1 X104.441 Y104.422 E3.96003
G1 X104.918 Y104.966 E3.9865
G1 X105.457 Y105.701 E4.01985
G1 X105.766 Y106.19 E4.04101
G1 X106.058 Y106.872 E4.06816
G1 X106.341 Y107.736 E4.10142
G1 X106.483 Y108.296 E4.12256
G1 X106.549 Y109.023 E4.14926
G1 X106.552 Y109.933 E4.18256
G1 X106.514 Y110.51 E4.20371
G1 X106.352 Y111.226 E4.23057
G1 X106.074 Y112.091 E4.26381
G1 X105.859 Y112.628 E4.28498
G1 X105.48 Y113.263 E4.31203
G1 X104.948 Y113.998 E4.34523
G1 X104.578 Y114.441 E4.36634
G1 X104.034 Y114.918 E4.39281
G1 X103.299 Y115.457 E4.42616
G1 X102.81 Y115.766 E4.44732
G1 X102.128 Y116.058 E4.47447
G1 X101.264 Y116.341 E4.50773
G1 X100.704 Y116.483 E4.52887
G1 X99.977 Y116.549 E4.55557
G1 X99.067 Y116.552 E4.58887
G1 X98.49 Y116.514 E4.61002
G1 X97.773 Y116.351 E4.63693
G1 X96.906 Y116.072 E4.67025
G1 X96.369 Y115.857 E4.69141
G1 X95.732 Y115.477 E4.71855
G1 X94.997 Y114.944 E4.75176
G1 X94.554 Y114.573 E4.77291
G1 X94.079 Y114.03 E4.7993
G1 X93.542 Y113.297 E4.83254
G1 X93.234 Y112.809 E4.85366
G1 X92.942 Y112.128 E4.88077
G1 X92.659 Y111.264 E4.91403
G1 X92.517 Y110.704 E4.93517
G1 X92.451 Y109.977 E4.96187
G1 X92.448 Y109.067 E4.99517
G1 X92.486 Y108.49 E5.01632
G1 X92.648 Y107.774 E5.04318
G1 X92.926 Y106.909 E5.07642
G1 X93.141 Y106.372 E5.09758
G1 X93.52 Y105.737 E5.12464
G1 X93.965 Y105.123 E5.15238
G0 F810 X94.052 Y105.002
G0 X94.422 Y104.559
M204 S5000
M205 X30 Y30
G0 F7200 X94.76 Y104.842
M204 S500
M205 X20 Y20
G1 F6000 E5.17898
G1 F900 X95.226 Y104.437 E5.20157
G1 X95.961 Y103.898 E5.23492
G1 X96.425 Y103.608 E5.25494
G1 X97.009 Y103.36 E5.27815
G1 X97.873 Y103.077 E5.31141
G1 X98.403 Y102.945 E5.33139
G1 X99.025 Y102.891 E5.35424
G1 X99.935 Y102.888 E5.38753
G1 X100.48 Y102.926 E5.40752
G1 X101.091 Y103.067 E5.43046
G1 X101.956 Y103.345 E5.4637
G1 X102.463 Y103.55 E5.48371
G1 X103.005 Y103.876 E5.50685
G1 X103.74 Y104.408 E5.54005
G1 X104.158 Y104.76 E5.56004
G1 X104.563 Y105.226 E5.58263
G1 X105.102 Y105.961 E5.61597
G1 X105.392 Y106.425 E5.63599
G1 X105.64 Y107.009 E5.6592
G1 X105.923 Y107.873 E5.69247
G1 X106.055 Y108.403 E5.71245
G1 X106.109 Y109.025 E5.73529
G1 X106.112 Y109.935 E5.76859
G1 X106.074 Y110.48 E5.78857
G1 X105.933 Y111.091 E5.81152
G1 X105.655 Y111.956 E5.84476
G1 X105.45 Y112.463 E5.86477
G1 X105.124 Y113.005 E5.88791
G1 X104.592 Y113.74 E5.9211
G1 X104.24 Y114.158 E5.94109
G1 X103.774 Y114.563 E5.96368
G1 X103.039 Y115.102 E5.99703
G1 X102.575 Y115.392 E6.01705
G1 X101.991 Y115.64 E6.04026
G1 X101.127 Y115.923 E6.07352
G1 X100.597 Y116.055 E6.09351
G1 X99.975 Y116.109 E6.11635
G1 X99.065 Y116.112 E6.14964
G1 X98.52 Y116.074 E6.16963
G1 X97.907 Y115.932 E6.19265
G1 X97.04 Y115.653 E6.22597
G1 X96.534 Y115.448 E6.24595
G1 X95.99 Y115.121 E6.26917
G1 X95.255 Y114.588 E6.30239
G1 X94.838 Y114.235 E6.32238
G1 X94.434 Y113.77 E6.34491
G1 X93.897 Y113.037 E6.37816
G1 X93.607 Y112.574 E6.39815
G1 X93.36 Y111.991 E6.42131
G1 X93.077 Y111.127 E6.45457
G1 X92.945 Y110.597 E6.47456
G1 X92.891 Y109.975 E6.4974
G1 X92.888 Y109.065 E6.53069
G1 X92.926 Y108.52 E6.55068
G1 X93.067 Y107.909 E6.57362
G1 X93.345 Y107.044 E6.60686
G1 X93.55 Y106.537 E6.62687
G1 X93.876 Y105.995 E6.65001
G1 X94.302 Y105.406 E6.67661
G0 F810 X94.408 Y105.26
G0 X94.76 Y104.842
M204 S5000
M205 X30 Y30
G0 F7200 X95.097 Y105.127
M204 S500
M205 X20 Y20
G1 F6000 E6.7032
G1 F900 X95.486 Y104.792 E6.72199
G1 X96.221 Y104.253 E6.75533
G1 X96.658 Y103.982 E6.77415
G1 X97.146 Y103.778 E6.7935
G1 X98.01 Y103.495 E6.82676
G1 X98.509 Y103.374 E6.84555
G1 X99.026 Y103.331 E6.86453
G1 X99.936 Y103.328 E6.89782
G1 X100.448 Y103.366 E6.9166
G1 X100.957 Y103.486 E6.93574
G1 X101.822 Y103.764 E6.96898
G1 X102.297 Y103.959 E6.98776
G1 X102.747 Y104.233 E7.00704
G1 X103.482 Y104.765 E7.04023
G1 X103.873 Y105.097 E7.059
G1 X104.208 Y105.486 E7.07778
G1 X104.747 Y106.221 E7.11113
G1 X105.018 Y106.658 E7.12994
G1 X105.222 Y107.146 E7.14929
G1 X105.505 Y108.01 E7.18256
G1 X105.626 Y108.509 E7.20134
G1 X105.669 Y109.026 E7.22032
G1 X105.672 Y109.936 E7.25362
G1 X105.634 Y110.448 E7.2724
G1 X105.514 Y110.957 E7.29153
G1 X105.236 Y111.822 E7.32477
G1 X105.041 Y112.297 E7.34356
G1 X104.767 Y112.747 E7.36283
G1 X104.235 Y113.482 E7.39603
G1 X103.903 Y113.873 E7.4148
G1 X103.514 Y114.208 E7.43358
G1 X102.779 Y114.747 E7.46693
G1 X102.342 Y115.018 E7.48574
G1 X101.854 Y115.222 E7.50509
G1 X100.99 Y115.505 E7.53835
G1 X100.491 Y115.626 E7.55714
G1 X99.974 Y115.669 E7.57612
G1 X99.064 Y115.672 E7.60941
G1 X98.552 Y115.634 E7.6282
G1 X98.042 Y115.513 E7.64737
G1 X97.175 Y115.234 E7.68069
G1 X96.7 Y115.04 E7.69947
G1 X96.249 Y114.764 E7.71881
G1 X95.514 Y114.231 E7.75203
G1 X95.123 Y113.899 E7.7708
G1 X94.789 Y113.51 E7.78955
G1 X94.252 Y112.777 E7.8228
G1 X93.982 Y112.341 E7.84156
G1 X93.778 Y111.854 E7.86088
G1 X93.495 Y110.99 E7.89414
G1 X93.374 Y110.491 E7.91293
G1 X93.331 Y109.974 E7.93191
G1 X93.328 Y109.064 E7.9652
G1 X93.366 Y108.552 E7.98398
G1 X93.486 Y108.043 E8.00312
G1 X93.764 Y107.178 E8.03636
G1 X93.959 Y106.703 E8.05514
G1 X94.233 Y106.253 E8.07442
G1 X94.639 Y105.692 E8.09976
G0 F810 X94.765 Y105.518
G0 X95.097 Y105.127
M204 S5000
M205 X30 Y30
G0 F7200 X95.433 Y105.414
M204 S500
M205 X20 Y20
G1 F6000 E8.12635
G1 F900 X95.747 Y105.147 E8.14143
G1 X96.482 Y104.608 E8.17478
G1 X96.889 Y104.358 E8.19226
G1 X97.283 Y104.196 E8.20784
G1 X98.147 Y103.913 E8.2411
G1 X98.612 Y103.803 E8.25859
G1 X99.028 Y103.771 E8.27385
G1 X99.938 Y103.768 E8.30714
G1 X100.414 Y103.806 E8.32462
G1 X100.822 Y103.905 E8.33998
G1 X101.687 Y104.183 E8.37322
G1 X102.128 Y104.367 E8.3907
G1 X102.489 Y104.589 E8.4062
G1 X103.224 Y105.121 E8.4394
G1 X103.586 Y105.433 E8.45688
G1 X103.853 Y105.747 E8.47196
G1 X104.392 Y106.482 E8.50531
G1 X104.642 Y106.889 E8.52279
G1 X104.804 Y107.283 E8.53837
G1 X105.087 Y108.147 E8.57164
G1 X105.197 Y108.612 E8.58912
G1 X105.229 Y109.028 E8.60438
G1 X105.232 Y109.938 E8.63768
G1 X105.194 Y110.414 E8.65515
G1 X105.095 Y110.822 E8.67051
G1 X104.817 Y111.687 E8.70375
G1 X104.633 Y112.128 E8.72123
G1 X104.411 Y112.489 E8.73674
G1 X103.879 Y113.224 E8.76993
G1 X103.567 Y113.586 E8.78742
G1 X103.253 Y113.853 E8.8025
G1 X102.518 Y114.392 E8.83584
G1 X102.111 Y114.642 E8.85332
G1 X101.717 Y114.804 E8.8689
G1 X100.853 Y115.087 E8.90217
G1 X100.388 Y115.197 E8.91965
G1 X99.972 Y115.229 E8.93491
G1 X99.062 Y115.232 E8.96821
G1 X98.586 Y115.194 E8.98568
G1 X98.177 Y115.095 E9.00107
G1 X97.31 Y114.816 E9.03439
G1 X96.869 Y114.632 E9.05188
G1 X96.507 Y114.408 E9.06745
G1 X95.772 Y113.875 E9.10067
G1 X95.41 Y113.563 E9.11815
G1 X95.144 Y113.25 E9.13318
G1 X94.607 Y112.517 E9.16643
G1 X94.358 Y112.109 E9.18391
G1 X94.196 Y111.717 E9.19943
G1 X93.913 Y110.853 E9.23269
G1 X93.803 Y110.388 E9.25018
G1 X93.771 Y109.972 E9.26544
G1 X93.768 Y109.062 E9.29874
G1 X93.806 Y108.586 E9.31621
G1 X93.905 Y108.178 E9.33157
G1 X94.183 Y107.313 E9.36481
G1 X94.367 Y106.872 E9.38229
G1 X94.589 Y106.511 E9.39779
G1 X94.975 Y105.978 E9.42187
G0 F810 X95.121 Y105.776
G0 X95.433 Y105.414
M204 S5000
M205 X30 Y30
G0 F7200 X95.767 Y105.703
M204 S500
M205 X20 Y20
G1 F6000 E9.44847
G1 F900 X96.007 Y105.501 E9.45995
G1 X96.742 Y104.962 E9.49329
G1 X97.118 Y104.736 E9.50934
G1 X97.42 Y104.614 E9.52126
G1 X98.284 Y104.331 E9.55452
G1 X98.712 Y104.233 E9.57059
G1 X99.029 Y104.211 E9.58221
G1 X99.939 Y104.208 E9.61551
G1 X100.377 Y104.246 E9.63159
G1 X100.687 Y104.324 E9.64329
G1 X101.552 Y104.602 E9.67653
G1 X101.957 Y104.774 E9.69263
G1 X102.231 Y104.946 E9.70446
G1 X102.966 Y105.478 E9.73766
G1 X103.297 Y105.767 E9.75373
G1 X103.499 Y106.007 E9.76521
G1 X104.038 Y106.742 E9.79856
G1 X104.264 Y107.118 E9.81461
G1 X104.386 Y107.42 E9.82652
G1 X104.669 Y108.284 E9.85979
G1 X104.767 Y108.712 E9.87585
G1 X104.789 Y109.029 E9.88748
G1 X104.792 Y109.939 E9.92077
G1 X104.754 Y110.377 E9.93686
G1 X104.676 Y110.687 E9.94855
G1 X104.398 Y111.552 E9.98179
G1 X104.226 Y111.957 E9.99789
G1 X104.054 Y112.231 E10.00973
G1 X103.522 Y112.966 E10.04292
G1 X103.233 Y113.297 E10.059
G1 X102.993 Y113.499 E10.07048
G1 X102.258 Y114.038 E10.10382
G1 X101.882 Y114.264 E10.11987
G1 X101.58 Y114.386 E10.13179
G1 X100.716 Y114.669 E10.16505
G1 X100.288 Y114.767 E10.18112
G1 X99.971 Y114.789 E10.19274
G1 X99.061 Y114.792 E10.22603
G1 X98.623 Y114.754 E10.24212
G1 X98.312 Y114.676 E10.25385
G1 X97.445 Y114.397 E10.28717
G1 X97.04 Y114.225 E10.30327
G1 X96.765 Y114.052 E10.31516
G1 X96.03 Y113.519 E10.34837
G1 X95.699 Y113.23 E10.36445
G1 X95.499 Y112.99 E10.37588
G1 X94.962 Y112.257 E10.40913
G1 X94.735 Y111.88 E10.42523
G1 X94.614 Y111.58 E10.43706
G1 X94.331 Y110.716 E10.47032
G1 X94.233 Y110.288 E10.48639
G1 X94.211 Y109.971 E10.49801
G1 X94.208 Y109.061 E10.53131
G1 X94.246 Y108.623 E10.54739
G1 X94.324 Y108.313 E10.55909
G1 X94.602 Y107.448 E10.59233
G1 X94.774 Y107.043 E10.60843
G1 X94.946 Y106.769 E10.62026
G1 X95.31 Y106.267 E10.64295
G0 F810 X95.478 Y106.034
G0 X95.767 Y105.703
M204 S5000
M205 X30 Y30
G0 F7200 X96.098 Y105.995
M204 S500
M205 X20 Y20
G1 F6000 E10.66955
G1 F900 X96.267 Y105.856 E10.67755
G1 X97.002 Y105.317 E10.7109
G1 X97.345 Y105.116 E10.72544
G1 X97.557 Y105.032 E10.73379
G1 X98.421 Y104.749 E10.76705
G1 X98.809 Y104.664 E10.78158
G1 X99.03 Y104.651 E10.78968
G1 X99.94 Y104.648 E10.82298
G1 X100.336 Y104.687 E10.83753
G1 X100.553 Y104.743 E10.84573
G1 X101.418 Y105.021 E10.87897
G1 X101.782 Y105.18 E10.89351
G1 X101.973 Y105.302 E10.9018
G1 X102.708 Y105.834 E10.93499
G1 X103.005 Y106.098 E10.94953
G1 X103.144 Y106.267 E10.95754
G1 X103.683 Y107.002 E10.99088
G1 X103.884 Y107.345 E11.00543
G1 X103.968 Y107.557 E11.01377
G1 X104.251 Y108.421 E11.04704
G1 X104.336 Y108.809 E11.06157
G1 X104.349 Y109.03 E11.06967
G1 X104.352 Y109.94 E11.10296
G1 X104.313 Y110.336 E11.11752
G1 X104.257 Y110.553 E11.12572
G1 X103.979 Y111.418 E11.15896
G1 X103.82 Y111.782 E11.17349
G1 X103.698 Y111.973 E11.18178
G1 X103.166 Y112.708 E11.21498
G1 X102.902 Y113.005 E11.22952
G1 X102.733 Y113.144 E11.23752
G1 X101.998 Y113.683 E11.27087
G1 X101.655 Y113.884 E11.28542
G1 X101.443 Y113.968 E11.29376
G1 X100.579 Y114.251 E11.32702
G1 X100.191 Y114.336 E11.34155
G1 X99.97 Y114.349 E11.34965
G1 X99.06 Y114.352 E11.38295
G1 X98.664 Y114.313 E11.3975
G1 X98.446 Y114.257 E11.40574
G1 X97.579 Y113.978 E11.43906
G1 X97.215 Y113.819 E11.45359
G1 X97.024 Y113.696 E11.46191
G1 X96.289 Y113.163 E11.49512
G1 X95.992 Y112.898 E11.50969
G1 X95.854 Y112.73 E11.51764
G1 X95.317 Y111.997 E11.55088
G1 X95.115 Y111.655 E11.56542
G1 X95.032 Y111.443 E11.57375
G1 X94.749 Y110.579 E11.60701
G1 X94.664 Y110.191 E11.62154
G1 X94.651 Y109.97 E11.62964
G1 X94.648 Y109.06 E11.66293
G1 X94.687 Y108.664 E11.67749
G1 X94.743 Y108.447 E11.68569
G1 X95.021 Y107.582 E11.71893
G1 X95.18 Y107.218 E11.73346
G1 X95.302 Y107.027 E11.74176
G1 X95.641 Y106.559 E11.7629
G0 F810 X95.834 Y106.292
G0 X96.098 Y105.995
M204 S5000
M205 X30 Y30
G0 F7200 X96.19 Y106.55
M204 S500
