;FLAVOR:Marlin
;TIME:1112
;Filament used: 0.78862m
;Layer height: 0.2
;Generated with Cura_SteamEngine 3.6.0
M140 S70
M105
M190 S70
M104 S215
M105
M109 S215
M82 ;absolute extrusion mode
G28 ; home all axes
M117 Purge extruder
G92 E0 ; reset extruder
G1 Z1.0 F3000 ; move z up little to prevent scratching of surface
G1 X0.1 Y20 Z0.3 F5000.0 ; move to start-line position G1 X0.1 Y200.0 Z0.3 F1500.0 E15 ; draw 1st line
G1 X0.4 Y200.0 Z0.3 F5000.0 ; move to side a little
G1 X0.4 Y20 Z0.3 F1500.0 E30 ; draw 2nd line
G92 E0 ; reset extruder
G1 Z1.0 F3000 ; move z up little to prevent scratching of surface
M117 All systems go!
G92 E0
G1 F6000 E-5
;LAYER_COUNT:40
;LAYER:0
M107
M204 S5000
M205 X30 Y30
G0 F7200 X96.631 Y97.036 Z0.2
M204 S500
M205 X20 Y20
;TYPE:SKIRT
G1 F6000 E0
G1 F900 X97.522 Y96.147 E0.04186
G1 X98.443 Y95.338 E0.08264
G1 X99.357 Y94.584 E0.12204
G1 X100.353 Y93.815 E0.1639
G1 X101.344 Y93.142 E0.20374
G1 X102.341 Y92.509 E0.24302
G1 X103.425 Y91.869 E0.28489
G1 X105.093 Y91.052 E0.34666
G1 X106.732 Y90.343 E0.40606
G1 X107.902 Y89.881 E0.4479
G1 X109.099 Y89.493 E0.48975
G1 X110.32 Y89.183 E0.53165
G1 X112.053 Y88.8 E0.59068
G1 X113.29 Y88.567 E0.63254
G1 X115.083 Y88.372 E0.69253
G1 X116.259 Y88.298 E0.73172
G1 X117.516 Y88.259 E0.77355
G1 X119.359 Y88.346 E0.83492
G1 X121.132 Y88.513 E0.89415
G1 X122.38 Y88.671 E0.93599
G1 X123.616 Y88.908 E0.97785
G1 X124.83 Y89.221 E1.01954
G1 X126.527 Y89.717 E1.07835
G1 X127.723 Y90.108 E1.1202
G1 X129.363 Y90.788 E1.17925
G1 X130.438 Y91.291 E1.21872
G1 X131.561 Y91.86 E1.2606
G1 X132.648 Y92.502 E1.30258
G1 X133.645 Y93.134 E1.34185
G1 X134.686 Y93.841 E1.3837
G1 X135.64 Y94.58 E1.42384
G1 X136.563 Y95.341 E1.46362
G1 X137.508 Y96.172 E1.50548
G1 X138.439 Y97.105 E1.54932
G1 X139.243 Y97.966 E1.5885
G1 X140.072 Y98.912 E1.63034
G1 X140.78 Y99.827 E1.66881
G1 X141.478 Y100.786 E1.70827
G1 X142.185 Y101.827 E1.75012
G1 X142.829 Y102.916 E1.7922
G1 X143.4 Y103.957 E1.83169
G1 X143.97 Y105.079 E1.87355
G1 X144.665 Y106.761 E1.93408
G1 X145.267 Y108.43 E1.99309
G1 X145.657 Y109.627 E2.03496
G1 X145.943 Y110.732 E2.07293
G1 X146.075 Y111.309 E2.09261
G1 X146.317 Y112.544 E2.13447
G1 X146.487 Y113.867 E2.17883
G1 X146.654 Y115.639 E2.23803
G1 X146.732 Y116.895 E2.27989
G1 X146.73 Y118.154 E2.32176
G1 X146.654 Y119.352 E2.36169
G1 X146.486 Y121.137 E2.42132
G1 X146.328 Y122.386 E2.46319
G1 X145.945 Y124.228 E2.52577
G1 X145.653 Y125.36 E2.56465
G1 X145.301 Y126.567 E2.60647
G1 X144.886 Y127.713 E2.64701
G1 X144.445 Y128.825 E2.68679
G1 X143.945 Y129.98 E2.72866
G1 X143.378 Y131.087 E2.77002
G1 X142.81 Y132.117 E2.80914
G1 X142.168 Y133.199 E2.85099
G1 X141.506 Y134.172 E2.89013
G1 X140.804 Y135.141 E2.92993
G1 X140.034 Y136.136 E2.97178
G1 X139.182 Y137.101 E3.01459
G1 X138.37 Y137.963 E3.05398
G1 X137.479 Y138.852 E3.09584
G1 X136.56 Y139.659 E3.13652
G1 X135.645 Y140.414 E3.17598
G1 X134.649 Y141.184 E3.21785
G1 X133.656 Y141.858 E3.25777
G1 X132.659 Y142.491 E3.29704
G1 X131.575 Y143.131 E3.33891
G1 X129.907 Y143.948 E3.40069
G1 X128.268 Y144.657 E3.46008
G1 X127.098 Y145.119 E3.50192
G1 X125.901 Y145.507 E3.54377
G1 X124.68 Y145.817 E3.58567
G1 X122.947 Y146.2 E3.6447
G1 X121.71 Y146.433 E3.68657
G1 X119.915 Y146.628 E3.74662
G1 X118.737 Y146.702 E3.78588
G1 X117.48 Y146.741 E3.82771
G1 X115.633 Y146.653 E3.88921
G1 X113.855 Y146.485 E3.94861
G1 X112.607 Y146.327 E3.99045
G1 X111.371 Y146.09 E4.03231
G1 X110.147 Y145.773 E4.07436
G1 X108.452 Y145.276 E4.13311
G1 X107.256 Y144.884 E4.17497
G1 X105.618 Y144.203 E4.23397
G1 X104.543 Y143.699 E4.27346
G1 X103.421 Y143.129 E4.31532
G1 X102.333 Y142.486 E4.35735
G1 X101.33 Y141.849 E4.39687
G1 X100.29 Y141.141 E4.43872
G1 X99.337 Y140.402 E4.47883
G1 X98.424 Y139.648 E4.51821
G1 X97.48 Y138.816 E4.56006
G1 X96.56 Y137.894 E4.60339
G1 X95.756 Y137.033 E4.64257
G1 X94.927 Y136.087 E4.6844
G1 X94.217 Y135.169 E4.723
G1 X93.52 Y134.211 E4.76241
G1 X92.813 Y133.17 E4.80426
G1 X92.164 Y132.071 E4.84671
G1 X91.588 Y131.019 E4.8866
G1 X91.019 Y129.897 E4.92844
G1 X90.327 Y128.221 E4.98875
G1 X89.729 Y126.561 E5.04744
G1 X89.34 Y125.364 E5.0893
G1 X89.028 Y124.145 E5.13115
G1 X88.803 Y122.964 E5.17114
G1 X88.523 Y121.206 E5.23035
G1 X88.365 Y119.958 E5.27219
G1 X88.286 Y118.702 E5.31404
G1 X88.277 Y118.059 E5.33543
G1 X88.279 Y116.866 E5.37511
G1 X88.321 Y115.608 E5.41698
G1 X88.526 Y113.779 E5.47819
G1 X88.806 Y112.024 E5.5373
G1 X89.044 Y110.789 E5.57913
G1 X89.36 Y109.571 E5.62098
G1 X89.728 Y108.44 E5.66054
G1 X90.33 Y106.767 E5.71968
G1 X90.794 Y105.597 E5.76154
G1 X91.331 Y104.459 E5.80339
G1 X91.627 Y103.901 E5.8244
G1 X92.194 Y102.874 E5.86342
G1 X92.837 Y101.792 E5.90528
G1 X93.496 Y100.825 E5.9442
G1 X94.199 Y99.855 E5.98405
G1 X94.969 Y98.86 E6.02589
G1 X95.819 Y97.898 E6.06859
G1 X96.083 Y97.618 E6.08139
G0 F810 X96.631 Y97.036
M204 S5000
M205 X30 Y30
G0 F7200 X96.922 Y97.31
M204 S500
M205 X20 Y20
G1 F6000 E6.108
G1 F900 X97.804 Y96.431 E6.14941
G1 X98.698 Y95.647 E6.18896
G1 X99.612 Y94.893 E6.22837
G1 X100.597 Y94.132 E6.26977
G1 X101.559 Y93.48 E6.30842
G1 X102.556 Y92.847 E6.3477
G1 X103.628 Y92.214 E6.38911
G1 X105.252 Y91.42 E6.44924
G1 X106.891 Y90.711 E6.50863
G1 X108.049 Y90.253 E6.55005
G1 X109.235 Y89.871 E6.59149
G1 X110.407 Y89.573 E6.63171
G1 X112.14 Y89.19 E6.69074
G1 X113.364 Y88.96 E6.73217
G1 X115.108 Y88.771 E6.79051
G1 X116.284 Y88.697 E6.8297
G1 X117.529 Y88.659 E6.87113
G1 X119.321 Y88.744 E6.9308
G1 X121.094 Y88.911 E6.99003
G1 X122.33 Y89.068 E7.03147
G1 X123.553 Y89.304 E7.0729
G1 X124.718 Y89.605 E7.11292
G1 X126.415 Y90.101 E7.17172
G1 X127.598 Y90.489 E7.21313
G1 X129.194 Y91.15 E7.27059
G1 X130.269 Y91.653 E7.31006
G1 X131.38 Y92.217 E7.3515
G1 X132.434 Y92.84 E7.39223
G1 X133.431 Y93.472 E7.43149
G1 X134.461 Y94.172 E7.47291
G1 X135.385 Y94.889 E7.51181
G1 X136.308 Y95.65 E7.5516
G1 X137.243 Y96.472 E7.593
G1 X138.146 Y97.378 E7.63555
G1 X138.95 Y98.239 E7.67473
G1 X139.771 Y99.176 E7.71616
G1 X140.456 Y100.063 E7.75344
G1 X141.154 Y101.022 E7.79289
G1 X141.855 Y102.052 E7.83433
G1 X142.478 Y103.108 E7.87511
G1 X143.049 Y104.149 E7.9146
G1 X143.613 Y105.26 E7.95604
G1 X144.289 Y106.897 E8.01495
G1 X144.891 Y108.566 E8.07396
G1 X145.276 Y109.75 E8.11537
G1 X145.553 Y110.822 E8.15219
G1 X145.685 Y111.399 E8.17188
G1 X145.924 Y112.621 E8.21329
G1 X146.088 Y113.905 E8.25635
G1 X146.255 Y115.677 E8.31555
G1 X146.332 Y116.92 E8.35697
G1 X146.329 Y118.166 E8.39841
G1 X146.256 Y119.315 E8.4367
G1 X146.088 Y121.1 E8.49633
G1 X145.931 Y122.336 E8.53777
G1 X145.558 Y124.128 E8.59865
G1 X145.266 Y125.26 E8.63754
G1 X144.916 Y126.455 E8.67895
G1 X144.515 Y127.566 E8.71824
G1 X144.074 Y128.678 E8.75802
G1 X143.577 Y129.82 E8.79945
G1 X143.028 Y130.894 E8.83957
G1 X142.46 Y131.924 E8.87869
G1 X141.824 Y132.995 E8.92012
G1 X141.182 Y133.938 E8.95806
G1 X140.48 Y134.907 E8.99786
G1 X139.718 Y135.891 E9.03925
G1 X138.891 Y136.827 E9.08079
G1 X138.079 Y137.689 E9.12018
G1 X137.197 Y138.568 E9.1616
G1 X136.305 Y139.351 E9.20107
G1 X135.39 Y140.106 E9.24053
G1 X134.404 Y140.867 E9.28196
G1 X133.441 Y141.52 E9.32066
G1 X132.444 Y142.153 E9.35993
G1 X131.372 Y142.786 E9.40134
G1 X129.748 Y143.58 E9.46147
G1 X128.109 Y144.289 E9.52086
G1 X126.951 Y144.747 E9.56228
G1 X125.765 Y145.129 E9.60372
G1 X124.593 Y145.427 E9.64394
G1 X122.86 Y145.81 E9.70297
G1 X121.636 Y146.04 E9.7444
G1 X119.89 Y146.229 E9.80281
G1 X118.712 Y146.303 E9.84207
G1 X117.467 Y146.341 E9.88349
G1 X115.671 Y146.255 E9.9433
G1 X113.893 Y146.087 E10.0027
G1 X112.657 Y145.93 E10.04414
G1 X111.434 Y145.694 E10.08556
G1 X110.259 Y145.389 E10.12594
G1 X108.564 Y144.892 E10.18469
G1 X107.381 Y144.504 E10.2261
G1 X105.788 Y143.841 E10.28349
G1 X104.713 Y143.337 E10.32298
G1 X103.602 Y142.773 E10.36442
G1 X102.547 Y142.148 E10.4052
G1 X101.544 Y141.511 E10.44472
G1 X100.515 Y140.81 E10.48613
G1 X99.592 Y140.093 E10.52501
G1 X98.679 Y139.339 E10.56439
G1 X97.744 Y138.516 E10.60582
G1 X96.853 Y137.621 E10.64782
G1 X96.049 Y136.76 E10.68701
G1 X95.228 Y135.823 E10.72844
G1 X94.541 Y134.933 E10.76584
G1 X93.844 Y133.975 E10.80524
G1 X93.144 Y132.945 E10.84666
G1 X92.515 Y131.879 E10.88783
G1 X91.939 Y130.827 E10.92772
G1 X91.376 Y129.716 E10.96914
G1 X90.703 Y128.085 E11.02783
G1 X90.105 Y126.425 E11.08651
G1 X89.721 Y125.24 E11.12794
G1 X89.413 Y124.033 E11.16938
G1 X89.198 Y122.901 E11.2077
G1 X88.918 Y121.143 E11.26691
G1 X88.762 Y119.908 E11.30831
G1 X88.677 Y118.059 E11.36987
G1 X88.679 Y116.866 E11.40955
G1 X88.721 Y115.622 E11.45095
G1 X88.921 Y113.842 E11.51053
G1 X89.201 Y112.087 E11.56964
G1 X89.437 Y110.864 E11.61106
G1 X89.751 Y109.659 E11.65248
G1 X90.105 Y108.576 E11.69038
G1 X90.707 Y106.903 E11.74951
G1 X91.166 Y105.745 E11.79094
G1 X91.977 Y104.094 E11.85212
G1 X92.544 Y103.067 E11.89114
G1 X93.181 Y101.997 E11.93256
G1 X93.82 Y101.059 E11.97031
G1 X94.523 Y100.089 E12.01015
G1 X95.286 Y99.105 E12.05157
G1 X96.11 Y98.172 E12.09297
G1 X96.374 Y97.892 E12.10577
G0 F810 X96.922 Y97.31
M204 S5000
M205 X30 Y30
G0 F7200 X97.213 Y97.584
M204 S500
M205 X20 Y20
G1 F6000 E12.13238
G1 F900 X98.087 Y96.715 E12.17337
G1 X98.952 Y95.956 E12.21165
G1 X99.866 Y95.202 E12.25105
G1 X100.842 Y94.448 E12.29207
G1 X101.773 Y93.818 E12.32946
G1 X102.77 Y93.185 E12.36874
G1 X103.832 Y92.558 E12.40976
G1 X105.411 Y91.787 E12.46821
G1 X107.05 Y91.078 E12.5276
G1 X108.196 Y90.625 E12.56859
G1 X109.37 Y90.248 E12.6096
G1 X110.493 Y89.964 E12.64813
G1 X112.226 Y89.581 E12.70716
G1 X113.438 Y89.354 E12.74817
G1 X115.133 Y89.171 E12.80487
G1 X116.309 Y89.097 E12.84406
G1 X117.541 Y89.059 E12.88506
G1 X119.284 Y89.143 E12.9431
G1 X121.057 Y89.31 E13.00233
G1 X122.28 Y89.465 E13.04333
G1 X123.49 Y89.699 E13.08432
G1 X124.605 Y89.989 E13.12264
G1 X126.302 Y90.485 E13.18145
G1 X127.474 Y90.869 E13.22247
G1 X129.024 Y91.513 E13.27829
G1 X130.099 Y92.016 E13.31777
G1 X131.198 Y92.574 E13.35876
G1 X132.219 Y93.178 E13.39822
G1 X133.216 Y93.81 E13.43748
G1 X134.236 Y94.503 E13.47849
G1 X135.131 Y95.197 E13.51616
G1 X136.054 Y95.958 E13.55595
G1 X136.979 Y96.773 E13.59695
G1 X137.854 Y97.651 E13.63818
G1 X138.658 Y98.512 E13.67736
G1 X139.469 Y99.439 E13.71833
G1 X140.133 Y100.298 E13.75444
G1 X140.831 Y101.257 E13.79389
G1 X141.524 Y102.277 E13.8349
G1 X142.128 Y103.301 E13.87445
G1 X142.699 Y104.342 E13.91394
G1 X143.256 Y105.441 E13.95492
G1 X143.913 Y107.032 E14.01217
G1 X144.515 Y108.701 E14.07118
G1 X144.895 Y109.874 E14.11219
G1 X145.164 Y110.911 E14.14782
G1 X145.296 Y111.488 E14.16751
G1 X145.531 Y112.698 E14.20851
G1 X145.69 Y113.942 E14.25022
G1 X145.857 Y115.714 E14.30942
G1 X145.933 Y116.945 E14.35044
G1 X145.929 Y118.177 E14.39141
G1 X145.857 Y119.277 E14.42808
G1 X145.689 Y121.062 E14.48771
G1 X145.534 Y122.285 E14.52871
G1 X145.171 Y124.028 E14.58793
G1 X144.879 Y125.16 E14.62681
G1 X144.532 Y126.343 E14.66782
G1 X144.143 Y127.418 E14.70584
G1 X143.702 Y128.53 E14.74563
G1 X143.21 Y129.661 E14.78665
G1 X142.678 Y130.701 E14.8255
G1 X142.11 Y131.731 E14.86462
G1 X141.48 Y132.791 E14.90564
G1 X140.859 Y133.703 E14.94234
G1 X140.157 Y134.672 E14.98213
G1 X139.401 Y135.646 E15.02314
G1 X138.6 Y136.553 E15.06339
G1 X137.788 Y137.415 E15.10278
G1 X136.914 Y138.284 E15.14377
G1 X136.05 Y139.042 E15.182
G1 X135.135 Y139.797 E15.22145
G1 X134.16 Y140.55 E15.26243
G1 X133.227 Y141.182 E15.29991
G1 X132.23 Y141.815 E15.33919
G1 X131.168 Y142.442 E15.38021
G1 X129.589 Y143.213 E15.43865
G1 X127.95 Y143.922 E15.49805
G1 X126.804 Y144.375 E15.53903
G1 X125.63 Y144.752 E15.58004
G1 X124.507 Y145.036 E15.61857
G1 X122.774 Y145.419 E15.6776
G1 X121.562 Y145.646 E15.71861
G1 X119.865 Y145.83 E15.77539
G1 X118.687 Y145.904 E15.81464
G1 X117.455 Y145.941 E15.85564
G1 X115.709 Y145.857 E15.91378
G1 X113.931 Y145.689 E15.97318
G1 X112.708 Y145.533 E16.01418
G1 X111.498 Y145.298 E16.05518
G1 X110.372 Y145.005 E16.09388
G1 X108.677 Y144.508 E16.15263
G1 X107.506 Y144.123 E16.19363
G1 X105.958 Y143.479 E16.24939
G1 X104.883 Y142.975 E16.28888
G1 X103.784 Y142.416 E16.32989
G1 X102.762 Y141.811 E16.36939
G1 X101.759 Y141.174 E16.40891
G1 X100.74 Y140.479 E16.44994
G1 X99.846 Y139.785 E16.48758
G1 X98.933 Y139.031 E16.52696
G1 X98.009 Y138.216 E16.56794
G1 X97.145 Y137.348 E16.60867
G1 X96.341 Y136.487 E16.64786
G1 X95.53 Y135.56 E16.68882
G1 X94.864 Y134.698 E16.72505
G1 X94.167 Y133.74 E16.76446
G1 X93.475 Y132.72 E16.80545
G1 X92.866 Y131.687 E16.84534
G1 X92.29 Y130.635 E16.88523
G1 X91.733 Y129.535 E16.92624
G1 X91.08 Y127.949 E16.98328
G1 X90.482 Y126.289 E17.04197
G1 X90.102 Y125.117 E17.08295
G1 X89.798 Y123.922 E17.12396
G1 X89.594 Y122.838 E17.16065
G1 X89.314 Y121.08 E17.21985
G1 X89.159 Y119.857 E17.26086
G1 X89.077 Y118.06 E17.32069
G1 X89.079 Y116.867 E17.36037
G1 X89.121 Y115.635 E17.40137
G1 X89.316 Y113.906 E17.45924
G1 X89.596 Y112.151 E17.51835
G1 X89.83 Y110.94 E17.55937
G1 X90.142 Y109.747 E17.60038
G1 X90.481 Y108.711 E17.63664
G1 X91.083 Y107.038 E17.69578
G1 X91.538 Y105.892 E17.73679
G1 X92.328 Y104.288 E17.79626
G1 X92.895 Y103.261 E17.83527
G1 X93.525 Y102.202 E17.87626
G1 X94.144 Y101.294 E17.91281
G1 X94.847 Y100.324 E17.95265
G1 X95.602 Y99.35 E17.99364
G1 X96.401 Y98.446 E18.03377
G1 X96.665 Y98.166 E18.04657
G0 F810 X97.213 Y97.584
M204 S5000
M205 X30 Y30
G0 F7200 X97.504 Y97.858
M204 S500
M205 X20 Y20
G1 F6000 E18.07318
G1 F900 X98.369 Y96.998 E18.11375
G1 X99.207 Y96.264 E18.1508
G1 X100.121 Y95.51 E18.19021
G1 X101.087 Y94.765 E18.23078
G1 X101.987 Y94.156 E18.26693
G1 X102.984 Y93.523 E18.3062
G1 X104.035 Y92.903 E18.34679
G1 X105.569 Y92.154 E18.40357
G1 X107.208 Y91.445 E18.46296
G1 X108.343 Y90.998 E18.50354
G1 X109.505 Y90.626 E18.54412
G1 X110.579 Y90.354 E18.58097
G1 X112.312 Y89.971 E18.64
G1 X113.511 Y89.747 E18.68056
G1 X115.158 Y89.57 E18.73566
G1 X116.334 Y89.496 E18.77485
G1 X117.553 Y89.459 E18.81541
G1 X119.246 Y89.541 E18.87179
G1 X121.019 Y89.708 E18.93102
G1 X122.229 Y89.862 E18.97159
G1 X123.426 Y90.095 E19.01215
G1 X124.493 Y90.373 E19.04882
G1 X126.19 Y90.869 E19.10763
G1 X127.349 Y91.249 E19.14819
G1 X128.855 Y91.875 E19.20244
G1 X129.93 Y92.378 E19.24191
G1 X131.017 Y92.931 E19.28248
G1 X132.005 Y93.515 E19.32065
G1 X133.002 Y94.147 E19.35991
G1 X134.011 Y94.834 E19.40051
G1 X134.876 Y95.506 E19.43694
G1 X135.799 Y96.267 E19.47673
G1 X136.714 Y97.073 E19.51729
G1 X137.561 Y97.924 E19.55722
G1 X138.365 Y98.785 E19.5964
G1 X139.168 Y99.703 E19.63697
G1 X139.809 Y100.533 E19.67185
G1 X140.507 Y101.492 E19.7113
G1 X141.192 Y102.502 E19.75189
G1 X141.777 Y103.493 E19.79016
G1 X142.348 Y104.534 E19.82965
G1 X142.899 Y105.622 E19.87022
G1 X143.537 Y107.168 E19.92584
G1 X144.139 Y108.837 E19.98486
G1 X144.515 Y109.997 E20.02541
G1 X144.774 Y111 E20.05987
G1 X144.906 Y111.577 E20.07956
G1 X145.138 Y112.774 E20.12011
G1 X145.292 Y113.98 E20.16055
G1 X145.459 Y115.752 E20.21974
G1 X145.534 Y116.969 E20.2603
G1 X145.528 Y118.189 E20.30088
G1 X145.459 Y119.24 E20.33591
G1 X145.291 Y121.025 E20.39554
G1 X145.137 Y122.235 E20.43611
G1 X144.783 Y123.928 E20.49364
G1 X144.491 Y125.06 E20.53252
G1 X144.148 Y126.23 E20.57307
G1 X143.771 Y127.271 E20.6099
G1 X143.33 Y128.383 E20.64968
G1 X142.843 Y129.501 E20.69024
G1 X142.328 Y130.508 E20.72786
G1 X141.76 Y131.538 E20.76698
G1 X141.136 Y132.586 E20.80755
G1 X140.535 Y133.468 E20.84305
G1 X139.833 Y134.437 E20.88285
G1 X139.085 Y135.401 E20.92343
G1 X138.309 Y136.279 E20.9624
G1 X137.497 Y137.141 E21.00179
G1 X136.632 Y138.001 E21.04236
G1 X135.796 Y138.734 E21.07934
G1 X134.881 Y139.489 E21.1188
G1 X133.915 Y140.234 E21.15937
G1 X133.013 Y140.844 E21.19559
G1 X132.016 Y141.477 E21.23487
G1 X130.965 Y142.097 E21.27545
G1 X129.431 Y142.846 E21.33223
G1 X127.792 Y143.555 E21.39163
G1 X126.657 Y144.002 E21.4322
G1 X125.495 Y144.374 E21.47278
G1 X124.421 Y144.646 E21.50963
G1 X122.688 Y145.029 E21.56866
G1 X121.489 Y145.253 E21.60923
G1 X119.84 Y145.43 E21.66439
G1 X118.662 Y145.504 E21.70365
G1 X117.443 Y145.541 E21.74421
G1 X115.746 Y145.459 E21.80072
G1 X113.968 Y145.291 E21.86012
G1 X112.758 Y145.136 E21.90069
G1 X111.561 Y144.903 E21.94125
G1 X110.485 Y144.622 E21.97824
