;FLAVOR:Marlin
;TIME:1106
;Filament used: 0.702051m
;Layer height: 0.2
;Generated with Cura_SteamEngine 3.6.0
M140 S70
M105
M190 S70
M104 S215
M105
M109 S215
M82 ;absolute extrusion mode
G28 ; home all axes
M117 Purge extruder
G92 E0 ; reset extruder
G1 Z1.0 F3000 ; move z up little to prevent scratching of surface
G1 X0.1 Y20 Z0.3 F5000.0 ; move to start-line position G1 X0.1 Y200.0 Z0.3 F1500.0 E15 ; draw 1st line
G1 X0.4 Y200.0 Z0.3 F5000.0 ; move to side a little
G1 X0.4 Y20 Z0.3 F1500.0 E30 ; draw 2nd line
G92 E0 ; reset extruder
G1 Z1.0 F3000 ; move z up little to prevent scratching of surface
M117 All systems go!
G92 E0
G1 F6000 E-5
;LAYER_COUNT:16
;LAYER:0
M107
M204 S5000
M205 X30 Y30
G0 F7200 X87.047 Y96.376 Z0.2
M204 S500
M205 X20 Y20
;TYPE:SKIRT
G1 F6000 E0
G1 F900 X87.467 Y96.005 E0.01864
G1 X88.436 Y95.203 E0.06047
G1 X89.454 Y94.463 E0.10233
G1 X90.517 Y93.79 E0.14418
G1 X91.621 Y93.185 E0.18605
G1 X92.761 Y92.652 E0.22791
G1 X93.932 Y92.193 E0.26974
G1 X95.131 Y91.808 E0.31162
G1 X96.294 Y91.513 E0.35153
G1 X96.723 Y91.418 E0.36614
G1 X97.96 Y91.185 E0.40801
G1 X99.209 Y91.032 E0.44986
G1 X101.028 Y90.95 E0.51043
G1 X109.164 Y90.96 E0.78103
G1 X110.422 Y91.002 E0.82289
G1 X111.675 Y91.123 E0.86476
G1 X112.917 Y91.324 E0.90661
G1 X114.144 Y91.603 E0.94846
G1 X115.351 Y91.959 E0.99032
G1 X115.978 Y92.178 E1.01241
G1 X116.372 Y92.323 E1.02637
G1 X117.312 Y92.703 E1.06009
G1 X134.148 Y92.71 E1.62006
G1 X135.406 Y92.751 E1.66192
G1 X136.659 Y92.871 E1.70379
G1 X137.901 Y93.07 E1.74563
G1 X139.128 Y93.349 E1.78748
G1 X140.335 Y93.704 E1.82932
G1 X140.978 Y93.928 E1.85197
G1 X141.372 Y94.073 E1.86593
G1 X142.539 Y94.545 E1.9078
G1 X143.673 Y95.09 E1.94965
G1 X144.771 Y95.706 E1.99152
G1 X145.826 Y96.391 E2.03336
G1 X146.837 Y97.141 E2.07523
G1 X147.797 Y97.954 E2.11707
G1 X148.705 Y98.826 E2.15894
G1 X149.372 Y99.544 E2.19154
G1 X149.744 Y99.965 E2.21022
G1 X150.546 Y100.934 E2.25206
G1 X151.286 Y101.952 E2.29392
G1 X151.96 Y103.015 E2.33578
G1 X152.564 Y104.119 E2.37764
G1 X153.098 Y105.259 E2.41951
G1 X153.557 Y106.43 E2.46134
G1 X153.942 Y107.629 E2.50322
G1 X154.243 Y108.819 E2.54405
G1 X154.337 Y109.246 E2.55859
G1 X154.568 Y110.483 E2.60045
G1 X154.721 Y111.732 E2.6423
G1 X154.8 Y113.527 E2.70206
G1 X154.79 Y121.664 E2.9727
G1 X154.748 Y122.922 E3.01456
G1 X154.627 Y124.175 E3.05643
G1 X154.426 Y125.417 E3.09828
G1 X154.147 Y126.644 E3.14013
G1 X153.791 Y127.851 E3.18198
G1 X153.572 Y128.478 E3.20407
G1 X153.427 Y128.872 E3.21804
G1 X152.955 Y130.039 E3.25991
G1 X152.41 Y131.173 E3.30175
G1 X151.794 Y132.271 E3.34363
G1 X151.109 Y133.326 E3.38546
G1 X150.359 Y134.337 E3.42733
G1 X149.546 Y135.297 E3.46917
G1 X148.674 Y136.205 E3.51104
G1 X147.953 Y136.874 E3.54376
G1 X147.533 Y137.245 E3.5624
G1 X146.564 Y138.047 E3.60423
G1 X145.546 Y138.787 E3.64609
G1 X144.483 Y139.46 E3.68794
G1 X143.379 Y140.065 E3.72981
G1 X142.239 Y140.598 E3.77166
G1 X141.068 Y141.057 E3.8135
G1 X139.869 Y141.442 E3.85538
G1 X138.706 Y141.737 E3.89529
G1 X138.277 Y141.832 E3.9099
G1 X137.04 Y142.065 E3.95177
G1 X135.791 Y142.218 E3.99362
G1 X133.996 Y142.3 E4.05339
G1 X117.342 Y142.3 E4.6073
G1 X117.239 Y142.348 E4.61108
G1 X116.068 Y142.807 E4.65291
G1 X114.869 Y143.192 E4.6948
G1 X113.706 Y143.487 E4.7347
G1 X113.277 Y143.582 E4.74932
G1 X112.04 Y143.815 E4.79118
G1 X110.791 Y143.968 E4.83304
G1 X108.972 Y144.05 E4.8936
G1 X100.836 Y144.04 E5.1642
G1 X99.578 Y143.998 E5.20607
G1 X98.325 Y143.877 E5.24794
G1 X97.083 Y143.676 E5.28978
G1 X95.856 Y143.397 E5.33163
G1 X94.649 Y143.041 E5.37349
G1 X94.022 Y142.822 E5.39558
G1 X93.628 Y142.677 E5.40954
G1 X92.461 Y142.205 E5.45141
G1 X91.327 Y141.66 E5.49326
G1 X90.229 Y141.044 E5.53513
G1 X89.174 Y140.359 E5.57697
G1 X88.163 Y139.609 E5.61884
G1 X87.203 Y138.796 E5.66068
G1 X86.295 Y137.924 E5.70255
G1 X85.628 Y137.206 E5.73515
G1 X85.256 Y136.785 E5.75383
G1 X84.454 Y135.816 E5.79567
G1 X83.714 Y134.798 E5.83753
G1 X83.04 Y133.735 E5.87939
G1 X82.436 Y132.631 E5.92125
G1 X81.902 Y131.491 E5.96312
G1 X81.443 Y130.32 E6.00495
G1 X81.058 Y129.121 E6.04683
G1 X80.757 Y127.931 E6.08766
G1 X80.663 Y127.504 E6.1022
G1 X80.432 Y126.267 E6.14406
G1 X80.279 Y125.018 E6.18591
G1 X80.2 Y123.247 E6.24487
G1 X80.2 Y120.367 E6.34066
G1 X80.24 Y119.109 E6.38252
G1 X80.36 Y117.857 E6.42435
G1 X80.414 Y117.52 E6.43571
G1 X80.273 Y116.337 E6.47533
G1 X80.2 Y114.568 E6.53422
G1 X80.21 Y111.545 E6.63476
G1 X80.254 Y110.287 E6.67663
G1 X80.378 Y109.035 E6.71848
G1 X80.581 Y107.793 E6.76033
G1 X80.863 Y106.566 E6.80221
G1 X81.428 Y104.772 E6.86477
G1 X81.573 Y104.378 E6.87873
G1 X82.045 Y103.211 E6.9206
G1 X82.59 Y102.077 E6.96245
G1 X83.206 Y100.979 E7.00432
G1 X83.891 Y99.924 E7.04616
G1 X84.641 Y98.913 E7.08803
G1 X85.454 Y97.953 E7.12987
G1 X86.326 Y97.045 E7.17174
G1 X86.461 Y96.92 E7.17786
G0 F810 X87.047 Y96.376
M204 S5000
M205 X30 Y30
G0 F7200 X87.312 Y96.676
M204 S500
M205 X20 Y20
G1 F6000 E7.20447
G1 F900 X87.732 Y96.305 E7.2231
G1 X88.691 Y95.511 E7.26451
G1 X89.7 Y94.78 E7.30596
G1 X90.753 Y94.115 E7.34738
G1 X91.847 Y93.519 E7.38881
G1 X92.977 Y92.995 E7.43024
G1 X94.138 Y92.544 E7.47167
G1 X95.326 Y92.169 E7.5131
G1 X96.381 Y91.904 E7.54928
G1 X96.81 Y91.809 E7.5639
G1 X98.034 Y91.579 E7.60532
G1 X99.27 Y91.428 E7.64673
G1 X101.028 Y91.35 E7.70526
G1 X109.164 Y91.36 E7.97587
G1 X110.409 Y91.402 E8.0173
G1 X111.648 Y91.523 E8.05871
G1 X112.878 Y91.723 E8.10015
G1 X114.092 Y92.003 E8.14159
G1 X115.84 Y92.554 E8.20255
G1 X116.234 Y92.699 E8.21651
G1 X117.233 Y93.103 E8.25235
G1 X134.148 Y93.11 E8.81495
G1 X135.393 Y93.151 E8.85638
G1 X136.633 Y93.271 E8.89782
G1 X137.862 Y93.47 E8.93923
G1 X139.077 Y93.749 E8.98069
G1 X140.84 Y94.304 E9.04216
G1 X141.234 Y94.449 E9.05613
G1 X142.389 Y94.916 E9.09756
G1 X143.511 Y95.457 E9.13899
G1 X144.596 Y96.068 E9.18041
G1 X145.64 Y96.748 E9.22185
G1 X146.638 Y97.494 E9.26329
G1 X147.586 Y98.302 E9.30472
G1 X148.48 Y99.169 E9.34614
G1 X149.072 Y99.809 E9.37514
G1 X149.444 Y100.23 E9.39382
G1 X150.238 Y101.19 E9.43526
G1 X150.969 Y102.198 E9.47667
G1 X151.634 Y103.251 E9.5181
G1 X152.23 Y104.345 E9.55953
G1 X152.755 Y105.475 E9.60097
G1 X153.206 Y106.636 E9.6424
G1 X153.582 Y107.824 E9.68384
G1 X153.852 Y108.905 E9.7209
G1 X153.946 Y109.332 E9.73545
G1 X154.175 Y110.557 E9.7769
G1 X154.325 Y111.793 E9.81831
G1 X154.4 Y113.527 E9.87603
G1 X154.39 Y121.664 E10.14667
G1 X154.348 Y122.909 E10.1881
G1 X154.227 Y124.148 E10.22951
G1 X154.027 Y125.378 E10.27096
G1 X153.747 Y126.592 E10.31239
G1 X153.196 Y128.34 E10.37335
G1 X153.051 Y128.734 E10.38732
G1 X152.584 Y129.889 E10.42875
G1 X152.043 Y131.011 E10.47018
G1 X151.432 Y132.096 E10.5116
G1 X150.752 Y133.14 E10.55304
G1 X150.006 Y134.138 E10.59448
G1 X149.198 Y135.086 E10.63591
G1 X148.331 Y135.98 E10.67733
G1 X147.688 Y136.574 E10.70645
G1 X147.268 Y136.945 E10.72508
G1 X146.309 Y137.739 E10.76649
G1 X145.3 Y138.47 E10.80794
G1 X144.247 Y139.135 E10.84936
G1 X143.153 Y139.731 E10.89079
G1 X142.023 Y140.255 E10.93222
G1 X140.862 Y140.706 E10.97365
G1 X139.674 Y141.081 E11.01508
G1 X138.619 Y141.346 E11.05126
G1 X138.19 Y141.441 E11.06588
G1 X136.966 Y141.671 E11.1073
G1 X135.73 Y141.822 E11.14872
G1 X133.996 Y141.9 E11.20645
G1 X117.249 Y141.9 E11.76345
G1 X117.023 Y142.005 E11.77174
G1 X115.862 Y142.456 E11.81317
G1 X114.674 Y142.831 E11.8546
G1 X113.619 Y143.096 E11.89078
G1 X113.19 Y143.191 E11.9054
G1 X111.966 Y143.421 E11.94682
G1 X110.73 Y143.572 E11.98824
G1 X108.972 Y143.65 E12.04676
G1 X100.836 Y143.64 E12.31737
G1 X99.591 Y143.598 E12.3588
G1 X98.352 Y143.477 E12.40021
G1 X97.122 Y143.277 E12.44165
G1 X95.908 Y142.997 E12.48309
G1 X94.16 Y142.446 E12.54405
G1 X93.766 Y142.301 E12.55801
G1 X92.611 Y141.834 E12.59945
G1 X91.489 Y141.293 E12.64088
G1 X90.404 Y140.682 E12.6823
G1 X89.36 Y140.002 E12.72374
G1 X88.362 Y139.256 E12.76518
G1 X87.414 Y138.448 E12.80661
G1 X86.52 Y137.581 E12.84803
G1 X85.928 Y136.941 E12.87703
G1 X85.556 Y136.52 E12.89571
G1 X84.762 Y135.56 E12.93715
G1 X84.031 Y134.552 E12.97856
G1 X83.366 Y133.499 E13.01998
G1 X82.77 Y132.405 E13.06142
G1 X82.245 Y131.275 E13.10286
G1 X81.794 Y130.114 E13.14429
G1 X81.418 Y128.926 E13.18573
G1 X81.148 Y127.845 E13.22279
G1 X81.054 Y127.418 E13.23733
G1 X80.825 Y126.193 E13.27878
G1 X80.675 Y124.957 E13.32019
G1 X80.6 Y123.247 E13.37712
G1 X80.6 Y120.367 E13.47291
G1 X80.64 Y119.122 E13.51434
G1 X80.76 Y117.882 E13.55578
G1 X80.819 Y117.516 E13.56811
G1 X80.799 Y117.402 E13.57196
G1 X80.66 Y116.164 E13.61339
G1 X80.6 Y114.569 E13.66648
G1 X80.61 Y111.546 E13.76703
G1 X80.654 Y110.301 E13.80846
G1 X80.778 Y109.062 E13.84988
G1 X80.981 Y107.833 E13.89131
G1 X81.263 Y106.619 E13.93276
G1 X81.804 Y104.91 E13.99238
G1 X81.949 Y104.516 E14.00635
G1 X82.416 Y103.361 E14.04778
G1 X82.957 Y102.239 E14.08921
G1 X83.568 Y101.154 E14.13063
G1 X84.248 Y100.11 E14.17207
G1 X84.994 Y99.112 E14.21351
G1 X85.802 Y98.164 E14.25494
G1 X86.669 Y97.27 E14.29636
G1 X86.725 Y97.219 E14.29888
G0 F810 X87.312 Y96.676
M204 S5000
M205 X30 Y30
G0 F7200 X87.576 Y96.976
M204 S500
M205 X20 Y20
G1 F6000 E14.32549
G1 F900 X87.996 Y96.605 E14.34413
G1 X88.946 Y95.819 E14.38514
G1 X89.945 Y95.097 E14.42613
G1 X90.989 Y94.441 E14.46714
G1 X92.073 Y93.854 E14.50814
G1 X93.192 Y93.338 E14.54913
G1 X94.343 Y92.896 E14.59013
G1 X95.52 Y92.53 E14.63113
G1 X96.467 Y92.294 E14.66359
G1 X96.896 Y92.199 E14.67821
G1 X98.108 Y91.972 E14.71922
G1 X99.331 Y91.824 E14.76019
G1 X101.027 Y91.75 E14.81665
G1 X109.163 Y91.76 E15.08726
G1 X110.395 Y91.802 E15.12826
G1 X111.622 Y91.923 E15.16927
G1 X112.838 Y92.123 E15.21026
G1 X114.039 Y92.402 E15.25126
G1 X115.702 Y92.929 E15.30929
G1 X116.096 Y93.074 E15.32325
G1 X117.155 Y93.503 E15.36125
G1 X134.148 Y93.51 E15.92644
G1 X135.38 Y93.551 E15.96744
G1 X136.607 Y93.671 E16.00845
G1 X137.823 Y93.87 E16.04943
G1 X139.024 Y94.148 E16.09043
G1 X140.702 Y94.679 E16.14897
G1 X141.096 Y94.824 E16.16293
G1 X142.239 Y95.287 E16.20395
G1 X143.349 Y95.823 E16.24495
G1 X144.421 Y96.43 E16.28592
G1 X145.453 Y97.106 E16.32695
G1 X146.438 Y97.846 E16.36793
G1 X147.373 Y98.65 E16.40895
G1 X148.254 Y99.512 E16.44994
G1 X148.772 Y100.074 E16.47536
G1 X149.144 Y100.495 E16.49405
G1 X149.93 Y101.445 E16.53506
G1 X150.652 Y102.444 E16.57605
G1 X151.309 Y103.487 E16.61705
G1 X151.896 Y104.571 E16.65805
G1 X152.412 Y105.691 E16.69907
G1 X152.854 Y106.841 E16.74004
G1 X153.22 Y108.018 E16.78104
G1 X153.462 Y108.991 E16.81439
G1 X153.556 Y109.418 E16.82893
G1 X153.782 Y110.63 E16.86994
G1 X153.928 Y111.854 E16.91094
G1 X154 Y113.526 E16.9666
G1 X153.99 Y121.663 E17.23724
G1 X153.948 Y122.895 E17.27824
G1 X153.827 Y124.122 E17.31925
G1 X153.627 Y125.338 E17.36023
G1 X153.348 Y126.539 E17.40124
G1 X152.821 Y128.202 E17.45926
G1 X152.676 Y128.596 E17.47323
G1 X152.213 Y129.739 E17.51425
G1 X151.677 Y130.849 E17.55524
G1 X151.07 Y131.921 E17.59622
G1 X150.394 Y132.953 E17.63725
G1 X149.654 Y133.938 E17.67823
G1 X148.85 Y134.873 E17.71924
G1 X147.988 Y135.754 E17.76024
G1 X147.424 Y136.274 E17.78575
G1 X147.004 Y136.645 E17.80439
G1 X146.054 Y137.431 E17.8454
G1 X145.055 Y138.153 E17.8864
G1 X144.011 Y138.809 E17.9274
G1 X142.927 Y139.396 E17.96841
G1 X141.808 Y139.912 E18.00939
G1 X140.657 Y140.354 E18.0504
G1 X139.48 Y140.72 E18.09139
G1 X138.533 Y140.956 E18.12386
G1 X138.104 Y141.051 E18.13847
G1 X136.892 Y141.278 E18.17948
G1 X135.669 Y141.426 E18.22046
G1 X133.996 Y141.5 E18.27615
G1 X117.159 Y141.5 E18.83616
G1 X116.808 Y141.662 E18.84901
G1 X115.657 Y142.104 E18.89002
G1 X114.48 Y142.47 E18.93102
G1 X113.533 Y142.706 E18.96348
G1 X113.104 Y142.801 E18.97809
G1 X111.892 Y143.028 E19.0191
G1 X110.669 Y143.176 E19.06008
G1 X108.973 Y143.25 E19.11654
G1 X100.837 Y143.24 E19.38715
G1 X99.605 Y143.198 E19.42815
G1 X98.378 Y143.077 E19.46915
G1 X97.162 Y142.877 E19.51014
G1 X95.961 Y142.598 E19.55115
G1 X94.298 Y142.071 E19.60917
G1 X93.904 Y141.926 E19.62314
G1 X92.761 Y141.463 E19.66415
G1 X91.651 Y140.927 E19.70515
G1 X90.579 Y140.32 E19.74613
G1 X89.547 Y139.644 E19.78716
G1 X88.562 Y138.904 E19.82813
G1 X87.627 Y138.1 E19.86915
G1 X86.746 Y137.238 E19.91014
G1 X86.228 Y136.676 E19.93557
G1 X85.856 Y136.255 E19.95425
G1 X85.07 Y135.305 E19.99526
G1 X84.348 Y134.306 E20.03626
G1 X83.691 Y133.263 E20.07726
G1 X83.104 Y132.179 E20.11826
G1 X82.588 Y131.059 E20.15927
G1 X82.146 Y129.909 E20.20025
G1 X81.78 Y128.732 E20.24125
G1 X81.538 Y127.759 E20.27459
G1 X81.444 Y127.332 E20.28914
G1 X81.218 Y126.12 E20.33014
G1 X81.072 Y124.896 E20.37114
G1 X81 Y123.247 E20.42604
G1 X81 Y120.367 E20.52183
G1 X81.04 Y119.135 E20.56283
G1 X81.16 Y117.908 E20.60383
G1 X81.226 Y117.505 E20.61741
G1 X81.177 Y117.218 E20.6271
G1 X81.049 Y115.992 E20.6681
G1 X81 Y114.57 E20.71542
G1 X81.01 Y111.547 E20.81597
G1 X81.054 Y110.315 E20.85697
G1 X81.178 Y109.089 E20.89795
G1 X81.381 Y107.873 E20.93896
G1 X81.663 Y106.673 E20.97996
G1 X82.179 Y105.048 E21.03666
G1 X82.324 Y104.654 E21.05063
G1 X82.787 Y103.511 E21.09164
G1 X83.323 Y102.401 E21.13264
G1 X83.93 Y101.329 E21.17362
G1 X84.606 Y100.297 E21.21465
G1 X85.346 Y99.312 E21.25563
G1 X86.15 Y98.377 E21.29664
G1 X86.989 Y97.519 E21.33655
G0 F810 X87.012 Y97.496
G0 X87.576 Y96.976
M204 S5000
M205 X30 Y30
G0 F7200 X87.841 Y97.276
M204 S500
M205 X20 Y20
G1 F6000 E21.36316
G1 F900 X88.261 Y96.905 E21.3818
G1 X89.201 Y96.128 E21.42236
G1 X90.19 Y95.414 E21.46293
G1 X91.224 Y94.767 E21.5035
G1 X92.298 Y94.188 E21.54408
G1 X93.407 Y93.682 E21.58463
G1 X94.547 Y93.249 E21.62519
G1 X95.714 Y92.892 E21.66578
G1 X96.554 Y92.685 E21.69455
G1 X96.983 Y92.59 E21.70917
G1 X98.181 Y92.365 E21.74971
G1 X99.392 Y92.22 E21.79027
G1 X101.027 Y92.15 E21.8447
G1 X109.163 Y92.16 E22.11531
G1 X110.382 Y92.202 E22.15588
G1 X111.595 Y92.323 E22.19642
G1 X112.799 Y92.523 E22.23702
G1 X113.986 Y92.802 E22.27757
G1 X115.564 Y93.305 E22.33266
G1 X115.958 Y93.45 E22.34662
G1 X117.075 Y93.903 E22.38671
G1 X134.148 Y93.91 E22.95456
G1 X135.367 Y93.95 E22.99513
G1 X136.58 Y94.071 E23.03567
G1 X137.784 Y94.27 E23.07626
G1 X138.971 Y94.548 E23.11681
G1 X140.564 Y95.055 E23.17241
G1 X140.958 Y95.2 E23.18638
G1 X142.088 Y95.658 E23.22693
G1 X143.186 Y96.19 E23.26751
G1 X144.246 Y96.792 E23.30805
G1 X145.265 Y97.463 E23.34863
G1 X146.238 Y98.199 E23.38921
G1 X147.16 Y98.997 E23.42977
G1 X148.028 Y99.854 E23.47034
G1 X148.472 Y100.339 E23.49221
G1 X148.844 Y100.76 E23.51089
G1 X149.621 Y101.7 E23.55146
G1 X150.335 Y102.689 E23.59203
G1 X150.983 Y103.722 E23.63259
G1 X151.561 Y104.796 E23.67315
G1 X152.068 Y105.906 E23.71374
G1 X152.501 Y107.046 E23.7543
G1 X152.859 Y108.212 E23.79487
G1 X153.071 Y109.077 E23.82449
G1 X153.165 Y109.504 E23.83903
G1 X153.388 Y110.703 E23.87959
G1 X153.532 Y111.914 E23.92016
G1 X153.6 Y113.526 E23.97382
G1 X153.59 Y121.663 E24.24446
G1 X153.548 Y122.882 E24.28502
G1 X153.427 Y124.095 E24.32557
G1 X153.227 Y125.299 E24.36616
G1 X152.948 Y126.486 E24.40672
G1 X152.445 Y128.064 E24.46181
G1 X152.3 Y128.458 E24.47577
G1 X151.842 Y129.588 E24.51632
G1 X151.31 Y130.686 E24.5569
G1 X150.708 Y131.746 E24.59745
G1 X150.037 Y132.765 E24.63803
G1 X149.301 Y133.738 E24.67861
G1 X148.503 Y134.66 E24.71916
G1 X147.646 Y135.528 E24.75973
G1 X147.159 Y135.974 E24.7817
G1 X146.739 Y136.345 E24.80034
G1 X145.799 Y137.122 E24.8409
G1 X144.81 Y137.836 E24.88147
G1 X143.776 Y138.483 E24.92204
G1 X142.702 Y139.062 E24.96262
G1 X141.593 Y139.568 E25.00316
G1 X140.453 Y140.001 E25.04372
G1 X139.286 Y140.358 E25.08431
G1 X138.446 Y140.565 E25.11309
G1 X138.017 Y140.66 E25.1277
G1 X136.819 Y140.885 E25.16824
G1 X135.608 Y141.03 E25.20881
G1 X133.996 Y141.1 E25.26247
G1 X117.071 Y141.1 E25.8254
G1 X116.593 Y141.318 E25.84288
G1 X115.453 Y141.751 E25.88344
G1 X114.286 Y142.108 E25.92403
G1 X113.446 Y142.315 E25.9528
G1 X113.017 Y142.41 E25.96741
G1 X111.819 Y142.635 E26.00796
G1 X110.608 Y142.78 E26.04852
G1 X108.973 Y142.85 E26.10295
G1 X100.837 Y142.84 E26.37356
G1 X99.618 Y142.798 E26.41413
G1 X98.405 Y142.677 E26.45467
G1 X97.201 Y142.477 E26.49526
G1 X96.014 Y142.198 E26.53582
G1 X94.436 Y141.695 E26.59091
G1 X94.042 Y141.55 E26.60487
