;FLAVOR:Marlin
;TIME:4641
;Filament used: 4.62624m
;Layer height: 0.2
;Generated with Cura_SteamEngine 3.6.0
M140 S70
M105
M190 S70
M104 S215
M105
M109 S215
M82 ;absolute extrusion mode
G28 ; home all axes
M117 Purge extruder
G92 E0 ; reset extruder
G1 Z1.0 F3000 ; move z up little to prevent scratching of surface
G1 X0.1 Y20 Z0.3 F5000.0 ; move to start-line position G1 X0.1 Y200.0 Z0.3 F1500.0 E15 ; draw 1st line
G1 X0.4 Y200.0 Z0.3 F5000.0 ; move to side a little
G1 X0.4 Y20 Z0.3 F1500.0 E30 ; draw 2nd line
G92 E0 ; reset extruder
G1 Z1.0 F3000 ; move z up little to prevent scratching of surface
M117 All systems go!
G92 E0
G1 F6000 E-5
;LAYER_COUNT:81
;LAYER:0
M107
M204 S5000
M205 X30 Y30
G0 F7200 X87.829 Y89.425 Z0.2
M204 S500
M205 X20 Y20
;TYPE:SKIRT
G1 F6000 E0
G1 F900 X88.84 Y88.456 E0.04658
G1 X89.776 Y87.614 E0.08845
G1 X90.763 Y86.834 E0.13029
G1 X91.798 Y86.118 E0.17215
G1 X92.876 Y85.469 E0.214
G1 X93.994 Y84.89 E0.25588
G1 X95.146 Y84.383 E0.29774
G1 X96.327 Y83.95 E0.33958
G1 X97.534 Y83.594 E0.38143
G1 X98.761 Y83.314 E0.42329
G1 X100.003 Y83.113 E0.46514
G1 X101.256 Y82.992 E0.50701
G1 X102.541 Y82.95 E0.54977
G1 X107.668 Y82.95 E0.72029
G1 X108.344 Y82.432 E0.74862
G1 X109.389 Y81.732 E0.79045
G1 X110.477 Y81.1 E0.8323
G1 X111.603 Y80.538 E0.87416
G1 X112.763 Y80.049 E0.91603
G1 X113.951 Y79.634 E0.95788
G1 X115.163 Y79.296 E0.99973
G1 X116.394 Y79.035 E1.04159
G1 X117.639 Y78.853 E1.08344
G1 X118.894 Y78.75 E1.12532
G1 X120.152 Y78.728 E1.16716
G1 X121.292 Y78.777 E1.20512
G1 X126.906 Y79.179 E1.39232
G1 X128.158 Y79.308 E1.43418
G1 X129.399 Y79.517 E1.47604
G1 X130.624 Y79.805 E1.51789
G1 X131.828 Y80.169 E1.55973
G1 X133.007 Y80.61 E1.60159
G1 X134.156 Y81.124 E1.64346
G1 X135.269 Y81.71 E1.68529
G1 X136.343 Y82.366 E1.72715
G1 X137.373 Y83.089 E1.76901
G1 X138.356 Y83.876 E1.81089
G1 X139.286 Y84.723 E1.85273
G1 X139.984 Y85.436 E1.88591
G1 X140.092 Y85.552 E1.89119
G1 X140.919 Y86.5 E1.93303
G1 X141.685 Y87.498 E1.97487
G1 X142.386 Y88.543 E2.01672
G1 X143.019 Y89.631 E2.05859
G1 X143.582 Y90.756 E2.10043
G1 X144.072 Y91.915 E2.14228
G1 X144.488 Y93.103 E2.18415
G1 X144.827 Y94.315 E2.22601
G1 X145.089 Y95.546 E2.26787
G1 X145.271 Y96.791 E2.30972
G1 X145.375 Y98.045 E2.35157
G1 X145.4 Y99.043 E2.38477
G1 X145.401 Y135.954 E3.61244
G1 X145.361 Y137.212 E3.6543
G1 X145.241 Y138.465 E3.69617
G1 X145.042 Y139.707 E3.738
G1 X144.765 Y140.935 E3.77987
G1 X144.409 Y142.142 E3.82173
G1 X143.978 Y143.324 E3.86357
G1 X143.473 Y144.477 E3.90544
G1 X142.896 Y145.595 E3.94728
G1 X142.248 Y146.674 E3.98914
G1 X141.534 Y147.71 E4.03099
G1 X140.755 Y148.699 E4.07287
G1 X140.093 Y149.447 E4.10609
G1 X139.985 Y149.563 E4.11136
G1 X139.098 Y150.456 E4.15322
G1 X138.157 Y151.292 E4.19509
G1 X137.164 Y152.065 E4.23694
G1 X136.125 Y152.774 E4.27878
G1 X135.042 Y153.416 E4.32065
G1 X133.921 Y153.988 E4.36251
G1 X132.766 Y154.487 E4.40436
G1 X131.581 Y154.912 E4.44623
G1 X130.372 Y155.26 E4.48807
G1 X129.143 Y155.532 E4.52994
G1 X127.9 Y155.724 E4.57177
G1 X126.91 Y155.82 E4.60485
G1 X121.295 Y156.223 E4.79209
G1 X120.038 Y156.273 E4.83393
G1 X118.78 Y156.244 E4.87578
G1 X117.526 Y156.134 E4.91765
G1 X116.282 Y155.945 E4.9595
G1 X115.053 Y155.677 E5.00134
G1 X113.843 Y155.332 E5.04319
G1 X112.657 Y154.91 E5.08506
G1 X111.5 Y154.414 E5.12693
G1 X110.378 Y153.846 E5.16875
G1 X109.293 Y153.207 E5.21063
G1 X108.252 Y152.501 E5.25247
G1 X107.643 Y152.029 E5.2781
G1 X102.435 Y152.02 E5.45132
G1 X101.177 Y151.978 E5.49318
G1 X99.924 Y151.856 E5.53505
G1 X98.682 Y151.655 E5.5769
G1 X97.455 Y151.375 E5.61876
G1 X96.249 Y151.018 E5.66059
G1 X95.067 Y150.584 E5.70247
G1 X93.915 Y150.077 E5.74433
G1 X92.798 Y149.498 E5.78618
G1 X91.72 Y148.849 E5.82803
G1 X90.686 Y148.132 E5.86988
G1 X89.699 Y147.351 E5.91174
G1 X88.763 Y146.51 E5.95359
G1 X88.175 Y145.921 E5.98127
G1 X87.206 Y144.91 E6.02785
G1 X86.364 Y143.974 E6.06973
G1 X85.584 Y142.987 E6.11157
G1 X84.868 Y141.952 E6.15343
G1 X84.219 Y140.874 E6.19528
G1 X83.64 Y139.756 E6.23715
G1 X83.133 Y138.604 E6.27901
G1 X82.7 Y137.423 E6.32085
G1 X82.344 Y136.216 E6.36271
G1 X82.064 Y134.989 E6.40457
G1 X81.863 Y133.747 E6.44641
G1 X81.742 Y132.494 E6.48828
G1 X81.7 Y131.187 E6.53177
G1 X81.73 Y103.697 E7.4461
G1 X81.771 Y102.44 E7.48793
G1 X81.893 Y101.187 E7.5298
G1 X82.093 Y99.945 E7.57164
G1 X82.372 Y98.718 E7.61349
G1 X82.728 Y97.511 E7.65535
G1 X83.161 Y96.329 E7.69721
G1 X83.667 Y95.177 E7.73906
G1 X84.246 Y94.06 E7.78091
G1 X84.895 Y92.981 E7.82279
G1 X85.61 Y91.946 E7.86463
G1 X86.39 Y90.959 E7.90647
G1 X87.231 Y90.023 E7.94832
G1 X87.263 Y89.991 E7.94983
G0 F810 X87.829 Y89.425
M204 S5000
M205 X30 Y30
G0 F7200 X88.106 Y89.713
M204 S500
M205 X20 Y20
G1 F6000 E7.97644
G1 F900 X89.117 Y88.744 E8.02301
G1 X90.044 Y87.912 E8.06444
G1 X91.022 Y87.14 E8.10588
G1 X92.047 Y86.433 E8.1473
G1 X93.116 Y85.793 E8.18874
G1 X94.223 Y85.223 E8.23015
G1 X95.365 Y84.726 E8.27158
G1 X96.537 Y84.302 E8.31303
G1 X97.733 Y83.955 E8.35445
G1 X98.949 Y83.685 E8.39588
G1 X100.18 Y83.494 E8.43731
G1 X101.421 Y83.382 E8.47875
G1 X102.541 Y83.35 E8.51602
G1 X107.803 Y83.35 E8.69104
G1 X108.597 Y82.743 E8.72428
G1 X109.634 Y82.051 E8.76574
G1 X110.712 Y81.428 E8.80715
G1 X111.828 Y80.875 E8.84858
G1 X112.977 Y80.395 E8.89
G1 X114.155 Y79.989 E8.93144
G1 X115.357 Y79.66 E8.97289
G1 X116.577 Y79.409 E9.01431
G1 X117.81 Y79.237 E9.05572
G1 X119.052 Y79.144 E9.09715
G1 X120.298 Y79.131 E9.13859
G1 X121.264 Y79.176 E9.17075
G1 X126.878 Y79.578 E9.35796
G1 X128.117 Y79.706 E9.39938
G1 X129.345 Y79.914 E9.44081
G1 X130.557 Y80.201 E9.48224
G1 X131.748 Y80.564 E9.52365
G1 X132.914 Y81.004 E9.5651
G1 X134.049 Y81.517 E9.60652
G1 X135.149 Y82.102 E9.64796
G1 X136.208 Y82.757 E9.68938
G1 X137.224 Y83.478 E9.73081
G1 X138.192 Y84.262 E9.77225
G1 X139.107 Y85.108 E9.81369
G1 X139.691 Y85.708 E9.84154
G1 X139.799 Y85.824 E9.84681
G1 X140.618 Y86.763 E9.88826
G1 X141.375 Y87.752 E9.92968
G1 X142.067 Y88.788 E9.97112
G1 X142.691 Y89.866 E10.01254
G1 X143.245 Y90.981 E10.05396
G1 X143.726 Y92.13 E10.09538
G1 X144.133 Y93.308 E10.13684
G1 X144.462 Y94.509 E10.17825
G1 X144.715 Y95.729 E10.2197
G1 X144.888 Y96.962 E10.26111
G1 X144.982 Y98.204 E10.30253
G1 X145 Y99.043 E10.33045
G1 X145.001 Y135.954 E11.55811
G1 X144.961 Y137.199 E11.59954
G1 X144.841 Y138.439 E11.64098
G1 X144.642 Y139.669 E11.68242
G1 X144.365 Y140.883 E11.72383
G1 X144.01 Y142.077 E11.76526
G1 X143.579 Y143.246 E11.8067
G1 X143.074 Y144.385 E11.84814
G1 X142.497 Y145.489 E11.88958
G1 X141.85 Y146.553 E11.93099
G1 X141.137 Y147.574 E11.97241
G1 X140.359 Y148.547 E12.01385
G1 X139.8 Y149.175 E12.04181
G1 X139.692 Y149.291 E12.04708
G1 X138.814 Y150.174 E12.0885
G1 X137.882 Y151 E12.12992
G1 X136.898 Y151.765 E12.17138
G1 X135.867 Y152.464 E12.2128
G1 X134.794 Y153.096 E12.25422
G1 X133.682 Y153.658 E12.29566
G1 X132.537 Y154.147 E12.33707
G1 X131.362 Y154.562 E12.37852
G1 X130.163 Y154.9 E12.41995
G1 X128.945 Y155.161 E12.46138
G1 X127.713 Y155.344 E12.50281
G1 X126.882 Y155.421 E12.53057
G1 X121.267 Y155.824 E12.7178
G1 X120.022 Y155.873 E12.75924
G1 X118.777 Y155.843 E12.80067
G1 X117.536 Y155.732 E12.84211
G1 X116.305 Y155.542 E12.88353
G1 X115.089 Y155.274 E12.92495
G1 X113.892 Y154.927 E12.9664
G1 X112.72 Y154.505 E13.00783
G1 X111.578 Y154.009 E13.04924
G1 X110.47 Y153.44 E13.09067
G1 X109.4 Y152.801 E13.13212
G1 X108.374 Y152.095 E13.17355
G1 X107.782 Y151.629 E13.1986
G1 X102.435 Y151.62 E13.37645
G1 X101.19 Y151.578 E13.41788
G1 X99.951 Y151.456 E13.45929
G1 X98.721 Y151.255 E13.50074
G1 X97.508 Y150.975 E13.54214
G1 X96.314 Y150.618 E13.58359
G1 X95.146 Y150.185 E13.62503
G1 X94.009 Y149.678 E13.66643
G1 X92.906 Y149.099 E13.70787
G1 X91.842 Y148.451 E13.7493
G1 X90.822 Y147.735 E13.79075
G1 X89.851 Y146.956 E13.83215
G1 X88.931 Y146.116 E13.87359
G1 X88.463 Y145.644 E13.8957
G1 X87.494 Y144.633 E13.94227
G1 X86.662 Y143.706 E13.9837
G1 X85.89 Y142.728 E14.02514
G1 X85.183 Y141.703 E14.06656
G1 X84.543 Y140.634 E14.108
G1 X83.973 Y139.527 E14.14941
G1 X83.476 Y138.385 E14.19084
G1 X83.052 Y137.213 E14.23229
G1 X82.705 Y136.017 E14.27371
G1 X82.435 Y134.801 E14.31514
G1 X82.244 Y133.57 E14.35657
G1 X82.132 Y132.329 E14.39802
G1 X82.1 Y131.188 E14.43598
G1 X82.13 Y103.698 E15.3503
G1 X82.171 Y102.453 E15.39173
G1 X82.293 Y101.213 E15.43318
G1 X82.493 Y99.984 E15.47459
G1 X82.772 Y98.77 E15.51602
G1 X83.128 Y97.576 E15.55746
G1 X83.56 Y96.408 E15.59888
G1 X84.067 Y95.27 E15.64032
G1 X84.645 Y94.166 E15.68176
G1 X85.293 Y93.103 E15.72317
G1 X86.007 Y92.082 E15.76461
G1 X86.786 Y91.11 E15.80604
G1 X87.543 Y90.281 E15.84338
G0 F810 X87.626 Y90.19
G0 X88.106 Y89.713
M204 S5000
M205 X30 Y30
G0 F7200 X88.383 Y90.002
M204 S500
M205 X20 Y20
G1 F6000 E15.86999
G1 F900 X89.394 Y89.033 E15.91656
G1 X90.311 Y88.209 E15.95757
G1 X91.28 Y87.447 E15.99857
G1 X92.296 Y86.749 E16.03957
G1 X93.355 Y86.118 E16.08057
G1 X94.453 Y85.558 E16.12156
G1 X95.585 Y85.069 E16.16258
G1 X96.746 Y84.655 E16.20357
G1 X97.931 Y84.318 E16.24455
G1 X99.136 Y84.058 E16.28555
G1 X100.356 Y83.876 E16.32658
G1 X101.584 Y83.774 E16.36756
G1 X102.541 Y83.75 E16.3994
G1 X107.938 Y83.75 E16.5789
G1 X108.851 Y83.053 E16.61711
G1 X109.877 Y82.371 E16.65808
G1 X110.946 Y81.756 E16.6991
G1 X112.052 Y81.213 E16.74008
G1 X113.191 Y80.741 E16.78109
G1 X114.359 Y80.345 E16.82211
G1 X115.549 Y80.026 E16.86309
G1 X116.758 Y79.784 E16.9041
G1 X117.98 Y79.621 E16.9451
G1 X119.21 Y79.538 E16.9861
G1 X120.443 Y79.534 E17.02711
G1 X121.235 Y79.575 E17.05349
G1 X126.849 Y79.977 E17.24069
G1 X128.075 Y80.104 E17.28169
G1 X129.29 Y80.312 E17.32269
G1 X130.49 Y80.597 E17.36371
G1 X131.668 Y80.96 E17.40471
G1 X132.82 Y81.398 E17.4457
G1 X133.941 Y81.91 E17.48669
G1 X135.027 Y82.494 E17.5277
G1 X136.073 Y83.147 E17.56871
G1 X137.074 Y83.866 E17.6097
G1 X138.026 Y84.649 E17.6507
G1 X138.926 Y85.492 E17.69172
G1 X139.398 Y85.981 E17.71432
G1 X139.506 Y86.097 E17.71959
G1 X140.316 Y87.026 E17.76059
G1 X141.065 Y88.006 E17.80161
G1 X141.748 Y89.032 E17.84261
G1 X142.363 Y90.1 E17.8836
G1 X142.908 Y91.206 E17.92461
G1 X143.38 Y92.345 E17.96561
G1 X143.777 Y93.512 E18.00661
G1 X144.097 Y94.702 E18.0476
G1 X144.34 Y95.911 E18.08861
G1 X144.504 Y97.132 E18.12959
G1 X144.588 Y98.362 E18.17059
G1 X144.6 Y99.043 E18.19325
G1 X144.601 Y135.954 E19.42091
G1 X144.561 Y137.187 E19.46194
G1 X144.441 Y138.413 E19.50292
G1 X144.242 Y139.63 E19.54393
G1 X143.965 Y140.831 E19.58493
G1 X143.61 Y142.012 E19.62594
G1 X143.179 Y143.167 E19.66694
G1 X142.675 Y144.291 E19.70792
G1 X142.098 Y145.381 E19.74894
G1 X141.452 Y146.431 E19.78994
G1 X140.739 Y147.437 E19.83095
G1 X139.963 Y148.394 E19.87193
G1 X139.507 Y148.902 E19.89463
G1 X139.399 Y149.018 E19.89991
G1 X138.53 Y149.892 E19.9409
G1 X137.606 Y150.709 E19.98192
G1 X136.632 Y151.463 E20.02289
G1 X135.61 Y152.153 E20.0639
G1 X134.546 Y152.776 E20.10491
G1 X133.444 Y153.327 E20.14589
G1 X132.308 Y153.807 E20.18691
G1 X131.144 Y154.211 E20.22789
G1 X129.955 Y154.54 E20.26892
G1 X128.748 Y154.79 E20.30992
G1 X127.528 Y154.962 E20.3509
G1 X126.853 Y155.022 E20.37344
G1 X121.238 Y155.425 E20.56067
G1 X120.006 Y155.474 E20.60168
G1 X118.774 Y155.442 E20.64267
G1 X117.546 Y155.33 E20.68368
G1 X116.329 Y155.14 E20.72465
G1 X115.126 Y154.87 E20.76566
G1 X113.943 Y154.523 E20.80666
G1 X112.785 Y154.1 E20.84767
G1 X111.657 Y153.603 E20.88867
G1 X110.563 Y153.034 E20.92968
G1 X109.509 Y152.395 E20.97068
G1 X108.498 Y151.689 E21.01169
G1 X107.924 Y151.23 E21.03613
G1 X102.436 Y151.22 E21.21867
G1 X101.204 Y151.178 E21.25967
G1 X99.977 Y151.056 E21.30068
G1 X98.761 Y150.855 E21.34167
G1 X97.561 Y150.575 E21.38265
G1 X96.381 Y150.218 E21.42366
G1 X95.226 Y149.785 E21.46468
G1 X94.103 Y149.279 E21.50565
G1 X93.014 Y148.7 E21.54667
G1 X91.965 Y148.053 E21.58767
G1 X90.961 Y147.338 E21.62866
G1 X90.005 Y146.56 E21.66966
G1 X88.752 Y145.367 E21.7272
G1 X87.783 Y144.356 E21.77378
G1 X86.959 Y143.439 E21.81478
G1 X86.197 Y142.47 E21.85578
G1 X85.499 Y141.454 E21.89678
G1 X84.868 Y140.395 E21.93778
G1 X84.308 Y139.297 E21.97878
G1 X83.819 Y138.165 E22.01979
G1 X83.405 Y137.004 E22.06079
G1 X83.068 Y135.819 E22.10176
G1 X82.808 Y134.614 E22.14276
G1 X82.626 Y133.394 E22.18379
G1 X82.524 Y132.166 E22.22477
G1 X82.5 Y131.188 E22.25731
G1 X82.53 Y103.698 E23.17163
G1 X82.571 Y102.466 E23.21263
G1 X82.692 Y101.239 E23.25364
G1 X82.893 Y100.023 E23.29463
G1 X83.172 Y98.822 E23.33564
G1 X83.528 Y97.642 E23.37664
G1 X83.96 Y96.488 E23.41762
G1 X84.466 Y95.364 E23.45862
G1 X85.044 Y94.275 E23.49963
G1 X85.691 Y93.225 E23.54065
G1 X86.404 Y92.22 E23.58163
G1 X87.182 Y91.264 E23.62263
G1 X87.832 Y90.581 E23.65399
G0 F810 X88.383 Y90.002
M204 S5000
M205 X30 Y30
G0 F7200 X88.66 Y90.291
M204 S500
M205 X20 Y20
G1 F6000 E23.68059
G1 F900 X89.671 Y89.322 E23.72717
G1 X90.578 Y88.507 E23.76773
G1 X91.538 Y87.754 E23.80831
G1 X92.544 Y87.065 E23.84886
G1 X93.594 Y86.443 E23.88945
G1 X94.681 Y85.892 E23.92999
G1 X95.803 Y85.413 E23.97056
G1 X96.954 Y85.009 E24.01113
G1 X98.129 Y84.681 E24.05171
G1 X99.322 Y84.431 E24.09225
G1 X100.53 Y84.259 E24.13283
G1 X101.746 Y84.167 E24.17339
G1 X102.541 Y84.15 E24.19984
G1 X108.079 Y84.15 E24.38404
G1 X108.133 Y84.103 E24.38642
G1 X109.104 Y83.364 E24.427
G1 X110.121 Y82.691 E24.46756
G1 X111.18 Y82.085 E24.50815
G1 X112.276 Y81.551 E24.5487
G1 X113.405 Y81.089 E24.58927
G1 X114.561 Y80.702 E24.62981
G1 X115.741 Y80.392 E24.67039
G1 X116.938 Y80.16 E24.71095
G1 X118.148 Y80.007 E24.75151
G1 X119.366 Y79.933 E24.7921
G1 X120.586 Y79.939 E24.83267
G1 X121.206 Y79.974 E24.85333
G1 X126.82 Y80.376 E25.04053
G1 X128.034 Y80.502 E25.08112
G1 X129.236 Y80.709 E25.12169
G1 X130.422 Y80.993 E25.16225
G1 X131.586 Y81.355 E25.2028
G1 X132.725 Y81.792 E25.24337
G1 X133.833 Y82.303 E25.28396
G1 X134.904 Y82.885 E25.3245
G1 X135.935 Y83.537 E25.36507
G1 X136.922 Y84.254 E25.40565
G1 X137.859 Y85.035 E25.44622
G1 X139.105 Y86.254 E25.50419
G1 X139.213 Y86.37 E25.50946
G1 X140.015 Y87.289 E25.55003
G1 X140.754 Y88.259 E25.59059
G1 X141.428 Y89.275 E25.63114
G1 X142.034 Y90.334 E25.67172
G1 X142.57 Y91.43 E25.7123
G1 X143.033 Y92.558 E25.75286
G1 X143.42 Y93.715 E25.79344
G1 X143.731 Y94.894 E25.83399
G1 X143.964 Y96.091 E25.87455
G1 X144.118 Y97.301 E25.91512
G1 X144.2 Y99.043 E25.97312
G1 X144.201 Y135.954 E27.20079
G1 X144.161 Y137.174 E27.24139
G1 X144.041 Y138.387 E27.28193
G1 X143.842 Y139.591 E27.32252
G1 X143.565 Y140.778 E27.36306
G1 X143.21 Y141.945 E27.40363
G1 X142.78 Y143.086 E27.44418
G1 X142.275 Y144.197 E27.48477
G1 X141.699 Y145.272 E27.52534
G1 X141.054 Y146.307 E27.5659
G1 X140.342 Y147.298 E27.60649
G1 X139.214 Y148.629 E27.66451
G1 X139.106 Y148.745 E27.66979
G1 X138.246 Y149.61 E27.71036
G1 X137.332 Y150.417 E27.75091
G1 X136.366 Y151.162 E27.79148
G1 X135.353 Y151.842 E27.83206
G1 X134.299 Y152.455 E27.87262
G1 X133.206 Y152.996 E27.91318
G1 X132.08 Y153.466 E27.95376
G1 X130.926 Y153.86 E27.99432
G1 X129.748 Y154.178 E28.0349
G1 X128.553 Y154.418 E28.07544
G1 X126.825 Y154.623 E28.13332
G1 X121.21 Y155.026 E28.32055
G1 X119.991 Y155.074 E28.36113
G1 X118.772 Y155.041 E28.40169
G1 X117.557 Y154.929 E28.44227
G1 X116.353 Y154.737 E28.48282
G1 X115.163 Y154.467 E28.52341
G1 X113.994 Y154.119 E28.56398
G1 X112.85 Y153.695 E28.60455
G1 X111.737 Y153.198 E28.6451
G1 X110.658 Y152.628 E28.68568
G1 X109.619 Y151.989 E28.72625
G1 X108.625 Y151.284 E28.76679
G1 X108.066 Y150.83 E28.79074
G1 X102.437 Y150.82 E28.97796
G1 X101.218 Y150.778 E29.01853
G1 X100.004 Y150.656 E29.05911
G1 X98.801 Y150.455 E29.09967
G1 X97.614 Y150.175 E29.14024
G1 X96.448 Y149.818 E29.1808
G1 X95.307 Y149.386 E29.22138
G1 X94.198 Y148.88 E29.26192
G1 X93.124 Y148.302 E29.30248
G1 X92.09 Y147.655 E29.34305
G1 X91.1 Y146.941 E29.38365
G1 X90.16 Y146.165 E29.42419
G1 X89.041 Y145.09 E29.4758
G1 X88.072 Y144.079 E29.52238
G1 X87.257 Y143.172 E29.56294
G1 X86.504 Y142.212 E29.60352
G1 X85.815 Y141.206 E29.64407
G1 X85.193 Y140.156 E29.68466
G1 X84.642 Y139.069 E29.7252
G1 X84.163 Y137.947 E29.76577
G1 X83.759 Y136.796 E29.80634
G1 X83.431 Y135.621 E29.84692
G1 X83.181 Y134.428 E29.88746
