;FLAVOR:Marlin
;TIME:2257
;Filament used: 0.736216m
;Layer height: 0.2
;Generated with Cura_SteamEngine 3.6.0
M140 S70
M105
M190 S70
M104 S215
M105
M109 S215
M82 ;absolute extrusion mode
G28 ; home all axes
M117 Purge extruder
G92 E0 ; reset extruder
G1 Z1.0 F3000 ; move z up little to prevent scratching of surface
G1 X0.1 Y20 Z0.3 F5000.0 ; move to start-line position G1 X0.1 Y200.0 Z0.3 F1500.0 E15 ; draw 1st line
G1 X0.4 Y200.0 Z0.3 F5000.0 ; move to side a little
G1 X0.4 Y20 Z0.3 F1500.0 E30 ; draw 2nd line
G92 E0 ; reset extruder
G1 Z1.0 F3000 ; move z up little to prevent scratching of surface
M117 All systems go!
G92 E0
G1 F6000 E-5
;LAYER_COUNT:190
;LAYER:0
M107
M204 S5000
M205 X30 Y30
G0 F7200 X109.473 Y109.875 Z0.2
M204 S500
M205 X20 Y20
;TYPE:SKIRT
G1 F6000 E0
G1 F900 X110.391 Y109.014 E0.04186
G1 X111.361 Y108.213 E0.0837
G1 X112.381 Y107.475 E0.12558
G1 X113.445 Y106.804 E0.16741
G1 X114.55 Y106.201 E0.20928
G1 X115.691 Y105.67 E0.25114
G1 X116.863 Y105.212 E0.29299
G1 X118.062 Y104.83 E0.33485
G1 X119.283 Y104.525 E0.3767
G1 X120.52 Y104.298 E0.41853
G1 X121.77 Y104.149 E0.4604
G1 X123.474 Y104.076 E0.51713
G1 X124.669 Y104.076 E0.55688
G1 X125.927 Y104.116 E0.59874
G1 X127.179 Y104.236 E0.64057
G1 X128.422 Y104.435 E0.68244
G1 X129.649 Y104.713 E0.72428
G1 X130.857 Y105.068 E0.76616
G1 X132.039 Y105.499 E0.80801
G1 X133.191 Y106.004 E0.84984
G1 X134.31 Y106.582 E0.89173
G1 X135.389 Y107.229 E0.93358
G1 X136.425 Y107.943 E0.97543
G1 X137.413 Y108.722 E1.01727
G1 X138.67 Y109.875 E1.07401
G1 X138.787 Y109.992 E1.07951
G1 X139.648 Y110.91 E1.12137
G1 X140.449 Y111.88 E1.16321
G1 X141.187 Y112.9 E1.20508
G1 X141.858 Y113.964 E1.24692
G1 X142.461 Y115.069 E1.28879
G1 X142.992 Y116.21 E1.33065
G1 X143.45 Y117.382 E1.3725
G1 X143.832 Y118.581 E1.41435
G1 X144.137 Y119.802 E1.45621
G1 X144.364 Y121.039 E1.49804
G1 X144.513 Y122.289 E1.53991
G1 X144.586 Y123.993 E1.59664
G1 X144.586 Y125.758 E1.65534
G1 X144.546 Y127.016 E1.69721
G1 X144.426 Y128.268 E1.73904
G1 X144.227 Y129.511 E1.78091
G1 X143.949 Y130.738 E1.82275
G1 X143.594 Y131.946 E1.86463
G1 X143.163 Y133.128 E1.90647
G1 X142.658 Y134.28 E1.94831
G1 X142.08 Y135.399 E1.9902
G1 X141.433 Y136.478 E2.03205
G1 X140.719 Y137.514 E2.07389
G1 X139.94 Y138.502 E2.11574
G1 X138.787 Y139.759 E2.17247
G1 X138.67 Y139.876 E2.17798
G1 X137.752 Y140.737 E2.21984
G1 X136.782 Y141.538 E2.26168
G1 X135.762 Y142.276 E2.30355
G1 X134.698 Y142.947 E2.34539
G1 X133.593 Y143.55 E2.38726
G1 X132.452 Y144.081 E2.42912
G1 X131.28 Y144.539 E2.47097
G1 X130.081 Y144.921 E2.51282
G1 X128.86 Y145.226 E2.55468
G1 X127.623 Y145.453 E2.59651
G1 X126.373 Y145.602 E2.63838
G1 X124.669 Y145.675 E2.69511
G1 X123.472 Y145.675 E2.73492
G1 X122.214 Y145.635 E2.77678
G1 X120.962 Y145.515 E2.81861
G1 X119.719 Y145.316 E2.86048
G1 X118.492 Y145.038 E2.90233
G1 X117.284 Y144.683 E2.9442
G1 X116.102 Y144.252 E2.98605
G1 X114.95 Y143.747 E3.02789
G1 X113.831 Y143.169 E3.06978
G1 X112.752 Y142.522 E3.11162
G1 X111.716 Y141.808 E3.15347
G1 X110.728 Y141.029 E3.19532
G1 X109.471 Y139.876 E3.25205
G1 X109.354 Y139.759 E3.25755
G1 X108.493 Y138.841 E3.29941
G1 X107.692 Y137.871 E3.34125
G1 X106.954 Y136.851 E3.38313
G1 X106.283 Y135.787 E3.42496
G1 X105.68 Y134.682 E3.46683
G1 X105.149 Y133.541 E3.50869
G1 X104.691 Y132.369 E3.55054
G1 X104.309 Y131.17 E3.5924
G1 X104.004 Y129.949 E3.63426
G1 X103.777 Y128.712 E3.67609
G1 X103.628 Y127.462 E3.71795
G1 X103.555 Y125.736 E3.77541
G1 X103.557 Y123.971 E3.83412
G1 X103.598 Y122.713 E3.87598
G1 X103.72 Y121.46 E3.91785
G1 X103.92 Y120.218 E3.95969
G1 X104.199 Y118.991 E4.00155
G1 X104.556 Y117.784 E4.04341
G1 X104.988 Y116.602 E4.08527
G1 X105.495 Y115.45 E4.12713
G1 X106.073 Y114.333 E4.16896
G1 X106.722 Y113.254 E4.21084
G1 X107.438 Y112.219 E4.2527
G1 X108.218 Y111.232 E4.29454
G1 X108.927 Y110.459 E4.32943
G0 F810 X109.356 Y109.992
G0 X109.473 Y109.875
M204 S5000
M205 X30 Y30
G0 F7200 X109.756 Y110.158
M204 S500
M205 X20 Y20
G1 F6000 E4.35603
G1 F900 X110.665 Y109.306 E4.39747
G1 X111.626 Y108.514 E4.43889
G1 X112.636 Y107.785 E4.48032
G1 X113.691 Y107.123 E4.52175
G1 X114.787 Y106.53 E4.56319
G1 X115.918 Y106.008 E4.60462
G1 X117.08 Y105.56 E4.64604
G1 X118.269 Y105.187 E4.68749
G1 X119.479 Y104.892 E4.72891
G1 X120.705 Y104.675 E4.77032
G1 X121.943 Y104.536 E4.81176
G1 X123.474 Y104.476 E4.86272
G1 X124.669 Y104.476 E4.90247
G1 X125.914 Y104.516 E4.9439
G1 X127.154 Y104.636 E4.98533
G1 X128.383 Y104.835 E5.02674
G1 X129.598 Y105.113 E5.0682
G1 X130.792 Y105.468 E5.10963
G1 X131.96 Y105.898 E5.15102
G1 X133.099 Y106.403 E5.19246
G1 X134.203 Y106.98 E5.23389
G1 X135.268 Y107.627 E5.27534
G1 X136.289 Y108.341 E5.31678
G1 X137.262 Y109.118 E5.35819
G1 X138.387 Y110.158 E5.40915
G1 X138.504 Y110.275 E5.41465
G1 X139.356 Y111.184 E5.45609
G1 X140.148 Y112.145 E5.49751
G1 X140.877 Y113.155 E5.53894
G1 X141.539 Y114.21 E5.58037
G1 X142.132 Y115.306 E5.62181
G1 X142.654 Y116.437 E5.66324
G1 X143.102 Y117.599 E5.70466
G1 X143.475 Y118.788 E5.74611
G1 X143.77 Y119.998 E5.78753
G1 X143.987 Y121.224 E5.82895
G1 X144.126 Y122.462 E5.87038
G1 X144.186 Y123.993 E5.92134
G1 X144.186 Y125.758 E5.98004
G1 X144.146 Y127.003 E6.02147
G1 X144.026 Y128.243 E6.06291
G1 X143.827 Y129.472 E6.10432
G1 X143.549 Y130.687 E6.14577
G1 X143.194 Y131.881 E6.18721
G1 X142.764 Y133.049 E6.2286
G1 X142.259 Y134.188 E6.27004
G1 X141.682 Y135.292 E6.31147
G1 X141.035 Y136.357 E6.35292
G1 X140.321 Y137.378 E6.39436
G1 X139.544 Y138.351 E6.43577
G1 X138.504 Y139.476 E6.48673
G1 X138.387 Y139.593 E6.49223
G1 X137.478 Y140.445 E6.53367
G1 X136.517 Y141.237 E6.57509
G1 X135.507 Y141.966 E6.61652
G1 X134.452 Y142.628 E6.65794
G1 X133.356 Y143.221 E6.69939
G1 X132.225 Y143.743 E6.74082
G1 X131.063 Y144.191 E6.78224
G1 X129.874 Y144.564 E6.82369
G1 X128.664 Y144.859 E6.86511
G1 X127.438 Y145.076 E6.90652
G1 X126.2 Y145.215 E6.94796
G1 X124.669 Y145.275 E6.99892
G1 X123.472 Y145.275 E7.03873
G1 X122.227 Y145.235 E7.08016
G1 X120.987 Y145.115 E7.1216
G1 X119.758 Y144.916 E7.16301
G1 X118.543 Y144.638 E7.20446
G1 X117.349 Y144.283 E7.24589
G1 X116.181 Y143.853 E7.28729
G1 X115.042 Y143.348 E7.32873
G1 X113.938 Y142.771 E7.37016
G1 X112.873 Y142.124 E7.41161
G1 X111.852 Y141.41 E7.45305
G1 X110.879 Y140.633 E7.49446
G1 X109.754 Y139.593 E7.54542
G1 X109.637 Y139.476 E7.55092
G1 X108.785 Y138.567 E7.59236
G1 X107.993 Y137.606 E7.63378
G1 X107.264 Y136.596 E7.67521
G1 X106.602 Y135.541 E7.71663
G1 X106.009 Y134.445 E7.75808
G1 X105.487 Y133.314 E7.79951
G1 X105.039 Y132.152 E7.84093
G1 X104.666 Y130.963 E7.88238
G1 X104.371 Y129.753 E7.9238
G1 X104.154 Y128.527 E7.96521
G1 X104.015 Y127.289 E8.00665
G1 X103.955 Y125.736 E8.05834
G1 X103.957 Y123.971 E8.11704
G1 X103.998 Y122.726 E8.15847
G1 X104.12 Y121.486 E8.19991
G1 X104.32 Y120.257 E8.24133
G1 X104.599 Y119.043 E8.28276
G1 X104.955 Y117.849 E8.3242
G1 X105.388 Y116.681 E8.36563
G1 X105.894 Y115.543 E8.40705
G1 X106.472 Y114.44 E8.44847
G1 X107.12 Y113.376 E8.48991
G1 X107.835 Y112.356 E8.53134
G1 X108.614 Y111.384 E8.57277
G1 X109.208 Y110.741 E8.60188
G0 F810 X109.639 Y110.275
G0 X109.756 Y110.158
M204 S5000
M205 X30 Y30
G0 F7200 X110.039 Y110.441
M204 S500
M205 X20 Y20
G1 F6000 E8.62849
G1 F900 X110.938 Y109.598 E8.66948
G1 X111.891 Y108.815 E8.7105
G1 X112.892 Y108.096 E8.7515
G1 X113.937 Y107.443 E8.79248
G1 X115.023 Y106.859 E8.83349
G1 X116.144 Y106.347 E8.87448
G1 X117.296 Y105.908 E8.91549
G1 X118.474 Y105.546 E8.95647
G1 X119.674 Y105.26 E8.9975
G1 X120.889 Y105.053 E9.0385
G1 X122.115 Y104.925 E9.0795
G1 X123.474 Y104.876 E9.12473
G1 X124.669 Y104.876 E9.16447
G1 X125.901 Y104.916 E9.20547
G1 X127.128 Y105.036 E9.24647
G1 X128.344 Y105.235 E9.28746
G1 X129.546 Y105.512 E9.32848
G1 X130.726 Y105.867 E9.36947
G1 X131.881 Y106.298 E9.41047
G1 X133.006 Y106.803 E9.45149
G1 X134.095 Y107.379 E9.49246
G1 X135.145 Y108.025 E9.53346
G1 X136.151 Y108.738 E9.57448
G1 X137.109 Y109.514 E9.61548
G1 X138.104 Y110.441 E9.66071
G1 X138.221 Y110.558 E9.66621
G1 X139.064 Y111.457 E9.7072
G1 X139.847 Y112.41 E9.74823
G1 X140.566 Y113.411 E9.78922
G1 X141.219 Y114.456 E9.8302
G1 X141.803 Y115.542 E9.87122
G1 X142.315 Y116.663 E9.91221
G1 X142.754 Y117.815 E9.95321
G1 X143.116 Y118.993 E9.9942
G1 X143.402 Y120.193 E10.03523
G1 X143.609 Y121.408 E10.07622
G1 X143.737 Y122.634 E10.11722
G1 X143.786 Y123.993 E10.16245
G1 X143.786 Y125.758 E10.22115
G1 X143.746 Y126.99 E10.26215
G1 X143.626 Y128.217 E10.30316
G1 X143.427 Y129.433 E10.34414
G1 X143.15 Y130.635 E10.38517
G1 X142.795 Y131.815 E10.42615
G1 X142.364 Y132.97 E10.46715
G1 X141.859 Y134.095 E10.50817
G1 X141.283 Y135.184 E10.54914
G1 X140.637 Y136.234 E10.59015
G1 X139.924 Y137.24 E10.63116
G1 X139.148 Y138.198 E10.67216
G1 X138.221 Y139.193 E10.71739
G1 X138.104 Y139.31 E10.7229
G1 X137.205 Y140.153 E10.76389
G1 X136.252 Y140.936 E10.80491
G1 X135.251 Y141.655 E10.8459
G1 X134.206 Y142.308 E10.88689
G1 X133.12 Y142.892 E10.9279
G1 X131.999 Y143.404 E10.96889
G1 X130.847 Y143.843 E11.00989
G1 X129.669 Y144.205 E11.05088
G1 X128.469 Y144.491 E11.09191
G1 X127.254 Y144.698 E11.1329
G1 X126.028 Y144.826 E11.1739
G1 X124.669 Y144.875 E11.21913
G1 X123.472 Y144.875 E11.25894
G1 X122.24 Y144.835 E11.29994
G1 X121.013 Y144.715 E11.34095
G1 X119.797 Y144.516 E11.38193
G1 X118.595 Y144.239 E11.42296
G1 X117.415 Y143.884 E11.46394
G1 X116.26 Y143.453 E11.50494
G1 X115.135 Y142.948 E11.54596
G1 X114.046 Y142.372 E11.58693
G1 X112.996 Y141.726 E11.62794
G1 X111.99 Y141.013 E11.66895
G1 X111.032 Y140.237 E11.70995
G1 X110.037 Y139.31 E11.75518
G1 X109.92 Y139.193 E11.76069
G1 X109.077 Y138.294 E11.80168
G1 X108.294 Y137.341 E11.8427
G1 X107.575 Y136.34 E11.88369
G1 X106.922 Y135.295 E11.92468
G1 X106.338 Y134.209 E11.96569
G1 X105.826 Y133.088 E12.00668
G1 X105.387 Y131.936 E12.04768
G1 X105.025 Y130.758 E12.08867
G1 X104.739 Y129.558 E12.1297
G1 X104.532 Y128.343 E12.17069
G1 X104.404 Y127.117 E12.21169
G1 X104.355 Y125.736 E12.25765
G1 X104.357 Y123.971 E12.31636
G1 X104.398 Y122.739 E12.35736
G1 X104.52 Y121.513 E12.39834
G1 X104.72 Y120.296 E12.43936
G1 X104.999 Y119.096 E12.48033
G1 X105.355 Y117.916 E12.52133
G1 X105.787 Y116.761 E12.56234
G1 X106.293 Y115.637 E12.60334
G1 X106.871 Y114.548 E12.64435
G1 X107.518 Y113.499 E12.68534
G1 X108.232 Y112.494 E12.72634
G1 X109.009 Y111.537 E12.76734
G1 X109.489 Y111.022 E12.79076
G0 F810 X109.922 Y110.558
G0 X110.039 Y110.441
M204 S5000
M205 X30 Y30
G0 F7200 X110.322 Y110.724
M204 S500
M205 X20 Y20
G1 F6000 E12.81737
G1 F900 X111.212 Y109.89 E12.85793
G1 X112.155 Y109.117 E12.89849
G1 X113.147 Y108.406 E12.93908
G1 X114.183 Y107.763 E12.97964
G1 X115.259 Y107.189 E13.0202
G1 X116.37 Y106.686 E13.06076
G1 X117.512 Y106.257 E13.10134
G1 X118.679 Y105.905 E13.14188
G1 X119.868 Y105.629 E13.18248
G1 X121.071 Y105.432 E13.22302
G1 X122.285 Y105.314 E13.26359
G1 X123.474 Y105.276 E13.30315
G1 X124.669 Y105.276 E13.3429
G1 X125.888 Y105.316 E13.38347
G1 X127.102 Y105.436 E13.42404
G1 X128.305 Y105.635 E13.4646
G1 X129.493 Y105.912 E13.50517
G1 X130.66 Y106.267 E13.54574
G1 X131.801 Y106.698 E13.58631
G1 X132.911 Y107.202 E13.62685
G1 X133.986 Y107.778 E13.66742
G1 X135.021 Y108.423 E13.70798
G1 X136.012 Y109.135 E13.74856
G1 X136.954 Y109.91 E13.78914
G1 X137.821 Y110.724 E13.82869
G1 X137.938 Y110.841 E13.83419
G1 X138.772 Y111.731 E13.87476
G1 X139.545 Y112.674 E13.91532
G1 X140.256 Y113.666 E13.95591
G1 X140.899 Y114.702 E13.99646
G1 X141.473 Y115.778 E14.03703
G1 X141.976 Y116.889 E14.07759
G1 X142.405 Y118.031 E14.11816
G1 X142.757 Y119.198 E14.15871
G1 X143.033 Y120.387 E14.1993
G1 X143.23 Y121.59 E14.23985
G1 X143.348 Y122.804 E14.28042
G1 X143.386 Y123.993 E14.31998
G1 X143.386 Y125.758 E14.37869
G1 X143.346 Y126.977 E14.41925
G1 X143.226 Y128.191 E14.45983
G1 X143.027 Y129.394 E14.50038
G1 X142.75 Y130.582 E14.54096
G1 X142.395 Y131.749 E14.58153
G1 X141.964 Y132.89 E14.62209
G1 X141.46 Y134 E14.66264
G1 X140.884 Y135.075 E14.7032
G1 X140.239 Y136.11 E14.74377
G1 X139.527 Y137.101 E14.78435
G1 X138.752 Y138.043 E14.82492
G1 X137.938 Y138.91 E14.86448
G1 X137.821 Y139.027 E14.86998
G1 X136.931 Y139.861 E14.91055
G1 X135.988 Y140.634 E14.9511
G1 X134.996 Y141.345 E14.9917
G1 X133.96 Y141.988 E15.03225
G1 X132.884 Y142.562 E15.07281
G1 X131.773 Y143.065 E15.11338
G1 X130.631 Y143.494 E15.15395
G1 X129.464 Y143.846 E15.19449
G1 X128.275 Y144.122 E15.23509
G1 X127.072 Y144.319 E15.27564
G1 X125.858 Y144.437 E15.3162
G1 X124.669 Y144.475 E15.35577
G1 X123.472 Y144.475 E15.39558
G1 X122.253 Y144.435 E15.43615
G1 X121.039 Y144.315 E15.47672
G1 X119.836 Y144.116 E15.51728
G1 X118.648 Y143.839 E15.55785
G1 X117.481 Y143.484 E15.59842
G1 X116.34 Y143.053 E15.63899
G1 X115.23 Y142.549 E15.67954
G1 X114.155 Y141.973 E15.7201
G1 X113.12 Y141.328 E15.76066
G1 X112.129 Y140.616 E15.80125
G1 X111.187 Y139.841 E15.84182
G1 X110.32 Y139.027 E15.88137
G1 X110.203 Y138.91 E15.88688
G1 X109.369 Y138.02 E15.92744
G1 X108.596 Y137.077 E15.968
G1 X107.885 Y136.085 E16.00859
G1 X107.242 Y135.049 E16.04915
G1 X106.668 Y133.973 E16.08971
G1 X106.165 Y132.862 E16.13027
G1 X105.736 Y131.72 E16.17085
G1 X105.384 Y130.553 E16.21139
G1 X105.108 Y129.364 E16.25199
G1 X104.911 Y128.161 E16.29253
G1 X104.793 Y126.947 E16.3331
G1 X104.755 Y125.737 E16.37336
G1 X104.757 Y123.972 E16.43207
G1 X104.798 Y122.753 E16.47263
G1 X104.92 Y121.539 E16.51322
G1 X105.12 Y120.336 E16.55378
G1 X105.399 Y119.149 E16.59433
G1 X105.755 Y117.982 E16.63491
G1 X106.187 Y116.842 E16.67546
G1 X106.692 Y115.732 E16.71602
G1 X107.27 Y114.657 E16.75662
G1 X107.916 Y113.623 E16.79717
G1 X108.629 Y112.633 E16.83775
G1 X109.405 Y111.692 E16.87831
G1 X109.77 Y111.304 E16.89603
G0 F810 X110.205 Y110.841
G0 X110.322 Y110.724
M204 S5000
M205 X30 Y30
G0 F7200 X110.605 Y111.007
M204 S500
M205 X20 Y20
G1 F6000 E16.92264
G1 F900 X111.486 Y110.182 E16.96278
G1 X112.419 Y109.418 E17.00289
G1 X113.401 Y108.717 E17.04302
G1 X114.428 Y108.083 E17.08316
G1 X115.494 Y107.519 E17.12327
G1 X116.595 Y107.026 E17.1634
G1 X117.727 Y106.607 E17.20354
G1 X118.884 Y106.264 E17.24368
G1 X120.06 Y105.999 E17.28378
G1 X121.252 Y105.812 E17.32391
G1 X122.454 Y105.705 E17.36404
G1 X123.474 Y105.676 E17.39798
G1 X124.669 Y105.676 E17.43773
G1 X125.875 Y105.716 E17.47786
G1 X127.075 Y105.836 E17.51797
G1 X128.265 Y106.035 E17.5581
G1 X129.439 Y106.312 E17.59822
G1 X130.593 Y106.667 E17.63838
G1 X131.72 Y107.097 E17.6785
G1 X132.816 Y107.601 E17.71862
G1 X133.876 Y108.177 E17.75875
G1 X134.896 Y108.821 E17.79887
G1 X135.871 Y109.532 E17.839
G1 X136.797 Y110.306 E17.87914
G1 X137.538 Y111.007 E17.91307
G1 X137.655 Y111.124 E17.91857
G1 X138.48 Y112.005 E17.95872
G1 X139.244 Y112.938 E17.99883
G1 X139.945 Y113.92 E18.03896
G1 X140.579 Y114.947 E18.0791
G1 X141.143 Y116.013 E18.11921
G1 X141.636 Y117.114 E18.15933
G1 X142.055 Y118.246 E18.19948
G1 X142.398 Y119.403 E18.23962
G1 X142.663 Y120.579 E18.27971
G1 X142.85 Y121.771 E18.31984
G1 X142.957 Y122.973 E18.35998
G1 X142.986 Y123.993 E18.39392
G1 X142.986 Y125.758 E18.45262
G1 X142.946 Y126.964 E18.49276
G1 X142.826 Y128.164 E18.53287
G1 X142.627 Y129.354 E18.573
G1 X142.35 Y130.528 E18.61312
G1 X141.995 Y131.682 E18.65328
G1 X141.565 Y132.809 E18.6934
G1 X141.061 Y133.905 E18.73352
G1 X140.485 Y134.965 E18.77364
G1 X139.841 Y135.985 E18.81376
G1 X139.13 Y136.96 E18.8539
G1 X138.356 Y137.886 E18.89404
G1 X137.655 Y138.627 E18.92797
G1 X137.538 Y138.744 E18.93347
G1 X136.657 Y139.569 E18.97361
G1 X135.724 Y140.333 E19.01372
G1 X134.742 Y141.034 E19.05385
G1 X133.715 Y141.668 E19.09399
G1 X132.649 Y142.232 E19.13411
G1 X131.548 Y142.725 E19.17423
G1 X130.416 Y143.144 E19.21438
G1 X129.259 Y143.487 E19.25451
G1 X128.083 Y143.752 E19.29461
G1 X126.891 Y143.939 E19.33474
G1 X125.689 Y144.046 E19.37488
G1 X124.669 Y144.075 E19.40882
G1 X123.472 Y144.075 E19.44863
G1 X122.266 Y144.035 E19.48876
G1 X121.066 Y143.915 E19.52887
G1 X119.876 Y143.716 E19.569
G1 X118.702 Y143.439 E19.60912
G1 X117.548 Y143.084 E19.64928
G1 X116.421 Y142.654 E19.6894
G1 X115.325 Y142.15 E19.72952
