;FLAVOR:Marlin
;TIME:731
;Filament used: 0.404122m
;Layer height: 0.2
;Generated with Cura_SteamEngine 3.6.0
M140 S70
M105
M190 S70
M104 S210
M105
M109 S210
M82 ;absolute extrusion mode
G28 ; home all axes
M117 Purge extruder
G92 E0 ; reset extruder
G1 Z1.0 F3000 ; move z up little to prevent scratching of surface
G1 X0.1 Y20 Z0.3 F5000.0 ; move to start-line position G1 X0.1 Y200.0 Z0.3 F1500.0 E15 ; draw 1st line
G1 X0.4 Y200.0 Z0.3 F5000.0 ; move to side a little
G1 X0.4 Y20 Z0.3 F1500.0 E30 ; draw 2nd line
G92 E0 ; reset extruder
G1 Z1.0 F3000 ; move z up little to prevent scratching of surface
M117 All systems go!
G92 E0
G1 F6000 E-5
;LAYER_COUNT:42
;LAYER:0
M107
M204 S5000
M205 X30 Y30
G0 F7200 X89.213 Y106.061 Z0.2
M204 S500
M205 X20 Y20
;TYPE:SKIRT
G1 F6000 E0
G1 F900 X90.013 Y105.389 E0.03822
G1 X90.72 Y104.847 E0.07082
G1 X91.84 Y104.172 E0.11866
G1 X93.078 Y103.533 E0.16963
G1 X93.886 Y103.161 E0.20218
G1 X95.14 Y102.745 E0.25051
G1 X96.153 Y102.483 E0.28879
G1 X97.024 Y102.3 E0.32136
G1 X98.319 Y102.173 E0.36896
G1 X99.709 Y102.129 E0.41984
G1 X100.598 Y102.141 E0.45237
G1 X101.885 Y102.301 E0.49982
G1 X102.913 Y102.498 E0.53812
G1 X103.779 Y102.704 E0.57068
G1 X105.028 Y103.155 E0.61927
G1 X106.302 Y103.714 E0.67017
G1 X107.1 Y104.108 E0.70273
G1 X107.859 Y104.572 E0.73527
G1 X108.44 Y104.995 E0.76157
G1 X108.483 Y105.029 E0.76357
G1 X108.72 Y104.847 E0.77451
G1 X109.84 Y104.172 E0.82235
G1 X111.078 Y103.533 E0.87332
G1 X111.886 Y103.161 E0.90586
G1 X113.14 Y102.745 E0.9542
G1 X114.153 Y102.483 E0.99248
G1 X115.024 Y102.3 E1.02505
G1 X116.319 Y102.173 E1.07265
G1 X117.709 Y102.129 E1.12353
G1 X118.598 Y102.141 E1.15606
G1 X119.885 Y102.301 E1.20351
G1 X120.913 Y102.498 E1.2418
G1 X121.779 Y102.704 E1.27437
G1 X123.028 Y103.155 E1.32296
G1 X124.302 Y103.714 E1.37386
G1 X125.1 Y104.108 E1.40642
G1 X125.859 Y104.572 E1.43896
G1 X126.44 Y104.995 E1.46526
G1 X127.536 Y105.856 E1.51625
G1 X128.21 Y106.436 E1.54878
G1 X129.103 Y107.398 E1.5968
G1 X129.762 Y108.209 E1.63504
G1 X130.292 Y108.924 E1.6676
G1 X130.947 Y110.05 E1.71526
G1 X131.566 Y111.297 E1.76619
G1 X131.925 Y112.111 E1.79874
G1 X132.21 Y112.954 E1.8313
G1 X132.388 Y113.673 E1.8584
G1 X132.673 Y115.036 E1.90934
G1 X132.816 Y115.914 E1.94189
G1 X132.88 Y116.801 E1.97442
G1 X132.872 Y117.538 E2.00139
G1 X132.805 Y118.929 E2.05234
G1 X132.722 Y119.815 E2.0849
G1 X132.46 Y121.085 E2.13234
G1 X132.182 Y122.093 E2.1706
G1 X131.907 Y122.939 E2.20314
G1 X131.643 Y123.574 E2.2283
G1 X131.353 Y124.209 E2.25384
G1 X130.948 Y125.001 E2.28639
G1 X130.414 Y125.836 E2.32265
G1 X129.607 Y126.97 E2.37357
G1 X129.059 Y127.671 E2.40613
G1 X128.45 Y128.32 E2.43869
G1 X127.911 Y128.809 E2.46531
G1 X126.845 Y129.705 E2.51626
G1 X126.139 Y130.246 E2.5488
G1 X125.387 Y130.722 E2.58136
G1 X124.72 Y131.07 E2.60889
G1 X123.46 Y131.668 E2.65992
G1 X122.64 Y132.013 E2.69246
G1 X121.395 Y132.381 E2.73996
G1 X120.376 Y132.611 E2.77818
G1 X119.5 Y132.768 E2.81074
G1 X118.196 Y132.854 E2.85855
G1 X116.804 Y132.854 E2.90948
G1 X115.915 Y132.814 E2.94204
G1 X114.624 Y132.611 E2.98985
G1 X113.605 Y132.381 E3.02807
G1 X112.747 Y132.146 E3.06062
G1 X111.54 Y131.668 E3.10811
G1 X110.28 Y131.07 E3.15914
G1 X109.494 Y130.653 E3.19169
G1 X108.749 Y130.167 E3.22424
G1 X108.497 Y129.971 E3.23592
G1 X108.139 Y130.246 E3.25243
G1 X107.387 Y130.722 E3.28499
G1 X106.72 Y131.07 E3.31252
G1 X105.46 Y131.668 E3.36355
G1 X104.64 Y132.013 E3.39609
G1 X103.395 Y132.381 E3.44359
G1 X102.376 Y132.611 E3.48181
G1 X101.5 Y132.768 E3.51437
G1 X100.196 Y132.854 E3.56218
G1 X98.804 Y132.854 E3.61311
G1 X97.915 Y132.814 E3.64567
G1 X96.624 Y132.611 E3.69348
G1 X95.605 Y132.381 E3.7317
G1 X94.747 Y132.146 E3.76425
G1 X93.54 Y131.668 E3.81174
G1 X92.28 Y131.07 E3.86277
G1 X91.494 Y130.653 E3.89532
G1 X90.749 Y130.167 E3.92787
G1 X90.155 Y129.705 E3.9554
G1 X89.089 Y128.809 E4.00635
G1 X88.434 Y128.206 E4.03892
G1 X87.836 Y127.547 E4.07148
G1 X87.393 Y126.97 E4.09809
G1 X86.586 Y125.836 E4.14901
G1 X86.103 Y125.089 E4.18156
G1 X85.689 Y124.301 E4.21413
G1 X85.405 Y123.631 E4.24075
G1 X84.908 Y122.331 E4.29167
G1 X84.628 Y121.487 E4.3242
G1 X84.356 Y120.207 E4.37208
G1 X84.207 Y119.172 E4.41034
G1 X84.12 Y118.286 E4.44291
G1 X84.137 Y116.973 E4.49095
G1 X84.248 Y115.583 E4.54197
G1 X84.359 Y114.7 E4.57452
G1 X84.548 Y113.831 E4.60706
G1 X84.761 Y113.134 E4.63373
G1 X85.216 Y111.819 E4.68464
G1 X85.545 Y110.992 E4.7172
G1 X85.946 Y110.198 E4.74974
G1 X86.511 Y109.308 E4.78831
G1 X87.52 Y107.893 E4.85189
G1 X88.069 Y107.193 E4.88444
G1 X88.674 Y106.549 E4.91677
G0 F810 X88.678 Y106.544
G0 X89.213 Y106.061
M204 S5000
M205 X30 Y30
G0 F7200 X89.496 Y106.397
M204 S500
M205 X20 Y20
G1 F6000 E4.94337
G1 F900 X90.296 Y105.725 E4.98159
G1 X90.987 Y105.197 E5.01341
G1 X92.042 Y104.563 E5.05844
G1 X93.28 Y103.924 E5.10941
G1 X94.07 Y103.561 E5.14122
G1 X95.25 Y103.171 E5.18669
G1 X96.263 Y102.909 E5.22497
G1 X97.114 Y102.731 E5.25678
G1 X98.333 Y102.613 E5.30159
G1 X99.723 Y102.569 E5.35247
G1 X100.592 Y102.581 E5.38426
G1 X101.802 Y102.733 E5.42888
G1 X102.83 Y102.93 E5.46717
G1 X103.676 Y103.133 E5.49901
G1 X104.851 Y103.558 E5.54472
G1 X106.125 Y104.117 E5.59562
G1 X106.905 Y104.503 E5.62746
G1 X107.645 Y104.959 E5.65926
G1 X108.168 Y105.341 E5.68296
G1 X108.479 Y105.585 E5.69742
G1 X108.987 Y105.197 E5.72081
G1 X110.042 Y104.563 E5.76584
G1 X111.28 Y103.924 E5.81681
G1 X112.07 Y103.561 E5.84862
G1 X113.25 Y103.171 E5.89409
G1 X114.263 Y102.909 E5.93237
G1 X115.114 Y102.731 E5.96418
G1 X116.333 Y102.613 E6.00898
G1 X117.723 Y102.569 E6.05986
G1 X118.592 Y102.581 E6.09166
G1 X119.802 Y102.733 E6.13628
G1 X120.83 Y102.93 E6.17457
G1 X121.676 Y103.133 E6.2064
G1 X122.851 Y103.558 E6.25212
G1 X124.125 Y104.117 E6.30302
G1 X124.905 Y104.503 E6.33486
G1 X125.645 Y104.959 E6.36666
G1 X126.168 Y105.341 E6.39035
G1 X127.264 Y106.202 E6.44134
G1 X127.922 Y106.77 E6.47315
G1 X128.762 Y107.675 E6.51832
G1 X129.421 Y108.486 E6.55655
G1 X129.938 Y109.186 E6.58839
G1 X130.552 Y110.246 E6.63321
G1 X131.171 Y111.493 E6.68414
G1 X131.522 Y112.289 E6.71597
G1 X131.798 Y113.114 E6.7478
G1 X131.958 Y113.763 E6.77226
G1 X132.243 Y115.126 E6.8232
G1 X132.381 Y115.984 E6.855
G1 X132.441 Y116.852 E6.88683
G1 X132.432 Y117.517 E6.91116
G1 X132.365 Y118.908 E6.96211
G1 X132.283 Y119.774 E6.99394
G1 X132.036 Y120.968 E7.03854
G1 X131.758 Y121.976 E7.0768
G1 X131.488 Y122.803 E7.10863
G1 X131.243 Y123.391 E7.13193
G1 X130.953 Y124.026 E7.15747
G1 X130.556 Y124.8 E7.1893
G1 X130.056 Y125.581 E7.22323
G1 X129.249 Y126.715 E7.27415
G1 X128.712 Y127.4 E7.30599
G1 X128.115 Y128.032 E7.3378
G1 X127.628 Y128.472 E7.36181
G1 X126.562 Y129.368 E7.41276
G1 X125.871 Y129.896 E7.44458
G1 X125.135 Y130.359 E7.47639
G1 X124.531 Y130.672 E7.50128
G1 X123.271 Y131.27 E7.55231
G1 X122.469 Y131.607 E7.58413
G1 X121.298 Y131.952 E7.6288
G1 X120.279 Y132.182 E7.66702
G1 X119.423 Y132.334 E7.69882
G1 X118.196 Y132.414 E7.74381
G1 X116.804 Y132.414 E7.79474
G1 X115.935 Y132.374 E7.82657
G1 X114.721 Y132.182 E7.87153
G1 X113.702 Y131.952 E7.90975
G1 X112.863 Y131.722 E7.94158
G1 X111.729 Y131.27 E7.98624
G1 X110.469 Y130.672 E8.03727
G1 X109.701 Y130.264 E8.06909
G1 X108.974 Y129.786 E8.10092
G1 X108.499 Y129.416 E8.12295
G1 X107.871 Y129.896 E8.15187
G1 X107.135 Y130.359 E8.18368
G1 X106.531 Y130.672 E8.20857
G1 X105.271 Y131.27 E8.2596
G1 X104.469 Y131.607 E8.29142
G1 X103.298 Y131.952 E8.33609
G1 X102.279 Y132.182 E8.37431
G1 X101.423 Y132.334 E8.40611
G1 X100.196 Y132.414 E8.4511
G1 X98.804 Y132.414 E8.50203
G1 X97.935 Y132.374 E8.53385
G1 X96.721 Y132.182 E8.57882
G1 X95.702 Y131.952 E8.61704
G1 X94.863 Y131.722 E8.64887
G1 X93.729 Y131.27 E8.69353
G1 X92.469 Y130.672 E8.74456
G1 X91.701 Y130.264 E8.77638
G1 X90.974 Y129.786 E8.80821
G1 X90.438 Y129.368 E8.83308
G1 X89.372 Y128.472 E8.88402
G1 X88.733 Y127.882 E8.91584
G1 X88.15 Y127.236 E8.94768
G1 X87.751 Y126.715 E8.97169
G1 X86.944 Y125.581 E9.02261
G1 X86.473 Y124.85 E9.05443
G1 X86.071 Y124.079 E9.08624
G1 X85.816 Y123.474 E9.11026
G1 X85.319 Y122.174 E9.16118
G1 X85.046 Y121.348 E9.19301
G1 X84.792 Y120.144 E9.23803
G1 X84.643 Y119.109 E9.27628
G1 X84.558 Y118.243 E9.30812
G1 X84.576 Y117.008 E9.35331
G1 X84.687 Y115.618 E9.40432
G1 X84.796 Y114.755 E9.43615
G1 X84.984 Y113.906 E9.46796
G1 X85.177 Y113.278 E9.492
G1 X85.632 Y111.963 E9.54291
G1 X85.954 Y111.155 E9.57473
G1 X86.349 Y110.38 E9.60656
G1 X86.87 Y109.564 E9.64198
G1 X87.879 Y108.149 E9.70556
G1 X88.416 Y107.465 E9.73738
G1 X88.961 Y106.889 E9.76639
G0 F810 X89.013 Y106.833
G0 X89.496 Y106.397
M204 S5000
M205 X30 Y30
G0 F7200 X89.779 Y106.734
M204 S500
M205 X20 Y20
G1 F6000 E9.79299
G1 F900 X90.579 Y106.062 E9.83121
G1 X91.255 Y105.547 E9.8623
G1 X92.244 Y104.954 E9.90449
G1 X93.482 Y104.315 E9.95546
G1 X94.254 Y103.961 E9.98654
G1 X95.36 Y103.597 E10.02913
G1 X96.373 Y103.335 E10.06742
G1 X97.205 Y103.162 E10.09851
G1 X98.347 Y103.053 E10.14048
G1 X99.737 Y103.009 E10.19136
G1 X100.586 Y103.022 E10.22242
G1 X101.72 Y103.165 E10.26424
G1 X102.748 Y103.362 E10.30254
G1 X103.573 Y103.561 E10.33359
G1 X104.674 Y103.961 E10.37644
G1 X105.948 Y104.52 E10.42734
G1 X106.709 Y104.898 E10.45843
G1 X107.431 Y105.345 E10.4895
G1 X107.896 Y105.687 E10.51062
G1 X108.48 Y106.145 E10.53777
G1 X108.579 Y106.062 E10.5425
G1 X109.255 Y105.547 E10.57359
G1 X110.244 Y104.954 E10.61578
G1 X111.482 Y104.315 E10.66675
G1 X112.254 Y103.961 E10.69782
G1 X113.36 Y103.597 E10.74042
G1 X114.373 Y103.335 E10.7787
G1 X115.205 Y103.162 E10.80979
G1 X116.347 Y103.053 E10.85176
G1 X117.737 Y103.009 E10.90264
G1 X118.586 Y103.022 E10.93371
G1 X119.72 Y103.165 E10.97553
G1 X120.748 Y103.362 E11.01382
G1 X121.573 Y103.561 E11.04487
G1 X122.674 Y103.961 E11.08773
G1 X123.948 Y104.52 E11.13863
G1 X124.709 Y104.898 E11.16972
G1 X125.431 Y105.345 E11.20078
G1 X125.896 Y105.687 E11.2219
G1 X126.992 Y106.548 E11.27289
G1 X127.635 Y107.103 E11.30397
G1 X128.42 Y107.953 E11.3463
G1 X129.079 Y108.764 E11.38453
G1 X129.583 Y109.447 E11.41559
G1 X130.158 Y110.441 E11.4576
G1 X130.777 Y111.688 E11.50854
G1 X131.119 Y112.466 E11.53963
G1 X131.385 Y113.272 E11.57068
G1 X131.527 Y113.853 E11.59256
G1 X131.812 Y115.216 E11.64351
G1 X131.947 Y116.054 E11.67456
G1 X132.002 Y116.902 E11.70565
G1 X131.993 Y117.496 E11.72739
G1 X131.926 Y118.887 E11.77834
G1 X131.845 Y119.732 E11.8094
G1 X131.611 Y120.851 E11.85122
G1 X131.333 Y121.859 E11.88948
G1 X131.069 Y122.666 E11.92054
G1 X130.843 Y123.208 E11.94203
G1 X130.553 Y123.843 E11.96757
G1 X130.164 Y124.598 E11.99864
G1 X129.697 Y125.326 E12.03028
G1 X128.89 Y126.46 E12.08121
G1 X128.366 Y127.128 E12.11227
G1 X127.781 Y127.744 E12.14335
G1 X127.345 Y128.135 E12.16478
G1 X126.279 Y129.031 E12.21572
G1 X125.604 Y129.546 E12.24679
G1 X124.883 Y129.996 E12.27788
G1 X124.342 Y130.275 E12.30015
G1 X123.082 Y130.873 E12.35118
G1 X122.299 Y131.2 E12.38222
G1 X121.201 Y131.523 E12.4241
G1 X120.182 Y131.753 E12.46232
G1 X119.346 Y131.9 E12.49337
G1 X118.196 Y131.974 E12.53553
G1 X116.804 Y131.974 E12.58646
G1 X115.956 Y131.934 E12.61752
G1 X114.818 Y131.753 E12.65968
G1 X113.799 Y131.523 E12.6979
G1 X112.98 Y131.297 E12.72898
G1 X111.918 Y130.873 E12.77082
G1 X110.658 Y130.275 E12.82184
G1 X109.908 Y129.875 E12.85294
G1 X109.2 Y129.406 E12.88401
G1 X108.721 Y129.031 E12.90627
G1 X108.5 Y128.845 E12.91684
G1 X108.279 Y129.031 E12.92741
G1 X107.604 Y129.546 E12.95847
G1 X106.883 Y129.996 E12.98956
G1 X106.342 Y130.275 E13.01183
G1 X105.082 Y130.873 E13.06286
G1 X104.299 Y131.2 E13.09391
G1 X103.201 Y131.523 E13.13578
G1 X102.182 Y131.753 E13.174
G1 X101.346 Y131.9 E13.20505
G1 X100.196 Y131.974 E13.24721
G1 X98.804 Y131.974 E13.29814
G1 X97.956 Y131.934 E13.3292
G1 X96.818 Y131.753 E13.37136
G1 X95.799 Y131.523 E13.40958
G1 X94.98 Y131.297 E13.44066
G1 X93.918 Y130.873 E13.4825
G1 X92.658 Y130.275 E13.53353
G1 X91.908 Y129.875 E13.56463
G1 X91.2 Y129.406 E13.5957
G1 X90.721 Y129.031 E13.61795
G1 X89.655 Y128.135 E13.6689
G1 X89.032 Y127.558 E13.69997
G1 X88.465 Y126.926 E13.73103
G1 X88.11 Y126.46 E13.75246
G1 X87.303 Y125.326 E13.80339
G1 X86.844 Y124.612 E13.83444
G1 X86.454 Y123.857 E13.86553
G1 X86.227 Y123.317 E13.88696
G1 X85.73 Y122.017 E13.93788
G1 X85.464 Y121.21 E13.96897
G1 X85.227 Y120.081 E14.01117
G1 X85.078 Y119.046 E14.04943
G1 X84.997 Y118.201 E14.08049
G1 X85.015 Y117.043 E14.12286
G1 X85.126 Y115.653 E14.17388
G1 X85.233 Y114.811 E14.20493
G1 X85.419 Y113.982 E14.23601
G1 X85.593 Y113.422 E14.25747
G1 X86.048 Y112.107 E14.30838
G1 X86.363 Y111.318 E14.33946
G1 X86.751 Y110.563 E14.37052
G1 X87.228 Y109.819 E14.40285
G1 X88.237 Y108.404 E14.46643
G1 X88.762 Y107.737 E14.49749
G1 X89.246 Y107.228 E14.52319
G0 F810 X89.347 Y107.122
G0 X89.779 Y106.734
M204 S5000
M205 X30 Y30
G0 F7200 X90.062 Y107.071
M204 S500
M205 X20 Y20
G1 F6000 E14.54979
G1 F900 X90.862 Y106.399 E14.58801
G1 X91.522 Y105.898 E14.61833
G1 X92.446 Y105.345 E14.65772
G1 X93.684 Y104.706 E14.70869
G1 X94.437 Y104.362 E14.73898
G1 X95.471 Y104.023 E14.77879
G1 X96.484 Y103.761 E14.81708
G1 X97.295 Y103.593 E14.84738
G1 X98.361 Y103.492 E14.88655
G1 X99.751 Y103.448 E14.93743
G1 X100.579 Y103.462 E14.96773
G1 X101.637 Y103.597 E15.00675
G1 X102.665 Y103.794 E15.04505
G1 X103.47 Y103.989 E15.07535
G1 X104.497 Y104.364 E15.11535
G1 X105.771 Y104.923 E15.16625
G1 X106.513 Y105.292 E15.19657
G1 X107.215 Y105.731 E15.22686
G1 X107.624 Y106.033 E15.24546
G1 X108.489 Y106.712 E15.2857
G1 X108.862 Y106.399 E15.30351
G1 X109.522 Y105.898 E15.33383
G1 X110.446 Y105.345 E15.37322
G1 X111.684 Y104.706 E15.42419
G1 X112.437 Y104.362 E15.45448
G1 X113.471 Y104.023 E15.49429
G1 X114.484 Y103.761 E15.53258
G1 X115.295 Y103.593 E15.56288
G1 X116.361 Y103.492 E15.60205
G1 X117.751 Y103.448 E15.65293
G1 X118.579 Y103.462 E15.68323
G1 X119.637 Y103.597 E15.72225
G1 X120.665 Y103.794 E15.76055
G1 X121.47 Y103.989 E15.79085
G1 X122.497 Y104.364 E15.83085
G1 X123.771 Y104.923 E15.88175
G1 X124.513 Y105.292 E15.91207
G1 X125.215 Y105.731 E15.94236
G1 X125.624 Y106.033 E15.96096
G1 X126.72 Y106.894 E16.01195
G1 X127.346 Y107.436 E16.04225
G1 X128.079 Y108.23 E16.08178
G1 X128.738 Y109.041 E16.12002
G1 X129.228 Y109.708 E16.1503
G1 X129.764 Y110.637 E16.18954
G1 X130.383 Y111.884 E16.24047
G1 X130.715 Y112.643 E16.27078
G1 X130.973 Y113.43 E16.30108
G1 X131.096 Y113.943 E16.32038
G1 X131.381 Y115.306 E16.37133
G1 X131.512 Y116.124 E16.40164
G1 X131.562 Y116.951 E16.43195
G1 X131.553 Y117.475 E16.45112
G1 X131.486 Y118.866 E16.50207
G1 X131.406 Y119.69 E16.53236
G1 X131.187 Y120.734 E16.57139
G1 X130.909 Y121.742 E16.60964
G1 X130.651 Y122.529 E16.63995
G1 X130.443 Y123.025 E16.65962
G1 X130.153 Y123.66 E16.68516
G1 X129.773 Y124.396 E16.71547
G1 X129.339 Y125.071 E16.74483
G1 X128.532 Y126.205 E16.79575
G1 X128.019 Y126.856 E16.82607
G1 X127.447 Y127.454 E16.85635
G1 X127.062 Y127.798 E16.87524
G1 X125.996 Y128.694 E16.92619
G1 X125.337 Y129.196 E16.9565
G1 X124.632 Y129.632 E16.98682
G1 X124.154 Y129.877 E17.00647
G1 X122.894 Y130.475 E17.0575
G1 X122.129 Y130.794 E17.08783
G1 X121.104 Y131.093 E17.12689
G1 X120.085 Y131.323 E17.16511
G1 X119.269 Y131.467 E17.19542
G1 X118.196 Y131.534 E17.23476
G1 X116.804 Y131.534 E17.28569
G1 X115.977 Y131.494 E17.31598
G1 X114.915 Y131.323 E17.35533
G1 X113.896 Y131.093 E17.39355
G1 X113.098 Y130.872 E17.42385
G1 X112.106 Y130.475 E17.46294
G1 X110.846 Y129.877 E17.51397
G1 X110.116 Y129.486 E17.54426
G1 X109.427 Y129.027 E17.57455
G1 X109.004 Y128.694 E17.59425
G1 X108.5 Y128.27 E17.61834
G1 X107.996 Y128.694 E17.64244
G1 X107.337 Y129.196 E17.67275
G1 X106.632 Y129.632 E17.70308
G1 X106.154 Y129.877 E17.72273
G1 X104.894 Y130.475 E17.77376
G1 X104.129 Y130.794 E17.80408
G1 X103.104 Y131.093 E17.84314
G1 X102.085 Y131.323 E17.88136
G1 X101.269 Y131.467 E17.91168
G1 X100.196 Y131.534 E17.95101
G1 X98.804 Y131.534 E18.00194
G1 X97.977 Y131.494 E18.03223
G1 X96.915 Y131.323 E18.07159
G1 X95.896 Y131.093 E18.10981
G1 X95.098 Y130.872 E18.1401
G1 X94.106 Y130.475 E18.17919
G1 X92.846 Y129.877 E18.23022
G1 X92.116 Y129.486 E18.26052
