;FLAVOR:Marlin
;TIME:1637
;Filament used: 1.12214m
;Layer height: 0.2
;Generated with Cura_SteamEngine 3.6.0
M140 S70
M105
M190 S70
M104 S210
M105
M109 S210
M82 ;absolute extrusion mode
G28 ; home all axes
M117 Purge extruder
G92 E0 ; reset extruder
G1 Z1.0 F3000 ; move z up little to prevent scratching of surface
G1 X0.1 Y20 Z0.3 F5000.0 ; move to start-line position G1 X0.1 Y200.0 Z0.3 F1500.0 E15 ; draw 1st line
G1 X0.4 Y200.0 Z0.3 F5000.0 ; move to side a little
G1 X0.4 Y20 Z0.3 F1500.0 E30 ; draw 2nd line
G92 E0 ; reset extruder
G1 Z1.0 F3000 ; move z up little to prevent scratching of surface
M117 All systems go!
G92 E0
G1 F6000 E-5
;LAYER_COUNT:11
;LAYER:0
M107
M204 S5000
M205 X30 Y30
G0 F7200 X20.507 Y23.098 Z0.2
M204 S500
M205 X20 Y20
;TYPE:SKIRT
G1 F6000 E0
G1 F900 X20.984 Y22.678 E0.02325
G1 X21.51 Y22.32 E0.04653
G1 X22.077 Y22.032 E0.0698
G1 X22.675 Y21.816 E0.09306
G1 X23.296 Y21.678 E0.11633
G1 X24.085 Y21.616 E0.14529
G1 X26.818 Y21.616 E0.24528
G1 X27.453 Y21.656 E0.26856
G1 X28.077 Y21.775 E0.2918
G1 X28.682 Y21.972 E0.31508
G1 X29.257 Y22.243 E0.33833
G1 X29.794 Y22.584 E0.36161
G1 X30.396 Y23.098 E0.39057
G1 X30.525 Y23.227 E0.39724
G1 X30.945 Y23.704 E0.4205
G1 X31.303 Y24.23 E0.44377
G1 X31.591 Y24.797 E0.46704
G1 X31.807 Y25.395 E0.4903
G1 X31.945 Y26.016 E0.51358
G1 X32.007 Y26.805 E0.54253
G1 X32.006 Y121.547 E4.00878
G1 X31.966 Y122.182 E4.03206
G1 X31.847 Y122.806 E4.0553
G1 X31.65 Y123.411 E4.07858
G1 X31.379 Y123.986 E4.10183
G1 X31.038 Y124.523 E4.12511
G1 X30.524 Y125.125 E4.15407
G1 X30.395 Y125.254 E4.16074
G1 X29.918 Y125.674 E4.18399
G1 X29.392 Y126.032 E4.20727
G1 X28.825 Y126.32 E4.23054
G1 X28.227 Y126.536 E4.2538
G1 X27.606 Y126.674 E4.27707
G1 X26.817 Y126.736 E4.30603
G1 X24.084 Y126.736 E4.40602
G1 X23.449 Y126.696 E4.4293
G1 X22.825 Y126.577 E4.45254
G1 X22.22 Y126.38 E4.47582
G1 X21.645 Y126.109 E4.49907
G1 X21.108 Y125.768 E4.52235
G1 X20.506 Y125.254 E4.55131
G1 X20.377 Y125.125 E4.55798
G1 X19.957 Y124.648 E4.58124
G1 X19.599 Y124.122 E4.60451
G1 X19.311 Y123.555 E4.62778
G1 X19.095 Y122.957 E4.65104
G1 X18.957 Y122.336 E4.67432
G1 X18.895 Y121.547 E4.70327
G1 X18.896 Y26.805 E8.16952
G1 X18.936 Y26.17 E8.1928
G1 X19.055 Y25.546 E8.21604
G1 X19.252 Y24.941 E8.23932
G1 X19.523 Y24.366 E8.26257
G1 X19.864 Y23.829 E8.28585
G1 X20.024 Y23.641 E8.29488
G0 F810 X20.378 Y23.227
G0 X20.507 Y23.098
M204 S5000
M205 X30 Y30
G0 F7200 X20.818 Y23.409
M204 S500
M205 X20 Y20
G1 F6000 E8.32148
G1 F900 X21.275 Y23.009 E8.3437
G1 X21.781 Y22.672 E8.36594
G1 X22.326 Y22.404 E8.38816
G1 X22.902 Y22.21 E8.41039
G1 X23.498 Y22.093 E8.43262
G1 X24.085 Y22.056 E8.45414
G1 X26.818 Y22.056 E8.55412
G1 X27.424 Y22.096 E8.57634
G1 X28.02 Y22.215 E8.59858
G1 X28.595 Y22.411 E8.62081
G1 X29.139 Y22.682 E8.64304
G1 X29.644 Y23.021 E8.66529
G1 X30.085 Y23.409 E8.68678
G1 X30.214 Y23.538 E8.69346
G1 X30.614 Y23.995 E8.71568
G1 X30.951 Y24.501 E8.73792
G1 X31.219 Y25.046 E8.76014
G1 X31.413 Y25.622 E8.78238
G1 X31.53 Y26.218 E8.8046
G1 X31.567 Y26.805 E8.82612
G1 X31.566 Y121.547 E12.29236
G1 X31.526 Y122.153 E12.31458
G1 X31.407 Y122.749 E12.33682
G1 X31.211 Y123.324 E12.35904
G1 X30.94 Y123.868 E12.38128
G1 X30.601 Y124.373 E12.40353
G1 X30.213 Y124.814 E12.42502
G1 X30.084 Y124.943 E12.4317
G1 X29.627 Y125.343 E12.45392
G1 X29.121 Y125.68 E12.47616
G1 X28.576 Y125.948 E12.49838
G1 X28 Y126.142 E12.52062
G1 X27.404 Y126.259 E12.54284
G1 X26.817 Y126.296 E12.56436
G1 X24.084 Y126.296 E12.66435
G1 X23.478 Y126.256 E12.68657
G1 X22.882 Y126.137 E12.7088
G1 X22.307 Y125.941 E12.73103
G1 X21.763 Y125.67 E12.75326
G1 X21.258 Y125.331 E12.77552
G1 X20.817 Y124.943 E12.79701
G1 X20.688 Y124.814 E12.80368
G1 X20.288 Y124.357 E12.8259
G1 X19.951 Y123.851 E12.84814
G1 X19.683 Y123.306 E12.87036
G1 X19.489 Y122.73 E12.8926
G1 X19.372 Y122.134 E12.91482
G1 X19.335 Y121.547 E12.93634
G1 X19.336 Y26.805 E16.40259
G1 X19.376 Y26.199 E16.4248
G1 X19.495 Y25.603 E16.44704
G1 X19.691 Y25.028 E16.46927
G1 X19.962 Y24.484 E16.4915
G1 X20.301 Y23.979 E16.51375
G1 X20.329 Y23.947 E16.51531
G0 F810 X20.689 Y23.538
G0 X20.818 Y23.409
M204 S5000
M205 X30 Y30
G0 F7200 X21.129 Y23.72
M204 S500
M205 X20 Y20
G1 F6000 E16.54191
G1 F900 X21.565 Y23.341 E16.56304
G1 X22.049 Y23.025 E16.58419
G1 X22.572 Y22.779 E16.60534
G1 X23.124 Y22.608 E16.62648
G1 X23.695 Y22.514 E16.64765
G1 X24.085 Y22.496 E16.66194
G1 X26.818 Y22.496 E16.76193
G1 X27.395 Y22.536 E16.78309
G1 X27.96 Y22.655 E16.80421
G1 X28.504 Y22.851 E16.82537
G1 X29.015 Y23.12 E16.84649
G1 X29.485 Y23.457 E16.86765
G1 X29.774 Y23.72 E16.88195
G1 X29.903 Y23.849 E16.88862
G1 X30.282 Y24.285 E16.90976
G1 X30.598 Y24.769 E16.93091
G1 X30.844 Y25.292 E16.95205
G1 X31.015 Y25.844 E16.9732
G1 X31.109 Y26.415 E16.99437
G1 X31.127 Y26.805 E17.00865
G1 X31.126 Y121.547 E20.4749
G1 X31.086 Y122.124 E20.49606
G1 X30.967 Y122.689 E20.51718
G1 X30.771 Y123.233 E20.53834
G1 X30.502 Y123.744 E20.55946
G1 X30.165 Y124.214 E20.58062
G1 X29.902 Y124.503 E20.59492
G1 X29.773 Y124.632 E20.60159
G1 X29.337 Y125.011 E20.62273
G1 X28.853 Y125.327 E20.64388
G1 X28.33 Y125.573 E20.66502
G1 X27.778 Y125.744 E20.68617
G1 X27.207 Y125.838 E20.70734
G1 X26.817 Y125.856 E20.72162
G1 X24.084 Y125.856 E20.82161
G1 X23.507 Y125.816 E20.84277
G1 X22.942 Y125.697 E20.8639
G1 X22.398 Y125.501 E20.88505
G1 X21.887 Y125.232 E20.90618
G1 X21.417 Y124.895 E20.92734
G1 X21.128 Y124.632 E20.94164
G1 X20.999 Y124.503 E20.94831
G1 X20.62 Y124.067 E20.96945
G1 X20.304 Y123.583 E20.99059
G1 X20.058 Y123.06 E21.01174
G1 X19.887 Y122.508 E21.03288
G1 X19.793 Y121.937 E21.05405
G1 X19.775 Y121.547 E21.06834
G1 X19.776 Y26.805 E24.53458
G1 X19.816 Y26.228 E24.55574
G1 X19.935 Y25.663 E24.57687
G1 X20.131 Y25.119 E24.59802
G1 X20.4 Y24.608 E24.61915
G1 X20.647 Y24.264 E24.63464
G0 F810 X20.737 Y24.138
G0 X21 Y23.849
G0 X21.129 Y23.72
M204 S5000
M205 X30 Y30
G0 F7200 X21.44 Y24.031
M204 S500
M205 X20 Y20
G1 F6000 E24.66124
G1 F900 X21.854 Y23.674 E24.68124
G1 X22.316 Y23.381 E24.70126
G1 X22.815 Y23.158 E24.72125
G1 X23.341 Y23.011 E24.74124
G1 X24.085 Y22.936 E24.76859
G1 X26.818 Y22.936 E24.86858
G1 X27.363 Y22.976 E24.88858
G1 X27.897 Y23.095 E24.90859
G1 X28.407 Y23.29 E24.92857
G1 X28.884 Y23.558 E24.94859
G1 X29.463 Y24.031 E24.97594
G1 X29.592 Y24.16 E24.98262
G1 X29.949 Y24.574 E25.00262
G1 X30.242 Y25.036 E25.02263
G1 X30.465 Y25.535 E25.04263
G1 X30.612 Y26.061 E25.06261
G1 X30.687 Y26.805 E25.08997
G1 X30.686 Y121.547 E28.55621
G1 X30.646 Y122.092 E28.57621
G1 X30.527 Y122.626 E28.59622
G1 X30.332 Y123.136 E28.6162
G1 X30.064 Y123.613 E28.63622
G1 X29.591 Y124.192 E28.66357
G1 X29.462 Y124.321 E28.67024
G1 X29.048 Y124.678 E28.69024
G1 X28.586 Y124.971 E28.71026
G1 X28.087 Y125.194 E28.73026
G1 X27.561 Y125.341 E28.75024
G1 X26.817 Y125.416 E28.7776
G1 X24.084 Y125.416 E28.87759
G1 X23.539 Y125.376 E28.89758
G1 X23.005 Y125.257 E28.9176
G1 X22.495 Y125.062 E28.93757
G1 X22.018 Y124.794 E28.95759
G1 X21.439 Y124.321 E28.98494
G1 X21.31 Y124.192 E28.99162
G1 X20.953 Y123.778 E29.01162
G1 X20.66 Y123.316 E29.03163
G1 X20.437 Y122.817 E29.05163
G1 X20.29 Y122.291 E29.07161
G1 X20.215 Y121.547 E29.09897
G1 X20.216 Y26.805 E32.56521
G1 X20.256 Y26.26 E32.58521
G1 X20.375 Y25.726 E32.60522
G1 X20.57 Y25.216 E32.6252
G1 X20.838 Y24.739 E32.64522
G1 X20.966 Y24.582 E32.65263
G0 F810 X21.311 Y24.16
G0 X21.44 Y24.031
M204 S5000
M205 X30 Y30
G0 F7200 X21.752 Y24.343
M204 S500
M205 X20 Y20
G1 F6000 E32.67923
G1 F900 X22.142 Y24.009 E32.69801
G1 X22.579 Y23.74 E32.71679
G1 X23.053 Y23.542 E32.73558
G1 X23.551 Y23.419 E32.75435
G1 X24.085 Y23.376 E32.77395
G1 X26.818 Y23.376 E32.87394
G1 X27.33 Y23.416 E32.89273
G1 X27.829 Y23.535 E32.9115
G1 X28.304 Y23.73 E32.93028
G1 X28.743 Y23.996 E32.94906
G1 X29.151 Y24.343 E32.96866
G1 X29.28 Y24.472 E32.97533
G1 X29.614 Y24.862 E32.99412
G1 X29.883 Y25.299 E33.01289
G1 X30.081 Y25.773 E33.03169
G1 X30.204 Y26.271 E33.05045
G1 X30.247 Y26.805 E33.07005
G1 X30.246 Y121.547 E36.5363
G1 X30.206 Y122.059 E36.55509
G1 X30.087 Y122.558 E36.57386
G1 X29.892 Y123.033 E36.59264
G1 X29.626 Y123.472 E36.61142
G1 X29.279 Y123.88 E36.63102
G1 X29.15 Y124.009 E36.63769
G1 X28.76 Y124.343 E36.65648
G1 X28.323 Y124.612 E36.67525
G1 X27.849 Y124.81 E36.69405
G1 X27.351 Y124.933 E36.71281
G1 X26.817 Y124.976 E36.73241
G1 X24.084 Y124.976 E36.8324
G1 X23.572 Y124.936 E36.85119
G1 X23.073 Y124.817 E36.86996
G1 X22.598 Y124.622 E36.88875
G1 X22.159 Y124.356 E36.90753
G1 X21.751 Y124.009 E36.92712
G1 X21.622 Y123.88 E36.9338
G1 X21.288 Y123.49 E36.95258
G1 X21.019 Y123.053 E36.97136
G1 X20.821 Y122.579 E36.99015
G1 X20.698 Y122.081 E37.00892
G1 X20.655 Y121.547 E37.02852
G1 X20.656 Y26.805 E40.49476
G1 X20.696 Y26.293 E40.51355
G1 X20.815 Y25.794 E40.53232
G1 X21.01 Y25.319 E40.55111
G1 X21.271 Y24.888 E40.56954
G0 F810 X21.276 Y24.88
G0 X21.623 Y24.472
G0 X21.752 Y24.343
M204 S5000
M205 X30 Y30
G0 F7200 X22.063 Y24.654
M204 S500
M205 X20 Y20
G1 F6000 E40.59614
G1 F900 X22.428 Y24.345 E40.61364
G1 X22.839 Y24.102 E40.63111
G1 X23.285 Y23.93 E40.64859
G1 X23.753 Y23.835 E40.66607
G1 X24.085 Y23.816 E40.67823
G1 X26.818 Y23.816 E40.77822
G1 X27.294 Y23.856 E40.7957
G1 X27.757 Y23.975 E40.81319
G1 X28.194 Y24.169 E40.83068
G1 X28.592 Y24.433 E40.84816
G1 X28.84 Y24.654 E40.86031
G1 X28.969 Y24.783 E40.86698
G1 X29.278 Y25.148 E40.88448
G1 X29.521 Y25.559 E40.90195
G1 X29.693 Y26.005 E40.91944
G1 X29.788 Y26.473 E40.93691
G1 X29.807 Y26.805 E40.94908
G1 X29.806 Y121.547 E44.41532
G1 X29.766 Y122.023 E44.4328
G1 X29.647 Y122.486 E44.45029
G1 X29.453 Y122.923 E44.46778
G1 X29.189 Y123.321 E44.48525
G1 X28.968 Y123.569 E44.49741
G1 X28.839 Y123.698 E44.50408
G1 X28.474 Y124.007 E44.52158
G1 X28.063 Y124.25 E44.53905
G1 X27.617 Y124.422 E44.55653
G1 X27.149 Y124.517 E44.57401
G1 X26.817 Y124.536 E44.58617
G1 X24.084 Y124.536 E44.68616
G1 X23.608 Y124.496 E44.70364
G1 X23.145 Y124.377 E44.72113
G1 X22.708 Y124.183 E44.73862
G1 X22.31 Y123.919 E44.7561
G1 X22.062 Y123.698 E44.76825
G1 X21.933 Y123.569 E44.77492
G1 X21.624 Y123.204 E44.79242
G1 X21.381 Y122.793 E44.80989
G1 X21.209 Y122.347 E44.82738
G1 X21.114 Y121.879 E44.84485
G1 X21.095 Y121.547 E44.85701
G1 X21.096 Y26.805 E48.32326
G1 X21.136 Y26.329 E48.34074
G1 X21.255 Y25.866 E48.35823
G1 X21.449 Y25.429 E48.37572
G1 X21.596 Y25.208 E48.38543
G0 F810 X21.713 Y25.031
G0 X21.934 Y24.783
G0 X22.063 Y24.654
M204 S5000
M205 X30 Y30
G0 F7200 X22.374 Y24.965
M204 S500
M205 X20 Y20
G1 F6000 E48.41203
G1 F900 X22.712 Y24.684 E48.42811
G1 X23.095 Y24.468 E48.4442
G1 X23.51 Y24.325 E48.46026
G1 X24.085 Y24.256 E48.48144
G1 X26.818 Y24.256 E48.58143
G1 X27.256 Y24.296 E48.59753
G1 X27.679 Y24.414 E48.61359
G1 X28.074 Y24.607 E48.62968
G1 X28.529 Y24.965 E48.65086
G1 X28.658 Y25.094 E48.65753
G1 X28.939 Y25.432 E48.67361
G1 X29.155 Y25.815 E48.6897
G1 X29.298 Y26.23 E48.70576
G1 X29.367 Y26.805 E48.72695
G1 X29.366 Y121.547 E52.19319
G1 X29.326 Y121.985 E52.20929
G1 X29.208 Y122.408 E52.22535
G1 X29.015 Y122.803 E52.24144
G1 X28.657 Y123.258 E52.26262
G1 X28.528 Y123.387 E52.26929
G1 X28.19 Y123.668 E52.28537
G1 X27.807 Y123.884 E52.30146
G1 X27.392 Y124.027 E52.31752
G1 X26.817 Y124.096 E52.33871
G1 X24.084 Y124.096 E52.4387
G1 X23.646 Y124.056 E52.45479
G1 X23.223 Y123.938 E52.47086
G1 X22.828 Y123.745 E52.48694
G1 X22.373 Y123.387 E52.50812
G1 X22.244 Y123.258 E52.5148
G1 X21.963 Y122.92 E52.53088
G1 X21.747 Y122.537 E52.54697
G1 X21.604 Y122.122 E52.56303
G1 X21.535 Y121.547 E52.58421
G1 X21.536 Y26.805 E56.05046
G1 X21.576 Y26.367 E56.06655
G1 X21.694 Y25.944 E56.08262
G1 X21.887 Y25.549 E56.0987
G1 X21.908 Y25.523 E56.09992
G0 F810 X22.245 Y25.094
G0 X22.374 Y24.965
M204 S5000
M205 X30 Y30
G0 F7200 X22.685 Y25.276
M204 S500
M205 X20 Y20
G1 F6000 E56.12652
G1 F900 X22.993 Y25.024 E56.14108
G1 X23.345 Y24.84 E56.15561
G1 X23.726 Y24.729 E56.17013
G1 X24.085 Y24.696 E56.18332
G1 X26.818 Y24.696 E56.28331
G1 X27.213 Y24.736 E56.29784
G1 X27.593 Y24.854 E56.31239
G1 X27.941 Y25.046 E56.32694
G1 X28.218 Y25.276 E56.34011
G1 X28.347 Y25.405 E56.34678
G1 X28.599 Y25.713 E56.36134
G1 X28.783 Y26.065 E56.37587
G1 X28.894 Y26.446 E56.39039
G1 X28.927 Y26.805 E56.40358
G1 X28.926 Y121.547 E59.86983
G1 X28.886 Y121.943 E59.88439
G1 X28.768 Y122.322 E59.89891
G1 X28.576 Y122.67 E59.91345
G1 X28.346 Y122.947 E59.92663
G1 X28.217 Y123.076 E59.9333
G1 X27.909 Y123.328 E59.94786
G1 X27.557 Y123.512 E59.96239
G1 X27.176 Y123.623 E59.97691
G1 X26.817 Y123.656 E59.9901
G1 X24.084 Y123.656 E60.09009
G1 X23.689 Y123.616 E60.10462
G1 X23.309 Y123.498 E60.11917
G1 X22.961 Y123.306 E60.13371
G1 X22.684 Y123.076 E60.14689
G1 X22.555 Y122.947 E60.15356
G1 X22.303 Y122.639 E60.16812
G1 X22.119 Y122.287 E60.18265
G1 X22.008 Y121.906 E60.19717
G1 X21.975 Y121.547 E60.21036
G1 X21.976 Y26.805 E63.67661
G1 X22.016 Y26.409 E63.69117
G1 X22.134 Y26.03 E63.70569
G1 X22.237 Y25.844 E63.71347
G0 F810 X22.326 Y25.682
G0 X22.556 Y25.405
G0 X22.685 Y25.276
M204 S5000
M205 X30 Y30
G0 F7200 X22.996 Y25.587
M204 S500
M205 X20 Y20
G1 F6000 E63.74007
G1 F900 X23.27 Y25.369 E63.75288
G1 X23.587 Y25.219 E63.76571
G1 X24.085 Y25.136 E63.78418
G1 X26.818 Y25.136 E63.88417
G1 X27.166 Y25.176 E63.89699
G1 X27.496 Y25.293 E63.9098
G1 X27.907 Y25.587 E63.92828
G1 X28.036 Y25.716 E63.93496
G1 X28.254 Y25.99 E63.94777
G1 X28.404 Y26.307 E63.9606
G1 X28.487 Y26.805 E63.97907
G1 X28.486 Y121.547 E67.44532
G1 X28.446 Y121.895 E67.45813
G1 X28.329 Y122.225 E67.47094
G1 X28.035 Y122.636 E67.48943
G1 X27.906 Y122.765 E67.4961
G1 X27.632 Y122.983 E67.50891
G1 X27.315 Y123.133 E67.52174
G1 X26.817 Y123.216 E67.54022
G1 X24.084 Y123.216 E67.64021
G1 X23.736 Y123.176 E67.65302
G1 X23.406 Y123.059 E67.66583
G1 X22.995 Y122.765 E67.68432
G1 X22.866 Y122.636 E67.69099
G1 X22.648 Y122.362 E67.7038
G1 X22.498 Y122.045 E67.71664
G1 X22.415 Y121.547 E67.73511
G1 X22.416 Y26.805 E71.20135
G1 X22.456 Y26.457 E71.21417
G1 X22.56 Y26.164 E71.22554
G0 F810 X22.573 Y26.127
G0 X22.867 Y25.716
G0 X22.996 Y25.587
M204 S5000
M205 X30 Y30
G0 F7200 X23.307 Y25.898
M204 S500
M205 X20 Y20
G1 F6000 E71.25214
G1 F900 X23.543 Y25.719 E71.26298
G1 X23.818 Y25.609 E71.27381
G1 X24.085 Y25.576 E71.28366
G1 X26.818 Y25.576 E71.38365
G1 X27.111 Y25.616 E71.39447
G1 X27.383 Y25.732 E71.40528
G1 X27.596 Y25.898 E71.41516
G1 X27.725 Y26.027 E71.42184
G1 X27.904 Y26.263 E71.43268
G1 X28.014 Y26.538 E71.44351
G1 X28.047 Y26.805 E71.45335
G1 X28.046 Y121.547 E74.9196
G1 X28.006 Y121.84 E74.93042
G1 X27.89 Y122.112 E74.94124
G1 X27.724 Y122.325 E74.95112
G1 X27.595 Y122.454 E74.95779
G1 X27.359 Y122.633 E74.96863
G1 X27.084 Y122.743 E74.97947
G1 X26.817 Y122.776 E74.98931
G1 X24.084 Y122.776 E75.0893
G1 X23.791 Y122.736 E75.10012
G1 X23.519 Y122.62 E75.11094
G1 X23.306 Y122.454 E75.12082
G1 X23.177 Y122.325 E75.12749
G1 X22.998 Y122.089 E75.13833
G1 X22.888 Y121.814 E75.14916
G1 X22.855 Y121.547 E75.15901
G1 X22.856 Y26.805 E78.62525
G1 X22.896 Y26.512 E78.63607
G1 X22.904 Y26.493 E78.63682
G0 F810 X23.012 Y26.24
G0 X23.178 Y26.027
G0 X23.307 Y25.898
M204 S5000
M205 X30 Y30
G0 F7200 X23.618 Y26.209
M204 S500
M205 X20 Y20
G1 F6000 E78.66342
G1 F900 X23.806 Y26.078 E78.67181
G1 X24.085 Y26.016 E78.68226
G1 X26.818 Y26.016 E78.78225
G1 X27.043 Y26.056 E78.79061
G1 X27.285 Y26.209 E78.80109
G1 X27.414 Y26.338 E78.80776
G1 X27.545 Y26.526 E78.81615
G1 X27.607 Y26.805 E78.8266
G1 X27.606 Y121.547 E82.29285
G1 X27.566 Y121.772 E82.30121
G1 X27.413 Y122.014 E82.31168
G1 X27.284 Y122.143 E82.31836
G1 X27.096 Y122.274 E82.32674
G1 X26.817 Y122.336 E82.3372
G1 X24.084 Y122.336 E82.43719
G1 X23.859 Y122.296 E82.44555
G1 X23.617 Y122.143 E82.45602
G1 X23.488 Y122.014 E82.4627
G1 X23.357 Y121.826 E82.47108
G1 X23.295 Y121.547 E82.48154
G1 X23.296 Y26.836 E85.94665
G0 F810 X23.296 Y26.805
G0 X23.336 Y26.58
G0 X23.489 Y26.338
G0 X23.618 Y26.209
M204 S5000
M205 X30 Y30
G0 F7200 X23.929 Y26.52
M204 S500
M205 X20 Y20
G1 F6000 E85.97325
G1 F900 X24.085 Y26.456 E85.97942
G1 X26.818 Y26.456 E86.07941
G1 X26.974 Y26.52 E86.08558
G1 X27.103 Y26.649 E86.09225
