;FLAVOR:Marlin
;TIME:5422
;Filament used: 5.31231m
;Layer height: 0.2
;Generated with Cura_SteamEngine 3.6.0
M140 S70
M105
M190 S70
M104 S215
M105
M109 S215
M82 ;absolute extrusion mode
G28 ; home all axes
M117 Purge extruder
G92 E0 ; reset extruder
G1 Z1.0 F3000 ; move z up little to prevent scratching of surface
G1 X0.1 Y20 Z0.3 F5000.0 ; move to start-line position G1 X0.1 Y200.0 Z0.3 F1500.0 E15 ; draw 1st line
G1 X0.4 Y200.0 Z0.3 F5000.0 ; move to side a little
G1 X0.4 Y20 Z0.3 F1500.0 E30 ; draw 2nd line
G92 E0 ; reset extruder
G1 Z1.0 F3000 ; move z up little to prevent scratching of surface
M117 All systems go!
G92 E0
G1 F6000 E-5
;LAYER_COUNT:41
;LAYER:0
M107
M204 S5000
M205 X30 Y30
G0 F7200 X62.433 Y126.483 Z0.2
M204 S500
M205 X20 Y20
;TYPE:SKIRT
G1 F6000 E0
G1 F900 X63.58 Y125.946 E0.04634
G1 X64.757 Y125.483 E0.09261
G1 X65.962 Y125.096 E0.13891
G1 X67.188 Y124.785 E0.18519
G1 X68.432 Y124.553 E0.23149
G1 X68.574 Y124.536 E0.23672
G1 X69.011 Y124.248 E0.25587
G1 X70.111 Y123.622 E0.30217
G1 X71.248 Y123.066 E0.34848
G1 X72.417 Y122.583 E0.39475
G1 X73.615 Y122.175 E0.44106
G1 X74.836 Y121.844 E0.48734
G1 X76.257 Y121.56 E0.54036
G1 X130.967 Y112.673 E2.56822
G1 X131.254 Y112.595 E2.5791
G1 X132.173 Y112.234 E2.61523
G1 X132.434 Y112.099 E2.62598
G1 X132.929 Y111.79 E2.64733
G1 X132.958 Y111.77 E2.64862
G1 X133.413 Y111.389 E2.67033
G1 X133.753 Y111.053 E2.68782
G1 X134.06 Y110.696 E2.70504
G1 X134.343 Y110.306 E2.72267
G1 X134.587 Y109.905 E2.73985
G1 X134.8 Y109.479 E2.75727
G1 X134.891 Y109.252 E2.76622
G1 X135.17 Y108.269 E2.8036
G1 X135.281 Y107.532 E2.83087
G1 X135.305 Y106.729 E2.86026
G1 X135.288 Y106.502 E2.86859
G1 X135.138 Y105.659 E2.89992
G1 X134.897 Y104.855 E2.93063
G1 X134.688 Y104.353 E2.95052
G1 X134.658 Y104.292 E2.95301
G1 X134.384 Y103.834 E2.97253
G1 X133.865 Y103.137 E3.00433
G1 X133.305 Y102.542 E3.03422
G1 X132.92 Y102.211 E3.0528
G1 X132.174 Y101.678 E3.08634
G1 X131.388 Y101.171 E3.12056
G1 X130.347 Y100.452 E3.16685
G1 X129.353 Y99.668 E3.21317
G1 X128.411 Y98.823 E3.25946
G1 X127.524 Y97.921 E3.30575
G1 X126.696 Y96.964 E3.35205
G1 X125.93 Y95.957 E3.39834
G1 X125.229 Y94.903 E3.44465
G1 X124.4 Y93.432 E3.50642
G1 X124.207 Y93.053 E3.52198
G1 X123.669 Y91.908 E3.56827
G1 X123.204 Y90.731 E3.61457
G1 X122.814 Y89.527 E3.66087
G1 X122.501 Y88.301 E3.70717
G1 X122.208 Y86.655 E3.76833
G1 X122.169 Y86.367 E3.77897
G1 X122.039 Y85.108 E3.82527
G1 X121.989 Y83.843 E3.87159
G1 X122.018 Y82.578 E3.91789
G1 X122.128 Y81.318 E3.96416
G1 X122.317 Y80.067 E4.01045
G1 X122.584 Y78.83 E4.05675
G1 X122.79 Y78.07 E4.08556
G1 X122.952 Y77.515 E4.10671
G1 X123.345 Y76.313 E4.15298
G1 X123.813 Y75.137 E4.19928
G1 X124.354 Y73.993 E4.24558
G1 X124.967 Y72.886 E4.29188
G1 X125.648 Y71.819 E4.33819
G1 X126.395 Y70.798 E4.38447
G1 X127.205 Y69.826 E4.43076
G1 X127.667 Y69.324 E4.45572
G1 X127.962 Y69.014 E4.47138
G1 X128.863 Y68.125 E4.51769
G1 X129.818 Y67.295 E4.56398
G1 X130.824 Y66.527 E4.61029
G1 X131.876 Y65.825 E4.65656
G1 X132.971 Y65.19 E4.70287
G1 X134.567 Y64.419 E4.76772
G1 X134.956 Y64.252 E4.7832
G1 X136.134 Y63.789 E4.82951
G1 X137.339 Y63.403 E4.87581
G1 X138.566 Y63.093 E4.92211
G1 X139.81 Y62.861 E4.96841
G1 X141.066 Y62.708 E5.0147
G1 X142.329 Y62.635 E5.06098
G1 X143.595 Y62.642 E5.1073
G1 X144.381 Y62.686 E5.1361
G1 X144.956 Y62.73 E5.1572
G1 X146.215 Y62.867 E5.20354
G1 X147.461 Y63.082 E5.2498
G1 X148.692 Y63.376 E5.2961
G1 X149.902 Y63.747 E5.3424
G1 X151.086 Y64.194 E5.38871
G1 X152.191 Y64.691 E5.43303
G1 X154.196 Y65.667 E5.51462
G1 X155.423 Y66.318 E5.56544
G1 X157.186 Y67.333 E5.63986
G1 X158.2 Y67.958 E5.68344
G1 X159.869 Y69.056 E5.75654
G1 X160.846 Y69.741 E5.80019
G1 X162.438 Y70.93 E5.87289
G1 X163.63 Y71.894 E5.92897
G1 X165.911 Y73.887 E6.03979
G1 X167.238 Y75.158 E6.10702
G1 X169.326 Y77.351 E6.21781
G1 X170.524 Y78.73 E6.28464
G1 X172.404 Y81.105 E6.39546
G1 X173.464 Y82.577 E6.46182
G1 X175.112 Y85.098 E6.57202
G1 X175.92 Y86.447 E6.62955
G1 X177.006 Y88.433 E6.71236
G1 X177.732 Y89.899 E6.77221
G1 X178.97 Y92.681 E6.88362
G1 X179.639 Y94.392 E6.95083
G1 X180.633 Y97.324 E7.0641
G1 X181.125 Y99.018 E7.12864
G1 X181.813 Y101.845 E7.23509
G1 X182.096 Y103.21 E7.28609
G1 X182.35 Y104.698 E7.34132
G1 X182.526 Y105.981 E7.3887
G1 X182.84 Y108.978 E7.49894
G1 X182.947 Y110.792 E7.56543
G1 X182.988 Y113.806 E7.67571
G1 X182.933 Y115.581 E7.74068
G1 X182.707 Y118.582 E7.85078
G1 X182.493 Y120.365 E7.91649
G1 X181.999 Y123.334 E8.0266
G1 X181.737 Y124.635 E8.07516
G1 X181.391 Y126.105 E8.13041
G1 X181.034 Y127.421 E8.1803
G1 X180.18 Y130.19 E8.28631
G1 X180.85 Y131.24 E8.33188
G1 X181.462 Y132.347 E8.37816
G1 X182.002 Y133.491 E8.42444
G1 X182.47 Y134.667 E8.47075
G1 X182.862 Y135.87 E8.51704
G1 X183.177 Y137.096 E8.56335
G1 X183.415 Y138.338 E8.60962
G1 X183.573 Y139.594 E8.65593
G1 X183.661 Y141.47 E8.72465
G1 X183.661 Y144.109 E8.8212
G1 X183.621 Y145.374 E8.8675
G1 X183.501 Y146.633 E8.91377
G1 X183.302 Y147.883 E8.96008
G1 X183.024 Y149.118 E9.00639
G1 X182.669 Y150.332 E9.05267
G1 X182.238 Y151.522 E9.09898
G1 X181.733 Y152.682 E9.14526
G1 X181.155 Y153.808 E9.19157
G1 X180.507 Y154.895 E9.23787
G1 X179.792 Y155.939 E9.28416
G1 X179.013 Y156.935 E9.33043
G1 X177.797 Y158.265 E9.39636
G1 X177.668 Y158.394 E9.40303
G1 X176.746 Y159.26 E9.44931
G1 X175.77 Y160.066 E9.49562
G1 X174.746 Y160.809 E9.54191
G1 X173.676 Y161.486 E9.58823
G1 X172.567 Y162.093 E9.63449
G1 X171.42 Y162.63 E9.68082
G1 X170.243 Y163.093 E9.7271
G1 X169.038 Y163.48 E9.7734
G1 X167.812 Y163.791 E9.81968
G1 X166.568 Y164.023 E9.86597
G1 X166.441 Y164.039 E9.87066
G1 X165.576 Y164.586 E9.9081
G1 X164.467 Y165.193 E9.95436
G1 X163.32 Y165.73 E10.00069
G1 X162.143 Y166.193 E10.04696
G1 X160.938 Y166.58 E10.09327
G1 X159.712 Y166.891 E10.13954
G1 X158.468 Y167.123 E10.18584
G1 X157.212 Y167.277 E10.23214
G1 X155.412 Y167.358 E10.29806
G1 X71.488 Y167.358 E13.36852
G1 X70.223 Y167.318 E13.41482
G1 X68.964 Y167.198 E13.46109
G1 X67.714 Y166.999 E13.5074
G1 X66.479 Y166.721 E13.55371
G1 X65.265 Y166.366 E13.59999
G1 X64.075 Y165.935 E13.6463
G1 X62.915 Y165.43 E13.69258
G1 X61.789 Y164.852 E13.73889
G1 X60.702 Y164.204 E13.78519
G1 X59.658 Y163.489 E13.83148
G1 X58.662 Y162.71 E13.87775
G1 X57.332 Y161.494 E13.94368
G1 X57.203 Y161.365 E13.95035
G1 X56.337 Y160.443 E13.99663
G1 X55.531 Y159.467 E14.04294
G1 X54.788 Y158.443 E14.08923
G1 X54.111 Y157.373 E14.13555
G1 X53.504 Y156.264 E14.18181
G1 X52.967 Y155.117 E14.22814
G1 X52.504 Y153.94 E14.27442
G1 X52.117 Y152.735 E14.32072
G1 X51.806 Y151.509 E14.367
G1 X51.574 Y150.265 E14.41329
G1 X51.42 Y149.009 E14.45959
G1 X51.339 Y147.209 E14.52551
G1 X51.339 Y144.467 E14.62583
G1 X51.379 Y143.202 E14.67214
G1 X51.499 Y141.943 E14.71841
G1 X51.698 Y140.693 E14.76471
G1 X51.976 Y139.458 E14.81103
G1 X52.331 Y138.244 E14.85731
G1 X52.762 Y137.054 E14.90361
G1 X53.267 Y135.894 E14.9499
G1 X53.845 Y134.768 E14.9962
G1 X54.493 Y133.681 E15.0425
G1 X55.208 Y132.637 E15.0888
G1 X55.987 Y131.641 E15.13506
G1 X57.203 Y130.311 E15.20099
G1 X57.332 Y130.182 E15.20767
G1 X58.254 Y129.316 E15.25395
G1 X59.23 Y128.51 E15.30026
G1 X60.254 Y127.767 E15.34654
G1 X61.324 Y127.09 E15.39287
G1 X61.796 Y126.832 E15.41255
G0 F810 X62.433 Y126.483
M204 S5000
M205 X30 Y30
G0 F7200 X62.694 Y126.844
M204 S500
M205 X20 Y20
G1 F6000 E15.43915
G1 F900 X63.83 Y126.318 E15.48495
G1 X64.996 Y125.865 E15.53071
G1 X66.19 Y125.488 E15.57652
G1 X67.405 Y125.189 E15.6223
G1 X68.636 Y124.967 E15.66806
G1 X68.735 Y124.956 E15.67171
G1 X69.3 Y124.587 E15.6964
G1 X70.39 Y123.972 E15.74219
G1 X71.517 Y123.428 E15.78797
G1 X72.676 Y122.956 E15.83376
G1 X73.863 Y122.56 E15.87954
G1 X75.073 Y122.24 E15.92533
G1 X76.328 Y121.994 E15.97212
G1 X131.068 Y113.102 E18.00109
G1 X131.384 Y113.016 E18.01308
G1 X132.36 Y112.633 E18.05144
G1 X132.649 Y112.484 E18.06333
G1 X133.173 Y112.157 E18.08593
G1 X133.225 Y112.119 E18.08829
G1 X133.713 Y111.711 E18.11156
G1 X134.08 Y111.348 E18.13044
G1 X134.407 Y110.968 E18.14878
G1 X134.709 Y110.552 E18.16759
G1 X134.969 Y110.125 E18.18588
G1 X135.202 Y109.658 E18.20498
G1 X135.308 Y109.395 E18.21535
G1 X135.601 Y108.361 E18.25467
G1 X135.719 Y107.576 E18.28371
G1 X135.745 Y106.709 E18.31545
G1 X135.726 Y106.452 E18.32488
G1 X135.567 Y105.557 E18.35813
G1 X135.312 Y104.706 E18.39064
G1 X135.087 Y104.166 E18.41204
G1 X135.042 Y104.076 E18.41572
G1 X134.752 Y103.59 E18.43643
G1 X134.204 Y102.855 E18.46997
G1 X133.611 Y102.225 E18.50162
G1 X133.188 Y101.862 E18.52202
G1 X132.415 Y101.309 E18.55679
G1 X131.627 Y100.801 E18.59109
G1 X130.597 Y100.089 E18.6369
G1 X129.615 Y99.314 E18.68267
G1 X128.685 Y98.477 E18.72845
G1 X127.81 Y97.582 E18.77424
G1 X126.994 Y96.633 E18.82003
G1 X126.241 Y95.634 E18.8658
G1 X125.552 Y94.589 E18.91159
G1 X124.792 Y93.232 E18.9685
G1 X124.599 Y92.853 E18.98406
G1 X124.067 Y91.72 E19.02985
G1 X123.609 Y90.556 E19.07562
G1 X123.225 Y89.365 E19.1214
G1 X122.919 Y88.151 E19.1672
G1 X122.644 Y86.595 E19.22501
G1 X122.605 Y86.307 E19.23565
G1 X122.477 Y85.063 E19.2814
G1 X122.428 Y83.812 E19.32721
G1 X122.46 Y82.561 E19.37299
G1 X122.571 Y81.315 E19.41876
G1 X122.762 Y80.078 E19.46455
G1 X123.032 Y78.856 E19.51034
G1 X123.212 Y78.194 E19.53544
G1 X123.374 Y77.639 E19.55659
G1 X123.763 Y76.449 E19.60239
G1 X124.227 Y75.287 E19.64817
G1 X124.765 Y74.157 E19.69396
G1 X125.373 Y73.063 E19.73975
G1 X126.05 Y72.011 E19.78552
G1 X126.793 Y71.004 E19.83131
G1 X127.986 Y69.627 E19.89796
G1 X128.281 Y69.317 E19.91362
G1 X129.172 Y68.439 E19.95938
G1 X130.118 Y67.619 E20.00519
G1 X131.114 Y66.861 E20.05098
G1 X132.156 Y66.169 E20.09674
G1 X133.24 Y65.544 E20.14252
G1 X134.741 Y64.823 E20.20345
G1 X135.13 Y64.656 E20.21893
G1 X136.295 Y64.199 E20.26472
G1 X137.487 Y63.818 E20.3105
G1 X138.701 Y63.514 E20.35629
G1 X139.931 Y63.287 E20.40205
G1 X141.174 Y63.14 E20.44784
G1 X142.424 Y63.073 E20.49364
G1 X143.675 Y63.085 E20.53941
G1 X144.348 Y63.125 E20.56408
G1 X144.923 Y63.169 E20.58518
G1 X146.167 Y63.304 E20.63096
G1 X147.4 Y63.519 E20.67675
G1 X148.617 Y63.812 E20.72255
G1 X149.812 Y64.182 E20.76832
G1 X150.981 Y64.627 E20.81408
G1 X151.999 Y65.087 E20.85495
G1 X154.004 Y66.063 E20.93653
G1 X155.203 Y66.699 E20.98619
G1 X156.966 Y67.714 E21.06062
G1 X157.958 Y68.325 E21.10324
G1 X159.627 Y69.423 E21.17633
G1 X160.582 Y70.093 E21.21902
G1 X162.174 Y71.282 E21.29171
G1 X163.341 Y72.225 E21.34661
G1 X165.622 Y74.218 E21.45743
G1 X166.919 Y75.461 E21.52315
G1 X169.007 Y77.654 E21.63394
G1 X170.179 Y79.003 E21.69932
G1 X172.059 Y81.378 E21.81014
G1 X173.096 Y82.817 E21.87503
G1 X174.744 Y85.338 E21.98522
G1 X175.534 Y86.658 E22.0415
G1 X176.62 Y88.644 E22.12432
G1 X177.33 Y90.077 E22.18283
G1 X178.568 Y92.859 E22.29423
G1 X179.222 Y94.533 E22.35999
G1 X180.216 Y97.465 E22.47325
G1 X180.698 Y99.122 E22.53639
G1 X181.386 Y101.949 E22.64284
G1 X181.662 Y103.284 E22.69271
G1 X181.916 Y104.772 E22.74794
G1 X182.088 Y106.027 E22.79429
G1 X182.402 Y109.024 E22.90454
G1 X182.507 Y110.798 E22.96955
G1 X182.548 Y113.812 E23.07983
G1 X182.495 Y115.548 E23.14338
G1 X182.269 Y118.549 E23.25348
G1 X182.058 Y120.293 E23.31775
G1 X181.564 Y123.262 E23.42787
G1 X181.309 Y124.534 E23.47534
G1 X180.963 Y126.004 E23.53059
G1 X180.614 Y127.291 E23.57937
G1 X179.73 Y130.156 E23.68907
G1 X179.692 Y130.267 E23.69336
G1 X179.829 Y130.455 E23.70187
G1 X180.5 Y131.512 E23.74768
G1 X181.101 Y132.609 E23.79344
G1 X181.632 Y133.743 E23.83925
G1 X182.089 Y134.908 E23.88504
G1 X182.47 Y136.1 E23.93082
G1 X182.775 Y137.313 E23.97658
G1 X183.001 Y138.544 E24.02237
G1 X183.149 Y139.787 E24.06817
G1 X183.221 Y141.47 E24.1298
G1 X183.221 Y144.109 E24.22635
G1 X183.181 Y145.36 E24.27215
G1 X183.061 Y146.605 E24.31791
G1 X182.862 Y147.841 E24.36371
G1 X182.584 Y149.061 E24.40949
G1 X182.229 Y150.261 E24.45527
G1 X181.798 Y151.436 E24.50106
G1 X181.293 Y152.581 E24.54685
G1 X180.716 Y153.691 E24.59262
G1 X180.069 Y154.762 E24.6384
G1 X179.355 Y155.79 E24.68419
G1 X178.577 Y156.77 E24.72997
G1 X177.486 Y157.954 E24.78887
G1 X177.357 Y158.083 E24.79555
G1 X176.444 Y158.939 E24.84133
G1 X175.479 Y159.735 E24.8871
G1 X174.465 Y160.468 E24.93288
G1 X173.405 Y161.135 E24.9787
G1 X172.306 Y161.732 E25.02446
G1 X171.17 Y162.258 E25.07026
G1 X170.004 Y162.711 E25.11602
G1 X168.81 Y163.088 E25.16183
G1 X167.595 Y163.387 E25.20761
G1 X166.364 Y163.609 E25.25337
G1 X166.285 Y163.618 E25.25628
G1 X165.305 Y164.235 E25.29865
G1 X164.206 Y164.832 E25.34441
G1 X163.07 Y165.358 E25.39021
G1 X161.904 Y165.811 E25.43598
G1 X160.71 Y166.188 E25.48179
G1 X159.495 Y166.487 E25.52756
G1 X158.264 Y166.709 E25.57333
G1 X157.021 Y166.852 E25.61911
G1 X155.412 Y166.918 E25.67802
G1 X71.488 Y166.918 E28.74848
G1 X70.237 Y166.878 E28.79427
G1 X68.992 Y166.758 E28.84003
G1 X67.756 Y166.559 E28.88583
G1 X66.536 Y166.281 E28.93161
G1 X65.336 Y165.926 E28.9774
G1 X64.161 Y165.495 E29.02319
G1 X63.016 Y164.99 E29.06897
G1 X61.906 Y164.413 E29.11474
G1 X60.835 Y163.766 E29.16052
G1 X59.807 Y163.052 E29.20631
G1 X58.827 Y162.274 E29.25209
G1 X57.643 Y161.183 E29.311
G1 X57.514 Y161.054 E29.31767
G1 X56.658 Y160.141 E29.36346
G1 X55.862 Y159.176 E29.40923
G1 X55.129 Y158.162 E29.455
G1 X54.462 Y157.102 E29.50082
G1 X53.865 Y156.003 E29.54658
G1 X53.339 Y154.867 E29.59238
G1 X52.886 Y153.701 E29.63815
G1 X52.509 Y152.507 E29.68396
G1 X52.21 Y151.292 E29.72973
G1 X51.988 Y150.061 E29.7755
G1 X51.845 Y148.818 E29.82128
G1 X51.779 Y147.209 E29.88019
G1 X51.779 Y144.467 E29.98051
G1 X51.819 Y143.216 E30.0263
G1 X51.939 Y141.971 E30.07206
G1 X52.138 Y140.735 E30.11787
G1 X52.416 Y139.515 E30.16365
G1 X52.771 Y138.315 E30.20943
G1 X53.202 Y137.14 E30.25522
G1 X53.707 Y135.995 E30.30101
G1 X54.284 Y134.885 E30.34677
G1 X54.931 Y133.814 E30.39255
G1 X55.645 Y132.786 E30.43835
G1 X56.423 Y131.806 E30.48413
G1 X57.514 Y130.622 E30.54303
G1 X57.643 Y130.493 E30.5497
G1 X58.556 Y129.637 E30.59549
G1 X59.521 Y128.841 E30.64126
G1 X60.535 Y128.108 E30.68704
G1 X61.595 Y127.441 E30.73286
G1 X62.055 Y127.191 E30.75201
G0 F810 X62.694 Y126.844
M204 S5000
M205 X30 Y30
G0 F7200 X62.954 Y127.206
M204 S500
M205 X20 Y20
G1 F6000 E30.77861
G1 F900 X64.079 Y126.69 E30.82389
G1 X65.235 Y126.248 E30.86917
G1 X66.417 Y125.882 E30.91444
G1 X67.62 Y125.593 E30.95971
G1 X68.839 Y125.382 E31.00497
G1 X68.896 Y125.376 E31.00707
G1 X69.588 Y124.927 E31.03725
G1 X70.668 Y124.323 E31.08252
G1 X71.785 Y123.79 E31.1278
G1 X72.934 Y123.331 E31.17307
G1 X74.11 Y122.946 E31.21834
G1 X75.308 Y122.638 E31.26359
G1 X76.398 Y122.429 E31.3042
G1 X131.158 Y113.534 E33.33392
G1 X131.524 Y113.434 E33.3478
G1 X132.538 Y113.036 E33.38765
G1 X132.863 Y112.869 E33.40102
G1 X133.425 Y112.518 E33.42526
G1 X133.496 Y112.467 E33.42846
G1 X134.012 Y112.034 E33.4531
G1 X134.401 Y111.65 E33.4731
G1 X134.752 Y111.243 E33.49277
G1 X135.075 Y110.796 E33.51294
G1 X135.356 Y110.335 E33.5327
G1 X135.601 Y109.844 E33.55277
G1 X135.723 Y109.541 E33.56472
G1 X136.033 Y108.452 E33.60615
G1 X136.159 Y107.614 E33.63715
G1 X136.185 Y106.709 E33.67027
G1 X136.162 Y106.393 E33.68187
G1 X135.994 Y105.449 E33.71695
G1 X135.726 Y104.555 E33.75109
G1 X135.494 Y103.996 E33.77324
G1 X135.426 Y103.861 E33.77877
G1 X135.117 Y103.343 E33.80083
G1 X134.538 Y102.567 E33.83626
G1 X133.918 Y101.908 E33.86936
G1 X133.462 Y101.517 E33.89134
G1 X132.665 Y100.947 E33.92719
G1 X131.865 Y100.431 E33.96201
G1 X130.848 Y99.727 E34.00727
G1 X129.878 Y98.959 E34.05253
G1 X128.96 Y98.13 E34.09779
G1 X128.097 Y97.243 E34.14306
G1 X127.293 Y96.302 E34.18835
G1 X126.552 Y95.312 E34.23359
G1 X125.876 Y94.275 E34.27888
G1 X125.184 Y93.032 E34.33093
G1 X124.991 Y92.653 E34.34649
G1 X124.466 Y91.533 E34.39174
G1 X124.014 Y90.382 E34.43698
G1 X123.637 Y89.203 E34.48227
G1 X123.337 Y88.003 E34.52753
G1 X123.08 Y86.536 E34.58201
G1 X123.041 Y86.248 E34.59265
G1 X122.915 Y85.018 E34.63788
G1 X122.868 Y83.781 E34.68317
G1 X122.902 Y82.544 E34.72845
G1 X123.015 Y81.312 E34.77371
G1 X123.208 Y80.09 E34.81897
G1 X123.635 Y78.317 E34.8857
G1 X123.797 Y77.762 E34.90685
G1 X124.182 Y76.586 E34.95212
G1 X124.642 Y75.438 E34.99737
