;FLAVOR:Marlin
;TIME:2489
;Filament used: 2.11082m
;Layer height: 0.2
;Generated with Cura_SteamEngine 3.6.0
M140 S70
M105
M190 S70
M104 S215
M105
M109 S215
M82 ;absolute extrusion mode
G28 ; home all axes
M117 Purge extruder
G92 E0 ; reset extruder
G1 Z1.0 F3000 ; move z up little to prevent scratching of surface
G1 X0.1 Y20 Z0.3 F5000.0 ; move to start-line position G1 X0.1 Y200.0 Z0.3 F1500.0 E15 ; draw 1st line
G1 X0.4 Y200.0 Z0.3 F5000.0 ; move to side a little
G1 X0.4 Y20 Z0.3 F1500.0 E30 ; draw 2nd line
G92 E0 ; reset extruder
G1 Z1.0 F3000 ; move z up little to prevent scratching of surface
M117 All systems go!
G92 E0
G1 F6000 E-5
;LAYER_COUNT:21
;LAYER:0
M107
M204 S5000
M205 X30 Y30
G0 F7200 X94.051 Y98.922 Z0.2
M204 S500
M205 X20 Y20
;TYPE:SKIRT
G1 F6000 E0
G1 F900 X94.528 Y98.502 E0.02325
G1 X95.054 Y98.144 E0.04653
G1 X95.621 Y97.856 E0.0698
G1 X96.219 Y97.64 E0.09306
G1 X96.84 Y97.502 E0.11633
G1 X97.629 Y97.44 E0.14529
G1 X137.371 Y97.44 E1.5993
G1 X138.006 Y97.48 E1.62257
G1 X138.63 Y97.599 E1.64582
G1 X139.235 Y97.796 E1.66909
G1 X139.81 Y98.067 E1.69235
G1 X140.347 Y98.408 E1.71562
G1 X140.949 Y98.922 E1.74459
G1 X141.078 Y99.051 E1.75126
G1 X141.498 Y99.528 E1.77451
G1 X141.856 Y100.054 E1.79779
G1 X142.144 Y100.621 E1.82106
G1 X142.36 Y101.219 E1.84432
G1 X142.498 Y101.84 E1.86759
G1 X142.56 Y102.629 E1.89655
G1 X142.56 Y132.371 E2.98469
G1 X142.52 Y133.006 E3.00797
G1 X142.401 Y133.63 E3.03121
G1 X142.204 Y134.235 E3.05449
G1 X141.933 Y134.81 E3.07775
G1 X141.592 Y135.347 E3.10102
G1 X141.078 Y135.949 E3.12998
G1 X140.949 Y136.078 E3.13666
G1 X140.472 Y136.498 E3.15991
G1 X139.946 Y136.856 E3.18319
G1 X139.379 Y137.144 E3.20646
G1 X138.781 Y137.36 E3.22972
G1 X138.16 Y137.498 E3.25299
G1 X137.371 Y137.56 E3.28195
G1 X97.629 Y137.56 E4.73595
G1 X96.994 Y137.52 E4.75923
G1 X96.37 Y137.401 E4.78247
G1 X95.765 Y137.204 E4.80575
G1 X95.19 Y136.933 E4.82901
G1 X94.653 Y136.592 E4.85228
G1 X94.051 Y136.078 E4.88124
G1 X93.922 Y135.949 E4.88792
G1 X93.502 Y135.472 E4.91117
G1 X93.144 Y134.946 E4.93445
G1 X92.856 Y134.379 E4.95772
G1 X92.64 Y133.781 E4.98098
G1 X92.502 Y133.16 E5.00425
G1 X92.44 Y132.371 E5.03321
G1 X92.44 Y102.629 E6.12135
G1 X92.48 Y101.994 E6.14463
G1 X92.599 Y101.37 E6.16787
G1 X92.796 Y100.765 E6.19115
G1 X93.067 Y100.19 E6.21441
G1 X93.408 Y99.653 E6.23768
G1 X93.568 Y99.465 E6.24671
G0 F810 X93.922 Y99.051
G0 X94.051 Y98.922
M204 S5000
M205 X30 Y30
G0 F7200 X94.362 Y99.233
M204 S500
M205 X20 Y20
G1 F6000 E6.27331
G1 F900 X94.819 Y98.833 E6.29553
G1 X95.325 Y98.496 E6.31777
G1 X95.87 Y98.228 E6.33999
G1 X96.446 Y98.034 E6.36223
G1 X97.042 Y97.917 E6.38445
G1 X97.629 Y97.88 E6.40597
G1 X137.371 Y97.88 E7.85998
G1 X137.977 Y97.92 E7.8822
G1 X138.573 Y98.039 E7.90443
G1 X139.148 Y98.235 E7.92666
G1 X139.692 Y98.506 E7.94889
G1 X140.197 Y98.845 E7.97115
G1 X140.638 Y99.233 E7.99264
G1 X140.767 Y99.362 E7.99931
G1 X141.167 Y99.819 E8.02153
G1 X141.504 Y100.325 E8.04377
G1 X141.772 Y100.87 E8.06599
G1 X141.966 Y101.446 E8.08823
G1 X142.083 Y102.042 E8.11045
G1 X142.12 Y102.629 E8.13197
G1 X142.12 Y132.371 E9.22011
G1 X142.08 Y132.977 E9.24233
G1 X141.961 Y133.573 E9.26457
G1 X141.765 Y134.148 E9.2868
G1 X141.494 Y134.692 E9.30903
G1 X141.155 Y135.197 E9.33128
G1 X140.767 Y135.638 E9.35277
G1 X140.638 Y135.767 E9.35945
G1 X140.181 Y136.167 E9.38167
G1 X139.675 Y136.504 E9.40391
G1 X139.13 Y136.772 E9.42613
G1 X138.554 Y136.966 E9.44837
G1 X137.958 Y137.083 E9.47059
G1 X137.371 Y137.12 E9.49211
G1 X97.629 Y137.12 E10.94611
G1 X97.023 Y137.08 E10.96833
G1 X96.427 Y136.961 E10.99057
G1 X95.852 Y136.765 E11.0128
G1 X95.308 Y136.494 E11.03503
G1 X94.803 Y136.155 E11.05728
G1 X94.362 Y135.767 E11.07877
G1 X94.233 Y135.638 E11.08545
G1 X93.833 Y135.181 E11.10767
G1 X93.496 Y134.675 E11.12991
G1 X93.228 Y134.13 E11.15213
G1 X93.034 Y133.554 E11.17437
G1 X92.917 Y132.958 E11.19659
G1 X92.88 Y132.371 E11.21811
G1 X92.88 Y102.629 E12.30625
G1 X92.92 Y102.023 E12.32847
G1 X93.039 Y101.427 E12.35071
G1 X93.235 Y100.852 E12.37293
G1 X93.506 Y100.308 E12.39517
G1 X93.845 Y99.803 E12.41742
G1 X93.873 Y99.771 E12.41898
G0 F810 X94.233 Y99.362
G0 X94.362 Y99.233
M204 S5000
M205 X30 Y30
G0 F7200 X94.673 Y99.544
M204 S500
M205 X20 Y20
G1 F6000 E12.44558
G1 F900 X95.109 Y99.165 E12.46671
G1 X95.593 Y98.849 E12.48786
G1 X96.116 Y98.603 E12.50901
G1 X96.668 Y98.432 E12.53015
G1 X97.239 Y98.338 E12.55132
G1 X97.629 Y98.32 E12.5656
G1 X137.371 Y98.32 E14.01961
G1 X137.948 Y98.36 E14.04077
G1 X138.513 Y98.479 E14.0619
G1 X139.057 Y98.675 E14.08305
G1 X139.568 Y98.944 E14.10418
G1 X140.038 Y99.281 E14.12534
G1 X140.327 Y99.544 E14.13963
G1 X140.456 Y99.673 E14.14631
G1 X140.835 Y100.109 E14.16744
G1 X141.151 Y100.593 E14.18859
G1 X141.397 Y101.116 E14.20974
G1 X141.568 Y101.668 E14.23088
G1 X141.662 Y102.239 E14.25205
G1 X141.68 Y102.629 E14.26634
G1 X141.68 Y132.371 E15.35448
G1 X141.64 Y132.948 E15.37564
G1 X141.521 Y133.513 E15.39677
G1 X141.325 Y134.057 E15.41792
G1 X141.056 Y134.568 E15.43905
G1 X140.719 Y135.038 E15.46021
G1 X140.456 Y135.327 E15.47451
G1 X140.327 Y135.456 E15.48118
G1 X139.891 Y135.835 E15.50232
G1 X139.407 Y136.151 E15.52346
G1 X138.884 Y136.397 E15.54461
G1 X138.332 Y136.568 E15.56575
G1 X137.761 Y136.662 E15.58692
G1 X137.371 Y136.68 E15.60121
G1 X97.629 Y136.68 E17.05521
G1 X97.052 Y136.64 E17.07637
G1 X96.487 Y136.521 E17.0975
G1 X95.943 Y136.325 E17.11865
G1 X95.432 Y136.056 E17.13978
G1 X94.962 Y135.719 E17.16094
G1 X94.673 Y135.456 E17.17524
G1 X94.544 Y135.327 E17.18191
G1 X94.165 Y134.891 E17.20305
G1 X93.849 Y134.407 E17.2242
G1 X93.603 Y133.884 E17.24534
G1 X93.432 Y133.332 E17.26648
G1 X93.338 Y132.761 E17.28766
G1 X93.32 Y132.371 E17.30194
G1 X93.32 Y102.629 E18.39008
G1 X93.36 Y102.052 E18.41125
G1 X93.479 Y101.487 E18.43237
G1 X93.675 Y100.943 E18.45353
G1 X93.944 Y100.432 E18.47465
G1 X94.191 Y100.088 E18.49015
G0 F810 X94.281 Y99.962
G0 X94.544 Y99.673
G0 X94.673 Y99.544
M204 S5000
M205 X30 Y30
G0 F7200 X94.984 Y99.855
M204 S500
M205 X20 Y20
G1 F6000 E18.51674
G1 F900 X95.398 Y99.498 E18.53675
G1 X95.86 Y99.205 E18.55676
G1 X96.359 Y98.982 E18.57676
G1 X96.885 Y98.835 E18.59674
G1 X97.629 Y98.76 E18.6241
G1 X137.371 Y98.76 E20.0781
G1 X137.916 Y98.8 E20.0981
G1 X138.45 Y98.919 E20.11811
G1 X138.96 Y99.114 E20.13809
G1 X139.437 Y99.382 E20.15811
G1 X140.016 Y99.855 E20.18546
G1 X140.145 Y99.984 E20.19213
G1 X140.502 Y100.398 E20.21214
G1 X140.795 Y100.86 E20.23215
G1 X141.018 Y101.359 E20.25215
G1 X141.165 Y101.885 E20.27213
G1 X141.24 Y102.629 E20.29949
G1 X141.24 Y132.371 E21.38763
G1 X141.2 Y132.916 E21.40763
G1 X141.081 Y133.45 E21.42764
G1 X140.886 Y133.96 E21.44762
G1 X140.618 Y134.437 E21.46764
G1 X140.145 Y135.016 E21.49499
G1 X140.016 Y135.145 E21.50166
G1 X139.602 Y135.502 E21.52166
G1 X139.14 Y135.795 E21.54168
G1 X138.641 Y136.018 E21.56168
G1 X138.115 Y136.165 E21.58166
G1 X137.371 Y136.24 E21.60902
G1 X97.629 Y136.24 E23.06302
G1 X97.084 Y136.2 E23.08302
G1 X96.55 Y136.081 E23.10303
G1 X96.04 Y135.886 E23.12301
G1 X95.563 Y135.618 E23.14303
G1 X94.984 Y135.145 E23.17038
G1 X94.855 Y135.016 E23.17705
G1 X94.498 Y134.602 E23.19705
G1 X94.205 Y134.14 E23.21707
G1 X93.982 Y133.641 E23.23707
G1 X93.835 Y133.115 E23.25705
G1 X93.76 Y132.371 E23.28441
G1 X93.76 Y102.629 E24.37255
G1 X93.8 Y102.084 E24.39254
G1 X93.919 Y101.55 E24.41256
G1 X94.114 Y101.04 E24.43254
G1 X94.382 Y100.563 E24.45255
G1 X94.51 Y100.406 E24.45996
G0 F810 X94.855 Y99.984
G0 X94.984 Y99.855
M204 S5000
M205 X30 Y30
G0 F7200 X95.296 Y100.167
M204 S500
M205 X20 Y20
G1 F6000 E24.48656
G1 F900 X95.686 Y99.833 E24.50535
G1 X96.123 Y99.564 E24.52412
G1 X96.597 Y99.366 E24.54292
G1 X97.095 Y99.243 E24.56169
G1 X97.629 Y99.2 E24.58129
G1 X137.371 Y99.2 E26.03529
G1 X137.883 Y99.24 E26.05408
G1 X138.382 Y99.359 E26.07285
G1 X138.857 Y99.554 E26.09164
G1 X139.296 Y99.82 E26.11042
G1 X139.704 Y100.167 E26.13001
G1 X139.833 Y100.296 E26.13669
G1 X140.167 Y100.686 E26.15547
G1 X140.436 Y101.123 E26.17425
G1 X140.634 Y101.597 E26.19304
G1 X140.757 Y102.095 E26.21181
G1 X140.8 Y102.629 E26.23141
G1 X140.8 Y132.371 E27.31955
G1 X140.76 Y132.883 E27.33834
G1 X140.641 Y133.382 E27.35711
G1 X140.446 Y133.857 E27.3759
G1 X140.18 Y134.296 E27.39468
G1 X139.833 Y134.704 E27.41427
G1 X139.704 Y134.833 E27.42095
G1 X139.314 Y135.167 E27.43973
G1 X138.877 Y135.436 E27.45851
G1 X138.403 Y135.634 E27.4773
G1 X137.905 Y135.757 E27.49607
G1 X137.371 Y135.8 E27.51567
G1 X97.629 Y135.8 E28.96968
G1 X97.117 Y135.76 E28.98846
G1 X96.618 Y135.641 E29.00723
G1 X96.143 Y135.446 E29.02602
G1 X95.704 Y135.18 E29.0448
G1 X95.296 Y134.833 E29.06439
G1 X95.167 Y134.704 E29.07107
G1 X94.833 Y134.314 E29.08985
G1 X94.564 Y133.877 E29.10863
G1 X94.366 Y133.403 E29.12742
G1 X94.243 Y132.905 E29.14619
G1 X94.2 Y132.371 E29.16579
G1 X94.2 Y102.629 E30.25394
G1 X94.24 Y102.117 E30.27273
G1 X94.359 Y101.618 E30.29149
G1 X94.554 Y101.143 E30.31028
G1 X94.815 Y100.712 E30.32871
G0 F810 X94.82 Y100.704
G0 X95.167 Y100.296
G0 X95.296 Y100.167
M204 S5000
M205 X30 Y30
G0 F7200 X95.607 Y100.478
M204 S500
M205 X20 Y20
G1 F6000 E30.35531
G1 F900 X95.972 Y100.169 E30.37281
G1 X96.383 Y99.926 E30.39028
G1 X96.829 Y99.754 E30.40777
G1 X97.297 Y99.659 E30.42524
G1 X97.629 Y99.64 E30.4374
G1 X137.371 Y99.64 E31.89141
G1 X137.847 Y99.68 E31.90889
G1 X138.31 Y99.799 E31.92638
G1 X138.747 Y99.993 E31.94387
G1 X139.145 Y100.257 E31.96134
G1 X139.393 Y100.478 E31.9735
G1 X139.522 Y100.607 E31.98017
G1 X139.831 Y100.972 E31.99767
G1 X140.074 Y101.383 E32.01514
G1 X140.246 Y101.829 E32.03263
G1 X140.341 Y102.297 E32.0501
G1 X140.36 Y102.629 E32.06226
G1 X140.36 Y132.371 E33.15041
G1 X140.32 Y132.847 E33.16788
G1 X140.201 Y133.31 E33.18537
G1 X140.007 Y133.747 E33.20287
G1 X139.743 Y134.145 E33.22034
G1 X139.522 Y134.393 E33.23249
G1 X139.393 Y134.522 E33.23917
G1 X139.028 Y134.831 E33.25667
G1 X138.617 Y135.074 E33.27413
G1 X138.171 Y135.246 E33.29162
G1 X137.703 Y135.341 E33.30909
G1 X137.371 Y135.36 E33.32126
G1 X97.629 Y135.36 E34.77527
G1 X97.153 Y135.32 E34.79274
G1 X96.69 Y135.201 E34.81023
G1 X96.253 Y135.007 E34.82773
G1 X95.855 Y134.743 E34.8452
G1 X95.607 Y134.522 E34.85735
G1 X95.478 Y134.393 E34.86403
G1 X95.169 Y134.028 E34.88152
G1 X94.926 Y133.617 E34.89899
G1 X94.754 Y133.171 E34.91648
G1 X94.659 Y132.703 E34.93395
G1 X94.64 Y132.371 E34.94612
G1 X94.64 Y102.629 E36.03427
G1 X94.68 Y102.153 E36.05174
G1 X94.799 Y101.69 E36.06923
G1 X94.993 Y101.253 E36.08672
G1 X95.14 Y101.032 E36.09644
G0 F810 X95.257 Y100.855
G0 X95.478 Y100.607
G0 X95.607 Y100.478
M204 S5000
M205 X30 Y30
G0 F7200 X95.918 Y100.789
M204 S500
M205 X20 Y20
G1 F6000 E36.12303
G1 F900 X96.256 Y100.508 E36.13911
G1 X96.639 Y100.292 E36.1552
G1 X97.054 Y100.149 E36.17126
G1 X97.629 Y100.08 E36.19245
G1 X137.371 Y100.08 E37.64646
G1 X137.809 Y100.12 E37.66255
G1 X138.232 Y100.238 E37.67861
G1 X138.627 Y100.431 E37.6947
G1 X139.082 Y100.789 E37.71588
G1 X139.211 Y100.918 E37.72255
G1 X139.492 Y101.256 E37.73864
G1 X139.708 Y101.639 E37.75472
G1 X139.851 Y102.054 E37.77078
G1 X139.92 Y102.629 E37.79197
G1 X139.92 Y132.371 E38.88012
G1 X139.88 Y132.809 E38.89621
G1 X139.762 Y133.232 E38.91227
G1 X139.569 Y133.627 E38.92836
G1 X139.211 Y134.082 E38.94954
G1 X139.082 Y134.211 E38.95622
G1 X138.744 Y134.492 E38.9723
G1 X138.361 Y134.708 E38.98838
G1 X137.946 Y134.851 E39.00444
G1 X137.371 Y134.92 E39.02563
G1 X97.629 Y134.92 E40.47964
G1 X97.191 Y134.88 E40.49573
G1 X96.768 Y134.762 E40.5118
G1 X96.373 Y134.569 E40.52788
G1 X95.918 Y134.211 E40.54906
G1 X95.789 Y134.082 E40.55574
G1 X95.508 Y133.744 E40.57182
G1 X95.292 Y133.361 E40.58791
G1 X95.149 Y132.946 E40.60396
G1 X95.08 Y132.371 E40.62515
G1 X95.08 Y102.629 E41.7133
G1 X95.12 Y102.191 E41.72939
G1 X95.238 Y101.768 E41.74546
G1 X95.431 Y101.373 E41.76154
G1 X95.452 Y101.347 E41.76276
G0 F810 X95.789 Y100.918
G0 X95.918 Y100.789
M204 S5000
M205 X30 Y30
G0 F7200 X96.229 Y101.1
M204 S500
M205 X20 Y20
G1 F6000 E41.78936
G1 F900 X96.537 Y100.848 E41.80392
G1 X96.889 Y100.664 E41.81845
G1 X97.27 Y100.553 E41.83297
G1 X97.629 Y100.52 E41.84616
G1 X137.371 Y100.52 E43.30017
G1 X137.766 Y100.56 E43.31469
G1 X138.146 Y100.678 E43.32925
G1 X138.494 Y100.87 E43.34379
G1 X138.771 Y101.1 E43.35696
G1 X138.9 Y101.229 E43.36364
G1 X139.152 Y101.537 E43.3782
G1 X139.336 Y101.889 E43.39273
G1 X139.447 Y102.27 E43.40725
G1 X139.48 Y102.629 E43.42044
G1 X139.48 Y132.371 E44.50858
G1 X139.44 Y132.766 E44.52311
G1 X139.322 Y133.146 E44.53767
G1 X139.13 Y133.494 E44.55221
G1 X138.9 Y133.771 E44.56538
G1 X138.771 Y133.9 E44.57206
G1 X138.463 Y134.152 E44.58662
G1 X138.111 Y134.336 E44.60115
G1 X137.73 Y134.447 E44.61567
G1 X137.371 Y134.48 E44.62886
G1 X97.629 Y134.48 E46.08286
G1 X97.234 Y134.44 E46.09739
G1 X96.854 Y134.322 E46.11195
G1 X96.506 Y134.13 E46.12649
G1 X96.229 Y133.9 E46.13966
G1 X96.1 Y133.771 E46.14633
G1 X95.848 Y133.463 E46.16089
G1 X95.664 Y133.111 E46.17543
G1 X95.553 Y132.73 E46.18994
G1 X95.52 Y132.371 E46.20313
G1 X95.52 Y102.629 E47.29128
G1 X95.56 Y102.234 E47.3058
G1 X95.678 Y101.854 E47.32036
G1 X95.781 Y101.668 E47.32814
G0 F810 X95.87 Y101.506
G0 X96.1 Y101.229
G0 X96.229 Y101.1
M204 S5000
M205 X30 Y30
G0 F7200 X96.54 Y101.411
M204 S500
M205 X20 Y20
G1 F6000 E47.35474
G1 F900 X96.814 Y101.193 E47.36755
G1 X97.131 Y101.043 E47.38038
G1 X97.629 Y100.96 E47.39885
G1 X137.371 Y100.96 E48.85286
G1 X137.719 Y101 E48.86567
G1 X138.049 Y101.117 E48.87848
G1 X138.46 Y101.411 E48.89697
G1 X138.589 Y101.54 E48.90365
G1 X138.807 Y101.814 E48.91646
G1 X138.957 Y102.131 E48.92929
G1 X139.04 Y102.629 E48.94776
G1 X139.04 Y132.371 E50.0359
G1 X139 Y132.719 E50.04872
G1 X138.883 Y133.049 E50.06153
G1 X138.589 Y133.46 E50.08002
G1 X138.46 Y133.589 E50.08669
G1 X138.186 Y133.807 E50.0995
G1 X137.869 Y133.957 E50.11233
G1 X137.371 Y134.04 E50.1308
G1 X97.629 Y134.04 E51.58481
G1 X97.281 Y134 E51.59763
G1 X96.951 Y133.883 E51.61044
G1 X96.54 Y133.589 E51.62892
G1 X96.411 Y133.46 E51.6356
G1 X96.193 Y133.186 E51.64841
G1 X96.043 Y132.869 E51.66124
G1 X95.96 Y132.371 E51.67971
G1 X95.96 Y102.629 E52.76786
G1 X96 Y102.281 E52.78067
G1 X96.104 Y101.988 E52.79205
G0 F810 X96.117 Y101.951
G0 X96.411 Y101.54
G0 X96.54 Y101.411
M204 S5000
M205 X30 Y30
G0 F7200 X96.851 Y101.722
M204 S500
M205 X20 Y20
G1 F6000 E52.81865
G1 F900 X97.087 Y101.543 E52.82948
G1 X97.362 Y101.433 E52.84032
G1 X97.629 Y101.4 E52.85016
G1 X137.371 Y101.4 E54.30417
G1 X137.664 Y101.44 E54.31499
G1 X137.936 Y101.556 E54.32581
G1 X138.149 Y101.722 E54.33569
G1 X138.278 Y101.851 E54.34236
G1 X138.457 Y102.087 E54.3532
G1 X138.567 Y102.362 E54.36403
G1 X138.6 Y102.629 E54.37388
G1 X138.6 Y132.371 E55.46202
G1 X138.56 Y132.664 E55.47284
G1 X138.444 Y132.936 E55.48366
G1 X138.278 Y133.149 E55.49354
G1 X138.149 Y133.278 E55.50021
G1 X137.913 Y133.457 E55.51105
G1 X137.638 Y133.567 E55.52189
G1 X137.371 Y133.6 E55.53173
G1 X97.629 Y133.6 E56.98574
G1 X97.336 Y133.56 E56.99656
G1 X97.064 Y133.444 E57.00737
G1 X96.851 Y133.278 E57.01725
G1 X96.722 Y133.149 E57.02393
G1 X96.543 Y132.913 E57.03477
G1 X96.433 Y132.638 E57.0456
G1 X96.4 Y132.371 E57.05545
G1 X96.4 Y102.629 E58.14359
G1 X96.44 Y102.336 E58.15441
G1 X96.448 Y102.317 E58.15516
G0 F810 X96.556 Y102.064
G0 X96.722 Y101.851
G0 X96.851 Y101.722
M204 S5000
M205 X30 Y30
G0 F7200 X97.162 Y102.033
M204 S500
M205 X20 Y20
G1 F6000 E58.18176
G1 F900 X97.35 Y101.902 E58.19015
G1 X97.629 Y101.84 E58.2006
G1 X137.371 Y101.84 E59.65461
G1 X137.596 Y101.88 E59.66297
G1 X137.838 Y102.033 E59.67344
G1 X137.967 Y102.162 E59.68012
G1 X138.098 Y102.35 E59.6885
G1 X138.16 Y102.629 E59.69896
G1 X138.16 Y132.371 E60.7871
G1 X138.12 Y132.596 E60.79547
G1 X137.967 Y132.838 E60.80594
G1 X137.838 Y132.967 E60.81261
G1 X137.65 Y133.098 E60.821
G1 X137.371 Y133.16 E60.83145
G1 X97.629 Y133.16 E62.28546
G1 X97.404 Y133.12 E62.29382
G1 X97.162 Y132.967 E62.3043
G1 X97.033 Y132.838 E62.31097
G1 X96.902 Y132.65 E62.31935
G1 X96.84 Y132.371 E62.32981
G1 X96.84 Y102.66 E63.41682
G0 F810 X96.84 Y102.629
G0 X96.88 Y102.404
G0 X97.033 Y102.162
