;FLAVOR:Marlin
;TIME:3105
;Filament used: 2.63027m
;Layer height: 0.2
;Generated with Cura_SteamEngine 3.6.0
M140 S70
M105
M190 S70
M104 S215
M105
M109 S215
M82 ;absolute extrusion mode
G28 ; home all axes
M117 Purge extruder
G92 E0 ; reset extruder
G1 Z1.0 F3000 ; move z up little to prevent scratching of surface
G1 X0.1 Y20 Z0.3 F5000.0 ; move to start-line position G1 X0.1 Y200.0 Z0.3 F1500.0 E15 ; draw 1st line
G1 X0.4 Y200.0 Z0.3 F5000.0 ; move to side a little
G1 X0.4 Y20 Z0.3 F1500.0 E30 ; draw 2nd line
G92 E0 ; reset extruder
G1 Z1.0 F3000 ; move z up little to prevent scratching of surface
M117 All systems go!
G92 E0
G1 F6000 E-5
;LAYER_COUNT:21
;LAYER:0
M107
M204 S5000
M205 X30 Y30
G0 F7200 X89.051 Y98.922 Z0.2
M204 S500
M205 X20 Y20
;TYPE:SKIRT
G1 F6000 E0
G1 F900 X89.528 Y98.502 E0.02325
G1 X90.054 Y98.144 E0.04653
G1 X90.621 Y97.856 E0.0698
G1 X91.219 Y97.64 E0.09306
G1 X91.84 Y97.502 E0.11633
G1 X92.629 Y97.44 E0.14529
G1 X142.371 Y97.44 E1.96516
G1 X143.006 Y97.48 E1.98844
G1 X143.63 Y97.599 E2.01168
G1 X144.235 Y97.796 E2.03496
G1 X144.81 Y98.067 E2.05821
G1 X145.347 Y98.408 E2.08149
G1 X145.949 Y98.922 E2.11045
G1 X146.078 Y99.051 E2.11712
G1 X146.498 Y99.528 E2.14037
G1 X146.856 Y100.054 E2.16365
G1 X147.144 Y100.621 E2.18692
G1 X147.36 Y101.219 E2.21018
G1 X147.498 Y101.84 E2.23346
G1 X147.56 Y102.629 E2.26241
G1 X147.56 Y132.371 E3.35056
G1 X147.52 Y133.006 E3.37383
G1 X147.401 Y133.63 E3.39708
G1 X147.204 Y134.235 E3.42035
G1 X146.933 Y134.81 E3.44361
G1 X146.592 Y135.347 E3.46688
G1 X146.078 Y135.949 E3.49584
G1 X145.949 Y136.078 E3.50252
G1 X145.472 Y136.498 E3.52577
G1 X144.946 Y136.856 E3.54905
G1 X144.379 Y137.144 E3.57232
G1 X143.781 Y137.36 E3.59558
G1 X143.16 Y137.498 E3.61885
G1 X142.371 Y137.56 E3.64781
G1 X92.629 Y137.56 E5.46768
G1 X91.994 Y137.52 E5.49096
G1 X91.37 Y137.401 E5.5142
G1 X90.765 Y137.204 E5.53748
G1 X90.19 Y136.933 E5.56073
G1 X89.653 Y136.592 E5.584
G1 X89.051 Y136.078 E5.61297
G1 X88.922 Y135.949 E5.61964
G1 X88.502 Y135.472 E5.64289
G1 X88.144 Y134.946 E5.66617
G1 X87.856 Y134.379 E5.68944
G1 X87.64 Y133.781 E5.7127
G1 X87.502 Y133.16 E5.73597
G1 X87.44 Y132.371 E5.76493
G1 X87.44 Y102.629 E6.85308
G1 X87.48 Y101.994 E6.87635
G1 X87.599 Y101.37 E6.89959
G1 X87.796 Y100.765 E6.92287
G1 X88.067 Y100.19 E6.94613
G1 X88.408 Y99.653 E6.9694
G1 X88.568 Y99.465 E6.97843
G0 F810 X88.922 Y99.051
G0 X89.051 Y98.922
M204 S5000
M205 X30 Y30
G0 F7200 X89.362 Y99.233
M204 S500
M205 X20 Y20
G1 F6000 E7.00503
G1 F900 X89.819 Y98.833 E7.02725
G1 X90.325 Y98.496 E7.0495
G1 X90.87 Y98.228 E7.07172
G1 X91.446 Y98.034 E7.09395
G1 X92.042 Y97.917 E7.11617
G1 X92.629 Y97.88 E7.13769
G1 X142.371 Y97.88 E8.95756
G1 X142.977 Y97.92 E8.97978
G1 X143.573 Y98.039 E9.00202
G1 X144.148 Y98.235 E9.02424
G1 X144.692 Y98.506 E9.04648
G1 X145.197 Y98.845 E9.06873
G1 X145.638 Y99.233 E9.09022
G1 X145.767 Y99.362 E9.09689
G1 X146.167 Y99.819 E9.11911
G1 X146.504 Y100.325 E9.14136
G1 X146.772 Y100.87 E9.16358
G1 X146.966 Y101.446 E9.18581
G1 X147.083 Y102.042 E9.20804
G1 X147.12 Y102.629 E9.22955
G1 X147.12 Y132.371 E10.3177
G1 X147.08 Y132.977 E10.33992
G1 X146.961 Y133.573 E10.36215
G1 X146.765 Y134.148 E10.38438
G1 X146.494 Y134.692 E10.40662
G1 X146.155 Y135.197 E10.42887
G1 X145.767 Y135.638 E10.45036
G1 X145.638 Y135.767 E10.45703
G1 X145.181 Y136.167 E10.47925
G1 X144.675 Y136.504 E10.5015
G1 X144.13 Y136.772 E10.52372
G1 X143.554 Y136.966 E10.54595
G1 X142.958 Y137.083 E10.56817
G1 X142.371 Y137.12 E10.58969
G1 X92.629 Y137.12 E12.40956
G1 X92.023 Y137.08 E12.43178
G1 X91.427 Y136.961 E12.45402
G1 X90.852 Y136.765 E12.47624
G1 X90.308 Y136.494 E12.49848
G1 X89.803 Y136.155 E12.52073
G1 X89.362 Y135.767 E12.54222
G1 X89.233 Y135.638 E12.5489
G1 X88.833 Y135.181 E12.57112
G1 X88.496 Y134.675 E12.59336
G1 X88.228 Y134.13 E12.61558
G1 X88.034 Y133.554 E12.63781
G1 X87.917 Y132.958 E12.66004
G1 X87.88 Y132.371 E12.68155
G1 X87.88 Y102.629 E13.7697
G1 X87.92 Y102.023 E13.79192
G1 X88.039 Y101.427 E13.81415
G1 X88.235 Y100.852 E13.83638
G1 X88.506 Y100.308 E13.85862
G1 X88.845 Y99.803 E13.88087
G1 X88.873 Y99.771 E13.88242
G0 F810 X89.233 Y99.362
G0 X89.362 Y99.233
M204 S5000
M205 X30 Y30
G0 F7200 X89.673 Y99.544
M204 S500
M205 X20 Y20
G1 F6000 E13.90902
G1 F900 X90.109 Y99.165 E13.93016
G1 X90.593 Y98.849 E13.95131
G1 X91.116 Y98.603 E13.97245
G1 X91.668 Y98.432 E13.99359
G1 X92.239 Y98.338 E14.01477
G1 X92.629 Y98.32 E14.02905
G1 X142.371 Y98.32 E15.84892
G1 X142.948 Y98.36 E15.87008
G1 X143.513 Y98.479 E15.8912
G1 X144.057 Y98.675 E15.91236
G1 X144.568 Y98.944 E15.93349
G1 X145.038 Y99.281 E15.95465
G1 X145.327 Y99.544 E15.96894
G1 X145.456 Y99.673 E15.97562
G1 X145.835 Y100.109 E15.99675
G1 X146.151 Y100.593 E16.0179
G1 X146.397 Y101.116 E16.03905
G1 X146.568 Y101.668 E16.06019
G1 X146.662 Y102.239 E16.08136
G1 X146.68 Y102.629 E16.09564
G1 X146.68 Y132.371 E17.18379
G1 X146.64 Y132.948 E17.20495
G1 X146.521 Y133.513 E17.22607
G1 X146.325 Y134.057 E17.24723
G1 X146.056 Y134.568 E17.26836
G1 X145.719 Y135.038 E17.28952
G1 X145.456 Y135.327 E17.30381
G1 X145.327 Y135.456 E17.31049
G1 X144.891 Y135.835 E17.33162
G1 X144.407 Y136.151 E17.35277
G1 X143.884 Y136.397 E17.37392
G1 X143.332 Y136.568 E17.39506
G1 X142.761 Y136.662 E17.41623
G1 X142.371 Y136.68 E17.43051
G1 X92.629 Y136.68 E19.25038
G1 X92.052 Y136.64 E19.27154
G1 X91.487 Y136.521 E19.29267
G1 X90.943 Y136.325 E19.31382
G1 X90.432 Y136.056 E19.33495
G1 X89.962 Y135.719 E19.35611
G1 X89.673 Y135.456 E19.37041
G1 X89.544 Y135.327 E19.37708
G1 X89.165 Y134.891 E19.39822
G1 X88.849 Y134.407 E19.41936
G1 X88.603 Y133.884 E19.44051
G1 X88.432 Y133.332 E19.46165
G1 X88.338 Y132.761 E19.48282
G1 X88.32 Y132.371 E19.49711
G1 X88.32 Y102.629 E20.58525
G1 X88.36 Y102.052 E20.60641
G1 X88.479 Y101.487 E20.62754
G1 X88.675 Y100.943 E20.64869
G1 X88.944 Y100.432 E20.66982
G1 X89.191 Y100.088 E20.68532
G0 F810 X89.281 Y99.962
G0 X89.544 Y99.673
G0 X89.673 Y99.544
M204 S5000
M205 X30 Y30
G0 F7200 X89.984 Y99.855
M204 S500
M205 X20 Y20
G1 F6000 E20.71191
G1 F900 X90.398 Y99.498 E20.73191
G1 X90.86 Y99.205 E20.75193
G1 X91.359 Y98.982 E20.77193
G1 X91.885 Y98.835 E20.79191
G1 X92.629 Y98.76 E20.81927
G1 X142.371 Y98.76 E22.63913
G1 X142.916 Y98.8 E22.65913
G1 X143.45 Y98.919 E22.67914
G1 X143.96 Y99.114 E22.69912
G1 X144.437 Y99.382 E22.71914
G1 X145.016 Y99.855 E22.74649
G1 X145.145 Y99.984 E22.75317
G1 X145.502 Y100.398 E22.77317
G1 X145.795 Y100.86 E22.79318
G1 X146.018 Y101.359 E22.81318
G1 X146.165 Y101.885 E22.83316
G1 X146.24 Y102.629 E22.86052
G1 X146.24 Y132.371 E23.94866
G1 X146.2 Y132.916 E23.96866
G1 X146.081 Y133.45 E23.98867
G1 X145.886 Y133.96 E24.00865
G1 X145.618 Y134.437 E24.02867
G1 X145.145 Y135.016 E24.05602
G1 X145.016 Y135.145 E24.06269
G1 X144.602 Y135.502 E24.08269
G1 X144.14 Y135.795 E24.10271
G1 X143.641 Y136.018 E24.12271
G1 X143.115 Y136.165 E24.14269
G1 X142.371 Y136.24 E24.17005
G1 X92.629 Y136.24 E25.98991
G1 X92.084 Y136.2 E26.00991
G1 X91.55 Y136.081 E26.02992
G1 X91.04 Y135.886 E26.0499
G1 X90.563 Y135.618 E26.06992
G1 X89.984 Y135.145 E26.09727
G1 X89.855 Y135.016 E26.10395
G1 X89.498 Y134.602 E26.12395
G1 X89.205 Y134.14 E26.14396
G1 X88.982 Y133.641 E26.16396
G1 X88.835 Y133.115 E26.18394
G1 X88.76 Y132.371 E26.2113
G1 X88.76 Y102.629 E27.29944
G1 X88.8 Y102.084 E27.31944
G1 X88.919 Y101.55 E27.33945
G1 X89.114 Y101.04 E27.35943
G1 X89.382 Y100.563 E27.37945
G1 X89.51 Y100.406 E27.38686
G0 F810 X89.855 Y99.984
G0 X89.984 Y99.855
M204 S5000
M205 X30 Y30
G0 F7200 X90.296 Y100.167
M204 S500
M205 X20 Y20
G1 F6000 E27.41345
G1 F900 X90.686 Y99.833 E27.43224
G1 X91.123 Y99.564 E27.45102
G1 X91.597 Y99.366 E27.46981
G1 X92.095 Y99.243 E27.48858
G1 X92.629 Y99.2 E27.50818
G1 X142.371 Y99.2 E29.32805
G1 X142.883 Y99.24 E29.34683
G1 X143.382 Y99.359 E29.3656
G1 X143.857 Y99.554 E29.38439
G1 X144.296 Y99.82 E29.40317
G1 X144.704 Y100.167 E29.42276
G1 X144.833 Y100.296 E29.42944
G1 X145.167 Y100.686 E29.44822
G1 X145.436 Y101.123 E29.467
G1 X145.634 Y101.597 E29.48579
G1 X145.757 Y102.095 E29.50456
G1 X145.8 Y102.629 E29.52416
G1 X145.8 Y132.371 E30.61231
G1 X145.76 Y132.883 E30.6311
G1 X145.641 Y133.382 E30.64986
G1 X145.446 Y133.857 E30.66865
G1 X145.18 Y134.296 E30.68743
G1 X144.833 Y134.704 E30.70703
G1 X144.704 Y134.833 E30.7137
G1 X144.314 Y135.167 E30.73249
G1 X143.877 Y135.436 E30.75126
G1 X143.403 Y135.634 E30.77005
G1 X142.905 Y135.757 E30.78882
G1 X142.371 Y135.8 E30.80842
G1 X92.629 Y135.8 E32.62829
G1 X92.117 Y135.76 E32.64708
G1 X91.618 Y135.641 E32.66585
G1 X91.143 Y135.446 E32.68463
G1 X90.704 Y135.18 E32.70341
G1 X90.296 Y134.833 E32.72301
G1 X90.167 Y134.704 E32.72968
G1 X89.833 Y134.314 E32.74847
G1 X89.564 Y133.877 E32.76724
G1 X89.366 Y133.403 E32.78604
G1 X89.243 Y132.905 E32.80481
G1 X89.2 Y132.371 E32.82441
G1 X89.2 Y102.629 E33.91255
G1 X89.24 Y102.117 E33.93134
G1 X89.359 Y101.618 E33.95011
G1 X89.554 Y101.143 E33.96889
G1 X89.815 Y100.712 E33.98733
G0 F810 X89.82 Y100.704
G0 X90.167 Y100.296
G0 X90.296 Y100.167
M204 S5000
M205 X30 Y30
G0 F7200 X90.607 Y100.478
M204 S500
M205 X20 Y20
G1 F6000 E34.01393
G1 F900 X90.972 Y100.169 E34.03142
G1 X91.383 Y99.926 E34.04889
G1 X91.829 Y99.754 E34.06638
G1 X92.297 Y99.659 E34.08385
G1 X92.629 Y99.64 E34.09602
G1 X142.371 Y99.64 E35.91589
G1 X142.847 Y99.68 E35.93336
G1 X143.31 Y99.799 E35.95085
G1 X143.747 Y99.993 E35.96835
G1 X144.145 Y100.257 E35.98582
G1 X144.393 Y100.478 E35.99797
G1 X144.522 Y100.607 E36.00465
G1 X144.831 Y100.972 E36.02214
G1 X145.074 Y101.383 E36.03961
G1 X145.246 Y101.829 E36.0571
G1 X145.341 Y102.297 E36.07457
G1 X145.36 Y102.629 E36.08674
G1 X145.36 Y132.371 E37.17488
G1 X145.32 Y132.847 E37.19236
G1 X145.201 Y133.31 E37.20985
G1 X145.007 Y133.747 E37.22734
G1 X144.743 Y134.145 E37.24482
G1 X144.522 Y134.393 E37.25697
G1 X144.393 Y134.522 E37.26365
G1 X144.028 Y134.831 E37.28114
G1 X143.617 Y135.074 E37.29861
G1 X143.171 Y135.246 E37.3161
G1 X142.703 Y135.341 E37.33357
G1 X142.371 Y135.36 E37.34574
G1 X92.629 Y135.36 E39.16561
G1 X92.153 Y135.32 E39.18308
G1 X91.69 Y135.201 E39.20057
G1 X91.253 Y135.007 E39.21806
G1 X90.855 Y134.743 E39.23554
G1 X90.607 Y134.522 E39.24769
G1 X90.478 Y134.393 E39.25437
G1 X90.169 Y134.028 E39.27186
G1 X89.926 Y133.617 E39.28933
G1 X89.754 Y133.171 E39.30682
G1 X89.659 Y132.703 E39.32429
G1 X89.64 Y132.371 E39.33646
G1 X89.64 Y102.629 E40.4246
G1 X89.68 Y102.153 E40.44208
G1 X89.799 Y101.69 E40.45957
G1 X89.993 Y101.253 E40.47706
G1 X90.14 Y101.032 E40.48677
G0 F810 X90.257 Y100.855
G0 X90.478 Y100.607
G0 X90.607 Y100.478
M204 S5000
M205 X30 Y30
G0 F7200 X90.918 Y100.789
M204 S500
M205 X20 Y20
G1 F6000 E40.51337
G1 F900 X91.256 Y100.508 E40.52945
G1 X91.639 Y100.292 E40.54554
G1 X92.054 Y100.149 E40.5616
G1 X92.629 Y100.08 E40.58279
G1 X142.371 Y100.08 E42.40266
G1 X142.809 Y100.12 E42.41875
G1 X143.232 Y100.238 E42.43481
G1 X143.627 Y100.431 E42.4509
G1 X144.082 Y100.789 E42.47208
G1 X144.211 Y100.918 E42.47875
G1 X144.492 Y101.256 E42.49484
G1 X144.708 Y101.639 E42.51092
G1 X144.851 Y102.054 E42.52698
G1 X144.92 Y102.629 E42.54817
G1 X144.92 Y132.371 E43.63632
G1 X144.88 Y132.809 E43.65241
G1 X144.762 Y133.232 E43.66847
G1 X144.569 Y133.627 E43.68456
G1 X144.211 Y134.082 E43.70574
G1 X144.082 Y134.211 E43.71241
G1 X143.744 Y134.492 E43.7285
G1 X143.361 Y134.708 E43.74458
G1 X142.946 Y134.851 E43.76064
G1 X142.371 Y134.92 E43.78183
G1 X92.629 Y134.92 E45.6017
G1 X92.191 Y134.88 E45.61779
G1 X91.768 Y134.762 E45.63386
G1 X91.373 Y134.569 E45.64994
G1 X90.918 Y134.211 E45.67112
G1 X90.789 Y134.082 E45.6778
G1 X90.508 Y133.744 E45.69388
G1 X90.292 Y133.361 E45.70997
G1 X90.149 Y132.946 E45.72603
G1 X90.08 Y132.371 E45.74721
G1 X90.08 Y102.629 E46.83536
G1 X90.12 Y102.191 E46.85145
G1 X90.238 Y101.768 E46.86752
G1 X90.431 Y101.373 E46.8836
G1 X90.452 Y101.347 E46.88482
G0 F810 X90.789 Y100.918
G0 X90.918 Y100.789
M204 S5000
M205 X30 Y30
G0 F7200 X91.229 Y101.1
M204 S500
M205 X20 Y20
G1 F6000 E46.91142
G1 F900 X91.537 Y100.848 E46.92598
G1 X91.889 Y100.664 E46.94051
G1 X92.27 Y100.553 E46.95503
G1 X92.629 Y100.52 E46.96822
G1 X142.371 Y100.52 E48.78809
G1 X142.766 Y100.56 E48.80262
G1 X143.146 Y100.678 E48.81717
G1 X143.494 Y100.87 E48.83171
G1 X143.771 Y101.1 E48.84489
G1 X143.9 Y101.229 E48.85156
G1 X144.152 Y101.537 E48.86612
G1 X144.336 Y101.889 E48.88065
G1 X144.447 Y102.27 E48.89517
G1 X144.48 Y102.629 E48.90836
G1 X144.48 Y132.371 E49.99651
G1 X144.44 Y132.766 E50.01103
G1 X144.322 Y133.146 E50.02559
G1 X144.13 Y133.494 E50.04013
G1 X143.9 Y133.771 E50.0533
G1 X143.771 Y133.9 E50.05998
G1 X143.463 Y134.152 E50.07454
G1 X143.111 Y134.336 E50.08907
G1 X142.73 Y134.447 E50.10359
G1 X142.371 Y134.48 E50.11678
G1 X92.629 Y134.48 E51.93665
G1 X92.234 Y134.44 E51.95117
G1 X91.854 Y134.322 E51.96573
G1 X91.506 Y134.13 E51.98027
G1 X91.229 Y133.9 E51.99344
G1 X91.1 Y133.771 E52.00012
G1 X90.848 Y133.463 E52.01468
G1 X90.664 Y133.111 E52.02921
G1 X90.553 Y132.73 E52.04373
G1 X90.52 Y132.371 E52.05692
G1 X90.52 Y102.629 E53.14506
G1 X90.56 Y102.234 E53.15959
G1 X90.678 Y101.854 E53.17415
G1 X90.781 Y101.668 E53.18192
G0 F810 X90.87 Y101.506
G0 X91.1 Y101.229
G0 X91.229 Y101.1
M204 S5000
M205 X30 Y30
G0 F7200 X91.54 Y101.411
M204 S500
M205 X20 Y20
G1 F6000 E53.20852
G1 F900 X91.814 Y101.193 E53.22133
G1 X92.131 Y101.043 E53.23416
G1 X92.629 Y100.96 E53.25264
G1 X142.371 Y100.96 E55.0725
G1 X142.719 Y101 E55.08532
G1 X143.049 Y101.117 E55.09813
G1 X143.46 Y101.411 E55.11662
G1 X143.589 Y101.54 E55.12329
G1 X143.807 Y101.814 E55.1361
G1 X143.957 Y102.131 E55.14893
G1 X144.04 Y102.629 E55.1674
G1 X144.04 Y132.371 E56.25555
G1 X144 Y132.719 E56.26836
G1 X143.883 Y133.049 E56.28117
G1 X143.589 Y133.46 E56.29966
G1 X143.46 Y133.589 E56.30634
G1 X143.186 Y133.807 E56.31915
G1 X142.869 Y133.957 E56.33198
G1 X142.371 Y134.04 E56.35045
G1 X92.629 Y134.04 E58.17032
G1 X92.281 Y134 E58.18313
G1 X91.951 Y133.883 E58.19594
G1 X91.54 Y133.589 E58.21443
G1 X91.411 Y133.46 E58.22111
G1 X91.193 Y133.186 E58.23392
G1 X91.043 Y132.869 E58.24675
G1 X90.96 Y132.371 E58.26522
G1 X90.96 Y102.629 E59.35336
G1 X91 Y102.281 E59.36618
G1 X91.104 Y101.988 E59.37755
G0 F810 X91.117 Y101.951
G0 X91.411 Y101.54
G0 X91.54 Y101.411
M204 S5000
M205 X30 Y30
G0 F7200 X91.851 Y101.722
M204 S500
M205 X20 Y20
G1 F6000 E59.40415
G1 F900 X92.087 Y101.543 E59.41499
G1 X92.362 Y101.433 E59.42583
G1 X92.629 Y101.4 E59.43567
G1 X142.371 Y101.4 E61.25554
G1 X142.664 Y101.44 E61.26636
G1 X142.936 Y101.556 E61.27717
G1 X143.149 Y101.722 E61.28705
G1 X143.278 Y101.851 E61.29373
G1 X143.457 Y102.087 E61.30457
G1 X143.567 Y102.362 E61.3154
G1 X143.6 Y102.629 E61.32524
G1 X143.6 Y132.371 E62.41339
G1 X143.56 Y132.664 E62.42421
G1 X143.444 Y132.936 E62.43503
G1 X143.278 Y133.149 E62.44491
G1 X143.149 Y133.278 E62.45158
G1 X142.913 Y133.457 E62.46242
G1 X142.638 Y133.567 E62.47326
G1 X142.371 Y133.6 E62.4831
G1 X92.629 Y133.6 E64.30297
G1 X92.336 Y133.56 E64.31379
G1 X92.064 Y133.444 E64.3246
G1 X91.851 Y133.278 E64.33448
G1 X91.722 Y133.149 E64.34116
G1 X91.543 Y132.913 E64.352
G1 X91.433 Y132.638 E64.36283
G1 X91.4 Y132.371 E64.37267
G1 X91.4 Y102.629 E65.46082
G1 X91.44 Y102.336 E65.47164
G1 X91.448 Y102.317 E65.47239
G0 F810 X91.556 Y102.064
G0 X91.722 Y101.851
G0 X91.851 Y101.722
M204 S5000
M205 X30 Y30
G0 F7200 X92.162 Y102.033
M204 S500
M205 X20 Y20
G1 F6000 E65.49899
G1 F900 X92.35 Y101.902 E65.50738
G1 X92.629 Y101.84 E65.51783
G1 X142.371 Y101.84 E67.3377
G1 X142.596 Y101.88 E67.34606
G1 X142.838 Y102.033 E67.35654
G1 X142.967 Y102.162 E67.36321
G1 X143.098 Y102.35 E67.37159
G1 X143.16 Y102.629 E67.38205
G1 X143.16 Y132.371 E68.4702
G1 X143.12 Y132.596 E68.47856
G1 X142.967 Y132.838 E68.48903
G1 X142.838 Y132.967 E68.49571
G1 X142.65 Y133.098 E68.50409
G1 X142.371 Y133.16 E68.51455
G1 X92.629 Y133.16 E70.33441
G1 X92.404 Y133.12 E70.34277
G1 X92.162 Y132.967 E70.35325
G1 X92.033 Y132.838 E70.35992
G1 X91.902 Y132.65 E70.36831
G1 X91.84 Y132.371 E70.37876
G1 X91.84 Y102.66 E71.46578
G0 F810 X91.84 Y102.629
G0 X91.88 Y102.404
