;FLAVOR:Marlin
;TIME:750
;Filament used: 0.56469m
;Layer height: 0.2
;Generated with Cura_SteamEngine 3.6.0
M140 S70
M105
M190 S70
M104 S210
M105
M109 S210
M82 ;absolute extrusion mode
G28 ; home all axes
M117 Purge extruder
G92 E0 ; reset extruder
G1 Z1.0 F3000 ; move z up little to prevent scratching of surface
G1 X0.1 Y20 Z0.3 F5000.0 ; move to start-line position G1 X0.1 Y200.0 Z0.3 F1500.0 E15 ; draw 1st line
G1 X0.4 Y200.0 Z0.3 F5000.0 ; move to side a little
G1 X0.4 Y20 Z0.3 F1500.0 E30 ; draw 2nd line
G92 E0 ; reset extruder
G1 Z1.0 F3000 ; move z up little to prevent scratching of surface
M117 All systems go!
G92 E0
G1 F6000 E-5
;LAYER_COUNT:21
;LAYER:0
M107
M204 S5000
M205 X30 Y30
G0 F7200 X107.509 Y65.044 Z0.2
M204 S500
M205 X20 Y20
;TYPE:SKIRT
G1 F6000 E0
G1 F900 X108 Y64.302 E0.03255
G1 X108.555 Y63.607 E0.06509
G1 X109.003 Y63.129 E0.08906
G1 X109.132 Y63 E0.09574
G1 X109.788 Y62.399 E0.12829
G1 X110.496 Y61.861 E0.16082
G1 X111.25 Y61.387 E0.1934
G1 X112.043 Y60.984 E0.22595
G1 X112.869 Y60.653 E0.2585
G1 X113.721 Y60.398 E0.29104
G1 X114.593 Y60.22 E0.3236
G1 X115.477 Y60.122 E0.35614
G1 X116.132 Y60.1 E0.38012
G1 X118.869 Y60.1 E0.48026
G1 X119.758 Y60.14 E0.51281
G1 X120.639 Y60.26 E0.54534
G1 X121.507 Y60.458 E0.57792
G1 X122.353 Y60.733 E0.61046
G1 X123.171 Y61.083 E0.64301
G1 X123.954 Y61.506 E0.67557
G1 X124.696 Y61.996 E0.70811
G1 X125.391 Y62.552 E0.74067
G1 X125.869 Y63 E0.76464
G1 X125.998 Y63.129 E0.77131
G1 X126.599 Y63.785 E0.80386
G1 X127.137 Y64.493 E0.8364
G1 X127.611 Y65.247 E0.86898
G1 X128.014 Y66.04 E0.90152
G1 X128.345 Y66.866 E0.93408
G1 X128.6 Y67.718 E0.96662
G1 X128.778 Y68.59 E0.99918
G1 X128.876 Y69.474 E1.03172
G1 X128.898 Y70.129 E1.0557
G1 X128.898 Y164.871 E4.52194
G1 X128.858 Y165.76 E4.5545
G1 X128.738 Y166.641 E4.58703
G1 X128.54 Y167.509 E4.6196
G1 X128.265 Y168.355 E4.65215
G1 X127.915 Y169.173 E4.6847
G1 X127.492 Y169.956 E4.71726
G1 X127.002 Y170.698 E4.74979
G1 X126.446 Y171.393 E4.78236
G1 X125.998 Y171.871 E4.80632
G1 X125.869 Y172 E4.813
G1 X125.213 Y172.601 E4.84555
G1 X124.505 Y173.139 E4.87808
G1 X123.751 Y173.613 E4.91067
G1 X122.958 Y174.016 E4.94321
G1 X122.132 Y174.347 E4.97577
G1 X121.28 Y174.602 E5.0083
G1 X120.408 Y174.78 E5.04086
G1 X119.524 Y174.878 E5.0734
G1 X118.869 Y174.9 E5.09738
G1 X116.131 Y174.9 E5.19756
G1 X115.242 Y174.86 E5.23011
G1 X114.361 Y174.74 E5.26264
G1 X113.493 Y174.542 E5.29522
G1 X112.647 Y174.267 E5.32776
G1 X111.829 Y173.917 E5.36031
G1 X111.046 Y173.494 E5.39287
G1 X110.304 Y173.004 E5.42541
G1 X109.609 Y172.448 E5.45797
G1 X109.131 Y172 E5.48194
G1 X109.002 Y171.871 E5.48861
G1 X108.401 Y171.215 E5.52116
G1 X107.863 Y170.507 E5.55369
G1 X107.389 Y169.753 E5.58628
G1 X106.986 Y168.96 E5.61882
G1 X106.655 Y168.134 E5.65138
G1 X106.4 Y167.282 E5.68392
G1 X106.222 Y166.41 E5.71648
G1 X106.124 Y165.526 E5.74902
G1 X106.102 Y164.871 E5.773
G1 X106.103 Y70.129 E9.23924
G1 X106.143 Y69.24 E9.2718
G1 X106.263 Y68.358 E9.30437
G1 X106.461 Y67.491 E9.3369
G1 X106.736 Y66.645 E9.36945
G1 X107.086 Y65.827 E9.402
G1 X107.164 Y65.684 E9.40796
G0 F810 X107.509 Y65.044
M204 S5000
M205 X30 Y30
G0 F7200 X107.947 Y65.17
M204 S500
M205 X20 Y20
G1 F6000 E9.43456
G1 F900 X108.437 Y64.451 E9.46639
G1 X108.99 Y63.78 E9.4982
G1 X109.314 Y63.44 E9.51539
G1 X109.443 Y63.311 E9.52206
G1 X110.085 Y62.725 E9.55386
G1 X110.779 Y62.2 E9.5857
G1 X111.518 Y61.741 E9.61753
G1 X112.296 Y61.353 E9.64934
G1 X113.106 Y61.037 E9.68115
G1 X113.942 Y60.797 E9.71297
G1 X114.797 Y60.635 E9.7448
G1 X115.662 Y60.552 E9.7766
G1 X116.132 Y60.54 E9.7938
G1 X118.869 Y60.54 E9.89393
G1 X119.738 Y60.58 E9.92576
G1 X120.599 Y60.7 E9.95757
G1 X121.446 Y60.898 E9.98939
G1 X122.271 Y61.173 E10.02121
G1 X123.067 Y61.523 E10.05302
G1 X123.828 Y61.944 E10.08484
G1 X124.547 Y62.434 E10.11667
G1 X125.218 Y62.987 E10.14848
G1 X125.558 Y63.311 E10.16567
G1 X125.687 Y63.44 E10.17234
G1 X126.273 Y64.082 E10.20414
G1 X126.798 Y64.776 E10.23598
G1 X127.257 Y65.515 E10.26781
G1 X127.645 Y66.293 E10.29962
G1 X127.961 Y67.103 E10.33143
G1 X128.201 Y67.939 E10.36325
G1 X128.363 Y68.794 E10.39509
G1 X128.446 Y69.659 E10.42688
G1 X128.458 Y70.129 E10.44408
G1 X128.458 Y164.871 E13.91032
G1 X128.418 Y165.74 E13.94215
G1 X128.298 Y166.601 E13.97396
G1 X128.1 Y167.448 E14.00578
G1 X127.825 Y168.273 E14.0376
G1 X127.475 Y169.069 E14.06941
G1 X127.054 Y169.83 E14.10123
G1 X126.564 Y170.549 E14.13306
G1 X126.011 Y171.22 E14.16487
G1 X125.687 Y171.56 E14.18206
G1 X125.558 Y171.689 E14.18873
G1 X124.916 Y172.275 E14.22053
G1 X124.222 Y172.8 E14.25237
G1 X123.483 Y173.259 E14.2842
G1 X122.705 Y173.647 E14.31601
G1 X121.895 Y173.963 E14.34782
G1 X121.059 Y174.203 E14.37964
G1 X120.204 Y174.365 E14.41147
G1 X119.339 Y174.448 E14.44327
G1 X118.869 Y174.46 E14.46047
G1 X116.131 Y174.46 E14.56064
G1 X115.262 Y174.42 E14.59247
G1 X114.401 Y174.3 E14.62427
G1 X113.554 Y174.102 E14.6561
G1 X112.729 Y173.827 E14.68791
G1 X111.933 Y173.477 E14.71973
G1 X111.172 Y173.056 E14.75155
G1 X110.453 Y172.566 E14.78338
G1 X109.782 Y172.013 E14.81519
G1 X109.442 Y171.689 E14.83237
G1 X109.313 Y171.56 E14.83905
G1 X108.727 Y170.918 E14.87085
G1 X108.202 Y170.224 E14.90269
G1 X107.743 Y169.485 E14.93452
G1 X107.355 Y168.707 E14.96632
G1 X107.039 Y167.897 E14.99813
G1 X106.799 Y167.061 E15.02995
G1 X106.637 Y166.206 E15.06179
G1 X106.554 Y165.341 E15.09358
G1 X106.542 Y164.871 E15.11079
G1 X106.543 Y70.129 E18.57703
G1 X106.583 Y69.26 E18.60886
G1 X106.703 Y68.399 E18.64066
G1 X106.901 Y67.552 E18.67249
G1 X107.176 Y66.727 E18.7043
G1 X107.526 Y65.931 E18.73612
G1 X107.595 Y65.806 E18.74134
G0 F810 X107.947 Y65.17
M204 S5000
M205 X30 Y30
G0 F7200 X108.385 Y65.299
M204 S500
M205 X20 Y20
G1 F6000 E18.76794
G1 F900 X108.873 Y64.604 E18.79901
G1 X109.625 Y63.751 E18.84061
G1 X109.754 Y63.622 E18.84729
G1 X110.382 Y63.05 E18.87836
G1 X111.061 Y62.54 E18.90943
G1 X111.785 Y62.097 E18.94049
G1 X112.548 Y61.723 E18.97158
G1 X113.342 Y61.422 E19.00264
G1 X114.161 Y61.198 E19.03371
G1 X114.998 Y61.052 E19.06479
G1 X116.132 Y60.98 E19.10636
G1 X118.869 Y60.98 E19.2065
G1 X119.717 Y61.02 E19.23756
G1 X120.558 Y61.14 E19.26864
G1 X121.384 Y61.338 E19.29972
G1 X122.187 Y61.613 E19.33077
G1 X122.961 Y61.962 E19.36183
G1 X123.699 Y62.382 E19.3929
G1 X124.394 Y62.87 E19.42397
G1 X125.247 Y63.622 E19.46557
G1 X125.376 Y63.751 E19.47225
G1 X125.948 Y64.379 E19.50333
G1 X126.458 Y65.058 E19.5344
G1 X126.901 Y65.782 E19.56545
G1 X127.275 Y66.545 E19.59654
G1 X127.576 Y67.339 E19.6276
G1 X127.8 Y68.158 E19.65867
G1 X127.946 Y68.995 E19.68975
G1 X128.018 Y70.129 E19.73133
G1 X128.018 Y164.871 E23.19757
G1 X127.978 Y165.719 E23.22863
G1 X127.858 Y166.56 E23.25971
G1 X127.66 Y167.386 E23.29079
G1 X127.385 Y168.189 E23.32184
G1 X127.036 Y168.963 E23.3529
G1 X126.616 Y169.701 E23.38397
G1 X126.128 Y170.396 E23.41504
G1 X125.376 Y171.249 E23.45664
G1 X125.247 Y171.378 E23.46332
G1 X124.619 Y171.95 E23.4944
G1 X123.94 Y172.46 E23.52547
G1 X123.216 Y172.903 E23.55652
G1 X122.453 Y173.277 E23.58761
G1 X121.659 Y173.578 E23.61868
G1 X120.84 Y173.802 E23.64974
G1 X120.003 Y173.948 E23.68082
G1 X118.869 Y174.02 E23.7224
G1 X116.131 Y174.02 E23.82257
G1 X115.283 Y173.98 E23.85363
G1 X114.442 Y173.86 E23.88471
G1 X113.616 Y173.662 E23.91579
G1 X112.813 Y173.387 E23.94684
G1 X112.039 Y173.038 E23.9779
G1 X111.301 Y172.618 E24.00897
G1 X110.606 Y172.13 E24.04004
G1 X109.753 Y171.378 E24.08164
G1 X109.624 Y171.249 E24.08832
G1 X109.052 Y170.621 E24.1194
G1 X108.542 Y169.942 E24.15047
G1 X108.099 Y169.218 E24.18152
G1 X107.725 Y168.455 E24.21261
G1 X107.424 Y167.661 E24.24367
G1 X107.2 Y166.842 E24.27474
G1 X107.054 Y166.005 E24.30582
G1 X106.982 Y164.871 E24.3474
G1 X106.983 Y70.129 E27.81364
G1 X107.023 Y69.281 E27.8447
G1 X107.143 Y68.44 E27.87578
G1 X107.341 Y67.614 E27.90686
G1 X107.616 Y66.811 E27.93791
G1 X107.965 Y66.036 E27.96901
G1 X108.025 Y65.93 E27.97346
G0 F810 X108.385 Y65.299
M204 S5000
M205 X30 Y30
G0 F7200 X108.823 Y65.431
M204 S500
M205 X20 Y20
G1 F6000 E28.00006
G1 F900 X109.31 Y64.761 E28.03037
G1 X109.936 Y64.062 E28.0647
G1 X110.065 Y63.933 E28.07137
G1 X110.678 Y63.376 E28.10167
G1 X111.342 Y62.881 E28.13197
G1 X112.051 Y62.453 E28.16227
G1 X112.798 Y62.094 E28.1926
G1 X113.576 Y61.81 E28.2229
G1 X114.377 Y61.601 E28.25318
G1 X115.195 Y61.471 E28.28349
G1 X116.132 Y61.42 E28.31782
G1 X118.869 Y61.42 E28.41796
G1 X119.696 Y61.46 E28.44825
G1 X120.516 Y61.58 E28.47857
G1 X121.32 Y61.778 E28.50886
G1 X122.101 Y62.052 E28.53914
G1 X122.853 Y62.401 E28.56947
G1 X123.567 Y62.82 E28.59976
G1 X124.237 Y63.307 E28.63007
G1 X124.936 Y63.933 E28.6644
G1 X125.065 Y64.062 E28.67107
G1 X125.622 Y64.675 E28.70137
G1 X126.117 Y65.339 E28.73168
G1 X126.545 Y66.048 E28.76197
G1 X126.904 Y66.795 E28.7923
G1 X127.188 Y67.573 E28.8226
G1 X127.397 Y68.374 E28.85288
G1 X127.527 Y69.192 E28.88319
G1 X127.578 Y70.129 E28.91752
G1 X127.578 Y164.871 E32.38376
G1 X127.538 Y165.698 E32.41406
G1 X127.418 Y166.518 E32.44438
G1 X127.22 Y167.322 E32.47467
G1 X126.946 Y168.103 E32.50495
G1 X126.597 Y168.855 E32.53528
G1 X126.178 Y169.569 E32.56557
G1 X125.691 Y170.239 E32.59588
G1 X125.065 Y170.938 E32.63021
G1 X124.936 Y171.067 E32.63688
G1 X124.323 Y171.624 E32.66718
G1 X123.659 Y172.119 E32.69748
G1 X122.95 Y172.547 E32.72778
G1 X122.203 Y172.906 E32.75811
G1 X121.425 Y173.19 E32.78841
G1 X120.624 Y173.399 E32.81869
G1 X119.806 Y173.529 E32.849
G1 X118.869 Y173.58 E32.88333
G1 X116.131 Y173.58 E32.9835
G1 X115.304 Y173.54 E33.01379
G1 X114.484 Y173.42 E33.04411
G1 X113.68 Y173.222 E33.07441
G1 X112.899 Y172.948 E33.10469
G1 X112.147 Y172.599 E33.13502
G1 X111.433 Y172.18 E33.16531
G1 X110.763 Y171.693 E33.19561
G1 X110.064 Y171.067 E33.22994
G1 X109.935 Y170.938 E33.23662
G1 X109.378 Y170.325 E33.26692
G1 X108.883 Y169.661 E33.29722
G1 X108.455 Y168.952 E33.32752
G1 X108.096 Y168.205 E33.35784
G1 X107.812 Y167.427 E33.38814
G1 X107.603 Y166.626 E33.41843
G1 X107.473 Y165.808 E33.44873
G1 X107.422 Y164.871 E33.48307
G1 X107.423 Y70.129 E36.94931
G1 X107.463 Y69.302 E36.9796
G1 X107.583 Y68.482 E37.00992
G1 X107.781 Y67.678 E37.04022
G1 X108.055 Y66.896 E37.07053
G1 X108.404 Y66.145 E37.10083
G1 X108.455 Y66.058 E37.10452
G0 F810 X108.823 Y65.431
M204 S5000
M205 X30 Y30
G0 F7200 X108.843 Y66.257
M204 S500
M205 X20 Y20
G1 F6000 E37.13112
G1 F900 X109.261 Y65.567 E37.16063
G1 X109.746 Y64.922 E37.19016
G1 X110.247 Y64.373 E37.21735
G1 X110.376 Y64.244 E37.22403
G1 X110.974 Y63.703 E37.25353
G1 X111.623 Y63.223 E37.28306
G1 X112.316 Y62.81 E37.31258
G1 X113.046 Y62.468 E37.34207
G1 X113.807 Y62.199 E37.3716
G1 X114.591 Y62.007 E37.40113
G1 X115.389 Y61.894 E37.43062
G1 X116.132 Y61.86 E37.45783
G1 X118.869 Y61.86 E37.55797
G1 X119.675 Y61.9 E37.58749
G1 X120.473 Y62.02 E37.61702
G1 X121.255 Y62.217 E37.64652
G1 X122.013 Y62.492 E37.67602
G1 X122.741 Y62.84 E37.70554
G1 X123.431 Y63.258 E37.73506
G1 X124.076 Y63.743 E37.76458
G1 X124.625 Y64.244 E37.79178
G1 X124.754 Y64.373 E37.79845
G1 X125.295 Y64.971 E37.82795
G1 X125.775 Y65.62 E37.85749
G1 X126.188 Y66.313 E37.887
G1 X126.53 Y67.043 E37.9165
G1 X126.799 Y67.804 E37.94603
G1 X126.991 Y68.588 E37.97556
G1 X127.104 Y69.386 E38.00504
G1 X127.138 Y70.129 E38.03226
G1 X127.138 Y164.871 E41.4985
G1 X127.098 Y165.677 E41.52803
G1 X126.978 Y166.475 E41.55755
G1 X126.781 Y167.257 E41.58705
G1 X126.506 Y168.015 E41.61655
G1 X126.158 Y168.743 E41.64608
G1 X125.74 Y169.433 E41.67559
G1 X125.255 Y170.078 E41.70512
G1 X124.754 Y170.627 E41.73231
G1 X124.625 Y170.756 E41.73898
G1 X124.027 Y171.297 E41.76849
G1 X123.378 Y171.777 E41.79802
G1 X122.685 Y172.19 E41.82753
G1 X121.955 Y172.532 E41.85703
G1 X121.194 Y172.801 E41.88656
G1 X120.41 Y172.993 E41.91609
G1 X119.612 Y173.106 E41.94558
G1 X118.869 Y173.14 E41.97279
G1 X116.131 Y173.14 E42.07296
G1 X115.325 Y173.1 E42.10249
G1 X114.527 Y172.98 E42.13201
G1 X113.745 Y172.783 E42.16151
G1 X112.987 Y172.508 E42.19102
G1 X112.259 Y172.16 E42.22054
G1 X111.569 Y171.742 E42.25005
G1 X110.924 Y171.257 E42.27958
G1 X110.375 Y170.756 E42.30677
G1 X110.246 Y170.627 E42.31344
G1 X109.705 Y170.029 E42.34295
G1 X109.225 Y169.38 E42.37248
G1 X108.812 Y168.687 E42.402
G1 X108.47 Y167.957 E42.43149
G1 X108.201 Y167.196 E42.46102
G1 X108.009 Y166.412 E42.49055
G1 X107.896 Y165.614 E42.52004
G1 X107.862 Y164.871 E42.54725
G1 X107.863 Y70.129 E46.01349
G1 X107.903 Y69.323 E46.04302
G1 X108.023 Y68.525 E46.07254
G1 X108.22 Y67.743 E46.10205
G1 X108.495 Y66.985 E46.13155
G1 X108.53 Y66.913 E46.13448
G0 F810 X108.843 Y66.257
M204 S5000
M205 X30 Y30
G0 F7200 X109.282 Y66.372
M204 S500
M205 X20 Y20
G1 F6000 E46.16108
G1 F900 X109.699 Y65.707 E46.18979
G1 X110.182 Y65.089 E46.21849
G1 X110.558 Y64.684 E46.23871
G1 X110.687 Y64.555 E46.24538
G1 X111.27 Y64.029 E46.27411
G1 X111.902 Y63.566 E46.30277
G1 X112.579 Y63.169 E46.33149
G1 X113.293 Y62.843 E46.3602
G1 X114.036 Y62.591 E46.38891
G1 X114.801 Y62.416 E46.41762
G1 X115.58 Y62.32 E46.44634
G1 X116.132 Y62.3 E46.46655
G1 X118.869 Y62.3 E46.56668
G1 X119.653 Y62.34 E46.5954
G1 X120.428 Y62.459 E46.62409
G1 X121.187 Y62.657 E46.65279
G1 X121.922 Y62.931 E46.68149
G1 X122.626 Y63.279 E46.71022
G1 X123.29 Y63.696 E46.7389
G1 X123.909 Y64.179 E46.76763
G1 X124.314 Y64.555 E46.78785
G1 X124.443 Y64.684 E46.79452
G1 X124.969 Y65.267 E46.82325
G1 X125.432 Y65.899 E46.85191
G1 X125.829 Y66.576 E46.88063
G1 X126.155 Y67.29 E46.90934
G1 X126.407 Y68.033 E46.93805
G1 X126.582 Y68.798 E46.96676
G1 X126.678 Y69.577 E46.99548
G1 X126.698 Y70.129 E47.01568
G1 X126.698 Y164.871 E50.48193
G1 X126.658 Y165.655 E50.51065
G1 X126.539 Y166.43 E50.53934
G1 X126.341 Y167.189 E50.56804
G1 X126.067 Y167.924 E50.59673
G1 X125.719 Y168.628 E50.62547
G1 X125.302 Y169.292 E50.65415
G1 X124.819 Y169.911 E50.68288
G1 X124.443 Y170.316 E50.7031
G1 X124.314 Y170.445 E50.70977
G1 X123.731 Y170.971 E50.7385
G1 X123.099 Y171.434 E50.76716
G1 X122.422 Y171.831 E50.79588
G1 X121.708 Y172.157 E50.82459
G1 X120.965 Y172.409 E50.8533
G1 X120.2 Y172.584 E50.88201
G1 X119.421 Y172.68 E50.91072
G1 X118.869 Y172.7 E50.93093
G1 X116.131 Y172.7 E51.03111
G1 X115.347 Y172.66 E51.05983
G1 X114.572 Y172.541 E51.08851
G1 X113.813 Y172.343 E51.11721
G1 X113.078 Y172.069 E51.14591
G1 X112.374 Y171.721 E51.17464
G1 X111.71 Y171.304 E51.20333
G1 X111.091 Y170.821 E51.23205
G1 X110.686 Y170.445 E51.25227
G1 X110.557 Y170.316 E51.25895
G1 X110.031 Y169.733 E51.28767
G1 X109.568 Y169.101 E51.31634
G1 X109.171 Y168.424 E51.34505
G1 X108.845 Y167.71 E51.37377
G1 X108.593 Y166.967 E51.40247
G1 X108.418 Y166.202 E51.43118
G1 X108.322 Y165.423 E51.4599
G1 X108.302 Y164.871 E51.48011
G1 X108.303 Y70.129 E54.94635
G1 X108.343 Y69.345 E54.97507
G1 X108.462 Y68.57 E55.00376
G1 X108.66 Y67.811 E55.03246
G1 X108.934 Y67.075 E55.06119
G1 X108.96 Y67.023 E55.06332
G0 F810 X109.282 Y66.372
M204 S5000
M205 X30 Y30
G0 F7200 X109.721 Y66.491
M204 S500
M205 X20 Y20
G1 F6000 E55.08992
G1 F900 X110.136 Y65.852 E55.11779
G1 X110.869 Y64.995 E55.15905
G1 X110.998 Y64.866 E55.16573
G1 X111.565 Y64.357 E55.1936
G1 X112.181 Y63.909 E55.22147
G1 X112.841 Y63.529 E55.24933
G1 X113.537 Y63.219 E55.27721
G1 X114.262 Y62.985 E55.30508
G1 X115.008 Y62.828 E55.33297
G1 X116.132 Y62.74 E55.37422
G1 X118.869 Y62.74 E55.47436
G1 X119.63 Y62.78 E55.50224
G1 X120.382 Y62.899 E55.53009
G1 X121.118 Y63.097 E55.55798
G1 X121.829 Y63.371 E55.58586
G1 X122.507 Y63.717 E55.6137
G1 X123.146 Y64.133 E55.6416
G1 X124.003 Y64.866 E55.68286
G1 X124.132 Y64.995 E55.68953
G1 X124.641 Y65.562 E55.71741
G1 X125.089 Y66.178 E55.74528
G1 X125.469 Y66.838 E55.77314
G1 X125.779 Y67.534 E55.80102
G1 X126.013 Y68.259 E55.82889
G1 X126.17 Y69.005 E55.85678
G1 X126.258 Y70.129 E55.89803
G1 X126.258 Y164.871 E59.36427
G1 X126.218 Y165.632 E59.39215
G1 X126.099 Y166.384 E59.42001
G1 X125.901 Y167.12 E59.44789
G1 X125.627 Y167.831 E59.47577
G1 X125.281 Y168.509 E59.50362
G1 X124.865 Y169.148 E59.53152
G1 X124.132 Y170.005 E59.57278
G1 X124.003 Y170.134 E59.57945
G1 X123.436 Y170.643 E59.60733
G1 X122.82 Y171.091 E59.63519
G1 X122.16 Y171.471 E59.66306
