;Sliced by ideaMaker 3.3.0.2343, 2019-02-05 15:26:33 UTC+0000
;Dimension: 220.000 220.000 250.000 0.400
;Plate Shape: 0
;Extruder Offset #1: 25.000 0.000
;Filament Diameter #1: 1.750
;Filament Diameter #2: 1.750
;Filament Compensation #1: 90.00
;Filament Compensation #2: 90.00
;Filament Density #1: 1240.00
;Filament Density #2: 1240.00
;Model Gap: 0.000
M221 T0 S90.00
M140 S60.00
M104 T0 S205.00
M109 T0 S205.00
T0
M190 S60.00
G21
G90
M82
M107
G28 X0 Y0
G28 Z0
G1 Z15.0 F6000.0
G92 E0
G1 F140 E29
G1 X20 Y0 F140 E30
G92 E0
G1 F6000.0
M117 Printing...
M1001
;LAYER:0
;Z:0.300
;HEIGHT:0.300
M106 S0
G1 F2400 E-0.5000
M204 S500.00
M205 X5.00 Y5.00
G0 F6000 X120.946 Y61.632
G0 F960 Z0.300
;TYPE:SKIRT
;WIDTH:0.400
G1 F1500 E0.0000
G1 F900 X121.103 Y61.393 E0.0143
G1 X121.281 Y61.194 E0.0276
G1 X121.496 Y61.023 E0.0413
G1 X121.965 Y60.793 E0.0674
G1 X122.122 Y60.749 E0.0755
G1 X122.417 Y60.710 E0.0903
G1 X125.636 Y60.713 E0.2509
G1 X125.991 Y60.781 E0.2690
G1 X126.237 Y60.873 E0.2821
G1 X126.663 Y61.153 E0.3075
G1 X126.801 Y61.277 E0.3168
G1 X127.015 Y61.560 E0.3345
G1 X127.162 Y61.851 E0.3507
G1 X127.251 Y62.151 E0.3663
G1 X127.293 Y62.500 E0.3839
G1 X127.293 Y157.500 E5.1234
G1 X127.172 Y158.118 E5.1549
G1 X127.054 Y158.368 E5.1686
G1 X126.897 Y158.607 E5.1829
G1 X126.719 Y158.806 E5.1962
G1 X126.504 Y158.977 E5.2099
G1 X126.092 Y159.185 E5.2330
G1 X125.994 Y159.218 E5.2381
G1 X125.584 Y159.290 E5.2589
G1 X122.510 Y159.300 E5.4123
G1 X122.066 Y159.232 E5.4347
G1 X121.784 Y159.136 E5.4495
G1 X121.338 Y158.849 E5.4760
G1 X121.199 Y158.723 E5.4853
G1 X120.985 Y158.440 E5.5030
G1 X120.838 Y158.149 E5.5193
G1 X120.749 Y157.849 E5.5349
G1 X120.707 Y157.500 E5.5525
G1 X120.707 Y62.500 E10.2920
G1 X120.828 Y61.882 E10.3235
G1 X120.946 Y61.632 E10.3372
G0 F6000 X121.280 Y61.852
G1 F900 X121.437 Y61.613 E10.3515
G1 X121.573 Y61.468 E10.3614
G1 X121.739 Y61.341 E10.3719
G1 X122.082 Y61.175 E10.3909
G1 X122.180 Y61.145 E10.3960
G1 X122.417 Y61.110 E10.4079
G1 X125.636 Y61.113 E10.5685
G1 X125.906 Y61.172 E10.5823
G1 X126.089 Y61.245 E10.5921
G1 X126.438 Y61.483 E10.6132
G1 X126.525 Y61.566 E10.6192
G1 X126.691 Y61.795 E10.6333
G1 X126.801 Y62.024 E10.6460
G1 X126.854 Y62.203 E10.6553
G1 X126.893 Y62.500 E10.6703
G1 X126.893 Y157.500 E15.4098
G1 X126.807 Y157.954 E15.4329
G1 X126.720 Y158.148 E15.4435
G1 X126.563 Y158.387 E15.4578
G1 X126.427 Y158.532 E15.4677
G1 X126.261 Y158.659 E15.4781
G1 X125.918 Y158.825 E15.4971
G1 X125.583 Y158.890 E15.5141
G1 X122.509 Y158.900 E15.6675
G1 X122.132 Y158.837 E15.6866
G1 X121.922 Y158.760 E15.6977
G1 X121.562 Y158.517 E15.7194
G1 X121.475 Y158.434 E15.7254
G1 X121.309 Y158.205 E15.7395
G1 X121.199 Y157.976 E15.7522
G1 X121.146 Y157.797 E15.7615
G1 X121.107 Y157.500 E15.7764
G1 X121.107 Y62.500 E20.5160
G1 X121.193 Y62.046 E20.5391
G1 X121.280 Y61.852 E20.5497
G0 F6000 X121.740 Y61.874
G1 F900 X121.816 Y61.786 E20.5555
G1 X121.982 Y61.659 E20.5659
G1 X122.247 Y61.539 E20.5804
G1 X122.418 Y61.510 E20.5891
G1 X125.551 Y61.504 E20.7454
G1 X125.821 Y61.563 E20.7592
G1 X125.926 Y61.610 E20.7649
G1 X126.207 Y61.809 E20.7821
G1 X126.334 Y61.975 E20.7925
G1 X126.421 Y62.148 E20.8022
G1 X126.458 Y62.261 E20.8081
G1 X126.493 Y62.500 E20.8202
G1 X126.493 Y157.500 E25.5597
G1 X126.437 Y157.802 E25.5750
G1 X126.383 Y157.933 E25.5821
G1 X126.260 Y158.126 E25.5935
G1 X126.184 Y158.214 E25.5993
G1 X126.018 Y158.341 E25.6098
G1 X125.753 Y158.461 E25.6243
G1 X125.582 Y158.490 E25.6329
G1 X122.508 Y158.500 E25.7863
G1 X122.205 Y158.444 E25.8017
G1 X122.074 Y158.390 E25.8087
G1 X121.793 Y158.191 E25.8259
G1 X121.666 Y158.025 E25.8363
G1 X121.579 Y157.852 E25.8460
G1 X121.542 Y157.739 E25.8519
G1 X121.507 Y157.500 E25.8640
G1 X121.507 Y62.500 E30.6036
G1 X121.563 Y62.198 E30.6189
G1 X121.617 Y62.067 E30.6259
G1 X121.740 Y61.874 E30.6374
G0 F6000 X122.162 Y62.016
G1 F900 X122.335 Y61.929 E30.6470
G1 X122.419 Y61.910 E30.6513
G1 X125.493 Y61.900 E30.8047
G1 X125.603 Y61.916 E30.8102
G1 X125.711 Y61.947 E30.8158
G1 X125.904 Y62.070 E30.8273
G1 X125.977 Y62.155 E30.8328
G1 X126.064 Y62.328 E30.8425
G1 X126.093 Y62.500 E30.8512
G1 X126.093 Y157.500 E35.5908
G1 X126.046 Y157.718 E35.6019
G1 X125.923 Y157.911 E35.6133
G1 X125.838 Y157.984 E35.6189
G1 X125.665 Y158.071 E35.6286
G1 X125.581 Y158.090 E35.6329
G1 X122.507 Y158.100 E35.7862
G1 X122.289 Y158.053 E35.7974
G1 X122.096 Y157.930 E35.8088
G1 X122.023 Y157.845 E35.8144
G1 X121.936 Y157.672 E35.8240
G1 X121.907 Y157.500 E35.8327
G1 X121.907 Y62.500 E40.5723
G1 X121.954 Y62.282 E40.5834
G1 X122.077 Y62.089 E40.5948
G1 X122.162 Y62.016 E40.6004
G0 F6000 X122.507 Y62.300
G1 F900 X125.493 Y62.300 E40.7494
G1 X125.601 Y62.331 E40.7550
G1 X125.674 Y62.416 E40.7606
G1 X125.693 Y62.500 E40.7649
G1 X125.693 Y157.500 E45.5045
G1 X125.662 Y157.608 E45.5101
G1 X125.577 Y157.681 E45.5157
G1 X125.493 Y157.700 E45.5200
G1 X122.507 Y157.700 E45.6689
G1 X122.399 Y157.669 E45.6745
G1 X122.326 Y157.584 E45.6801
G1 X122.307 Y157.500 E45.6844
G1 X122.307 Y62.500 E50.4240
G1 X122.338 Y62.392 E50.4296
G1 X122.423 Y62.319 E50.4352
G1 X122.507 Y62.300 E50.4395
G1 F2400 E49.9395
G0 F6000 X120.293 Y62.500
G1 F1500 E50.4395
G1 F900 X120.293 Y157.500 E55.1791
G1 X120.172 Y158.118 E55.2105
G1 X120.054 Y158.368 E55.2243
G1 X119.897 Y158.607 E55.2385
G1 X119.719 Y158.806 E55.2518
G1 X119.504 Y158.977 E55.2656
G1 X119.092 Y159.185 E55.2886
G1 X118.994 Y159.218 E55.2937
G1 X118.584 Y159.290 E55.3145
G1 X115.510 Y159.300 E55.4679
G1 X115.066 Y159.232 E55.4903
G1 X114.784 Y159.136 E55.5051
G1 X114.338 Y158.849 E55.5316
G1 X114.199 Y158.723 E55.5410
G1 X113.985 Y158.440 E55.5587
G1 X113.838 Y158.149 E55.5749
G1 X113.749 Y157.849 E55.5905
G1 X113.707 Y157.500 E55.6081
G1 X113.707 Y62.500 E60.3476
G1 X113.828 Y61.882 E60.3791
G1 X113.946 Y61.632 E60.3929
G1 X114.103 Y61.393 E60.4071
G1 X114.281 Y61.194 E60.4204
G1 X114.496 Y61.023 E60.4341
G1 X114.965 Y60.793 E60.4602
G1 X115.122 Y60.749 E60.4683
G1 X115.417 Y60.710 E60.4832
G1 X118.636 Y60.713 E60.6438
G1 X118.991 Y60.781 E60.6618
G1 X119.237 Y60.873 E60.6749
G1 X119.663 Y61.153 E60.7004
G1 X119.801 Y61.277 E60.7096
G1 X120.015 Y61.560 E60.7273
G1 X120.162 Y61.851 E60.7436
G1 X120.251 Y62.151 E60.7592
G1 X120.293 Y62.500 E60.7767
G0 F6000 X119.893 Y62.500
G1 F900 X119.893 Y157.500 E65.5163
G1 X119.807 Y157.954 E65.5393
G1 X119.720 Y158.148 E65.5500
G1 X119.563 Y158.387 E65.5642
G1 X119.427 Y158.532 E65.5741
G1 X119.261 Y158.659 E65.5846
G1 X118.918 Y158.825 E65.6036
G1 X118.583 Y158.890 E65.6206
G1 X115.509 Y158.900 E65.7740
G1 X115.132 Y158.837 E65.7930
G1 X114.922 Y158.760 E65.8042
G1 X114.562 Y158.517 E65.8259
G1 X114.475 Y158.434 E65.8319
G1 X114.309 Y158.205 E65.8460
G1 X114.199 Y157.976 E65.8586
G1 X114.146 Y157.797 E65.8680
G1 X114.107 Y157.500 E65.8829
G1 X114.107 Y62.500 E70.6225
G1 X114.193 Y62.046 E70.6455
G1 X114.280 Y61.852 E70.6561
G1 X114.437 Y61.613 E70.6704
G1 X114.573 Y61.468 E70.6803
G1 X114.739 Y61.341 E70.6907
G1 X115.082 Y61.175 E70.7098
G1 X115.180 Y61.145 E70.7149
G1 X115.417 Y61.110 E70.7268
G1 X118.636 Y61.113 E70.8874
G1 X118.906 Y61.172 E70.9012
G1 X119.089 Y61.245 E70.9110
G1 X119.438 Y61.483 E70.9321
G1 X119.525 Y61.566 E70.9381
G1 X119.691 Y61.795 E70.9522
G1 X119.801 Y62.024 E70.9649
G1 X119.854 Y62.203 E70.9742
G1 X119.893 Y62.500 E70.9892
G0 F6000 X119.493 Y62.500
G1 F900 X119.493 Y157.500 E75.7287
G1 X119.437 Y157.802 E75.7440
G1 X119.383 Y157.933 E75.7511
G1 X119.260 Y158.126 E75.7625
G1 X119.184 Y158.214 E75.7683
G1 X119.018 Y158.341 E75.7788
G1 X118.753 Y158.461 E75.7933
G1 X118.582 Y158.490 E75.8019
G1 X115.508 Y158.500 E75.9553
G1 X115.205 Y158.444 E75.9707
G1 X115.074 Y158.390 E75.9777
G1 X114.793 Y158.191 E75.9949
G1 X114.666 Y158.025 E76.0053
G1 X114.579 Y157.852 E76.0150
G1 X114.542 Y157.739 E76.0209
G1 X114.507 Y157.500 E76.0330
G1 X114.507 Y62.500 E80.7726
G1 X114.563 Y62.198 E80.7879
G1 X114.617 Y62.067 E80.7949
G1 X114.740 Y61.874 E80.8064
G1 X114.816 Y61.786 E80.8122
G1 X114.982 Y61.659 E80.8226
G1 X115.247 Y61.539 E80.8371
G1 X115.418 Y61.510 E80.8458
G1 X118.551 Y61.504 E81.0021
G1 X118.821 Y61.563 E81.0159
G1 X118.926 Y61.610 E81.0216
G1 X119.207 Y61.809 E81.0388
G1 X119.334 Y61.975 E81.0492
G1 X119.421 Y62.148 E81.0589
G1 X119.458 Y62.261 E81.0648
G1 X119.493 Y62.500 E81.0768
G0 F6000 X119.093 Y62.500
G1 F900 X119.093 Y157.500 E85.8164
G1 X119.046 Y157.718 E85.8275
G1 X118.923 Y157.911 E85.8390
G1 X118.838 Y157.984 E85.8445
G1 X118.665 Y158.071 E85.8542
G1 X118.581 Y158.090 E85.8585
G1 X115.507 Y158.100 E86.0119
G1 X115.289 Y158.053 E86.0230
G1 X115.096 Y157.930 E86.0344
G1 X115.023 Y157.845 E86.0400
G1 X114.936 Y157.672 E86.0497
G1 X114.907 Y157.500 E86.0584
G1 X114.907 Y62.500 E90.7979
G1 X114.954 Y62.282 E90.8091
G1 X115.077 Y62.089 E90.8205
G1 X115.162 Y62.016 E90.8261
G1 X115.335 Y61.929 E90.8357
G1 X115.419 Y61.910 E90.8400
G1 X118.493 Y61.900 E90.9934
G1 X118.603 Y61.916 E90.9989
G1 X118.711 Y61.947 E91.0045
G1 X118.904 Y62.070 E91.0160
G1 X118.977 Y62.155 E91.0215
G1 X119.064 Y62.328 E91.0312
G1 X119.093 Y62.500 E91.0399
G0 F6000 X118.693 Y62.500
G1 F900 X118.693 Y157.500 E95.7795
G1 X118.662 Y157.608 E95.7851
G1 X118.577 Y157.681 E95.7907
G1 X118.493 Y157.700 E95.7950
G1 X115.507 Y157.700 E95.9439
G1 X115.399 Y157.669 E95.9496
G1 X115.326 Y157.584 E95.9551
G1 X115.307 Y157.500 E95.9594
G1 X115.307 Y62.500 E100.6990
G1 X115.338 Y62.392 E100.7046
G1 X115.423 Y62.319 E100.7102
G1 X115.507 Y62.300 E100.7145
G1 X118.493 Y62.300 E100.8635
G1 X118.601 Y62.331 E100.8691
G1 X118.674 Y62.416 E100.8747
G1 X118.693 Y62.500 E100.8790
G1 F2400 E100.3790
G0 F6000 X113.293 Y62.500
G1 F1500 E100.8790
G1 F900 X113.293 Y157.500 E105.6185
G1 X113.172 Y158.118 E105.6500
G1 X113.054 Y158.368 E105.6637
G1 X112.897 Y158.607 E105.6780
G1 X112.719 Y158.806 E105.6913
G1 X112.504 Y158.977 E105.7050
G1 X112.092 Y159.185 E105.7281
G1 X111.994 Y159.218 E105.7332
G1 X111.584 Y159.290 E105.7540
G1 X108.510 Y159.300 E105.9074
G1 X108.066 Y159.232 E105.9298
G1 X107.784 Y159.136 E105.9446
G1 X107.338 Y158.849 E105.9711
G1 X107.199 Y158.723 E105.9804
G1 X106.985 Y158.440 E105.9981
G1 X106.838 Y158.149 E106.0144
G1 X106.749 Y157.849 E106.0300
G1 X106.707 Y157.500 E106.0476
G1 X106.707 Y62.500 E110.7871
G1 X106.828 Y61.882 E110.8185
G1 X106.946 Y61.632 E110.8323
G1 X107.103 Y61.393 E110.8466
G1 X107.281 Y61.194 E110.8599
G1 X107.496 Y61.023 E110.8736
G1 X107.965 Y60.793 E110.8997
G1 X108.122 Y60.749 E110.9078
G1 X108.417 Y60.710 E110.9227
G1 X111.636 Y60.713 E111.0833
G1 X111.991 Y60.781 E111.1013
G1 X112.237 Y60.873 E111.1144
G1 X112.663 Y61.153 E111.1398
G1 X112.801 Y61.277 E111.1491
G1 X113.015 Y61.560 E111.1668
G1 X113.162 Y61.851 E111.1831
G1 X113.251 Y62.151 E111.1987
G1 X113.293 Y62.500 E111.2162
G0 F6000 X112.893 Y62.500
G1 F900 X112.893 Y157.500 E115.9558
G1 X112.807 Y157.954 E115.9788
G1 X112.720 Y158.148 E115.9894
G1 X112.563 Y158.387 E116.0037
G1 X112.427 Y158.532 E116.0136
G1 X112.261 Y158.659 E116.0240
G1 X111.918 Y158.825 E116.0431
G1 X111.583 Y158.890 E116.0601
G1 X108.509 Y158.900 E116.2134
G1 X108.132 Y158.837 E116.2325
G1 X107.922 Y158.760 E116.2437
G1 X107.562 Y158.517 E116.2653
G1 X107.475 Y158.434 E116.2713
G1 X107.309 Y158.205 E116.2855
G1 X107.199 Y157.976 E116.2981
G1 X107.146 Y157.797 E116.3074
G1 X107.107 Y157.500 E116.3224
G1 X107.107 Y62.500 E121.0620
G1 X107.193 Y62.046 E121.0850
G1 X107.280 Y61.852 E121.0956
G1 X107.437 Y61.613 E121.1099
G1 X107.573 Y61.468 E121.1198
G1 X107.739 Y61.341 E121.1302
G1 X108.082 Y61.175 E121.1492
G1 X108.180 Y61.145 E121.1544
G1 X108.417 Y61.110 E121.1663
G1 X111.636 Y61.113 E121.3269
G1 X111.906 Y61.172 E121.3407
G1 X112.089 Y61.245 E121.3505
G1 X112.438 Y61.483 E121.3716
G1 X112.525 Y61.566 E121.3776
G1 X112.691 Y61.795 E121.3917
G1 X112.801 Y62.024 E121.4044
G1 X112.854 Y62.203 E121.4137
G1 X112.893 Y62.500 E121.4286
G0 F6000 X112.493 Y62.500
G1 F900 X112.493 Y157.500 E126.1682
G1 X112.437 Y157.802 E126.1835
G1 X112.383 Y157.933 E126.1906
G1 X112.260 Y158.126 E126.2020
G1 X112.184 Y158.214 E126.2078
G1 X112.018 Y158.341 E126.2182
G1 X111.753 Y158.461 E126.2328
G1 X111.582 Y158.490 E126.2414
G1 X108.508 Y158.500 E126.3948
G1 X108.205 Y158.444 E126.4101
G1 X108.074 Y158.390 E126.4172
G1 X107.793 Y158.191 E126.4344
G1 X107.666 Y158.025 E126.4448
G1 X107.579 Y157.852 E126.4545
G1 X107.542 Y157.739 E126.4604
G1 X107.507 Y157.500 E126.4725
G1 X107.507 Y62.500 E131.2120
G1 X107.563 Y62.198 E131.2274
G1 X107.617 Y62.067 E131.2344
G1 X107.740 Y61.874 E131.2458
G1 X107.816 Y61.786 E131.2516
G1 X107.982 Y61.659 E131.2621
G1 X108.247 Y61.539 E131.2766
G1 X108.418 Y61.510 E131.2852
G1 X111.551 Y61.504 E131.4415
G1 X111.821 Y61.563 E131.4553
G1 X111.926 Y61.610 E131.4611
G1 X112.207 Y61.809 E131.4783
G1 X112.334 Y61.975 E131.4887
G1 X112.421 Y62.148 E131.4983
G1 X112.458 Y62.261 E131.5043
G1 X112.493 Y62.500 E131.5163
G0 F6000 X112.093 Y62.500
G1 F900 X112.093 Y157.500 E136.2559
G1 X112.046 Y157.718 E136.2670
G1 X111.923 Y157.911 E136.2784
G1 X111.838 Y157.984 E136.2840
G1 X111.665 Y158.071 E136.2937
G1 X111.581 Y158.090 E136.2980
G1 X108.507 Y158.100 E136.4514
G1 X108.289 Y158.053 E136.4625
G1 X108.096 Y157.930 E136.4739
G1 X108.023 Y157.845 E136.4795
G1 X107.936 Y157.672 E136.4891
G1 X107.907 Y157.500 E136.4978
G1 X107.907 Y62.500 E141.2374
G1 X107.954 Y62.282 E141.2485
G1 X108.077 Y62.089 E141.2600
G1 X108.162 Y62.016 E141.2656
G1 X108.335 Y61.929 E141.2752
G1 X108.419 Y61.910 E141.2795
G1 X111.493 Y61.900 E141.4329
G1 X111.603 Y61.916 E141.4384
G1 X111.711 Y61.947 E141.4440
G1 X111.904 Y62.070 E141.4554
G1 X111.977 Y62.155 E141.4610
G1 X112.064 Y62.328 E141.4707
G1 X112.093 Y62.500 E141.4794
G0 F6000 X111.693 Y62.500
G1 F900 X111.693 Y157.500 E146.2190
G1 X111.662 Y157.608 E146.2246
G1 X111.577 Y157.681 E146.2302
G1 X111.493 Y157.700 E146.2345
G1 X108.507 Y157.700 E146.3834
G1 X108.399 Y157.669 E146.3890
G1 X108.326 Y157.584 E146.3946
G1 X108.307 Y157.500 E146.3989
G1 X108.307 Y62.500 E151.1385
G1 X108.338 Y62.392 E151.1441
G1 X108.423 Y62.319 E151.1497
G1 X108.507 Y62.300 E151.1540
G1 X111.493 Y62.300 E151.3030
G1 X111.601 Y62.331 E151.3086
G1 X111.674 Y62.416 E151.3141
G1 X111.693 Y62.500 E151.3184
G1 F2400 E150.8184
G0 F6000 X106.293 Y62.500
G1 F1500 E151.3184
G1 F900 X106.293 Y157.500 E156.0580
G1 X106.172 Y158.118 E156.0894
G1 X106.054 Y158.368 E156.1032
G1 X105.897 Y158.607 E156.1175
G1 X105.719 Y158.806 E156.1308
G1 X105.504 Y158.977 E156.1445
G1 X105.092 Y159.185 E156.1675
G1 X104.994 Y159.218 E156.1727
G1 X104.584 Y159.290 E156.1935
G1 X101.510 Y159.300 E156.3468
G1 X101.066 Y159.232 E156.3692
G1 X100.784 Y159.136 E156.3841
G1 X100.338 Y158.849 E156.4106
G1 X100.199 Y158.723 E156.4199
G1 X99.985 Y158.440 E156.4376
G1 X99.838 Y158.149 E156.4539
G1 X99.749 Y157.849 E156.4695
G1 X99.707 Y157.500 E156.4870
G1 X99.707 Y62.500 E161.2266
G1 X99.828 Y61.882 E161.2580
G1 X99.946 Y61.632 E161.2718
G1 X100.103 Y61.393 E161.2861
G1 X100.281 Y61.194 E161.2994
G1 X100.496 Y61.023 E161.3131
G1 X100.965 Y60.793 E161.3392
G1 X101.122 Y60.749 E161.3473
G1 X101.417 Y60.710 E161.3622
G1 X104.636 Y60.713 E161.5227
G1 X104.991 Y60.781 E161.5408
G1 X105.237 Y60.873 E161.5539
G1 X105.663 Y61.153 E161.5793
G1 X105.801 Y61.277 E161.5886
G1 X106.015 Y61.560 E161.6063
G1 X106.162 Y61.851 E161.6225
G1 X106.251 Y62.151 E161.6382
G1 X106.293 Y62.500 E161.6557
G0 F6000 X105.893 Y62.500
G1 F900 X105.893 Y157.500 E166.3953
G1 X105.807 Y157.954 E166.4183
G1 X105.720 Y158.148 E166.4289
G1 X105.563 Y158.387 E166.4432
G1 X105.427 Y158.532 E166.4531
G1 X105.261 Y158.659 E166.4635
G1 X104.918 Y158.825 E166.4825
G1 X104.583 Y158.890 E166.4996
G1 X101.509 Y158.900 E166.6529
G1 X101.132 Y158.837 E166.6720
G1 X100.922 Y158.760 E166.6832
G1 X100.562 Y158.517 E166.7048
G1 X100.475 Y158.434 E166.7108
G1 X100.309 Y158.205 E166.7249
G1 X100.199 Y157.976 E166.7376
G1 X100.146 Y157.797 E166.7469
G1 X100.107 Y157.500 E166.7619
G1 X100.107 Y62.500 E171.5014
G1 X100.193 Y62.046 E171.5245
G1 X100.280 Y61.852 E171.5351
G1 X100.437 Y61.613 E171.5494
G1 X100.573 Y61.468 E171.5593
