;FLAVOR:Marlin
;TIME:2427
;Filament used: 1.95195m
;Layer height: 0.2
;Generated with Cura_SteamEngine 3.6.0
M140 S70
M105
M190 S70
M104 S210
M105
M109 S210
M82 ;absolute extrusion mode
G28 ; home all axes
M117 Purge extruder
G92 E0 ; reset extruder
G1 Z1.0 F3000 ; move z up little to prevent scratching of surface
G1 X0.1 Y20 Z0.3 F5000.0 ; move to start-line position G1 X0.1 Y200.0 Z0.3 F1500.0 E15 ; draw 1st line
G1 X0.4 Y200.0 Z0.3 F5000.0 ; move to side a little
G1 X0.4 Y20 Z0.3 F1500.0 E30 ; draw 2nd line
G92 E0 ; reset extruder
G1 Z1.0 F3000 ; move z up little to prevent scratching of surface
M117 All systems go!
G92 E0
G1 F6000 E-5
;LAYER_COUNT:21
;LAYER:0
M107
M204 S5000
M205 X30 Y30
G0 F7200 X84 Y64.302 Z0.2
M204 S500
M205 X20 Y20
;TYPE:SKIRT
G1 F6000 E0
G1 F900 X84.555 Y63.607 E0.03254
G1 X85.003 Y63.129 E0.05651
G1 X85.132 Y63 E0.06318
G1 X85.788 Y62.399 E0.09573
G1 X86.496 Y61.861 E0.12827
G1 X87.25 Y61.387 E0.16085
G1 X88.043 Y60.984 E0.19339
G1 X88.869 Y60.653 E0.22595
G1 X89.721 Y60.398 E0.25849
G1 X90.593 Y60.22 E0.29105
G1 X91.477 Y60.122 E0.32359
G1 X92.132 Y60.1 E0.34757
G1 X94.869 Y60.1 E0.4477
G1 X95.758 Y60.14 E0.48026
G1 X96.639 Y60.26 E0.51279
G1 X97.507 Y60.458 E0.54536
G1 X98.353 Y60.733 E0.57791
G1 X99.171 Y61.083 E0.61046
G1 X99.499 Y61.26 E0.6241
G1 X100.043 Y60.984 E0.64642
G1 X100.869 Y60.653 E0.67897
G1 X101.721 Y60.398 E0.71151
G1 X102.593 Y60.22 E0.74407
G1 X103.477 Y60.122 E0.77661
G1 X104.132 Y60.1 E0.80059
G1 X106.869 Y60.1 E0.90072
G1 X107.758 Y60.14 E0.93328
G1 X108.639 Y60.26 E0.96581
G1 X109.507 Y60.458 E0.99839
G1 X110.353 Y60.733 E1.03093
G1 X111.171 Y61.083 E1.06348
G1 X111.499 Y61.26 E1.07712
G1 X112.043 Y60.984 E1.09944
G1 X112.869 Y60.653 E1.13199
G1 X113.721 Y60.398 E1.16453
G1 X114.593 Y60.22 E1.19709
G1 X115.477 Y60.122 E1.22963
G1 X116.132 Y60.1 E1.25361
G1 X118.869 Y60.1 E1.35375
G1 X119.758 Y60.14 E1.3863
G1 X120.639 Y60.26 E1.41883
G1 X121.507 Y60.458 E1.45141
G1 X122.353 Y60.733 E1.48395
G1 X123.171 Y61.083 E1.5165
G1 X123.499 Y61.26 E1.53014
G1 X124.043 Y60.984 E1.55246
G1 X124.869 Y60.653 E1.58501
G1 X125.721 Y60.398 E1.61755
G1 X126.593 Y60.22 E1.65011
G1 X127.477 Y60.122 E1.68265
G1 X128.132 Y60.1 E1.70663
G1 X130.869 Y60.1 E1.80677
G1 X131.758 Y60.14 E1.83933
G1 X132.639 Y60.26 E1.87186
G1 X133.507 Y60.458 E1.90443
G1 X134.353 Y60.733 E1.93697
G1 X135.171 Y61.083 E1.96953
G1 X135.954 Y61.506 E2.00209
G1 X136.696 Y61.996 E2.03462
G1 X137.391 Y62.552 E2.06718
G1 X137.869 Y63 E2.09115
G1 X137.998 Y63.129 E2.09782
G1 X138.599 Y63.785 E2.13037
G1 X139.137 Y64.493 E2.16291
G1 X139.611 Y65.247 E2.19549
G1 X140.014 Y66.04 E2.22804
G1 X140.345 Y66.866 E2.26059
G1 X140.6 Y67.718 E2.29313
G1 X140.778 Y68.59 E2.32569
G1 X140.876 Y69.474 E2.35823
G1 X140.898 Y70.129 E2.38221
G1 X140.898 Y164.871 E5.84845
G1 X140.858 Y165.76 E5.88101
G1 X140.738 Y166.641 E5.91354
G1 X140.54 Y167.509 E5.94611
G1 X140.265 Y168.355 E5.97866
G1 X139.915 Y169.173 E6.01121
G1 X139.492 Y169.956 E6.04377
G1 X139.002 Y170.698 E6.0763
G1 X138.446 Y171.393 E6.10887
G1 X137.998 Y171.871 E6.13284
G1 X137.869 Y172 E6.13951
G1 X137.213 Y172.601 E6.17206
G1 X136.505 Y173.139 E6.20459
G1 X135.751 Y173.613 E6.23718
G1 X134.958 Y174.016 E6.26972
G1 X134.132 Y174.347 E6.30228
G1 X133.28 Y174.602 E6.33482
G1 X132.408 Y174.78 E6.36738
G1 X131.524 Y174.878 E6.39992
G1 X130.869 Y174.9 E6.42389
G1 X128.131 Y174.9 E6.52407
G1 X127.242 Y174.86 E6.55662
G1 X126.361 Y174.74 E6.58915
G1 X125.493 Y174.542 E6.62173
G1 X124.647 Y174.267 E6.65427
G1 X123.829 Y173.917 E6.68683
G1 X123.501 Y173.74 E6.70046
G1 X122.958 Y174.016 E6.72275
G1 X122.132 Y174.347 E6.7553
G1 X121.28 Y174.602 E6.78784
G1 X120.408 Y174.78 E6.8204
G1 X119.524 Y174.878 E6.85294
G1 X118.869 Y174.9 E6.87692
G1 X116.131 Y174.9 E6.97709
G1 X115.242 Y174.86 E7.00965
G1 X114.361 Y174.74 E7.04218
G1 X113.493 Y174.542 E7.07475
G1 X112.647 Y174.267 E7.1073
G1 X111.829 Y173.917 E7.13985
G1 X111.501 Y173.74 E7.15349
G1 X110.958 Y174.016 E7.17577
G1 X110.132 Y174.347 E7.20833
G1 X109.28 Y174.602 E7.24087
G1 X108.408 Y174.78 E7.27343
G1 X107.524 Y174.878 E7.30597
G1 X106.869 Y174.9 E7.32994
G1 X104.131 Y174.9 E7.43012
G1 X103.242 Y174.86 E7.46268
G1 X102.361 Y174.74 E7.49521
G1 X101.493 Y174.542 E7.52778
G1 X100.647 Y174.267 E7.56032
G1 X99.829 Y173.917 E7.59288
G1 X99.501 Y173.74 E7.60651
G1 X98.958 Y174.016 E7.6288
G1 X98.132 Y174.347 E7.66135
G1 X97.28 Y174.602 E7.69389
G1 X96.408 Y174.78 E7.72645
G1 X95.524 Y174.878 E7.75899
G1 X94.869 Y174.9 E7.78297
G1 X92.131 Y174.9 E7.88314
G1 X91.242 Y174.86 E7.9157
G1 X90.361 Y174.74 E7.94823
G1 X89.493 Y174.542 E7.9808
G1 X88.647 Y174.267 E8.01335
G1 X87.829 Y173.917 E8.0459
G1 X87.046 Y173.494 E8.07846
G1 X86.304 Y173.004 E8.11099
G1 X85.609 Y172.448 E8.14356
G1 X85.131 Y172 E8.16752
G1 X85.002 Y171.871 E8.1742
G1 X84.401 Y171.215 E8.20675
G1 X83.863 Y170.507 E8.23928
G1 X83.389 Y169.753 E8.27187
G1 X82.986 Y168.96 E8.30441
G1 X82.655 Y168.134 E8.33697
G1 X82.4 Y167.282 E8.3695
G1 X82.222 Y166.41 E8.40207
G1 X82.124 Y165.526 E8.43461
G1 X82.102 Y164.871 E8.45858
G1 X82.103 Y70.129 E11.92483
G1 X82.143 Y69.24 E11.95739
G1 X82.263 Y68.358 E11.98995
G1 X82.461 Y67.491 E12.02249
G1 X82.736 Y66.645 E12.05504
G1 X83.086 Y65.827 E12.08759
G1 X83.509 Y65.044 E12.12015
G1 X83.599 Y64.908 E12.12611
G0 F810 X84 Y64.302
M204 S5000
M205 X30 Y30
G0 F7200 X84.437 Y64.451
M204 S500
M205 X20 Y20
G1 F6000 E12.15271
G1 F900 X84.99 Y63.78 E12.18452
G1 X85.314 Y63.44 E12.20171
G1 X85.443 Y63.311 E12.20838
G1 X86.085 Y62.725 E12.24018
G1 X86.779 Y62.2 E12.27202
G1 X87.518 Y61.741 E12.30385
G1 X88.296 Y61.353 E12.33566
G1 X89.106 Y61.037 E12.36747
G1 X89.942 Y60.797 E12.39929
G1 X90.797 Y60.635 E12.43113
G1 X91.662 Y60.552 E12.46292
G1 X92.132 Y60.54 E12.48012
G1 X94.869 Y60.54 E12.58026
G1 X95.738 Y60.58 E12.61208
G1 X96.599 Y60.7 E12.64389
G1 X97.446 Y60.898 E12.67571
G1 X98.271 Y61.173 E12.70753
G1 X99.067 Y61.523 E12.73934
G1 X99.491 Y61.758 E12.75708
G1 X99.518 Y61.741 E12.75824
G1 X100.296 Y61.353 E12.79005
G1 X101.106 Y61.037 E12.82186
G1 X101.942 Y60.797 E12.85368
G1 X102.797 Y60.635 E12.88552
G1 X103.662 Y60.552 E12.91731
G1 X104.132 Y60.54 E12.93451
G1 X106.869 Y60.54 E13.03465
G1 X107.738 Y60.58 E13.06648
G1 X108.599 Y60.7 E13.09828
G1 X109.446 Y60.898 E13.13011
G1 X110.271 Y61.173 E13.16192
G1 X111.067 Y61.523 E13.19374
G1 X111.491 Y61.758 E13.21147
G1 X111.518 Y61.741 E13.21264
G1 X112.296 Y61.353 E13.24445
G1 X113.106 Y61.037 E13.27626
G1 X113.942 Y60.797 E13.30808
G1 X114.797 Y60.635 E13.33992
G1 X115.662 Y60.552 E13.37171
G1 X116.132 Y60.54 E13.38891
G1 X118.869 Y60.54 E13.48905
G1 X119.738 Y60.58 E13.52087
G1 X120.599 Y60.7 E13.55268
G1 X121.446 Y60.898 E13.5845
G1 X122.271 Y61.173 E13.61632
G1 X123.067 Y61.523 E13.64813
G1 X123.491 Y61.758 E13.66587
G1 X123.518 Y61.741 E13.66704
G1 X124.296 Y61.353 E13.69884
G1 X125.106 Y61.037 E13.73065
G1 X125.942 Y60.797 E13.76247
G1 X126.797 Y60.635 E13.79431
G1 X127.662 Y60.552 E13.8261
G1 X128.132 Y60.54 E13.84331
G1 X130.869 Y60.54 E13.94344
G1 X131.738 Y60.58 E13.97527
G1 X132.599 Y60.7 E14.00707
G1 X133.446 Y60.898 E14.0389
G1 X134.271 Y61.173 E14.07071
G1 X135.067 Y61.523 E14.10253
G1 X135.828 Y61.944 E14.13435
G1 X136.547 Y62.434 E14.16618
G1 X137.218 Y62.987 E14.19799
G1 X137.558 Y63.311 E14.21517
G1 X137.687 Y63.44 E14.22185
G1 X138.273 Y64.082 E14.25365
G1 X138.798 Y64.776 E14.28549
G1 X139.257 Y65.515 E14.31732
G1 X139.645 Y66.293 E14.34912
G1 X139.961 Y67.103 E14.38093
G1 X140.201 Y67.939 E14.41276
G1 X140.363 Y68.794 E14.44459
G1 X140.446 Y69.659 E14.47639
G1 X140.458 Y70.129 E14.49359
G1 X140.458 Y164.871 E17.95983
G1 X140.418 Y165.74 E17.99166
G1 X140.298 Y166.601 E18.02346
G1 X140.1 Y167.448 E18.05529
G1 X139.825 Y168.273 E18.0871
G1 X139.475 Y169.069 E18.11892
G1 X139.054 Y169.83 E18.15074
G1 X138.564 Y170.549 E18.18257
G1 X138.011 Y171.22 E18.21438
G1 X137.687 Y171.56 E18.23156
G1 X137.558 Y171.689 E18.23824
G1 X136.916 Y172.275 E18.27004
G1 X136.222 Y172.8 E18.30188
G1 X135.483 Y173.259 E18.33371
G1 X134.705 Y173.647 E18.36551
G1 X133.895 Y173.963 E18.39732
G1 X133.059 Y174.203 E18.42914
G1 X132.204 Y174.365 E18.46098
G1 X131.339 Y174.448 E18.49277
G1 X130.869 Y174.46 E18.50998
G1 X128.131 Y174.46 E18.61015
G1 X127.262 Y174.42 E18.64198
G1 X126.401 Y174.3 E18.67378
G1 X125.554 Y174.102 E18.7056
G1 X124.729 Y173.827 E18.73742
G1 X123.933 Y173.477 E18.76923
G1 X123.509 Y173.243 E18.78695
G1 X123.483 Y173.259 E18.78807
G1 X122.705 Y173.647 E18.81988
G1 X121.895 Y173.963 E18.85169
G1 X121.059 Y174.203 E18.88351
G1 X120.204 Y174.365 E18.91535
G1 X119.339 Y174.448 E18.94714
G1 X118.869 Y174.46 E18.96434
G1 X116.131 Y174.46 E19.06451
G1 X115.262 Y174.42 E19.09634
G1 X114.401 Y174.3 E19.12814
G1 X113.554 Y174.102 E19.15997
G1 X112.729 Y173.827 E19.19178
G1 X111.933 Y173.477 E19.2236
G1 X111.509 Y173.243 E19.24132
G1 X111.483 Y173.259 E19.24243
G1 X110.705 Y173.647 E19.27424
G1 X109.895 Y173.963 E19.30605
G1 X109.059 Y174.203 E19.33787
G1 X108.204 Y174.365 E19.36971
G1 X107.339 Y174.448 E19.4015
G1 X106.869 Y174.46 E19.4187
G1 X104.131 Y174.46 E19.51888
G1 X103.262 Y174.42 E19.5507
G1 X102.401 Y174.3 E19.58251
G1 X101.554 Y174.102 E19.61433
G1 X100.729 Y173.827 E19.64615
G1 X99.933 Y173.477 E19.67796
G1 X99.509 Y173.243 E19.69568
G1 X99.483 Y173.259 E19.6968
G1 X98.705 Y173.647 E19.7286
G1 X97.895 Y173.963 E19.76041
G1 X97.059 Y174.203 E19.79224
G1 X96.204 Y174.365 E19.82407
G1 X95.339 Y174.448 E19.85587
G1 X94.869 Y174.46 E19.87307
G1 X92.131 Y174.46 E19.97324
G1 X91.262 Y174.42 E20.00507
G1 X90.401 Y174.3 E20.03687
G1 X89.554 Y174.102 E20.0687
G1 X88.729 Y173.827 E20.10051
G1 X87.933 Y173.477 E20.13233
G1 X87.172 Y173.056 E20.16414
G1 X86.453 Y172.566 E20.19598
G1 X85.782 Y172.013 E20.22779
G1 X85.442 Y171.689 E20.24497
G1 X85.313 Y171.56 E20.25165
G1 X84.727 Y170.918 E20.28345
G1 X84.202 Y170.224 E20.31529
G1 X83.743 Y169.485 E20.34711
G1 X83.355 Y168.707 E20.37892
G1 X83.039 Y167.897 E20.41073
G1 X82.799 Y167.061 E20.44255
G1 X82.637 Y166.206 E20.47439
G1 X82.554 Y165.341 E20.50618
G1 X82.542 Y164.871 E20.52338
G1 X82.543 Y70.129 E23.98963
G1 X82.583 Y69.26 E24.02146
G1 X82.703 Y68.399 E24.05326
G1 X82.901 Y67.552 E24.08509
G1 X83.176 Y66.727 E24.1169
G1 X83.526 Y65.931 E24.14872
G1 X83.947 Y65.17 E24.18053
G1 X84.028 Y65.051 E24.1858
G0 F810 X84.437 Y64.451
M204 S5000
M205 X30 Y30
G0 F7200 X84.873 Y64.604
M204 S500
M205 X20 Y20
G1 F6000 E24.2124
G1 F900 X85.625 Y63.751 E24.254
G1 X85.754 Y63.622 E24.26068
G1 X86.382 Y63.05 E24.29176
G1 X87.061 Y62.54 E24.32282
G1 X87.785 Y62.097 E24.35388
G1 X88.548 Y61.723 E24.38497
G1 X89.342 Y61.422 E24.41603
G1 X90.161 Y61.198 E24.4471
G1 X90.998 Y61.052 E24.47818
G1 X92.132 Y60.98 E24.51976
G1 X94.869 Y60.98 E24.61989
G1 X95.717 Y61.02 E24.65095
G1 X96.558 Y61.14 E24.68203
G1 X97.384 Y61.338 E24.71311
G1 X98.187 Y61.613 E24.74416
G1 X98.961 Y61.962 E24.77522
G1 X99.502 Y62.27 E24.798
G1 X99.785 Y62.097 E24.81014
G1 X100.548 Y61.723 E24.84122
G1 X101.342 Y61.422 E24.87229
G1 X102.161 Y61.198 E24.90336
G1 X102.998 Y61.052 E24.93444
G1 X104.132 Y60.98 E24.97601
G1 X106.869 Y60.98 E25.07615
G1 X107.717 Y61.02 E25.10721
G1 X108.558 Y61.14 E25.13829
G1 X109.384 Y61.338 E25.16937
G1 X110.187 Y61.613 E25.20042
G1 X110.961 Y61.962 E25.23148
G1 X111.502 Y62.27 E25.25426
G1 X111.785 Y62.097 E25.26639
G1 X112.548 Y61.723 E25.29748
G1 X113.342 Y61.422 E25.32855
G1 X114.161 Y61.198 E25.35961
G1 X114.998 Y61.052 E25.3907
G1 X116.132 Y60.98 E25.43227
G1 X118.869 Y60.98 E25.53241
G1 X119.717 Y61.02 E25.56347
G1 X120.558 Y61.14 E25.59455
G1 X121.384 Y61.338 E25.62562
G1 X122.187 Y61.613 E25.65668
G1 X122.961 Y61.962 E25.68774
G1 X123.502 Y62.27 E25.71052
G1 X123.785 Y62.097 E25.72265
G1 X124.548 Y61.723 E25.75374
G1 X125.342 Y61.422 E25.78481
G1 X126.161 Y61.198 E25.81587
G1 X126.998 Y61.052 E25.84696
G1 X128.132 Y60.98 E25.88853
G1 X130.869 Y60.98 E25.98867
G1 X131.717 Y61.02 E26.01972
G1 X132.558 Y61.14 E26.05081
G1 X133.384 Y61.338 E26.08188
G1 X134.187 Y61.613 E26.11294
G1 X134.961 Y61.962 E26.144
G1 X135.699 Y62.382 E26.17507
G1 X136.394 Y62.87 E26.20613
G1 X137.247 Y63.622 E26.24774
G1 X137.376 Y63.751 E26.25441
G1 X137.948 Y64.379 E26.28549
G1 X138.458 Y65.058 E26.31656
G1 X138.901 Y65.782 E26.34761
G1 X139.275 Y66.545 E26.3787
G1 X139.576 Y67.339 E26.40977
G1 X139.8 Y68.158 E26.44083
G1 X139.946 Y68.995 E26.47192
G1 X140.018 Y70.129 E26.51349
G1 X140.018 Y164.871 E29.97974
G1 X139.978 Y165.719 E30.0108
G1 X139.858 Y166.56 E30.04188
G1 X139.66 Y167.386 E30.07295
G1 X139.385 Y168.189 E30.10401
G1 X139.036 Y168.963 E30.13507
G1 X138.616 Y169.701 E30.16614
G1 X138.128 Y170.396 E30.19721
G1 X137.376 Y171.249 E30.23881
G1 X137.247 Y171.378 E30.24548
G1 X136.619 Y171.95 E30.27656
G1 X135.94 Y172.46 E30.30763
G1 X135.216 Y172.903 E30.33869
G1 X134.453 Y173.277 E30.36977
G1 X133.659 Y173.578 E30.40084
G1 X132.84 Y173.802 E30.4319
G1 X132.003 Y173.948 E30.46299
G1 X130.869 Y174.02 E30.50456
G1 X128.131 Y174.02 E30.60473
G1 X127.283 Y173.98 E30.63579
G1 X126.442 Y173.86 E30.66687
G1 X125.616 Y173.662 E30.69795
G1 X124.813 Y173.387 E30.729
G1 X124.039 Y173.038 E30.76007
G1 X123.498 Y172.73 E30.78284
G1 X123.216 Y172.903 E30.79495
G1 X122.453 Y173.277 E30.82604
G1 X121.659 Y173.578 E30.8571
G1 X120.84 Y173.802 E30.88817
G1 X120.003 Y173.948 E30.91925
G1 X118.869 Y174.02 E30.96083
G1 X116.131 Y174.02 E31.061
G1 X115.283 Y173.98 E31.09206
G1 X114.442 Y173.86 E31.12314
G1 X113.616 Y173.662 E31.15421
G1 X112.813 Y173.387 E31.18527
G1 X112.039 Y173.038 E31.21633
G1 X111.498 Y172.73 E31.23911
G1 X111.216 Y172.903 E31.25121
G1 X110.453 Y173.277 E31.2823
G1 X109.659 Y173.578 E31.31337
G1 X108.84 Y173.802 E31.34443
G1 X108.003 Y173.948 E31.37552
G1 X106.869 Y174.02 E31.41709
G1 X104.131 Y174.02 E31.51726
G1 X103.283 Y173.98 E31.54832
G1 X102.442 Y173.86 E31.5794
G1 X101.616 Y173.662 E31.61048
G1 X100.813 Y173.387 E31.64153
G1 X100.039 Y173.038 E31.67259
G1 X99.498 Y172.73 E31.69537
G1 X99.216 Y172.903 E31.70747
G1 X98.453 Y173.277 E31.73856
G1 X97.659 Y173.578 E31.76963
G1 X96.84 Y173.802 E31.80069
G1 X96.003 Y173.948 E31.83178
G1 X94.869 Y174.02 E31.87335
G1 X92.131 Y174.02 E31.97352
G1 X91.283 Y173.98 E32.00458
G1 X90.442 Y173.86 E32.03566
G1 X89.616 Y173.662 E32.06674
G1 X88.813 Y173.387 E32.09779
G1 X88.039 Y173.038 E32.12886
G1 X87.301 Y172.618 E32.15993
G1 X86.606 Y172.13 E32.19099
G1 X85.753 Y171.378 E32.2326
G1 X85.624 Y171.249 E32.23927
G1 X85.052 Y170.621 E32.27035
G1 X84.542 Y169.942 E32.30142
G1 X84.099 Y169.218 E32.33247
G1 X83.725 Y168.455 E32.36356
G1 X83.424 Y167.661 E32.39463
G1 X83.2 Y166.842 E32.42569
G1 X83.054 Y166.005 E32.45678
G1 X82.982 Y164.871 E32.49835
G1 X82.983 Y70.129 E35.9646
G1 X83.023 Y69.281 E35.99566
G1 X83.143 Y68.44 E36.02674
G1 X83.341 Y67.614 E36.05781
G1 X83.616 Y66.811 E36.08887
G1 X83.965 Y66.036 E36.11996
G1 X84.385 Y65.299 E36.151
G1 X84.456 Y65.199 E36.15548
G0 F810 X84.873 Y64.604
M204 S5000
M205 X30 Y30
G0 F7200 X85.31 Y64.761
M204 S500
M205 X20 Y20
G1 F6000 E36.18208
G1 F900 X85.936 Y64.062 E36.21641
G1 X86.065 Y63.933 E36.22309
G1 X86.678 Y63.376 E36.25339
G1 X87.342 Y62.881 E36.28369
G1 X88.051 Y62.453 E36.31399
G1 X88.798 Y62.094 E36.34431
G1 X89.576 Y61.81 E36.37461
G1 X90.377 Y61.601 E36.4049
G1 X91.195 Y61.471 E36.4352
G1 X92.132 Y61.42 E36.46954
G1 X94.869 Y61.42 E36.56967
G1 X95.696 Y61.46 E36.59996
G1 X96.516 Y61.58 E36.63028
G1 X97.32 Y61.778 E36.66058
G1 X98.101 Y62.052 E36.69086
G1 X98.853 Y62.401 E36.72119
G1 X99.504 Y62.783 E36.74881
G1 X100.051 Y62.453 E36.77218
G1 X100.798 Y62.094 E36.8025
G1 X101.576 Y61.81 E36.8328
G1 X102.377 Y61.601 E36.86309
G1 X103.195 Y61.471 E36.89339
G1 X104.132 Y61.42 E36.92772
G1 X106.869 Y61.42 E37.02786
G1 X107.696 Y61.46 E37.05815
G1 X108.516 Y61.58 E37.08847
G1 X109.32 Y61.778 E37.11877
G1 X110.101 Y62.052 E37.14905
G1 X110.853 Y62.401 E37.17938
G1 X111.504 Y62.783 E37.20699
G1 X112.051 Y62.453 E37.23037
G1 X112.798 Y62.094 E37.26069
G1 X113.576 Y61.81 E37.29099
G1 X114.377 Y61.601 E37.32128
G1 X115.195 Y61.471 E37.35158
