;FLAVOR:Marlin
;TIME:2356
;Filament used: 1.51498m
;Layer height: 0.2
;Generated with Cura_SteamEngine 3.6.0
M140 S70
M105
M190 S70
M104 S210
M105
M109 S210
M82 ;absolute extrusion mode
G28 ; home all axes
M117 Purge extruder
G92 E0 ; reset extruder
G1 Z1.0 F3000 ; move z up little to prevent scratching of surface
G1 X0.1 Y20 Z0.3 F5000.0 ; move to start-line position G1 X0.1 Y200.0 Z0.3 F1500.0 E15 ; draw 1st line
G1 X0.4 Y200.0 Z0.3 F5000.0 ; move to side a little
G1 X0.4 Y20 Z0.3 F1500.0 E30 ; draw 2nd line
G92 E0 ; reset extruder
G1 Z1.0 F3000 ; move z up little to prevent scratching of surface
M117 All systems go!
G92 E0
G1 F6000 E-5
;LAYER_COUNT:11
;LAYER:0
M107
M204 S5000
M205 X30 Y30
G0 F7200 X93.063 Y62.042 Z0.2
M204 S500
M205 X20 Y20
;TYPE:SKIRT
G1 F6000 E0
G1 F900 X93.554 Y61.3 E0.03255
G1 X94.109 Y60.605 E0.06509
G1 X94.557 Y60.127 E0.08906
G1 X94.686 Y59.998 E0.09574
G1 X95.342 Y59.397 E0.12829
G1 X96.05 Y58.859 E0.16082
G1 X96.804 Y58.385 E0.1934
G1 X97.597 Y57.982 E0.22595
G1 X98.423 Y57.651 E0.2585
G1 X99.275 Y57.396 E0.29104
G1 X100.147 Y57.218 E0.3236
G1 X101.031 Y57.12 E0.35614
G1 X101.686 Y57.098 E0.38012
G1 X104.419 Y57.098 E0.48011
G1 X105.308 Y57.138 E0.51267
G1 X106.189 Y57.258 E0.5452
G1 X107.057 Y57.456 E0.57777
G1 X107.903 Y57.731 E0.61032
G1 X108.721 Y58.081 E0.64287
G1 X109.504 Y58.504 E0.67543
G1 X110.246 Y58.994 E0.70796
G1 X110.941 Y59.55 E0.74052
G1 X111.419 Y59.998 E0.76449
G1 X111.548 Y60.127 E0.77117
G1 X112.149 Y60.783 E0.80372
G1 X112.687 Y61.491 E0.83625
G1 X113.161 Y62.245 E0.86883
G1 X113.564 Y63.038 E0.90138
G1 X113.895 Y63.864 E0.93393
G1 X114.15 Y64.716 E0.96647
G1 X114.328 Y65.588 E0.99903
G1 X114.426 Y66.472 E1.03157
G1 X114.448 Y67.127 E1.05555
G1 X114.447 Y161.869 E4.5218
G1 X114.407 Y162.758 E4.55435
G1 X114.287 Y163.64 E4.58692
G1 X114.089 Y164.507 E4.61946
G1 X113.814 Y165.353 E4.652
G1 X113.464 Y166.171 E4.68455
G1 X113.041 Y166.954 E4.71711
G1 X112.55 Y167.696 E4.74967
G1 X111.995 Y168.391 E4.78221
G1 X111.547 Y168.869 E4.80618
G1 X111.418 Y168.998 E4.81285
G1 X110.762 Y169.599 E4.8454
G1 X110.054 Y170.137 E4.87793
G1 X109.3 Y170.611 E4.91052
G1 X108.507 Y171.014 E4.94306
G1 X107.681 Y171.345 E4.97562
G1 X106.829 Y171.6 E5.00816
G1 X105.957 Y171.778 E5.04072
G1 X105.073 Y171.876 E5.07326
G1 X104.418 Y171.898 E5.09723
G1 X101.685 Y171.898 E5.19722
G1 X100.796 Y171.858 E5.22978
G1 X99.915 Y171.738 E5.26231
G1 X99.047 Y171.54 E5.29488
G1 X98.201 Y171.265 E5.32743
G1 X97.383 Y170.915 E5.35998
G1 X96.6 Y170.492 E5.39254
G1 X95.858 Y170.002 E5.42507
G1 X95.163 Y169.446 E5.45764
G1 X94.685 Y168.998 E5.48161
G1 X94.556 Y168.869 E5.48828
G1 X93.955 Y168.213 E5.52083
G1 X93.417 Y167.505 E5.55336
G1 X92.943 Y166.751 E5.58595
G1 X92.54 Y165.958 E5.61849
G1 X92.209 Y165.132 E5.65105
G1 X91.954 Y164.28 E5.68359
G1 X91.776 Y163.408 E5.71615
G1 X91.678 Y162.524 E5.74869
G1 X91.656 Y161.869 E5.77266
G1 X91.657 Y67.127 E9.23891
G1 X91.697 Y66.238 E9.27147
G1 X91.817 Y65.356 E9.30403
G1 X92.015 Y64.489 E9.33657
G1 X92.29 Y63.643 E9.36912
G1 X92.64 Y62.825 E9.40167
G1 X92.718 Y62.682 E9.40763
G0 F810 X93.063 Y62.042
M204 S5000
M205 X30 Y30
G0 F7200 X93.501 Y62.168
M204 S500
M205 X20 Y20
G1 F6000 E9.43423
G1 F900 X93.991 Y61.449 E9.46606
G1 X94.544 Y60.778 E9.49787
G1 X94.868 Y60.438 E9.51505
G1 X94.997 Y60.309 E9.52173
G1 X95.639 Y59.723 E9.55353
G1 X96.333 Y59.198 E9.58537
G1 X97.072 Y58.739 E9.6172
G1 X97.85 Y58.351 E9.649
G1 X98.66 Y58.035 E9.68081
G1 X99.496 Y57.795 E9.71264
G1 X100.351 Y57.633 E9.74447
G1 X101.216 Y57.55 E9.77627
G1 X101.686 Y57.538 E9.79347
G1 X104.419 Y57.538 E9.89346
G1 X105.288 Y57.578 E9.92528
G1 X106.149 Y57.698 E9.95709
G1 X106.996 Y57.896 E9.98891
G1 X107.821 Y58.171 E10.02073
G1 X108.617 Y58.521 E10.05254
G1 X109.378 Y58.942 E10.08436
G1 X110.097 Y59.432 E10.11619
G1 X110.768 Y59.985 E10.14801
G1 X111.108 Y60.309 E10.16519
G1 X111.237 Y60.438 E10.17186
G1 X111.823 Y61.08 E10.20367
G1 X112.348 Y61.774 E10.2355
G1 X112.807 Y62.513 E10.26733
G1 X113.195 Y63.291 E10.29914
G1 X113.511 Y64.101 E10.33095
G1 X113.751 Y64.937 E10.36277
G1 X113.913 Y65.792 E10.39461
G1 X113.996 Y66.657 E10.4264
G1 X114.008 Y67.127 E10.4436
G1 X114.007 Y161.869 E13.90985
G1 X113.967 Y162.738 E13.94167
G1 X113.847 Y163.599 E13.97348
G1 X113.649 Y164.446 E14.0053
G1 X113.374 Y165.271 E14.03712
G1 X113.024 Y166.067 E14.06893
G1 X112.603 Y166.828 E14.10075
G1 X112.113 Y167.547 E14.13258
G1 X111.56 Y168.218 E14.1644
G1 X111.236 Y168.558 E14.18158
G1 X111.107 Y168.687 E14.18825
G1 X110.465 Y169.273 E14.22005
G1 X109.771 Y169.798 E14.25189
G1 X109.032 Y170.257 E14.28372
G1 X108.254 Y170.645 E14.31553
G1 X107.444 Y170.961 E14.34734
G1 X106.608 Y171.201 E14.37916
G1 X105.753 Y171.363 E14.411
G1 X104.888 Y171.446 E14.44279
G1 X104.418 Y171.458 E14.45999
G1 X101.685 Y171.458 E14.55998
G1 X100.816 Y171.418 E14.59181
G1 X99.955 Y171.298 E14.62361
G1 X99.108 Y171.1 E14.65544
G1 X98.283 Y170.825 E14.68725
G1 X97.487 Y170.475 E14.71907
G1 X96.726 Y170.054 E14.75088
G1 X96.007 Y169.564 E14.78272
G1 X95.336 Y169.011 E14.81453
G1 X94.996 Y168.687 E14.83171
G1 X94.867 Y168.558 E14.83839
G1 X94.281 Y167.916 E14.87019
G1 X93.756 Y167.222 E14.90203
G1 X93.297 Y166.483 E14.93385
G1 X92.909 Y165.705 E14.96566
G1 X92.593 Y164.895 E14.99747
G1 X92.353 Y164.059 E15.02929
G1 X92.191 Y163.204 E15.06113
G1 X92.108 Y162.339 E15.09292
G1 X92.096 Y161.869 E15.11013
G1 X92.097 Y67.127 E18.57637
G1 X92.137 Y66.258 E18.6082
G1 X92.257 Y65.397 E18.64
G1 X92.455 Y64.55 E18.67183
G1 X92.73 Y63.725 E18.70364
G1 X93.08 Y62.929 E18.73546
G1 X93.149 Y62.804 E18.74068
G0 F810 X93.501 Y62.168
M204 S5000
M205 X30 Y30
G0 F7200 X93.939 Y62.297
M204 S500
M205 X20 Y20
G1 F6000 E18.76728
G1 F900 X94.427 Y61.602 E18.79835
G1 X95.179 Y60.749 E18.83995
G1 X95.308 Y60.62 E18.84663
G1 X95.936 Y60.048 E18.8777
G1 X96.615 Y59.538 E18.90877
G1 X97.339 Y59.095 E18.93983
G1 X98.102 Y58.721 E18.97091
G1 X98.896 Y58.42 E19.00198
G1 X99.715 Y58.196 E19.03305
G1 X100.552 Y58.05 E19.06413
G1 X101.686 Y57.978 E19.1057
G1 X104.419 Y57.978 E19.20569
G1 X105.267 Y58.018 E19.23675
G1 X106.108 Y58.138 E19.26783
G1 X106.934 Y58.336 E19.29891
G1 X107.737 Y58.611 E19.32996
G1 X108.511 Y58.96 E19.36103
G1 X109.249 Y59.38 E19.39209
G1 X109.944 Y59.868 E19.42316
G1 X110.797 Y60.62 E19.46477
G1 X110.926 Y60.749 E19.47144
G1 X111.498 Y61.377 E19.50252
G1 X112.008 Y62.056 E19.53359
G1 X112.451 Y62.78 E19.56464
G1 X112.825 Y63.543 E19.59573
G1 X113.126 Y64.337 E19.6268
G1 X113.35 Y65.156 E19.65786
G1 X113.496 Y65.993 E19.68895
G1 X113.568 Y67.127 E19.73052
G1 X113.567 Y161.869 E23.19676
G1 X113.527 Y162.717 E23.22782
G1 X113.407 Y163.558 E23.2589
G1 X113.209 Y164.384 E23.28998
G1 X112.934 Y165.187 E23.32103
G1 X112.585 Y165.962 E23.35213
G1 X112.165 Y166.699 E23.38317
G1 X111.677 Y167.394 E23.41424
G1 X110.925 Y168.247 E23.45584
G1 X110.796 Y168.376 E23.46251
G1 X110.168 Y168.948 E23.49359
G1 X109.489 Y169.458 E23.52466
G1 X108.765 Y169.901 E23.55571
G1 X108.002 Y170.275 E23.5868
G1 X107.208 Y170.576 E23.61787
G1 X106.389 Y170.8 E23.64893
G1 X105.552 Y170.946 E23.68002
G1 X104.418 Y171.018 E23.72159
G1 X101.685 Y171.018 E23.82158
G1 X100.837 Y170.978 E23.85264
G1 X99.996 Y170.858 E23.88372
G1 X99.17 Y170.66 E23.9148
G1 X98.367 Y170.385 E23.94585
G1 X97.593 Y170.036 E23.97692
G1 X96.855 Y169.616 E24.00798
G1 X96.16 Y169.128 E24.03905
G1 X95.307 Y168.376 E24.08066
G1 X95.178 Y168.247 E24.08733
G1 X94.606 Y167.619 E24.11841
G1 X94.096 Y166.94 E24.14948
G1 X93.653 Y166.216 E24.18053
G1 X93.279 Y165.453 E24.21162
G1 X92.978 Y164.659 E24.24269
G1 X92.754 Y163.84 E24.27375
G1 X92.608 Y163.003 E24.30484
G1 X92.536 Y161.869 E24.34641
G1 X92.537 Y67.127 E27.81265
G1 X92.577 Y66.279 E27.84371
G1 X92.697 Y65.438 E27.87479
G1 X92.895 Y64.612 E27.90587
G1 X93.17 Y63.809 E27.93692
G1 X93.519 Y63.034 E27.96802
G1 X93.579 Y62.928 E27.97248
G0 F810 X93.939 Y62.297
M204 S5000
M205 X30 Y30
G0 F7200 X94.377 Y62.429
M204 S500
M205 X20 Y20
G1 F6000 E27.99907
G1 F900 X94.864 Y61.759 E28.02938
G1 X95.49 Y61.06 E28.06371
G1 X95.619 Y60.931 E28.07038
G1 X96.232 Y60.374 E28.10069
G1 X96.896 Y59.879 E28.13099
G1 X97.605 Y59.451 E28.16129
G1 X98.352 Y59.092 E28.19161
G1 X99.13 Y58.808 E28.22191
G1 X99.931 Y58.599 E28.2522
G1 X100.749 Y58.469 E28.2825
G1 X101.686 Y58.418 E28.31683
G1 X104.419 Y58.418 E28.41682
G1 X105.246 Y58.458 E28.44711
G1 X106.066 Y58.578 E28.47743
G1 X106.87 Y58.776 E28.50773
G1 X107.651 Y59.05 E28.53801
G1 X108.403 Y59.399 E28.56834
G1 X109.117 Y59.818 E28.59863
G1 X109.787 Y60.305 E28.62893
G1 X110.486 Y60.931 E28.66326
G1 X110.615 Y61.06 E28.66994
G1 X111.172 Y61.673 E28.70024
G1 X111.667 Y62.337 E28.73054
G1 X112.095 Y63.046 E28.76084
G1 X112.454 Y63.793 E28.79116
G1 X112.738 Y64.571 E28.82146
G1 X112.947 Y65.372 E28.85175
G1 X113.077 Y66.19 E28.88205
G1 X113.128 Y67.127 E28.91639
G1 X113.127 Y161.869 E32.38263
G1 X113.087 Y162.696 E32.41292
G1 X112.967 Y163.516 E32.44324
G1 X112.769 Y164.32 E32.47354
G1 X112.495 Y165.102 E32.50385
G1 X112.146 Y165.853 E32.53415
G1 X111.727 Y166.567 E32.56444
G1 X111.24 Y167.237 E32.59474
G1 X110.614 Y167.936 E32.62907
G1 X110.485 Y168.065 E32.63575
G1 X109.872 Y168.622 E32.66605
G1 X109.208 Y169.117 E32.69635
G1 X108.499 Y169.545 E32.72665
G1 X107.752 Y169.904 E32.75697
G1 X106.974 Y170.188 E32.78727
G1 X106.173 Y170.397 E32.81756
G1 X105.355 Y170.527 E32.84786
G1 X104.418 Y170.578 E32.8822
G1 X101.685 Y170.578 E32.98219
G1 X100.858 Y170.538 E33.01248
G1 X100.038 Y170.418 E33.0428
G1 X99.234 Y170.22 E33.07309
G1 X98.453 Y169.946 E33.10337
G1 X97.701 Y169.597 E33.1337
G1 X96.987 Y169.178 E33.16399
G1 X96.317 Y168.691 E33.1943
G1 X95.618 Y168.065 E33.22863
G1 X95.489 Y167.936 E33.2353
G1 X94.932 Y167.323 E33.2656
G1 X94.437 Y166.659 E33.29591
G1 X94.009 Y165.95 E33.3262
G1 X93.65 Y165.203 E33.35653
G1 X93.366 Y164.425 E33.38683
G1 X93.157 Y163.624 E33.41711
G1 X93.027 Y162.806 E33.44742
G1 X92.976 Y161.869 E33.48175
G1 X92.977 Y67.127 E36.94799
G1 X93.017 Y66.3 E36.97829
G1 X93.137 Y65.48 E37.00861
G1 X93.335 Y64.676 E37.0389
G1 X93.609 Y63.894 E37.06922
G1 X93.958 Y63.143 E37.09952
G1 X94.009 Y63.056 E37.1032
G0 F810 X94.377 Y62.429
M204 S5000
M205 X30 Y30
G0 F7200 X94.397 Y63.255
M204 S500
M205 X20 Y20
G1 F6000 E37.1298
G1 F900 X94.815 Y62.565 E37.15932
G1 X95.3 Y61.92 E37.18884
G1 X95.801 Y61.371 E37.21604
G1 X95.93 Y61.242 E37.22271
G1 X96.528 Y60.701 E37.25221
G1 X97.177 Y60.221 E37.28175
G1 X97.87 Y59.808 E37.31126
G1 X98.6 Y59.466 E37.34075
G1 X99.361 Y59.197 E37.37029
G1 X100.145 Y59.005 E37.39982
G1 X100.943 Y58.892 E37.4293
G1 X101.686 Y58.858 E37.45652
G1 X104.419 Y58.858 E37.55651
G1 X105.225 Y58.898 E37.58603
G1 X106.023 Y59.018 E37.61555
G1 X106.805 Y59.215 E37.64506
G1 X107.563 Y59.49 E37.67456
G1 X108.291 Y59.838 E37.70408
G1 X108.981 Y60.256 E37.7336
G1 X109.626 Y60.741 E37.76312
G1 X110.175 Y61.242 E37.79031
G1 X110.304 Y61.371 E37.79699
G1 X110.845 Y61.969 E37.82649
G1 X111.325 Y62.618 E37.85602
G1 X111.738 Y63.311 E37.88554
G1 X112.08 Y64.041 E37.91503
G1 X112.349 Y64.802 E37.94456
G1 X112.541 Y65.586 E37.97409
G1 X112.654 Y66.384 E38.00358
G1 X112.688 Y67.127 E38.03079
G1 X112.687 Y161.869 E41.49704
G1 X112.647 Y162.675 E41.52656
G1 X112.527 Y163.473 E41.55609
G1 X112.33 Y164.255 E41.58559
G1 X112.055 Y165.013 E41.61509
G1 X111.707 Y165.741 E41.64461
G1 X111.289 Y166.431 E41.67413
G1 X110.804 Y167.076 E41.70365
G1 X110.303 Y167.625 E41.73085
G1 X110.174 Y167.754 E41.73752
G1 X109.576 Y168.295 E41.76702
G1 X108.927 Y168.775 E41.79656
G1 X108.234 Y169.188 E41.82607
G1 X107.504 Y169.53 E41.85557
G1 X106.743 Y169.799 E41.8851
G1 X105.959 Y169.991 E41.91463
G1 X105.161 Y170.104 E41.94411
G1 X104.418 Y170.138 E41.97133
G1 X101.685 Y170.138 E42.07132
G1 X100.879 Y170.098 E42.10084
G1 X100.081 Y169.978 E42.13036
G1 X99.299 Y169.781 E42.15987
G1 X98.541 Y169.506 E42.18937
G1 X97.813 Y169.158 E42.21889
G1 X97.123 Y168.74 E42.24841
G1 X96.478 Y168.255 E42.27793
G1 X95.929 Y167.754 E42.30512
G1 X95.8 Y167.625 E42.3118
G1 X95.259 Y167.027 E42.3413
G1 X94.779 Y166.378 E42.37083
G1 X94.366 Y165.685 E42.40035
G1 X94.024 Y164.955 E42.42984
G1 X93.755 Y164.194 E42.45937
G1 X93.563 Y163.41 E42.48891
G1 X93.45 Y162.612 E42.51839
G1 X93.416 Y161.869 E42.5456
G1 X93.417 Y67.127 E46.01185
G1 X93.457 Y66.321 E46.04137
G1 X93.577 Y65.523 E46.0709
G1 X93.774 Y64.741 E46.1004
G1 X94.049 Y63.983 E46.1299
G1 X94.084 Y63.911 E46.13283
G0 F810 X94.397 Y63.255
M204 S5000
M205 X30 Y30
G0 F7200 X94.836 Y63.37
M204 S500
M205 X20 Y20
G1 F6000 E46.15943
G1 F900 X95.253 Y62.705 E46.18815
G1 X95.736 Y62.087 E46.21684
G1 X96.112 Y61.682 E46.23706
G1 X96.241 Y61.553 E46.24374
G1 X96.824 Y61.027 E46.27247
G1 X97.456 Y60.564 E46.30113
G1 X98.133 Y60.167 E46.32984
G1 X98.847 Y59.841 E46.35856
G1 X99.59 Y59.589 E46.38726
G1 X100.355 Y59.414 E46.41597
G1 X101.134 Y59.318 E46.44469
G1 X101.686 Y59.298 E46.4649
G1 X104.419 Y59.298 E46.56489
G1 X105.203 Y59.338 E46.59361
G1 X105.978 Y59.457 E46.6223
G1 X106.737 Y59.655 E46.651
G1 X107.472 Y59.929 E46.67969
G1 X108.176 Y60.277 E46.70843
G1 X108.84 Y60.694 E46.73711
G1 X109.459 Y61.177 E46.76584
G1 X109.864 Y61.553 E46.78606
G1 X109.993 Y61.682 E46.79273
G1 X110.519 Y62.265 E46.82146
G1 X110.982 Y62.897 E46.85012
G1 X111.379 Y63.574 E46.87884
G1 X111.705 Y64.288 E46.90755
G1 X111.957 Y65.031 E46.93626
G1 X112.132 Y65.796 E46.96497
G1 X112.228 Y66.575 E46.99368
G1 X112.248 Y67.127 E47.01389
G1 X112.247 Y161.869 E50.48014
G1 X112.207 Y162.653 E50.50886
G1 X112.088 Y163.428 E50.53755
G1 X111.89 Y164.187 E50.56624
G1 X111.616 Y164.923 E50.59498
G1 X111.268 Y165.626 E50.62368
G1 X110.851 Y166.291 E50.65239
G1 X110.368 Y166.909 E50.68109
G1 X109.992 Y167.314 E50.70131
G1 X109.863 Y167.443 E50.70798
G1 X109.28 Y167.969 E50.73671
G1 X108.648 Y168.432 E50.76537
G1 X107.971 Y168.829 E50.79409
G1 X107.257 Y169.155 E50.8228
G1 X106.514 Y169.407 E50.85151
G1 X105.749 Y169.582 E50.88022
G1 X104.97 Y169.678 E50.90894
G1 X104.418 Y169.698 E50.92914
G1 X101.685 Y169.698 E51.02913
G1 X100.901 Y169.658 E51.05786
G1 X100.126 Y169.539 E51.08654
G1 X99.367 Y169.341 E51.11524
G1 X98.632 Y169.067 E51.14394
G1 X97.928 Y168.719 E51.17267
G1 X97.264 Y168.302 E51.20136
G1 X96.645 Y167.819 E51.23008
G1 X96.24 Y167.443 E51.2503
G1 X96.111 Y167.314 E51.25698
G1 X95.585 Y166.731 E51.2857
G1 X95.122 Y166.099 E51.31437
G1 X94.725 Y165.422 E51.34308
G1 X94.399 Y164.708 E51.3718
G1 X94.147 Y163.965 E51.4005
G1 X93.972 Y163.2 E51.42921
G1 X93.876 Y162.421 E51.45793
G1 X93.856 Y161.869 E51.47814
G1 X93.857 Y67.127 E54.94438
G1 X93.897 Y66.343 E54.9731
G1 X94.016 Y65.568 E55.00179
G1 X94.214 Y64.809 E55.03049
G1 X94.488 Y64.073 E55.05922
G1 X94.514 Y64.021 E55.06135
G0 F810 X94.836 Y63.37
M204 S5000
M205 X30 Y30
G0 F7200 X95.275 Y63.489
M204 S500
M205 X20 Y20
G1 F6000 E55.08795
G1 F900 X95.69 Y62.85 E55.11582
G1 X96.423 Y61.993 E55.15708
G1 X96.552 Y61.864 E55.16376
G1 X97.119 Y61.355 E55.19163
G1 X97.735 Y60.907 E55.2195
G1 X98.395 Y60.527 E55.24736
G1 X99.091 Y60.217 E55.27524
G1 X99.816 Y59.983 E55.30311
G1 X100.562 Y59.826 E55.331
G1 X101.686 Y59.738 E55.37225
G1 X104.419 Y59.738 E55.47224
G1 X105.18 Y59.778 E55.50012
G1 X105.932 Y59.897 E55.52798
G1 X106.668 Y60.095 E55.55586
G1 X107.379 Y60.369 E55.58374
G1 X108.057 Y60.715 E55.61159
G1 X108.696 Y61.131 E55.63948
G1 X109.553 Y61.864 E55.68074
G1 X109.682 Y61.993 E55.68742
G1 X110.191 Y62.56 E55.71529
G1 X110.639 Y63.176 E55.74316
G1 X111.019 Y63.836 E55.77102
G1 X111.329 Y64.532 E55.7989
G1 X111.563 Y65.257 E55.82677
G1 X111.72 Y66.003 E55.85466
G1 X111.808 Y67.127 E55.89591
G1 X111.807 Y161.869 E59.36216
G1 X111.767 Y162.63 E59.39004
G1 X111.648 Y163.382 E59.41789
G1 X111.45 Y164.118 E59.44578
G1 X111.176 Y164.829 E59.47365
G1 X110.829 Y165.507 E59.50152
G1 X110.414 Y166.146 E59.5294
G1 X109.681 Y167.003 E59.57065
G1 X109.552 Y167.132 E59.57733
G1 X108.985 Y167.641 E59.60521
G1 X108.369 Y168.089 E59.63307
G1 X107.709 Y168.469 E59.66094
G1 X107.013 Y168.779 E59.68881
G1 X106.288 Y169.013 E59.71668
G1 X105.542 Y169.17 E59.74458
G1 X104.418 Y169.258 E59.78582
