;FLAVOR:Marlin
;TIME:4747
;Filament used: 3.30291m
;Layer height: 0.2
;Generated with Cura_SteamEngine 3.6.0
M140 S70
M105
M190 S70
M104 S210
M105
M109 S210
M82 ;absolute extrusion mode
G28 ; home all axes
M117 Purge extruder
G92 E0 ; reset extruder
G1 Z1.0 F3000 ; move z up little to prevent scratching of surface
G1 X0.1 Y20 Z0.3 F5000.0 ; move to start-line position G1 X0.1 Y200.0 Z0.3 F1500.0 E15 ; draw 1st line
G1 X0.4 Y200.0 Z0.3 F5000.0 ; move to side a little
G1 X0.4 Y20 Z0.3 F1500.0 E30 ; draw 2nd line
G92 E0 ; reset extruder
G1 Z1.0 F3000 ; move z up little to prevent scratching of surface
M117 All systems go!
G92 E0
G1 F6000 E-5
;LAYER_COUNT:11
;LAYER:0
M107
M204 S5000
M205 X30 Y30
G0 F7200 X49.79 Y62.399 Z0.2
M204 S500
M205 X20 Y20
;TYPE:SKIRT
G1 F6000 E0
G1 F900 X50.498 Y61.861 E0.03253
G1 X51.252 Y61.387 E0.06512
G1 X52.045 Y60.984 E0.09766
G1 X52.871 Y60.653 E0.13022
G1 X53.723 Y60.398 E0.16276
G1 X54.595 Y60.22 E0.19532
G1 X55.479 Y60.122 E0.22786
G1 X56.134 Y60.1 E0.25183
G1 X58.867 Y60.1 E0.35182
G1 X59.756 Y60.14 E0.38438
G1 X60.637 Y60.26 E0.41691
G1 X61.505 Y60.458 E0.44948
G1 X62.351 Y60.733 E0.48203
G1 X63.169 Y61.083 E0.51458
G1 X63.499 Y61.261 E0.5283
G1 X64.045 Y60.984 E0.5507
G1 X64.871 Y60.653 E0.58326
G1 X65.723 Y60.398 E0.61579
G1 X66.595 Y60.22 E0.64835
G1 X67.479 Y60.122 E0.6809
G1 X68.134 Y60.1 E0.70487
G1 X70.867 Y60.1 E0.80486
G1 X71.756 Y60.14 E0.83742
G1 X72.637 Y60.26 E0.86995
G1 X73.505 Y60.458 E0.90252
G1 X74.351 Y60.733 E0.93507
G1 X75.169 Y61.083 E0.96762
G1 X75.499 Y61.261 E0.98134
G1 X76.045 Y60.984 E1.00374
G1 X76.871 Y60.653 E1.03629
G1 X77.723 Y60.398 E1.06883
G1 X78.595 Y60.22 E1.10139
G1 X79.479 Y60.122 E1.13393
G1 X80.134 Y60.1 E1.15791
G1 X82.867 Y60.1 E1.2579
G1 X83.756 Y60.14 E1.29046
G1 X84.637 Y60.26 E1.32299
G1 X85.505 Y60.458 E1.35556
G1 X86.351 Y60.733 E1.38811
G1 X87.169 Y61.083 E1.42066
G1 X87.499 Y61.261 E1.43438
G1 X88.045 Y60.984 E1.45678
G1 X88.871 Y60.653 E1.48933
G1 X89.723 Y60.398 E1.52187
G1 X90.595 Y60.22 E1.55443
G1 X91.479 Y60.122 E1.58697
G1 X92.134 Y60.1 E1.61095
G1 X94.867 Y60.1 E1.71094
G1 X95.756 Y60.14 E1.7435
G1 X96.637 Y60.26 E1.77603
G1 X97.505 Y60.458 E1.8086
G1 X98.351 Y60.733 E1.84115
G1 X99.169 Y61.083 E1.8737
G1 X99.499 Y61.261 E1.88742
G1 X100.045 Y60.984 E1.90982
G1 X100.871 Y60.653 E1.94237
G1 X101.723 Y60.398 E1.97491
G1 X102.595 Y60.22 E2.00747
G1 X103.479 Y60.122 E2.04001
G1 X104.134 Y60.1 E2.06399
G1 X106.867 Y60.1 E2.16398
G1 X107.756 Y60.14 E2.19654
G1 X108.637 Y60.26 E2.22907
G1 X109.505 Y60.458 E2.26164
G1 X110.351 Y60.733 E2.29418
G1 X111.169 Y61.083 E2.32674
G1 X111.499 Y61.261 E2.34045
G1 X112.045 Y60.984 E2.36285
G1 X112.871 Y60.653 E2.39541
G1 X113.723 Y60.398 E2.42795
G1 X114.595 Y60.22 E2.46051
G1 X115.479 Y60.122 E2.49305
G1 X116.134 Y60.1 E2.51703
G1 X118.867 Y60.1 E2.61702
G1 X119.756 Y60.14 E2.64957
G1 X120.637 Y60.26 E2.6821
G1 X121.505 Y60.458 E2.71468
G1 X122.351 Y60.733 E2.74722
G1 X123.169 Y61.083 E2.77978
G1 X123.499 Y61.261 E2.79349
G1 X124.045 Y60.984 E2.81589
G1 X124.871 Y60.653 E2.84845
G1 X125.723 Y60.398 E2.88099
G1 X126.595 Y60.22 E2.91355
G1 X127.479 Y60.122 E2.94609
G1 X128.134 Y60.1 E2.97007
G1 X130.867 Y60.1 E3.07006
G1 X131.756 Y60.14 E3.10261
G1 X132.637 Y60.26 E3.13514
G1 X133.505 Y60.458 E3.16772
G1 X134.351 Y60.733 E3.20026
G1 X135.169 Y61.083 E3.23281
G1 X135.952 Y61.506 E3.26537
G1 X136.621 Y61.948 E3.29471
G1 X139.186 Y61.948 E3.38855
G1 X140.075 Y61.988 E3.42111
G1 X140.956 Y62.108 E3.45364
G1 X141.824 Y62.306 E3.48621
G1 X142.67 Y62.581 E3.51876
G1 X143.148 Y62.785 E3.53777
G1 X143.553 Y62.664 E3.55324
G1 X144.425 Y62.486 E3.5858
G1 X145.309 Y62.388 E3.61834
G1 X145.964 Y62.366 E3.64232
G1 X148.697 Y62.366 E3.74231
G1 X149.586 Y62.406 E3.77487
G1 X150.467 Y62.526 E3.8074
G1 X151.335 Y62.724 E3.83997
G1 X152.181 Y62.999 E3.87251
G1 X152.349 Y63.071 E3.8792
G1 X152.555 Y62.988 E3.88733
G1 X153.407 Y62.733 E3.91986
G1 X154.279 Y62.555 E3.95243
G1 X155.163 Y62.457 E3.98497
G1 X155.818 Y62.435 E4.00894
G1 X158.551 Y62.435 E4.10893
G1 X159.44 Y62.475 E4.14149
G1 X160.321 Y62.595 E4.17402
G1 X161.189 Y62.793 E4.20659
G1 X161.521 Y62.901 E4.21937
G1 X161.827 Y62.745 E4.23193
G1 X162.653 Y62.414 E4.26449
G1 X163.505 Y62.159 E4.29703
G1 X164.377 Y61.981 E4.32959
G1 X165.261 Y61.883 E4.36213
G1 X165.916 Y61.861 E4.38611
G1 X168.649 Y61.861 E4.4861
G1 X169.538 Y61.901 E4.51865
G1 X170.419 Y62.021 E4.55118
G1 X171.287 Y62.219 E4.58376
G1 X171.344 Y62.237 E4.58594
G1 X171.622 Y62.126 E4.59689
G1 X172.474 Y61.871 E4.62943
G1 X173.346 Y61.693 E4.66199
G1 X174.23 Y61.595 E4.69453
G1 X174.885 Y61.573 E4.71851
G1 X177.618 Y61.573 E4.8185
G1 X178.507 Y61.613 E4.85106
G1 X179.388 Y61.733 E4.88359
G1 X180.256 Y61.931 E4.91616
G1 X181.102 Y62.206 E4.94871
G1 X181.92 Y62.556 E4.98126
G1 X182.703 Y62.979 E5.01382
G1 X183.445 Y63.469 E5.04635
G1 X184.14 Y64.025 E5.07891
G1 X184.618 Y64.473 E5.10288
G1 X184.747 Y64.602 E5.10956
G1 X185.348 Y65.258 E5.14211
G1 X185.886 Y65.966 E5.17464
G1 X186.36 Y66.72 E5.20722
G1 X186.763 Y67.513 E5.23977
G1 X187.094 Y68.339 E5.27233
G1 X187.349 Y69.191 E5.30486
G1 X187.527 Y70.063 E5.33742
G1 X187.625 Y70.947 E5.36996
G1 X187.647 Y71.602 E5.39394
G1 X187.646 Y166.344 E8.86019
G1 X187.606 Y167.233 E8.89274
G1 X187.486 Y168.115 E8.92531
G1 X187.288 Y168.982 E8.95785
G1 X187.013 Y169.828 E8.99039
G1 X186.663 Y170.646 E9.02295
G1 X186.24 Y171.429 E9.05551
G1 X185.749 Y172.171 E9.08806
G1 X185.194 Y172.866 E9.1206
G1 X184.746 Y173.344 E9.14457
G1 X184.617 Y173.473 E9.15124
G1 X183.961 Y174.074 E9.18379
G1 X183.253 Y174.612 E9.21632
G1 X182.499 Y175.086 E9.24891
G1 X181.706 Y175.489 E9.28145
G1 X180.88 Y175.82 E9.31401
G1 X180.028 Y176.075 E9.34655
G1 X179.156 Y176.253 E9.37911
G1 X178.272 Y176.351 E9.41165
G1 X177.617 Y176.373 E9.43563
G1 X174.884 Y176.373 E9.53562
G1 X173.995 Y176.333 E9.56817
G1 X173.114 Y176.213 E9.6007
G1 X172.246 Y176.015 E9.63328
G1 X172.189 Y175.997 E9.63546
G1 X171.911 Y176.108 E9.64641
G1 X171.059 Y176.363 E9.67895
G1 X170.187 Y176.541 E9.71151
G1 X169.303 Y176.639 E9.74405
G1 X168.648 Y176.661 E9.76803
G1 X165.915 Y176.661 E9.86802
G1 X165.026 Y176.621 E9.90058
G1 X164.145 Y176.501 E9.93311
G1 X163.277 Y176.303 E9.96568
G1 X162.945 Y176.195 E9.97845
G1 X162.639 Y176.351 E9.99102
G1 X161.813 Y176.682 E10.02358
G1 X160.961 Y176.937 E10.05611
G1 X160.089 Y177.115 E10.08868
G1 X159.205 Y177.213 E10.12122
G1 X158.55 Y177.235 E10.14519
G1 X155.817 Y177.235 E10.24518
G1 X154.928 Y177.195 E10.27774
G1 X154.047 Y177.075 E10.31027
G1 X153.179 Y176.877 E10.34284
G1 X152.333 Y176.602 E10.37539
G1 X152.165 Y176.53 E10.38208
G1 X151.959 Y176.613 E10.3902
G1 X151.107 Y176.868 E10.42274
G1 X150.235 Y177.046 E10.4553
G1 X149.351 Y177.144 E10.48784
G1 X148.696 Y177.166 E10.51182
G1 X145.963 Y177.166 E10.61181
G1 X145.074 Y177.126 E10.64437
G1 X144.193 Y177.006 E10.6769
G1 X143.325 Y176.808 E10.70947
G1 X142.479 Y176.533 E10.74202
G1 X142.001 Y176.329 E10.76103
G1 X141.596 Y176.45 E10.77649
G1 X140.724 Y176.628 E10.80906
G1 X139.84 Y176.726 E10.8416
G1 X139.185 Y176.748 E10.86557
G1 X136.452 Y176.748 E10.96556
G1 X135.563 Y176.708 E10.99812
G1 X134.682 Y176.588 E11.03065
G1 X133.814 Y176.39 E11.06322
G1 X132.968 Y176.115 E11.09577
G1 X132.15 Y175.765 E11.12832
G1 X131.367 Y175.342 E11.16088
G1 X130.698 Y174.9 E11.19022
G1 X128.133 Y174.9 E11.28406
G1 X127.244 Y174.86 E11.31662
G1 X126.363 Y174.74 E11.34915
G1 X125.495 Y174.542 E11.38172
G1 X124.649 Y174.267 E11.41427
G1 X123.831 Y173.917 E11.44682
G1 X123.501 Y173.739 E11.46054
G1 X122.955 Y174.016 E11.48294
G1 X122.129 Y174.347 E11.51549
G1 X121.277 Y174.602 E11.54803
G1 X120.405 Y174.78 E11.58059
G1 X119.521 Y174.878 E11.61313
G1 X118.866 Y174.9 E11.63711
G1 X116.133 Y174.9 E11.7371
G1 X115.244 Y174.86 E11.76966
G1 X114.363 Y174.74 E11.80219
G1 X113.495 Y174.542 E11.83476
G1 X112.649 Y174.267 E11.86731
G1 X111.831 Y173.917 E11.89986
G1 X111.501 Y173.739 E11.91358
G1 X110.955 Y174.016 E11.93597
G1 X110.129 Y174.347 E11.96853
G1 X109.277 Y174.602 E12.00107
G1 X108.405 Y174.78 E12.03363
G1 X107.521 Y174.878 E12.06617
G1 X106.866 Y174.9 E12.09015
G1 X104.133 Y174.9 E12.19014
G1 X103.244 Y174.86 E12.2227
G1 X102.363 Y174.74 E12.25523
G1 X101.495 Y174.542 E12.2878
G1 X100.649 Y174.267 E12.32034
G1 X99.831 Y173.917 E12.3529
G1 X99.501 Y173.739 E12.36661
G1 X98.955 Y174.016 E12.38901
G1 X98.129 Y174.347 E12.42157
G1 X97.277 Y174.602 E12.45411
G1 X96.405 Y174.78 E12.48667
G1 X95.521 Y174.878 E12.51921
G1 X94.866 Y174.9 E12.54319
G1 X92.133 Y174.9 E12.64318
G1 X91.244 Y174.86 E12.67573
G1 X90.363 Y174.74 E12.70826
G1 X89.495 Y174.542 E12.74084
G1 X88.649 Y174.267 E12.77338
G1 X87.831 Y173.917 E12.80593
G1 X87.501 Y173.739 E12.81965
G1 X86.955 Y174.016 E12.84205
G1 X86.129 Y174.347 E12.87461
G1 X85.277 Y174.602 E12.90715
G1 X84.405 Y174.78 E12.93971
G1 X83.521 Y174.878 E12.97225
G1 X82.866 Y174.9 E12.99622
G1 X80.133 Y174.9 E13.09621
G1 X79.244 Y174.86 E13.12877
G1 X78.363 Y174.74 E13.1613
G1 X77.495 Y174.542 E13.19388
G1 X76.649 Y174.267 E13.22642
G1 X75.831 Y173.917 E13.25897
G1 X75.501 Y173.739 E13.27269
G1 X74.955 Y174.016 E13.29509
G1 X74.129 Y174.347 E13.32765
G1 X73.277 Y174.602 E13.36018
G1 X72.405 Y174.78 E13.39275
G1 X71.521 Y174.878 E13.42529
G1 X70.866 Y174.9 E13.44926
G1 X68.133 Y174.9 E13.54925
G1 X67.244 Y174.86 E13.58181
G1 X66.363 Y174.74 E13.61434
G1 X65.495 Y174.542 E13.64691
G1 X64.649 Y174.267 E13.67946
G1 X63.831 Y173.917 E13.71201
G1 X63.501 Y173.739 E13.72573
G1 X62.955 Y174.016 E13.74813
G1 X62.129 Y174.347 E13.78069
G1 X61.277 Y174.602 E13.81322
G1 X60.405 Y174.78 E13.84578
G1 X59.521 Y174.878 E13.87832
G1 X58.866 Y174.9 E13.9023
G1 X56.133 Y174.9 E14.00229
G1 X55.244 Y174.86 E14.03485
G1 X54.363 Y174.74 E14.06738
G1 X53.495 Y174.542 E14.09995
G1 X52.649 Y174.267 E14.1325
G1 X51.831 Y173.917 E14.16505
G1 X51.048 Y173.494 E14.19761
G1 X50.306 Y173.004 E14.23014
G1 X49.611 Y172.448 E14.26271
G1 X49.133 Y172 E14.28667
G1 X49.004 Y171.871 E14.29335
G1 X48.403 Y171.215 E14.3259
G1 X47.865 Y170.507 E14.35843
G1 X47.391 Y169.753 E14.39102
G1 X46.988 Y168.96 E14.42356
G1 X46.657 Y168.134 E14.45612
G1 X46.402 Y167.282 E14.48865
G1 X46.224 Y166.41 E14.52121
G1 X46.126 Y165.526 E14.55376
G1 X46.104 Y164.871 E14.57773
G1 X46.105 Y70.129 E18.04398
G1 X46.145 Y69.24 E18.07654
G1 X46.265 Y68.358 E18.1091
G1 X46.463 Y67.491 E18.14164
G1 X46.738 Y66.645 E18.17418
G1 X47.088 Y65.827 E18.20674
G1 X47.511 Y65.044 E18.2393
G1 X48.002 Y64.302 E18.27185
G1 X48.557 Y63.607 E18.30439
G1 X49.005 Y63.129 E18.32836
G1 X49.134 Y63 E18.33503
G1 X49.254 Y62.89 E18.34099
G0 F810 X49.79 Y62.399
M204 S5000
M205 X30 Y30
G0 F7200 X50.087 Y62.725
M204 S500
M205 X20 Y20
G1 F6000 E18.36759
G1 F900 X50.781 Y62.2 E18.39942
G1 X51.52 Y61.741 E18.43125
G1 X52.298 Y61.353 E18.46306
G1 X53.108 Y61.037 E18.49487
G1 X53.944 Y60.797 E18.52669
G1 X54.799 Y60.635 E18.55853
G1 X55.664 Y60.552 E18.59032
G1 X56.134 Y60.54 E18.60752
G1 X58.867 Y60.54 E18.70751
G1 X59.736 Y60.58 E18.73934
G1 X60.597 Y60.7 E18.77114
G1 X61.444 Y60.898 E18.80297
G1 X62.269 Y61.173 E18.83478
G1 X63.065 Y61.523 E18.8666
G1 X63.491 Y61.759 E18.88441
G1 X63.52 Y61.741 E18.88566
G1 X64.298 Y61.353 E18.91747
G1 X65.108 Y61.037 E18.94928
G1 X65.944 Y60.797 E18.9811
G1 X66.799 Y60.635 E19.01294
G1 X67.664 Y60.552 E19.04473
G1 X68.134 Y60.54 E19.06193
G1 X70.867 Y60.54 E19.16192
G1 X71.736 Y60.58 E19.19375
G1 X72.597 Y60.7 E19.22556
G1 X73.444 Y60.898 E19.25738
G1 X74.269 Y61.173 E19.2892
G1 X75.065 Y61.523 E19.32101
G1 X75.491 Y61.759 E19.33883
G1 X75.52 Y61.741 E19.34008
G1 X76.298 Y61.353 E19.37188
G1 X77.108 Y61.037 E19.40369
G1 X77.944 Y60.797 E19.43551
G1 X78.799 Y60.635 E19.46735
G1 X79.664 Y60.552 E19.49914
G1 X80.134 Y60.54 E19.51635
G1 X82.867 Y60.54 E19.61634
G1 X83.736 Y60.58 E19.64816
G1 X84.597 Y60.7 E19.67997
G1 X85.444 Y60.898 E19.71179
G1 X86.269 Y61.173 E19.74361
G1 X87.065 Y61.523 E19.77542
G1 X87.491 Y61.759 E19.79324
G1 X87.52 Y61.741 E19.79449
G1 X88.298 Y61.353 E19.8263
G1 X89.108 Y61.037 E19.85811
G1 X89.944 Y60.797 E19.88993
G1 X90.799 Y60.635 E19.92176
G1 X91.664 Y60.552 E19.95356
G1 X92.134 Y60.54 E19.97076
G1 X94.867 Y60.54 E20.07075
G1 X95.736 Y60.58 E20.10258
G1 X96.597 Y60.7 E20.13438
G1 X97.444 Y60.898 E20.1662
G1 X98.269 Y61.173 E20.19802
G1 X99.065 Y61.523 E20.22983
G1 X99.491 Y61.759 E20.24765
G1 X99.52 Y61.741 E20.2489
G1 X100.298 Y61.353 E20.28071
G1 X101.108 Y61.037 E20.31252
G1 X101.944 Y60.797 E20.34434
G1 X102.799 Y60.635 E20.37618
G1 X103.664 Y60.552 E20.40797
G1 X104.134 Y60.54 E20.42517
G1 X106.867 Y60.54 E20.52516
G1 X107.736 Y60.58 E20.55699
G1 X108.597 Y60.7 E20.58879
G1 X109.444 Y60.898 E20.62062
G1 X110.269 Y61.173 E20.65243
G1 X111.065 Y61.523 E20.68425
G1 X111.491 Y61.759 E20.70206
G1 X111.52 Y61.741 E20.70331
G1 X112.298 Y61.353 E20.73512
G1 X113.108 Y61.037 E20.76693
G1 X113.944 Y60.797 E20.79875
G1 X114.799 Y60.635 E20.83059
G1 X115.664 Y60.552 E20.86238
G1 X116.134 Y60.54 E20.87958
G1 X118.867 Y60.54 E20.97957
G1 X119.736 Y60.58 E21.0114
G1 X120.597 Y60.7 E21.0432
G1 X121.444 Y60.898 E21.07503
G1 X122.269 Y61.173 E21.10684
G1 X123.065 Y61.523 E21.13866
G1 X123.491 Y61.759 E21.15648
G1 X123.52 Y61.741 E21.15772
G1 X124.298 Y61.353 E21.18953
G1 X125.108 Y61.037 E21.22134
G1 X125.944 Y60.797 E21.25316
G1 X126.799 Y60.635 E21.285
G1 X127.664 Y60.552 E21.31679
G1 X128.134 Y60.54 E21.33399
G1 X130.867 Y60.54 E21.43398
G1 X131.736 Y60.58 E21.46581
G1 X132.597 Y60.7 E21.49762
G1 X133.444 Y60.898 E21.52944
G1 X134.269 Y61.173 E21.56126
G1 X135.065 Y61.523 E21.59307
G1 X135.826 Y61.944 E21.62489
G1 X136.478 Y62.388 E21.65375
G1 X139.186 Y62.388 E21.75282
G1 X140.055 Y62.428 E21.78465
G1 X140.916 Y62.548 E21.81646
G1 X141.763 Y62.746 E21.84828
G1 X142.588 Y63.021 E21.8801
G1 X143.114 Y63.252 E21.90112
G1 X143.774 Y63.063 E21.92623
G1 X144.629 Y62.901 E21.95807
G1 X145.494 Y62.818 E21.98986
G1 X145.964 Y62.806 E22.00706
G1 X148.697 Y62.806 E22.10705
G1 X149.566 Y62.846 E22.13888
G1 X150.427 Y62.966 E22.17069
G1 X151.274 Y63.164 E22.20251
G1 X152.099 Y63.439 E22.23433
G1 X152.344 Y63.547 E22.24412
G1 X152.792 Y63.372 E22.26172
G1 X153.628 Y63.132 E22.29354
G1 X154.483 Y62.97 E22.32538
G1 X155.348 Y62.887 E22.35717
G1 X155.818 Y62.875 E22.37437
G1 X158.551 Y62.875 E22.47436
G1 X159.42 Y62.915 E22.50619
G1 X160.281 Y63.035 E22.53799
G1 X161.128 Y63.233 E22.56982
G1 X161.556 Y63.376 E22.58633
G1 X162.08 Y63.114 E22.60776
G1 X162.89 Y62.798 E22.63957
G1 X163.726 Y62.558 E22.67139
G1 X164.581 Y62.396 E22.70323
G1 X165.446 Y62.313 E22.73502
G1 X165.916 Y62.301 E22.75222
G1 X168.649 Y62.301 E22.85221
G1 X169.518 Y62.341 E22.88404
G1 X170.379 Y62.461 E22.91585
G1 X171.226 Y62.659 E22.94767
G1 X171.361 Y62.704 E22.95288
G1 X171.859 Y62.51 E22.97243
G1 X172.695 Y62.27 E23.00425
G1 X173.55 Y62.108 E23.03609
G1 X174.415 Y62.025 E23.06788
G1 X174.885 Y62.013 E23.08508
G1 X177.618 Y62.013 E23.18507
G1 X178.487 Y62.053 E23.2169
G1 X179.348 Y62.173 E23.2487
G1 X180.195 Y62.371 E23.28053
G1 X181.02 Y62.646 E23.31234
G1 X181.816 Y62.996 E23.34416
G1 X182.577 Y63.417 E23.37598
G1 X183.296 Y63.907 E23.40781
G1 X183.967 Y64.46 E23.43962
G1 X184.307 Y64.784 E23.4568
G1 X184.436 Y64.913 E23.46348
G1 X185.022 Y65.555 E23.49528
G1 X185.547 Y66.249 E23.52712
G1 X186.006 Y66.988 E23.55895
G1 X186.394 Y67.766 E23.59075
G1 X186.71 Y68.576 E23.62256
G1 X186.95 Y69.412 E23.65439
G1 X187.112 Y70.267 E23.68622
G1 X187.195 Y71.132 E23.71802
G1 X187.207 Y71.602 E23.73522
G1 X187.206 Y166.344 E27.20146
G1 X187.166 Y167.213 E27.23329
G1 X187.046 Y168.074 E27.26509
G1 X186.848 Y168.921 E27.29692
G1 X186.573 Y169.746 E27.32873
G1 X186.223 Y170.542 E27.36055
G1 X185.802 Y171.303 E27.39237
G1 X185.312 Y172.022 E27.4242
G1 X184.759 Y172.693 E27.45601
G1 X184.435 Y173.033 E27.47319
G1 X184.306 Y173.162 E27.47987
G1 X183.664 Y173.748 E27.51167
G1 X182.97 Y174.273 E27.54351
G1 X182.231 Y174.732 E27.57534
G1 X181.453 Y175.12 E27.60714
G1 X180.643 Y175.436 E27.63895
G1 X179.807 Y175.676 E27.67078
G1 X178.952 Y175.838 E27.70261
G1 X178.087 Y175.921 E27.73441
