;FLAVOR:Marlin
;TIME:590
;Filament used: 0.378735m
;Layer height: 0.2
;Generated with Cura_SteamEngine 3.6.0
M140 S70
M105
M190 S70
M104 S210
M105
M109 S210
M82 ;absolute extrusion mode
G28 ; home all axes
M117 Purge extruder
G92 E0 ; reset extruder
G1 Z1.0 F3000 ; move z up little to prevent scratching of surface
G1 X0.1 Y20 Z0.3 F5000.0 ; move to start-line position G1 X0.1 Y200.0 Z0.3 F1500.0 E15 ; draw 1st line
G1 X0.4 Y200.0 Z0.3 F5000.0 ; move to side a little
G1 X0.4 Y20 Z0.3 F1500.0 E30 ; draw 2nd line
G92 E0 ; reset extruder
G1 Z1.0 F3000 ; move z up little to prevent scratching of surface
M117 All systems go!
G92 E0
G1 F6000 E-5
;LAYER_COUNT:11
;LAYER:0
M107
M204 S5000
M205 X30 Y30
G0 F7200 X107.511 Y65.044 Z0.2
M204 S500
M205 X20 Y20
;TYPE:SKIRT
G1 F6000 E0
G1 F900 X108.002 Y64.302 E0.03255
G1 X108.557 Y63.607 E0.06509
G1 X109.005 Y63.129 E0.08906
G1 X109.134 Y63 E0.09574
G1 X109.79 Y62.399 E0.12829
G1 X110.498 Y61.861 E0.16082
G1 X111.252 Y61.387 E0.1934
G1 X112.045 Y60.984 E0.22595
G1 X112.871 Y60.653 E0.2585
G1 X113.723 Y60.398 E0.29104
G1 X114.595 Y60.22 E0.3236
G1 X115.479 Y60.122 E0.35614
G1 X116.134 Y60.1 E0.38012
G1 X118.867 Y60.1 E0.48011
G1 X119.756 Y60.14 E0.51267
G1 X120.637 Y60.26 E0.5452
G1 X121.505 Y60.458 E0.57777
G1 X122.351 Y60.733 E0.61032
G1 X123.169 Y61.083 E0.64287
G1 X123.952 Y61.506 E0.67543
G1 X124.694 Y61.996 E0.70796
G1 X125.389 Y62.552 E0.74052
G1 X125.867 Y63 E0.76449
G1 X125.996 Y63.129 E0.77117
G1 X126.597 Y63.785 E0.80372
G1 X127.135 Y64.493 E0.83625
G1 X127.609 Y65.247 E0.86883
G1 X128.012 Y66.04 E0.90138
G1 X128.343 Y66.866 E0.93393
G1 X128.598 Y67.718 E0.96647
G1 X128.776 Y68.59 E0.99903
G1 X128.874 Y69.474 E1.03157
G1 X128.896 Y70.129 E1.05555
G1 X128.895 Y164.871 E4.5218
G1 X128.855 Y165.76 E4.55435
G1 X128.735 Y166.642 E4.58692
G1 X128.537 Y167.509 E4.61946
G1 X128.262 Y168.355 E4.652
G1 X127.912 Y169.173 E4.68455
G1 X127.489 Y169.956 E4.71711
G1 X126.998 Y170.698 E4.74967
G1 X126.443 Y171.393 E4.78221
G1 X125.995 Y171.871 E4.80618
G1 X125.866 Y172 E4.81285
G1 X125.21 Y172.601 E4.8454
G1 X124.502 Y173.139 E4.87793
G1 X123.748 Y173.613 E4.91052
G1 X122.955 Y174.016 E4.94306
G1 X122.129 Y174.347 E4.97562
G1 X121.277 Y174.602 E5.00816
G1 X120.405 Y174.78 E5.04072
G1 X119.521 Y174.878 E5.07326
G1 X118.866 Y174.9 E5.09723
G1 X116.133 Y174.9 E5.19722
G1 X115.244 Y174.86 E5.22978
G1 X114.363 Y174.74 E5.26231
G1 X113.495 Y174.542 E5.29488
G1 X112.649 Y174.267 E5.32743
G1 X111.831 Y173.917 E5.35998
G1 X111.048 Y173.494 E5.39254
G1 X110.306 Y173.004 E5.42507
G1 X109.611 Y172.448 E5.45764
G1 X109.133 Y172 E5.48161
G1 X109.004 Y171.871 E5.48828
G1 X108.403 Y171.215 E5.52083
G1 X107.865 Y170.507 E5.55336
G1 X107.391 Y169.753 E5.58595
G1 X106.988 Y168.96 E5.61849
G1 X106.657 Y168.134 E5.65105
G1 X106.402 Y167.282 E5.68359
G1 X106.224 Y166.41 E5.71615
G1 X106.126 Y165.526 E5.74869
G1 X106.104 Y164.871 E5.77266
G1 X106.105 Y70.129 E9.23891
G1 X106.145 Y69.24 E9.27147
G1 X106.265 Y68.358 E9.30403
G1 X106.463 Y67.491 E9.33657
G1 X106.738 Y66.645 E9.36912
G1 X107.088 Y65.827 E9.40167
G1 X107.166 Y65.684 E9.40763
G0 F810 X107.511 Y65.044
M204 S5000
M205 X30 Y30
G0 F7200 X107.949 Y65.17
M204 S500
M205 X20 Y20
G1 F6000 E9.43423
G1 F900 X108.439 Y64.451 E9.46606
G1 X108.992 Y63.78 E9.49787
G1 X109.316 Y63.44 E9.51505
G1 X109.445 Y63.311 E9.52173
G1 X110.087 Y62.725 E9.55353
G1 X110.781 Y62.2 E9.58537
G1 X111.52 Y61.741 E9.6172
G1 X112.298 Y61.353 E9.649
G1 X113.108 Y61.037 E9.68081
G1 X113.944 Y60.797 E9.71264
G1 X114.799 Y60.635 E9.74447
G1 X115.664 Y60.552 E9.77627
G1 X116.134 Y60.54 E9.79347
G1 X118.867 Y60.54 E9.89346
G1 X119.736 Y60.58 E9.92528
G1 X120.597 Y60.7 E9.95709
G1 X121.444 Y60.898 E9.98891
G1 X122.269 Y61.173 E10.02073
G1 X123.065 Y61.523 E10.05254
G1 X123.826 Y61.944 E10.08436
G1 X124.545 Y62.434 E10.11619
G1 X125.216 Y62.987 E10.14801
G1 X125.556 Y63.311 E10.16519
G1 X125.685 Y63.44 E10.17186
G1 X126.271 Y64.082 E10.20367
G1 X126.796 Y64.776 E10.2355
G1 X127.255 Y65.515 E10.26733
G1 X127.643 Y66.293 E10.29914
G1 X127.959 Y67.103 E10.33095
G1 X128.199 Y67.939 E10.36277
G1 X128.361 Y68.794 E10.39461
G1 X128.444 Y69.659 E10.4264
G1 X128.456 Y70.129 E10.4436
G1 X128.455 Y164.871 E13.90985
G1 X128.415 Y165.74 E13.94167
G1 X128.295 Y166.601 E13.97348
G1 X128.097 Y167.448 E14.0053
G1 X127.822 Y168.273 E14.03712
G1 X127.472 Y169.069 E14.06893
G1 X127.051 Y169.83 E14.10075
G1 X126.561 Y170.549 E14.13258
G1 X126.008 Y171.22 E14.1644
G1 X125.684 Y171.56 E14.18158
G1 X125.555 Y171.689 E14.18825
G1 X124.913 Y172.275 E14.22005
G1 X124.219 Y172.8 E14.25189
G1 X123.48 Y173.259 E14.28372
G1 X122.702 Y173.647 E14.31553
G1 X121.892 Y173.963 E14.34734
G1 X121.056 Y174.203 E14.37916
G1 X120.201 Y174.365 E14.411
G1 X119.336 Y174.448 E14.44279
G1 X118.866 Y174.46 E14.45999
G1 X116.133 Y174.46 E14.55998
G1 X115.264 Y174.42 E14.59181
G1 X114.403 Y174.3 E14.62361
G1 X113.556 Y174.102 E14.65544
G1 X112.731 Y173.827 E14.68725
G1 X111.935 Y173.477 E14.71907
G1 X111.174 Y173.056 E14.75088
G1 X110.455 Y172.566 E14.78272
G1 X109.784 Y172.013 E14.81453
G1 X109.444 Y171.689 E14.83171
G1 X109.315 Y171.56 E14.83839
G1 X108.729 Y170.918 E14.87019
G1 X108.204 Y170.224 E14.90203
G1 X107.745 Y169.485 E14.93385
G1 X107.357 Y168.707 E14.96566
G1 X107.041 Y167.897 E14.99747
G1 X106.801 Y167.061 E15.02929
G1 X106.639 Y166.206 E15.06113
G1 X106.556 Y165.341 E15.09292
G1 X106.544 Y164.871 E15.11013
G1 X106.545 Y70.129 E18.57637
G1 X106.585 Y69.26 E18.6082
G1 X106.705 Y68.399 E18.64
G1 X106.903 Y67.552 E18.67183
G1 X107.178 Y66.727 E18.70364
G1 X107.528 Y65.931 E18.73546
G1 X107.597 Y65.806 E18.74068
G0 F810 X107.949 Y65.17
M204 S5000
M205 X30 Y30
G0 F7200 X108.387 Y65.299
M204 S500
M205 X20 Y20
G1 F6000 E18.76728
G1 F900 X108.875 Y64.604 E18.79835
G1 X109.627 Y63.751 E18.83995
G1 X109.756 Y63.622 E18.84663
G1 X110.384 Y63.05 E18.8777
G1 X111.063 Y62.54 E18.90877
G1 X111.787 Y62.097 E18.93983
G1 X112.55 Y61.723 E18.97091
G1 X113.344 Y61.422 E19.00198
G1 X114.163 Y61.198 E19.03305
G1 X115 Y61.052 E19.06413
G1 X116.134 Y60.98 E19.1057
G1 X118.867 Y60.98 E19.20569
G1 X119.715 Y61.02 E19.23675
G1 X120.556 Y61.14 E19.26783
G1 X121.382 Y61.338 E19.29891
G1 X122.185 Y61.613 E19.32996
G1 X122.959 Y61.962 E19.36103
G1 X123.697 Y62.382 E19.39209
G1 X124.392 Y62.87 E19.42316
G1 X125.245 Y63.622 E19.46477
G1 X125.374 Y63.751 E19.47144
G1 X125.946 Y64.379 E19.50252
G1 X126.456 Y65.058 E19.53359
G1 X126.899 Y65.782 E19.56464
G1 X127.273 Y66.545 E19.59573
G1 X127.574 Y67.339 E19.6268
G1 X127.798 Y68.158 E19.65786
G1 X127.944 Y68.995 E19.68895
G1 X128.016 Y70.129 E19.73052
G1 X128.015 Y164.871 E23.19676
G1 X127.975 Y165.719 E23.22782
G1 X127.855 Y166.56 E23.2589
G1 X127.657 Y167.386 E23.28998
G1 X127.382 Y168.189 E23.32103
G1 X127.033 Y168.964 E23.35213
G1 X126.613 Y169.701 E23.38317
G1 X126.125 Y170.396 E23.41424
G1 X125.373 Y171.249 E23.45584
G1 X125.244 Y171.378 E23.46251
G1 X124.616 Y171.95 E23.49359
G1 X123.937 Y172.46 E23.52466
G1 X123.213 Y172.903 E23.55571
G1 X122.45 Y173.277 E23.5868
G1 X121.656 Y173.578 E23.61787
G1 X120.837 Y173.802 E23.64893
G1 X120 Y173.948 E23.68002
G1 X118.866 Y174.02 E23.72159
G1 X116.133 Y174.02 E23.82158
G1 X115.285 Y173.98 E23.85264
G1 X114.444 Y173.86 E23.88372
G1 X113.618 Y173.662 E23.9148
G1 X112.815 Y173.387 E23.94585
G1 X112.041 Y173.038 E23.97692
G1 X111.303 Y172.618 E24.00798
G1 X110.608 Y172.13 E24.03905
G1 X109.755 Y171.378 E24.08066
G1 X109.626 Y171.249 E24.08733
G1 X109.054 Y170.621 E24.11841
G1 X108.544 Y169.942 E24.14948
G1 X108.101 Y169.218 E24.18053
G1 X107.727 Y168.455 E24.21162
G1 X107.426 Y167.661 E24.24269
G1 X107.202 Y166.842 E24.27375
G1 X107.056 Y166.005 E24.30484
G1 X106.984 Y164.871 E24.34641
G1 X106.985 Y70.129 E27.81265
G1 X107.025 Y69.281 E27.84371
G1 X107.145 Y68.44 E27.87479
G1 X107.343 Y67.614 E27.90587
G1 X107.618 Y66.811 E27.93692
G1 X107.967 Y66.036 E27.96802
G1 X108.027 Y65.93 E27.97248
G0 F810 X108.387 Y65.299
M204 S5000
M205 X30 Y30
G0 F7200 X108.825 Y65.431
M204 S500
M205 X20 Y20
G1 F6000 E27.99907
G1 F900 X109.312 Y64.761 E28.02938
G1 X109.938 Y64.062 E28.06371
G1 X110.067 Y63.933 E28.07038
G1 X110.68 Y63.376 E28.10069
G1 X111.344 Y62.881 E28.13099
G1 X112.053 Y62.453 E28.16129
G1 X112.8 Y62.094 E28.19161
G1 X113.578 Y61.81 E28.22191
G1 X114.379 Y61.601 E28.2522
G1 X115.197 Y61.471 E28.2825
G1 X116.134 Y61.42 E28.31683
G1 X118.867 Y61.42 E28.41682
G1 X119.694 Y61.46 E28.44711
G1 X120.514 Y61.58 E28.47743
G1 X121.318 Y61.778 E28.50773
G1 X122.099 Y62.052 E28.53801
G1 X122.851 Y62.401 E28.56834
G1 X123.565 Y62.82 E28.59863
G1 X124.235 Y63.307 E28.62893
G1 X124.934 Y63.933 E28.66326
G1 X125.063 Y64.062 E28.66994
G1 X125.62 Y64.675 E28.70024
G1 X126.115 Y65.339 E28.73054
G1 X126.543 Y66.048 E28.76084
G1 X126.902 Y66.795 E28.79116
G1 X127.186 Y67.573 E28.82146
G1 X127.395 Y68.374 E28.85175
G1 X127.525 Y69.192 E28.88205
G1 X127.576 Y70.129 E28.91639
G1 X127.575 Y164.871 E32.38263
G1 X127.535 Y165.698 E32.41292
G1 X127.415 Y166.518 E32.44324
G1 X127.217 Y167.322 E32.47354
G1 X126.943 Y168.104 E32.50385
G1 X126.594 Y168.855 E32.53415
G1 X126.175 Y169.569 E32.56444
G1 X125.688 Y170.239 E32.59474
G1 X125.062 Y170.938 E32.62907
G1 X124.933 Y171.067 E32.63575
G1 X124.32 Y171.624 E32.66605
G1 X123.656 Y172.119 E32.69635
G1 X122.947 Y172.547 E32.72665
G1 X122.2 Y172.906 E32.75697
G1 X121.422 Y173.19 E32.78727
G1 X120.621 Y173.399 E32.81756
G1 X119.803 Y173.529 E32.84786
G1 X118.866 Y173.58 E32.8822
G1 X116.133 Y173.58 E32.98219
G1 X115.306 Y173.54 E33.01248
G1 X114.486 Y173.42 E33.0428
G1 X113.682 Y173.222 E33.07309
G1 X112.901 Y172.948 E33.10337
G1 X112.149 Y172.599 E33.1337
G1 X111.435 Y172.18 E33.16399
G1 X110.765 Y171.693 E33.1943
G1 X110.066 Y171.067 E33.22863
G1 X109.937 Y170.938 E33.2353
G1 X109.38 Y170.325 E33.2656
G1 X108.885 Y169.661 E33.29591
G1 X108.457 Y168.952 E33.3262
G1 X108.098 Y168.205 E33.35653
G1 X107.814 Y167.427 E33.38683
G1 X107.605 Y166.626 E33.41711
G1 X107.475 Y165.808 E33.44742
G1 X107.424 Y164.871 E33.48175
G1 X107.425 Y70.129 E36.94799
G1 X107.465 Y69.302 E36.97829
G1 X107.585 Y68.482 E37.00861
G1 X107.783 Y67.678 E37.0389
G1 X108.057 Y66.896 E37.06922
G1 X108.406 Y66.145 E37.09952
G1 X108.457 Y66.058 E37.1032
G0 F810 X108.825 Y65.431
M204 S5000
M205 X30 Y30
G0 F7200 X108.845 Y66.257
M204 S500
M205 X20 Y20
G1 F6000 E37.1298
G1 F900 X109.263 Y65.567 E37.15932
G1 X109.748 Y64.922 E37.18884
G1 X110.249 Y64.373 E37.21604
G1 X110.378 Y64.244 E37.22271
G1 X110.976 Y63.703 E37.25221
G1 X111.625 Y63.223 E37.28175
G1 X112.318 Y62.81 E37.31126
G1 X113.048 Y62.468 E37.34075
G1 X113.809 Y62.199 E37.37029
G1 X114.593 Y62.007 E37.39982
G1 X115.391 Y61.894 E37.4293
G1 X116.134 Y61.86 E37.45652
G1 X118.867 Y61.86 E37.55651
G1 X119.673 Y61.9 E37.58603
G1 X120.471 Y62.02 E37.61555
G1 X121.253 Y62.217 E37.64506
G1 X122.011 Y62.492 E37.67456
G1 X122.739 Y62.84 E37.70408
G1 X123.429 Y63.258 E37.7336
G1 X124.074 Y63.743 E37.76312
G1 X124.623 Y64.244 E37.79031
G1 X124.752 Y64.373 E37.79699
G1 X125.293 Y64.971 E37.82649
G1 X125.773 Y65.62 E37.85602
G1 X126.186 Y66.313 E37.88554
G1 X126.528 Y67.043 E37.91503
G1 X126.797 Y67.804 E37.94456
G1 X126.989 Y68.588 E37.97409
G1 X127.102 Y69.386 E38.00358
G1 X127.136 Y70.129 E38.03079
G1 X127.135 Y164.871 E41.49704
G1 X127.095 Y165.677 E41.52656
G1 X126.975 Y166.475 E41.55609
G1 X126.778 Y167.257 E41.58559
G1 X126.503 Y168.015 E41.61509
G1 X126.155 Y168.743 E41.64461
G1 X125.737 Y169.433 E41.67413
G1 X125.252 Y170.078 E41.70365
G1 X124.751 Y170.627 E41.73085
G1 X124.622 Y170.756 E41.73752
G1 X124.024 Y171.297 E41.76702
G1 X123.375 Y171.777 E41.79656
G1 X122.682 Y172.19 E41.82607
G1 X121.952 Y172.532 E41.85557
G1 X121.191 Y172.801 E41.8851
G1 X120.407 Y172.993 E41.91463
G1 X119.609 Y173.106 E41.94411
G1 X118.866 Y173.14 E41.97133
G1 X116.133 Y173.14 E42.07132
G1 X115.327 Y173.1 E42.10084
G1 X114.529 Y172.98 E42.13036
G1 X113.747 Y172.783 E42.15987
G1 X112.989 Y172.508 E42.18937
G1 X112.261 Y172.16 E42.21889
G1 X111.571 Y171.742 E42.24841
G1 X110.926 Y171.257 E42.27793
G1 X110.377 Y170.756 E42.30512
G1 X110.248 Y170.627 E42.3118
G1 X109.707 Y170.029 E42.3413
G1 X109.227 Y169.38 E42.37083
G1 X108.814 Y168.687 E42.40035
G1 X108.472 Y167.957 E42.42984
G1 X108.203 Y167.196 E42.45937
G1 X108.011 Y166.412 E42.48891
G1 X107.898 Y165.614 E42.51839
G1 X107.864 Y164.871 E42.5456
G1 X107.865 Y70.129 E46.01185
G1 X107.905 Y69.323 E46.04137
G1 X108.025 Y68.525 E46.0709
G1 X108.222 Y67.743 E46.1004
G1 X108.497 Y66.985 E46.1299
G1 X108.532 Y66.913 E46.13283
G0 F810 X108.845 Y66.257
M204 S5000
M205 X30 Y30
G0 F7200 X109.284 Y66.372
M204 S500
M205 X20 Y20
G1 F6000 E46.15943
G1 F900 X109.701 Y65.707 E46.18815
G1 X110.184 Y65.089 E46.21684
G1 X110.56 Y64.684 E46.23706
G1 X110.689 Y64.555 E46.24374
G1 X111.272 Y64.029 E46.27247
G1 X111.904 Y63.566 E46.30113
G1 X112.581 Y63.169 E46.32984
G1 X113.295 Y62.843 E46.35856
G1 X114.038 Y62.591 E46.38726
G1 X114.803 Y62.416 E46.41597
G1 X115.582 Y62.32 E46.44469
G1 X116.134 Y62.3 E46.4649
G1 X118.867 Y62.3 E46.56489
G1 X119.651 Y62.34 E46.59361
G1 X120.426 Y62.459 E46.6223
G1 X121.185 Y62.657 E46.651
G1 X121.92 Y62.931 E46.67969
G1 X122.624 Y63.279 E46.70843
G1 X123.288 Y63.696 E46.73711
G1 X123.907 Y64.179 E46.76584
G1 X124.312 Y64.555 E46.78606
G1 X124.441 Y64.684 E46.79273
G1 X124.967 Y65.267 E46.82146
G1 X125.43 Y65.899 E46.85012
G1 X125.827 Y66.576 E46.87884
G1 X126.153 Y67.29 E46.90755
G1 X126.405 Y68.033 E46.93626
G1 X126.58 Y68.798 E46.96497
G1 X126.676 Y69.577 E46.99368
G1 X126.696 Y70.129 E47.01389
G1 X126.695 Y164.871 E50.48014
G1 X126.655 Y165.655 E50.50886
G1 X126.536 Y166.43 E50.53755
G1 X126.338 Y167.189 E50.56624
G1 X126.064 Y167.925 E50.59498
G1 X125.716 Y168.628 E50.62368
G1 X125.299 Y169.293 E50.65239
G1 X124.816 Y169.911 E50.68109
G1 X124.44 Y170.316 E50.70131
G1 X124.311 Y170.445 E50.70798
G1 X123.728 Y170.971 E50.73671
G1 X123.096 Y171.434 E50.76537
G1 X122.419 Y171.831 E50.79409
G1 X121.705 Y172.157 E50.8228
G1 X120.962 Y172.409 E50.85151
G1 X120.197 Y172.584 E50.88022
G1 X119.418 Y172.68 E50.90894
G1 X118.866 Y172.7 E50.92914
G1 X116.133 Y172.7 E51.02913
G1 X115.349 Y172.66 E51.05786
G1 X114.574 Y172.541 E51.08654
G1 X113.815 Y172.343 E51.11524
G1 X113.08 Y172.069 E51.14394
G1 X112.376 Y171.721 E51.17267
G1 X111.712 Y171.304 E51.20136
G1 X111.093 Y170.821 E51.23008
G1 X110.688 Y170.445 E51.2503
G1 X110.559 Y170.316 E51.25698
G1 X110.033 Y169.733 E51.2857
G1 X109.57 Y169.101 E51.31437
G1 X109.173 Y168.424 E51.34308
G1 X108.847 Y167.71 E51.3718
G1 X108.595 Y166.967 E51.4005
G1 X108.42 Y166.202 E51.42921
G1 X108.324 Y165.423 E51.45793
G1 X108.304 Y164.871 E51.47814
G1 X108.305 Y70.129 E54.94438
G1 X108.345 Y69.345 E54.9731
G1 X108.464 Y68.57 E55.00179
G1 X108.662 Y67.811 E55.03049
G1 X108.936 Y67.075 E55.05922
G1 X108.962 Y67.023 E55.06135
G0 F810 X109.284 Y66.372
M204 S5000
M205 X30 Y30
G0 F7200 X109.723 Y66.491
M204 S500
M205 X20 Y20
G1 F6000 E55.08795
G1 F900 X110.138 Y65.852 E55.11582
G1 X110.871 Y64.995 E55.15708
G1 X111 Y64.866 E55.16376
G1 X111.567 Y64.357 E55.19163
G1 X112.183 Y63.909 E55.2195
G1 X112.843 Y63.529 E55.24736
G1 X113.539 Y63.219 E55.27524
G1 X114.264 Y62.985 E55.30311
G1 X115.01 Y62.828 E55.331
G1 X116.134 Y62.74 E55.37225
G1 X118.867 Y62.74 E55.47224
G1 X119.628 Y62.78 E55.50012
G1 X120.38 Y62.899 E55.52798
G1 X121.116 Y63.097 E55.55586
G1 X121.827 Y63.371 E55.58374
G1 X122.505 Y63.717 E55.61159
G1 X123.144 Y64.133 E55.63948
G1 X124.001 Y64.866 E55.68074
G1 X124.13 Y64.995 E55.68742
G1 X124.639 Y65.562 E55.71529
G1 X125.087 Y66.178 E55.74316
G1 X125.467 Y66.838 E55.77102
G1 X125.777 Y67.534 E55.7989
G1 X126.011 Y68.259 E55.82677
G1 X126.168 Y69.005 E55.85466
G1 X126.256 Y70.129 E55.89591
G1 X126.255 Y164.871 E59.36216
G1 X126.215 Y165.632 E59.39004
G1 X126.096 Y166.384 E59.41789
G1 X125.898 Y167.12 E59.44578
G1 X125.624 Y167.831 E59.47365
G1 X125.277 Y168.509 E59.50152
G1 X124.862 Y169.148 E59.5294
G1 X124.129 Y170.005 E59.57065
G1 X124 Y170.134 E59.57733
G1 X123.433 Y170.643 E59.60521
G1 X122.817 Y171.091 E59.63307
