;FLAVOR:Marlin
;TIME:7530
;Filament used: 4.65184m
;Layer height: 0.2
;Generated with Cura_SteamEngine 3.6.0
M140 S70
M105
M190 S70
M104 S215
M105
M109 S215
M82 ;absolute extrusion mode
G28 ; home all axes
M117 Purge extruder
G92 E0 ; reset extruder
G1 Z1.0 F3000 ; move z up little to prevent scratching of surface
G1 X0.1 Y20 Z0.3 F5000.0 ; move to start-line position G1 X0.1 Y200.0 Z0.3 F1500.0 E15 ; draw 1st line
G1 X0.4 Y200.0 Z0.3 F5000.0 ; move to side a little
G1 X0.4 Y20 Z0.3 F1500.0 E30 ; draw 2nd line
G92 E0 ; reset extruder
G1 Z1.0 F3000 ; move z up little to prevent scratching of surface
M117 All systems go!
G92 E0
G1 F6000 E-5
;LAYER_COUNT:379
;LAYER:0
M107
G0 F2400 X55.924 Y31.412 Z0.2
;TYPE:SKIRT
G1 F6000 E0
G1 F900 X56.573 Y30.326 E0.04629
G1 X57.29 Y29.283 E0.09259
G1 X58.071 Y28.287 E0.1389
G1 X58.913 Y27.343 E0.18518
G1 X59.813 Y26.454 E0.23146
G1 X60.767 Y25.623 E0.27775
G1 X61.773 Y24.854 E0.32408
G1 X62.824 Y24.151 E0.37034
G1 X63.918 Y23.515 E0.41664
G1 X65.05 Y22.949 E0.46294
G1 X66.216 Y22.456 E0.50926
G1 X67.41 Y22.038 E0.55554
G1 X68.628 Y21.696 E0.60182
G1 X69.866 Y21.432 E0.64814
G1 X71.118 Y21.247 E0.69444
G1 X72.378 Y21.14 E0.7407
G1 X73.426 Y21.113 E0.77906
G1 X183.92 Y21.113 E4.82161
G1 X185.185 Y21.153 E4.86791
G1 X186.444 Y21.273 E4.91418
G1 X187.694 Y21.472 E4.96049
G1 X188.929 Y21.75 E5.00681
G1 X190.143 Y22.105 E5.05308
G1 X191.333 Y22.536 E5.09939
G1 X192.493 Y23.041 E5.14568
G1 X193.619 Y23.619 E5.19198
G1 X194.706 Y24.267 E5.23828
G1 X195.75 Y24.982 E5.28458
G1 X196.746 Y25.761 E5.33084
G1 X197.692 Y26.602 E5.37715
G1 X198.582 Y27.502 E5.42346
G1 X199.414 Y28.455 E5.46974
G1 X200.184 Y29.459 E5.51603
G1 X200.889 Y30.51 E5.56233
G1 X201.526 Y31.603 E5.60862
G1 X202.093 Y32.735 E5.65494
G1 X202.588 Y33.899 E5.70122
G1 X203.007 Y35.093 E5.74751
G1 X203.351 Y36.311 E5.79382
G1 X203.616 Y37.548 E5.8401
G1 X203.804 Y38.8 E5.88642
G1 X203.911 Y40.06 E5.93269
G1 X203.94 Y41.133 E5.97196
G1 X203.94 Y41.933 E6.00123
G1 X203.9 Y43.198 E6.04753
G1 X203.78 Y44.457 E6.0938
G1 X203.581 Y45.707 E6.14011
G1 X203.303 Y46.942 E6.18642
G1 X202.948 Y48.156 E6.2327
G1 X202.517 Y49.346 E6.279
G1 X202.012 Y50.506 E6.32529
G1 X201.434 Y51.632 E6.3716
G1 X200.786 Y52.719 E6.4179
G1 X200.071 Y53.763 E6.46419
G1 X199.292 Y54.759 E6.51045
G1 X198.451 Y55.705 E6.55676
G1 X197.551 Y56.595 E6.60307
G1 X196.598 Y57.427 E6.64936
G1 X195.594 Y58.197 E6.69565
G1 X194.543 Y58.902 E6.74195
G1 X193.45 Y59.539 E6.78824
G1 X192.318 Y60.106 E6.83456
G1 X191.154 Y60.601 E6.88083
G1 X189.96 Y61.02 E6.92713
G1 X188.742 Y61.364 E6.97343
G1 X187.505 Y61.629 E7.01972
G1 X186.253 Y61.817 E7.06604
G1 X184.993 Y61.924 E7.1123
G1 X183.92 Y61.953 E7.15157
G1 X73.425 Y61.953 E11.19416
G1 X72.16 Y61.913 E11.24046
G1 X70.901 Y61.793 E11.28673
G1 X69.651 Y61.594 E11.33304
G1 X68.416 Y61.316 E11.37936
G1 X67.202 Y60.961 E11.42563
G1 X66.012 Y60.53 E11.47194
G1 X64.852 Y60.025 E11.51823
G1 X63.726 Y59.447 E11.56453
G1 X62.639 Y58.799 E11.61083
G1 X61.595 Y58.084 E11.65713
G1 X60.599 Y57.305 E11.70339
G1 X59.653 Y56.464 E11.7497
G1 X58.763 Y55.564 E11.79601
G1 X57.931 Y54.611 E11.84229
G1 X57.161 Y53.607 E11.88858
G1 X56.456 Y52.556 E11.93488
G1 X55.819 Y51.463 E11.98117
G1 X55.252 Y50.331 E12.02749
G1 X54.757 Y49.167 E12.07377
G1 X54.338 Y47.973 E12.12006
G1 X53.994 Y46.755 E12.16637
G1 X53.729 Y45.518 E12.21265
G1 X53.541 Y44.266 E12.25897
G1 X53.434 Y43.006 E12.30523
G1 X53.405 Y41.908 E12.34542
G1 X53.406 Y41.108 E12.37469
G1 X53.448 Y39.843 E12.421
G1 X53.569 Y38.584 E12.46727
G1 X53.77 Y37.334 E12.51359
G1 X54.049 Y36.1 E12.55988
G1 X54.406 Y34.886 E12.60617
G1 X54.838 Y33.697 E12.65246
G1 X55.345 Y32.538 E12.69874
G1 X55.592 Y32.058 E12.71849
G0 F810 X55.924 Y31.412
G0 F2400 X56.363 Y31.53
G1 F6000 E12.74509
G1 F900 X57.011 Y30.459 E12.79089
G1 X57.727 Y29.432 E12.83669
G1 X58.506 Y28.453 E12.88246
G1 X59.347 Y27.526 E12.92826
G1 X60.244 Y26.655 E12.974
G1 X61.196 Y25.842 E13.0198
G1 X62.198 Y25.092 E13.06559
G1 X63.246 Y24.408 E13.11138
G1 X64.335 Y23.792 E13.15715
G1 X65.461 Y23.246 E13.20294
G1 X66.62 Y22.774 E13.24872
G1 X67.807 Y22.377 E13.29451
G1 X69.016 Y22.056 E13.34028
G1 X70.244 Y21.813 E13.38608
G1 X71.485 Y21.649 E13.43188
G1 X72.733 Y21.565 E13.47764
G1 X73.426 Y21.553 E13.503
G1 X183.92 Y21.553 E17.54555
G1 X185.171 Y21.593 E17.59134
G1 X186.416 Y21.713 E17.6371
G1 X187.652 Y21.912 E17.6829
G1 X188.872 Y22.19 E17.72868
G1 X190.072 Y22.545 E17.77447
G1 X191.247 Y22.976 E17.82026
G1 X192.392 Y23.481 E17.86604
G1 X193.502 Y24.058 E17.91181
G1 X194.573 Y24.705 E17.95759
G1 X195.601 Y25.419 E18.00338
G1 X196.581 Y26.197 E18.04916
G1 X197.509 Y27.037 E18.09496
G1 X198.382 Y27.933 E18.14073
G1 X199.196 Y28.884 E18.18652
G1 X199.947 Y29.885 E18.23231
G1 X200.633 Y30.932 E18.2781
G1 X201.25 Y32.02 E18.32386
G1 X201.797 Y33.146 E18.36966
G1 X202.271 Y34.304 E18.41544
G1 X202.669 Y35.49 E18.46121
G1 X202.991 Y36.699 E18.50699
G1 X203.236 Y37.927 E18.5528
G1 X203.401 Y39.167 E18.59857
G1 X203.487 Y40.416 E18.64437
G1 X203.5 Y41.133 E18.67061
G1 X203.5 Y41.933 E18.69988
G1 X203.46 Y43.184 E18.74567
G1 X203.34 Y44.429 E18.79143
G1 X203.141 Y45.665 E18.83723
G1 X202.863 Y46.885 E18.88301
G1 X202.508 Y48.085 E18.9288
G1 X202.077 Y49.26 E18.97459
G1 X201.572 Y50.405 E19.02037
G1 X200.995 Y51.515 E19.06614
G1 X200.348 Y52.586 E19.11192
G1 X199.634 Y53.614 E19.15771
G1 X198.856 Y54.594 E19.20349
G1 X198.016 Y55.522 E19.24929
G1 X197.12 Y56.395 E19.29505
G1 X196.169 Y57.209 E19.34085
G1 X195.168 Y57.96 E19.38664
G1 X194.121 Y58.646 E19.43243
G1 X193.033 Y59.263 E19.47819
G1 X191.907 Y59.81 E19.52399
G1 X190.749 Y60.284 E19.56977
G1 X189.563 Y60.682 E19.61554
G1 X188.354 Y61.004 E19.66132
G1 X187.126 Y61.249 E19.70713
G1 X185.886 Y61.414 E19.7529
G1 X184.637 Y61.5 E19.7987
G1 X183.92 Y61.513 E19.82494
G1 X73.425 Y61.513 E23.86752
G1 X72.174 Y61.473 E23.91332
G1 X70.929 Y61.353 E23.95908
G1 X69.693 Y61.154 E24.00488
G1 X68.473 Y60.876 E24.05066
G1 X67.273 Y60.521 E24.09644
G1 X66.098 Y60.09 E24.14223
G1 X64.953 Y59.585 E24.18802
G1 X63.843 Y59.008 E24.23379
G1 X62.772 Y58.361 E24.27957
G1 X61.744 Y57.647 E24.32536
G1 X60.764 Y56.869 E24.37114
G1 X59.836 Y56.029 E24.41693
G1 X58.963 Y55.133 E24.4627
G1 X58.149 Y54.182 E24.5085
G1 X57.398 Y53.181 E24.55428
G1 X56.712 Y52.134 E24.60008
G1 X56.095 Y51.046 E24.64584
G1 X55.548 Y49.92 E24.69164
G1 X55.074 Y48.762 E24.73742
G1 X54.676 Y47.576 E24.78319
G1 X54.354 Y46.367 E24.82896
G1 X54.109 Y45.139 E24.87478
G1 X53.944 Y43.899 E24.92054
G1 X53.858 Y42.65 E24.96635
G1 X53.845 Y41.909 E24.99346
G1 X53.846 Y41.109 E25.02273
G1 X53.888 Y39.858 E25.06852
G1 X54.009 Y38.612 E25.11433
G1 X54.21 Y37.377 E25.1601
G1 X54.489 Y36.157 E25.20589
G1 X54.845 Y34.958 E25.25165
G1 X55.278 Y33.783 E25.29747
G1 X55.784 Y32.639 E25.34323
G1 X56.027 Y32.174 E25.36243
G0 F810 X56.363 Y31.53
G0 F2400 X56.801 Y31.648
G1 F6000 E25.38903
G1 F900 X57.449 Y30.594 E25.43429
G1 X58.163 Y29.583 E25.47957
G1 X58.941 Y28.622 E25.52481
G1 X59.78 Y27.712 E25.5701
G1 X60.676 Y26.858 E25.61538
G1 X61.625 Y26.064 E25.66065
G1 X62.623 Y25.333 E25.70591
G1 X63.666 Y24.668 E25.75117
G1 X64.75 Y24.072 E25.79643
G1 X65.871 Y23.547 E25.84171
G1 X67.023 Y23.096 E25.88698
G1 X68.201 Y22.72 E25.93222
G1 X69.402 Y22.421 E25.9775
G1 X70.619 Y22.2 E26.02275
G1 X71.848 Y22.058 E26.06802
G1 X73.426 Y21.993 E26.1258
G1 X183.92 Y21.993 E30.16835
G1 X185.157 Y22.033 E30.21363
G1 X186.388 Y22.153 E30.25888
G1 X187.609 Y22.352 E30.30414
G1 X188.815 Y22.629 E30.34941
G1 X190 Y22.984 E30.39467
G1 X191.16 Y23.415 E30.43994
G1 X192.29 Y23.92 E30.48523
G1 X193.384 Y24.497 E30.53048
G1 X194.439 Y25.143 E30.57574
G1 X195.45 Y25.856 E30.621
G1 X196.413 Y26.633 E30.66627
G1 X197.324 Y27.47 E30.71153
G1 X198.179 Y28.365 E30.75682
G1 X198.974 Y29.313 E30.80208
G1 X199.706 Y30.31 E30.84734
G1 X200.372 Y31.353 E30.89261
G1 X200.97 Y32.436 E30.93787
G1 X201.496 Y33.556 E30.98314
G1 X201.949 Y34.707 E31.0284
G1 X202.327 Y35.885 E31.07366
G1 X202.627 Y37.086 E31.11895
G1 X202.85 Y38.303 E31.16422
G1 X202.993 Y39.532 E31.20948
G1 X203.06 Y41.133 E31.26811
G1 X203.06 Y41.933 E31.29738
G1 X203.02 Y43.17 E31.34266
G1 X202.9 Y44.401 E31.38791
G1 X202.701 Y45.622 E31.43317
G1 X202.424 Y46.828 E31.47844
G1 X202.069 Y48.013 E31.5237
G1 X201.638 Y49.173 E31.56898
G1 X201.133 Y50.303 E31.61426
G1 X200.556 Y51.397 E31.65951
G1 X199.91 Y52.452 E31.70477
G1 X199.197 Y53.463 E31.75003
G1 X198.42 Y54.426 E31.7953
G1 X197.583 Y55.337 E31.84057
G1 X196.688 Y56.192 E31.88585
G1 X195.74 Y56.987 E31.93112
G1 X194.743 Y57.719 E31.97637
G1 X193.7 Y58.385 E32.02164
G1 X192.617 Y58.983 E32.0669
G1 X191.497 Y59.509 E32.11218
G1 X190.346 Y59.962 E32.15743
G1 X189.168 Y60.34 E32.20269
G1 X187.967 Y60.64 E32.24798
G1 X186.75 Y60.863 E32.29325
G1 X185.521 Y61.006 E32.33852
G1 X183.92 Y61.073 E32.39714
G1 X73.425 Y61.073 E36.43973
G1 X72.188 Y61.033 E36.48501
G1 X70.957 Y60.913 E36.53026
G1 X69.736 Y60.714 E36.57552
G1 X68.53 Y60.437 E36.62079
G1 X67.345 Y60.082 E36.66605
G1 X66.185 Y59.651 E36.71133
G1 X65.055 Y59.146 E36.75661
G1 X63.961 Y58.569 E36.80186
G1 X62.906 Y57.923 E36.84712
G1 X61.895 Y57.21 E36.89238
G1 X60.932 Y56.433 E36.93765
G1 X60.021 Y55.596 E36.98292
G1 X59.166 Y54.701 E37.0282
G1 X58.371 Y53.753 E37.07347
G1 X57.639 Y52.756 E37.11872
G1 X56.973 Y51.713 E37.16399
G1 X56.375 Y50.63 E37.20925
G1 X55.849 Y49.51 E37.25453
G1 X55.396 Y48.359 E37.29978
G1 X55.018 Y47.181 E37.34504
G1 X54.718 Y45.98 E37.39033
G1 X54.495 Y44.763 E37.4356
G1 X54.352 Y43.534 E37.48087
G1 X54.285 Y41.909 E37.54037
G1 X54.286 Y41.109 E37.56964
G1 X54.328 Y39.873 E37.61489
G1 X54.449 Y38.641 E37.66018
G1 X54.65 Y37.42 E37.70545
G1 X54.929 Y36.215 E37.7507
G1 X55.285 Y35.03 E37.79597
G1 X55.717 Y33.871 E37.84122
G1 X56.223 Y32.742 E37.88649
G1 X56.462 Y32.29 E37.9052
G0 F810 X56.801 Y31.648
G0 F2400 X57.24 Y31.768
G1 F6000 E37.93179
G1 F900 X57.887 Y30.73 E37.97654
G1 X58.6 Y29.737 E38.02127
G1 X59.377 Y28.792 E38.06603
G1 X60.213 Y27.9 E38.11076
G1 X61.107 Y27.065 E38.15551
G1 X62.052 Y26.289 E38.20025
G1 X63.047 Y25.578 E38.24499
G1 X64.086 Y24.933 E38.28973
G1 X65.165 Y24.357 E38.33448
G1 X66.279 Y23.853 E38.37922
G1 X67.424 Y23.422 E38.42398
G1 X68.594 Y23.068 E38.4687
G1 X69.785 Y22.791 E38.51344
G1 X70.992 Y22.592 E38.55819
G1 X72.209 Y22.473 E38.60293
G1 X73.426 Y22.433 E38.64748
G1 X183.92 Y22.433 E42.69003
G1 X185.142 Y22.473 E42.73476
G1 X186.359 Y22.593 E42.7795
G1 X187.566 Y22.792 E42.82426
G1 X188.757 Y23.069 E42.869
G1 X189.927 Y23.424 E42.91373
G1 X191.072 Y23.855 E42.95849
G1 X192.186 Y24.359 E43.00322
G1 X193.265 Y24.935 E43.04797
G1 X194.304 Y25.581 E43.09273
G1 X195.298 Y26.293 E43.13747
G1 X196.244 Y27.068 E43.18221
G1 X197.137 Y27.904 E43.22696
G1 X197.973 Y28.796 E43.27169
G1 X198.749 Y29.741 E43.31643
G1 X199.462 Y30.735 E43.36118
G1 X200.109 Y31.773 E43.40593
G1 X200.686 Y32.851 E43.45067
G1 X201.191 Y33.964 E43.49538
G1 X201.623 Y35.109 E43.54016
G1 X201.979 Y36.279 E43.5849
G1 X202.258 Y37.469 E43.62962
G1 X202.458 Y38.676 E43.67438
G1 X202.579 Y39.893 E43.71912
G1 X202.62 Y41.133 E43.76452
G1 X202.62 Y41.933 E43.79378
G1 X202.58 Y43.155 E43.83852
G1 X202.46 Y44.372 E43.88326
G1 X202.261 Y45.579 E43.92801
G1 X201.984 Y46.77 E43.97275
G1 X201.629 Y47.94 E44.01748
G1 X201.198 Y49.085 E44.06224
G1 X200.694 Y50.199 E44.10698
G1 X200.118 Y51.278 E44.15173
G1 X199.472 Y52.317 E44.19649
G1 X198.76 Y53.311 E44.24122
G1 X197.985 Y54.257 E44.28596
G1 X197.149 Y55.15 E44.33072
G1 X196.257 Y55.986 E44.37545
G1 X195.312 Y56.762 E44.42018
G1 X194.318 Y57.475 E44.46494
G1 X193.28 Y58.122 E44.50969
G1 X192.202 Y58.699 E44.55442
G1 X191.089 Y59.204 E44.59914
G1 X189.944 Y59.636 E44.64391
G1 X188.774 Y59.992 E44.68865
G1 X187.584 Y60.271 E44.73337
G1 X186.377 Y60.471 E44.77813
G1 X185.16 Y60.592 E44.82288
G1 X183.92 Y60.633 E44.86827
G1 X73.425 Y60.633 E48.91086
G1 X72.203 Y60.593 E48.95559
G1 X70.986 Y60.473 E49.00033
G1 X69.779 Y60.274 E49.04509
G1 X68.588 Y59.997 E49.08982
G1 X67.418 Y59.642 E49.13456
G1 X66.273 Y59.211 E49.17932
G1 X65.159 Y58.707 E49.22405
G1 X64.08 Y58.131 E49.2688
G1 X63.041 Y57.485 E49.31356
G1 X62.047 Y56.773 E49.3583
G1 X61.101 Y55.998 E49.40304
G1 X60.208 Y55.162 E49.44779
G1 X59.372 Y54.27 E49.49252
G1 X58.596 Y53.325 E49.53726
G1 X57.883 Y52.331 E49.58201
G1 X57.236 Y51.293 E49.62676
G1 X56.659 Y50.215 E49.67149
G1 X56.154 Y49.102 E49.71621
G1 X55.722 Y47.957 E49.76098
G1 X55.366 Y46.787 E49.80573
G1 X55.087 Y45.597 E49.85045
G1 X54.887 Y44.39 E49.89521
G1 X54.766 Y43.173 E49.93995
G1 X54.725 Y41.91 E49.98619
G1 X54.726 Y41.11 E50.01545
G1 X54.768 Y39.887 E50.06023
G1 X54.889 Y38.67 E50.10497
G1 X55.089 Y37.464 E50.1497
G1 X55.368 Y36.273 E50.19445
G1 X55.725 Y35.103 E50.2392
G1 X56.157 Y33.959 E50.28394
G1 X56.663 Y32.846 E50.32867
G1 X56.897 Y32.409 E50.34681
G0 F810 X57.24 Y31.768
G0 F2400 X57.679 Y31.889
G1 F6000 E50.37341
G1 F900 X58.324 Y30.868 E50.41759
G1 X59.036 Y29.892 E50.46179
G1 X59.812 Y28.964 E50.50605
G1 X60.646 Y28.091 E50.55022
G1 X61.537 Y27.274 E50.59445
G1 X62.48 Y26.518 E50.63867
G1 X63.47 Y25.826 E50.68286
G1 X64.505 Y25.201 E50.7271
G1 X65.578 Y24.646 E50.77129
G1 X66.686 Y24.163 E50.81551
G1 X67.823 Y23.754 E50.85972
G1 X68.985 Y23.421 E50.90395
G1 X70.166 Y23.166 E50.94815
G1 X71.362 Y22.99 E50.99238
G1 X72.566 Y22.893 E51.03657
G1 X73.426 Y22.873 E51.06804
G1 X183.92 Y22.873 E55.11059
G1 X185.128 Y22.913 E55.15481
G1 X186.33 Y23.033 E55.19901
G1 X187.522 Y23.232 E55.24322
G1 X188.698 Y23.509 E55.28743
G1 X189.854 Y23.864 E55.33167
G1 X190.983 Y24.294 E55.37587
G1 X192.081 Y24.798 E55.42007
G1 X193.144 Y25.374 E55.46431
G1 X194.166 Y26.019 E55.50852
G1 X195.143 Y26.729 E55.55271
G1 X196.072 Y27.503 E55.59695
G1 X196.946 Y28.337 E55.64114
G1 X197.764 Y29.227 E55.68537
G1 X198.522 Y30.168 E55.72958
G1 X199.215 Y31.158 E55.77379
G1 X199.841 Y32.192 E55.81801
G1 X200.398 Y33.264 E55.86221
G1 X200.882 Y34.372 E55.90645
G1 X201.292 Y35.508 E55.95063
G1 X201.626 Y36.67 E55.99487
G1 X201.883 Y37.851 E56.03909
G1 X202.06 Y39.046 E56.08329
G1 X202.159 Y40.25 E56.12748
G1 X202.18 Y41.133 E56.1598
G1 X202.18 Y41.933 E56.18907
G1 X202.14 Y43.141 E56.23329
G1 X202.02 Y44.343 E56.27748
G1 X201.821 Y45.535 E56.3217
G1 X201.544 Y46.711 E56.3659
G1 X201.189 Y47.867 E56.41014
G1 X200.759 Y48.996 E56.45434
G1 X200.255 Y50.094 E56.49854
G1 X199.679 Y51.157 E56.54278
G1 X199.034 Y52.179 E56.58699
G1 X198.324 Y53.156 E56.63118
G1 X197.55 Y54.085 E56.67542
G1 X196.716 Y54.959 E56.71962
G1 X195.826 Y55.777 E56.76384
G1 X194.885 Y56.535 E56.80805
G1 X193.895 Y57.228 E56.85226
G1 X192.861 Y57.854 E56.89649
G1 X191.789 Y58.411 E56.94069
G1 X190.681 Y58.895 E56.98492
G1 X189.545 Y59.305 E57.02911
G1 X188.383 Y59.639 E57.07334
G1 X187.202 Y59.896 E57.11756
G1 X186.007 Y60.073 E57.16176
G1 X184.803 Y60.172 E57.20596
G1 X183.92 Y60.193 E57.23827
G1 X73.425 Y60.193 E61.28086
G1 X72.217 Y60.153 E61.32508
G1 X71.015 Y60.033 E61.36927
G1 X69.823 Y59.834 E61.41349
G1 X68.647 Y59.557 E61.45769
G1 X67.491 Y59.202 E61.50193
G1 X66.362 Y58.772 E61.54613
G1 X65.264 Y58.268 E61.59034
G1 X64.201 Y57.692 E61.63457
G1 X63.179 Y57.047 E61.67878
G1 X62.202 Y56.337 E61.72297
G1 X61.273 Y55.563 E61.76721
G1 X60.399 Y54.729 E61.81141
G1 X59.581 Y53.839 E61.85563
G1 X58.823 Y52.898 E61.89984
G1 X58.13 Y51.908 E61.94405
G1 X57.504 Y50.874 E61.98828
G1 X56.947 Y49.802 E62.03248
G1 X56.463 Y48.694 E62.07671
G1 X56.053 Y47.558 E62.1209
G1 X55.719 Y46.396 E62.16513
G1 X55.462 Y45.215 E62.20935
G1 X55.285 Y44.02 E62.25355
G1 X55.186 Y42.816 E62.29775
G1 X55.165 Y41.91 E62.3309
G1 X55.166 Y41.11 E62.36017
G1 X55.208 Y39.902 E62.4044
G1 X55.329 Y38.7 E62.44859
G1 X55.529 Y37.508 E62.49281
G1 X55.808 Y36.333 E62.537
G1 X56.164 Y35.178 E62.58122
G1 X56.596 Y34.049 E62.62544
G1 X57.102 Y32.951 E62.66968
G1 X57.332 Y32.528 E62.68729
G0 F810 X57.679 Y31.889
G0 F2400 X58.117 Y32.012
G1 F6000 E62.71389
G1 F900 X58.762 Y31.008 E62.75755
G1 X59.473 Y30.049 E62.80123
G1 X60.246 Y29.139 E62.84491
G1 X61.079 Y28.284 E62.88858
G1 X61.967 Y27.486 E62.93226
G1 X62.906 Y26.749 E62.97593
