;FLAVOR:Marlin
;TIME:10725
;Filament used: 11.6184m
;Layer height: 0.25
;Generated with Cura_SteamEngine 3.6.0
M140 S70
M105
M190 S70
M104 S215
M105
M109 S215
M82 ;absolute extrusion mode
; Ender 3 Custom Start G-code
G28 ; Home all axes
G92 E0 ; Reset Extruder
G1 Z2.0 F3000 ; Move Z Axis up little to prevent scratching of Heat Bed
G1 X0.1 Y20 Z0.3 F5000.0 ; Move to start position
G1 X0.1 Y200.0 Z0.3 F1500.0 E15 ; Draw the first line
G1 X0.4 Y200.0 Z0.3 F5000.0 ; Move to side a little
G1 X0.4 Y20 Z0.3 F1500.0 E30 ; Draw the second line
G92 E0 ; Reset Extruder
G1 Z2.0 F3000 ; Move Z Axis up little to prevent scratching of Heat Bed
; End of custom start GCode
G92 E0
G1 F6000 E-5
;LAYER_COUNT:77
;LAYER:0
M107
M204 S5000
M205 X30 Y30
G0 F7200 X49.227 Y25.55 Z0.25
M204 S500
M205 X20 Y20
;TYPE:SKIRT
G1 F6000 E0
G1 F900 X49.875 Y24.472 E0.06537
G1 X50.589 Y23.438 E0.13067
G1 X51.368 Y22.452 E0.19597
G1 X52.507 Y21.212 E0.28347
G1 X52.653 Y21.066 E0.2942
G1 X53.569 Y20.206 E0.3595
G1 X54.539 Y19.406 E0.42484
G1 X55.557 Y18.669 E0.49016
G1 X56.62 Y17.999 E0.55546
G1 X57.724 Y17.397 E0.62081
G1 X58.863 Y16.867 E0.68609
G1 X60.034 Y16.411 E0.7514
G1 X61.232 Y16.03 E0.81673
G1 X62.451 Y15.726 E0.88202
G1 X63.688 Y15.5 E0.94737
G1 X64.936 Y15.353 E1.01268
G1 X66.618 Y15.281 E1.10017
G1 X178.326 Y15.281 E6.90552
G1 X179.582 Y15.321 E6.97082
G1 X180.833 Y15.441 E7.03613
G1 X182.074 Y15.64 E7.10145
G1 X183.3 Y15.918 E7.16678
G1 X184.506 Y16.273 E7.23212
G1 X185.686 Y16.704 E7.2974
G1 X186.837 Y17.209 E7.36272
G1 X187.953 Y17.786 E7.42801
G1 X189.031 Y18.434 E7.49338
G1 X190.065 Y19.148 E7.55868
G1 X191.051 Y19.927 E7.62399
G1 X192.291 Y21.066 E7.71149
G1 X192.437 Y21.212 E7.72222
G1 X193.297 Y22.128 E7.78751
G1 X194.097 Y23.098 E7.85286
G1 X194.834 Y24.116 E7.91817
G1 X195.504 Y25.179 E7.98347
G1 X196.106 Y26.283 E8.04882
G1 X196.636 Y27.422 E8.11411
G1 X197.092 Y28.593 E8.17941
G1 X197.473 Y29.791 E8.24474
G1 X197.777 Y31.01 E8.31003
G1 X198.003 Y32.247 E8.37538
G1 X198.15 Y33.495 E8.44069
G1 X198.222 Y35.177 E8.52818
G1 X198.221 Y102.041 E12.00303
G1 X198.181 Y103.297 E12.06834
G1 X198.09 Y104.313 E12.12135
G1 X198.013 Y104.978 E12.15614
G1 X197.829 Y106.221 E12.22144
G1 X197.566 Y107.45 E12.28676
G1 X197.225 Y108.66 E12.35209
G1 X196.998 Y109.336 E12.38915
G1 X196.771 Y109.973 E12.42429
G1 X196.312 Y111.143 E12.48961
G1 X195.779 Y112.281 E12.55492
G1 X194.865 Y113.889 E12.65104
G1 X194.505 Y114.459 E12.68607
G1 X193.801 Y115.5 E12.75138
G1 X193.031 Y116.494 E12.81673
G1 X192.2 Y117.437 E12.88205
G1 X191.683 Y117.967 E12.92052
G1 X191.208 Y118.436 E12.95521
G1 X190.286 Y119.29 E13.02053
G1 X189.312 Y120.084 E13.08583
G1 X187.776 Y121.145 E13.18285
G1 X187.203 Y121.502 E13.21793
G1 X186.115 Y122.132 E13.28327
G1 X184.99 Y122.692 E13.34858
G1 X183.832 Y123.179 E13.41386
G1 X183.172 Y123.419 E13.45036
G1 X182.537 Y123.637 E13.48525
G1 X181.336 Y124.007 E13.55056
G1 X180.114 Y124.3 E13.61587
G1 X178.338 Y124.583 E13.70933
G1 X177.682 Y124.657 E13.74364
G1 X176.429 Y124.758 E13.80896
G1 X175.468 Y124.781 E13.85892
G1 X69.462 Y124.78 E19.36794
G1 X68.206 Y124.74 E19.43325
G1 X67.171 Y124.647 E19.48725
G1 X66.503 Y124.569 E19.5222
G1 X65.26 Y124.383 E19.58752
G1 X64.032 Y124.119 E19.6528
G1 X62.822 Y123.777 E19.71814
G1 X62.136 Y123.546 E19.75576
G1 X61.502 Y123.319 E19.79076
G1 X60.333 Y122.858 E19.85606
G1 X59.196 Y122.323 E19.92137
G1 X57.614 Y121.423 E20.01595
G1 X57.044 Y121.063 E20.05099
G1 X56.003 Y120.359 E20.1163
G1 X55.009 Y119.589 E20.18164
G1 X54.066 Y118.758 E20.24696
G1 X53.536 Y118.241 E20.28544
G1 X53.067 Y117.766 E20.32013
G1 X52.213 Y116.844 E20.38544
G1 X51.419 Y115.87 E20.45075
G1 X50.353 Y114.326 E20.54825
G1 X49.997 Y113.754 E20.58327
G1 X49.367 Y112.666 E20.6486
G1 X48.808 Y111.541 E20.71389
G1 X48.321 Y110.382 E20.77922
G1 X48.097 Y109.764 E20.81338
G1 X47.876 Y109.124 E20.84857
G1 X47.503 Y107.924 E20.91388
G1 X47.208 Y106.702 E20.97921
G1 X46.914 Y104.856 E21.07635
G1 X46.842 Y104.207 E21.11029
G1 X46.744 Y102.954 E21.1756
G1 X46.722 Y102.029 E21.22369
G1 X46.722 Y35.177 E24.69792
G1 X46.762 Y33.921 E24.76322
G1 X46.882 Y32.67 E24.82853
G1 X47.081 Y31.429 E24.89385
G1 X47.359 Y30.203 E24.95918
G1 X47.714 Y28.997 E25.02452
G1 X48.145 Y27.817 E25.0898
G1 X48.65 Y26.666 E25.15512
G1 X48.992 Y26.004 E25.19385
G0 F810 X49.227 Y25.55
M204 S5000
M205 X30 Y30
G0 F7200 X49.726 Y25.683
M204 S500
M205 X20 Y20
G1 F6000 E25.22045
G1 F900 X50.372 Y24.624 E25.28492
G1 X51.086 Y23.609 E25.34941
G1 X51.863 Y22.642 E25.41388
G1 X52.86 Y21.565 E25.49015
G1 X53.006 Y21.419 E25.50088
G1 X53.911 Y20.571 E25.56533
G1 X54.869 Y19.782 E25.62983
G1 X55.876 Y19.057 E25.69432
G1 X56.928 Y18.398 E25.75883
G1 X58.019 Y17.808 E25.82329
G1 X59.147 Y17.29 E25.88779
G1 X60.305 Y16.846 E25.95225
G1 X61.49 Y16.477 E26.01675
G1 X62.696 Y16.185 E26.08123
G1 X63.918 Y15.971 E26.1457
G1 X65.152 Y15.837 E26.21021
G1 X66.618 Y15.781 E26.28645
G1 X178.326 Y15.781 E32.0918
G1 X179.566 Y15.821 E32.15628
G1 X180.801 Y15.941 E32.22076
G1 X182.026 Y16.14 E32.28526
G1 X183.235 Y16.418 E32.34973
G1 X184.424 Y16.772 E32.4142
G1 X185.588 Y17.203 E32.4787
G1 X186.721 Y17.708 E32.54317
G1 X187.82 Y18.285 E32.60768
G1 X188.879 Y18.931 E32.67214
G1 X189.894 Y19.645 E32.73663
G1 X190.861 Y20.422 E32.8011
G1 X191.938 Y21.419 E32.87737
G1 X192.084 Y21.565 E32.8881
G1 X192.932 Y22.47 E32.95256
G1 X193.721 Y23.428 E33.01705
G1 X194.446 Y24.435 E33.08154
G1 X195.105 Y25.487 E33.14605
G1 X195.695 Y26.578 E33.21051
G1 X196.213 Y27.706 E33.27502
G1 X196.657 Y28.864 E33.33947
G1 X197.026 Y30.049 E33.40397
G1 X197.318 Y31.255 E33.46845
G1 X197.532 Y32.477 E33.53292
G1 X197.666 Y33.711 E33.59743
G1 X197.722 Y35.177 E33.67367
G1 X197.721 Y102.041 E37.14853
G1 X197.681 Y103.281 E37.213
G1 X197.593 Y104.255 E37.26383
G1 X197.516 Y104.92 E37.29862
G1 X197.334 Y106.147 E37.36308
G1 X197.073 Y107.361 E37.42761
G1 X196.734 Y108.554 E37.49206
G1 X196.527 Y109.168 E37.52574
G1 X196.3 Y109.805 E37.56088
G1 X195.846 Y110.96 E37.62538
G1 X195.319 Y112.083 E37.68984
G1 X194.443 Y113.622 E37.78187
G1 X194.083 Y114.192 E37.81691
G1 X193.387 Y115.22 E37.88143
G1 X192.626 Y116.2 E37.94591
G1 X191.803 Y117.129 E38.01041
G1 X191.332 Y117.611 E38.04543
G1 X190.857 Y118.08 E38.08012
G1 X189.946 Y118.923 E38.14462
G1 X188.983 Y119.705 E38.20909
G1 X187.511 Y120.72 E38.30201
G1 X186.938 Y121.077 E38.3371
G1 X185.865 Y121.699 E38.40155
G1 X184.753 Y122.251 E38.46607
G1 X183.608 Y122.729 E38.53055
G1 X183.01 Y122.946 E38.56361
G1 X182.375 Y123.164 E38.5985
G1 X181.189 Y123.529 E38.66299
G1 X179.982 Y123.817 E38.72748
G1 X178.282 Y124.086 E38.81693
G1 X177.626 Y124.16 E38.85123
G1 X176.389 Y124.259 E38.91572
G1 X175.468 Y124.281 E38.9636
G1 X69.462 Y124.28 E44.47262
G1 X68.222 Y124.24 E44.5371
G1 X67.229 Y124.15 E44.58892
G1 X66.561 Y124.072 E44.62387
G1 X65.334 Y123.889 E44.68834
G1 X64.121 Y123.626 E44.75284
G1 X62.928 Y123.286 E44.81731
G1 X62.305 Y123.075 E44.85149
G1 X61.671 Y122.848 E44.88649
G1 X60.517 Y122.393 E44.95095
G1 X59.395 Y121.864 E45.01542
G1 X57.881 Y121.001 E45.10598
G1 X57.311 Y120.641 E45.14102
G1 X56.283 Y119.945 E45.20554
G1 X55.303 Y119.184 E45.27002
G1 X54.374 Y118.361 E45.33452
G1 X53.892 Y117.89 E45.36954
G1 X53.423 Y117.415 E45.40423
G1 X52.58 Y116.504 E45.46874
G1 X51.798 Y115.541 E45.5332
G1 X50.778 Y114.062 E45.62657
G1 X50.422 Y113.49 E45.66159
G1 X49.8 Y112.416 E45.72608
G1 X49.25 Y111.304 E45.79056
G1 X48.569 Y109.601 E45.88587
G1 X48.348 Y108.961 E45.92106
G1 X47.981 Y107.776 E45.98553
G1 X47.691 Y106.569 E46.05004
G1 X47.411 Y104.801 E46.14307
G1 X47.339 Y104.152 E46.177
G1 X47.242 Y102.915 E46.24149
G1 X47.222 Y102.029 E46.28754
G1 X47.222 Y35.177 E49.76177
G1 X47.262 Y33.937 E49.82625
G1 X47.382 Y32.702 E49.89073
G1 X47.581 Y31.477 E49.95523
G1 X47.859 Y30.268 E50.0197
G1 X48.213 Y29.079 E50.08417
G1 X48.644 Y27.915 E50.14867
G1 X49.149 Y26.782 E50.21314
G1 X49.488 Y26.136 E50.25105
G0 F810 X49.726 Y25.683
M204 S5000
M205 X30 Y30
G0 F7200 X50.224 Y25.819
M204 S500
M205 X20 Y20
G1 F6000 E50.27766
G1 F900 X50.87 Y24.778 E50.34133
G1 X51.582 Y23.782 E50.40496
G1 X52.358 Y22.834 E50.46862
G1 X53.214 Y21.919 E50.53374
G1 X53.36 Y21.773 E50.54447
G1 X54.253 Y20.936 E50.60808
G1 X55.2 Y20.159 E50.67174
G1 X56.195 Y19.445 E50.73538
G1 X57.235 Y18.798 E50.79904
G1 X58.314 Y18.22 E50.86265
G1 X59.429 Y17.714 E50.92628
G1 X60.575 Y17.281 E50.98995
G1 X61.747 Y16.925 E51.0536
G1 X62.939 Y16.645 E51.11724
G1 X64.147 Y16.445 E51.18087
G1 X65.366 Y16.323 E51.24454
G1 X66.618 Y16.281 E51.30964
G1 X178.326 Y16.281 E57.11499
G1 X179.55 Y16.321 E57.17863
G1 X180.769 Y16.441 E57.24229
G1 X181.977 Y16.64 E57.30591
G1 X183.17 Y16.917 E57.36956
G1 X184.342 Y17.272 E57.4332
G1 X185.488 Y17.703 E57.49683
G1 X186.604 Y18.207 E57.56047
G1 X187.684 Y18.783 E57.62408
G1 X188.725 Y19.429 E57.68775
G1 X189.721 Y20.141 E57.75137
G1 X190.669 Y20.917 E57.81504
G1 X191.584 Y21.773 E57.88016
G1 X191.73 Y21.919 E57.89089
G1 X192.567 Y22.812 E57.95449
G1 X193.344 Y23.759 E58.01815
G1 X194.058 Y24.754 E58.0818
G1 X194.705 Y25.794 E58.14545
G1 X195.283 Y26.873 E58.20906
G1 X195.789 Y27.988 E58.2727
G1 X196.222 Y29.134 E58.33636
G1 X196.578 Y30.306 E58.40002
G1 X196.858 Y31.498 E58.46365
G1 X197.058 Y32.706 E58.52729
G1 X197.18 Y33.925 E58.59095
G1 X197.222 Y35.177 E58.65605
G1 X197.221 Y102.041 E62.13091
G1 X197.181 Y103.265 E62.19455
G1 X197.097 Y104.198 E62.24323
G1 X197.02 Y104.863 E62.27802
G1 X196.839 Y106.074 E62.34166
G1 X196.58 Y107.271 E62.4053
G1 X196.056 Y109 E62.49919
G1 X195.829 Y109.637 E62.53434
G1 X195.381 Y110.776 E62.59794
G1 X194.859 Y111.884 E62.6616
G1 X194.02 Y113.355 E62.7496
G1 X193.66 Y113.925 E62.78464
G1 X192.973 Y114.939 E62.84829
G1 X192.22 Y115.905 E62.91194
G1 X190.981 Y117.255 E63.00717
G1 X190.506 Y117.724 E63.04186
G1 X189.607 Y118.556 E63.10552
G1 X188.655 Y119.327 E63.16918
G1 X187.247 Y120.296 E63.25801
G1 X186.674 Y120.653 E63.29309
G1 X185.614 Y121.266 E63.35673
G1 X184.516 Y121.809 E63.42039
G1 X182.847 Y122.473 E63.51374
G1 X182.212 Y122.691 E63.54863
G1 X181.042 Y123.051 E63.61224
G1 X179.85 Y123.333 E63.6759
G1 X178.226 Y123.589 E63.76134
G1 X177.57 Y123.663 E63.79565
G1 X176.349 Y123.76 E63.8593
G1 X175.468 Y123.781 E63.9051
G1 X69.462 Y123.78 E69.41412
G1 X68.238 Y123.74 E69.47777
G1 X67.287 Y123.653 E69.52739
G1 X66.619 Y123.575 E69.56235
G1 X65.408 Y123.394 E69.62598
G1 X64.212 Y123.133 E69.6896
G1 X62.474 Y122.605 E69.78399
G1 X61.84 Y122.378 E69.81899
G1 X60.701 Y121.927 E69.88266
G1 X59.594 Y121.404 E69.94628
G1 X58.148 Y120.578 E70.03283
G1 X57.578 Y120.218 E70.06786
G1 X56.564 Y119.531 E70.13151
G1 X55.598 Y118.778 E70.19517
G1 X54.248 Y117.539 E70.29039
G1 X53.779 Y117.064 E70.32508
G1 X52.947 Y116.165 E70.38874
G1 X52.176 Y115.213 E70.45241
G1 X51.202 Y113.797 E70.54172
G1 X50.846 Y113.225 E70.57673
G1 X50.234 Y112.165 E70.64034
G1 X49.691 Y111.067 E70.704
G1 X49.042 Y109.438 E70.79513
G1 X48.821 Y108.798 E70.83032
G1 X48.459 Y107.628 E70.89397
G1 X48.175 Y106.437 E70.9576
G1 X47.908 Y104.745 E71.04662
G1 X47.836 Y104.096 E71.08055
G1 X47.741 Y102.876 E71.14414
G1 X47.722 Y102.029 E71.18817
G1 X47.722 Y35.177 E74.6624
G1 X47.762 Y33.953 E74.72605
G1 X47.882 Y32.734 E74.7897
G1 X48.081 Y31.526 E74.85333
G1 X48.358 Y30.333 E74.91698
G1 X48.713 Y29.161 E74.98062
G1 X49.144 Y28.015 E75.04425
G1 X49.648 Y26.899 E75.10788
G1 X49.984 Y26.27 E75.14494
G0 F810 X50.224 Y25.819
M204 S5000
M205 X30 Y30
G0 F7200 X50.723 Y25.956
M204 S500
M205 X20 Y20
G1 F6000 E75.17155
G1 F900 X51.368 Y24.934 E75.23436
G1 X52.078 Y23.957 E75.29712
G1 X52.852 Y23.029 E75.35992
G1 X53.567 Y22.272 E75.41404
G1 X53.713 Y22.126 E75.42477
G1 X54.595 Y21.301 E75.48753
G1 X55.53 Y20.535 E75.55034
G1 X56.514 Y19.834 E75.61313
G1 X57.541 Y19.198 E75.67591
G1 X58.609 Y18.632 E75.73872
G1 X59.711 Y18.138 E75.80149
G1 X60.844 Y17.718 E75.86428
G1 X62.002 Y17.374 E75.92706
G1 X63.18 Y17.108 E75.98982
G1 X64.374 Y16.92 E76.05264
G1 X65.577 Y16.811 E76.11541
G1 X66.618 Y16.781 E76.16953
G1 X178.326 Y16.781 E81.97488
G1 X179.533 Y16.821 E82.03764
G1 X180.736 Y16.941 E82.10047
G1 X181.927 Y17.14 E82.16323
G1 X183.103 Y17.417 E82.22601
G1 X184.258 Y17.772 E82.28881
G1 X185.387 Y18.202 E82.35159
G1 X186.485 Y18.706 E82.41438
G1 X187.547 Y19.282 E82.47717
G1 X188.569 Y19.927 E82.53997
G1 X189.546 Y20.637 E82.60274
G1 X190.474 Y21.411 E82.66554
G1 X191.231 Y22.126 E82.71965
G1 X191.377 Y22.272 E82.73038
G1 X192.202 Y23.154 E82.79314
G1 X192.968 Y24.089 E82.85596
G1 X193.669 Y25.073 E82.91875
G1 X194.305 Y26.1 E82.98152
G1 X194.871 Y27.168 E83.04434
G1 X195.365 Y28.27 E83.1071
G1 X195.785 Y29.403 E83.1699
G1 X196.129 Y30.561 E83.23268
G1 X196.395 Y31.739 E83.29544
G1 X196.583 Y32.933 E83.35825
G1 X196.692 Y34.136 E83.42103
G1 X196.722 Y35.177 E83.47515
G1 X196.721 Y102.041 E86.95
G1 X196.681 Y103.249 E87.01281
G1 X196.6 Y104.14 E87.05931
G1 X196.523 Y104.805 E87.0941
G1 X196.344 Y106 E87.1569
G1 X196.087 Y107.18 E87.21966
G1 X195.585 Y108.832 E87.30939
G1 X195.358 Y109.469 E87.34453
G1 X194.915 Y110.593 E87.40731
G1 X194.399 Y111.685 E87.47008
G1 X193.597 Y113.088 E87.55407
G1 X193.237 Y113.658 E87.5891
G1 X192.559 Y114.658 E87.65189
G1 X191.815 Y115.61 E87.71468
G1 X190.629 Y116.899 E87.80571
G1 X190.154 Y117.368 E87.8404
G1 X189.267 Y118.188 E87.90318
G1 X188.327 Y118.948 E87.966
G1 X186.983 Y119.872 E88.05076
G1 X186.41 Y120.229 E88.08584
G1 X185.364 Y120.833 E88.14861
G1 X184.28 Y121.367 E88.21141
G1 X182.685 Y122 E88.30059
G1 X182.05 Y122.218 E88.33548
G1 X180.895 Y122.572 E88.39826
G1 X179.719 Y122.849 E88.46105
G1 X178.17 Y123.092 E88.54254
G1 X177.514 Y123.166 E88.57684
G1 X176.309 Y123.262 E88.63966
G1 X175.468 Y123.281 E88.68338
G1 X69.462 Y123.28 E94.1924
G1 X68.254 Y123.24 E94.25522
G1 X67.345 Y123.157 E94.30265
G1 X66.677 Y123.079 E94.3376
G1 X65.483 Y122.899 E94.40036
G1 X64.303 Y122.641 E94.46313
G1 X62.642 Y122.134 E94.55338
G1 X62.008 Y121.907 E94.58838
G1 X60.885 Y121.462 E94.65115
G1 X59.793 Y120.944 E94.71396
G1 X58.415 Y120.155 E94.79648
G1 X57.845 Y119.795 E94.83152
G1 X56.845 Y119.117 E94.89431
G1 X55.893 Y118.373 E94.9571
G1 X54.604 Y117.187 E95.04813
G1 X54.135 Y116.712 E95.08282
G1 X53.315 Y115.825 E95.14559
G1 X52.555 Y114.885 E95.20841
G1 X51.627 Y113.533 E95.29364
G1 X51.271 Y112.961 E95.32865
G1 X50.667 Y111.915 E95.39142
G1 X50.133 Y110.831 E95.45422
G1 X49.515 Y109.275 E95.54123
G1 X49.294 Y108.635 E95.57641
G1 X48.937 Y107.48 E95.63924
G1 X48.658 Y106.305 E95.702
G1 X48.405 Y104.69 E95.78696
G1 X48.333 Y104.041 E95.82089
G1 X48.24 Y102.837 E95.88365
G1 X48.222 Y102.029 E95.92565
G1 X48.222 Y35.177 E99.39988
G1 X48.262 Y33.97 E99.46264
G1 X48.382 Y32.767 E99.52547
G1 X48.581 Y31.576 E99.58822
G1 X48.858 Y30.4 E99.65101
G1 X49.213 Y29.245 E99.7138
G1 X49.643 Y28.116 E99.77659
G1 X50.147 Y27.018 E99.83937
G1 X50.479 Y26.406 E99.87556
G0 F810 X50.723 Y25.956
M204 S5000
M205 X30 Y30
G0 F7200 X51.221 Y26.095
M204 S500
M205 X20 Y20
G1 F6000 E99.90217
G1 F900 X51.865 Y25.093 E99.96407
G1 X52.574 Y24.135 E100.02601
G1 X53.346 Y23.228 E100.0879
G1 X53.921 Y22.626 E100.13117
G1 X54.067 Y22.48 E100.1419
G1 X54.937 Y21.666 E100.20381
G1 X55.86 Y20.913 E100.26572
G1 X56.831 Y20.223 E100.32762
G1 X57.847 Y19.599 E100.38959
G1 X58.902 Y19.046 E100.45149
G1 X59.992 Y18.564 E100.51343
G1 X61.111 Y18.157 E100.57531
G1 X62.256 Y17.825 E100.63726
G1 X63.42 Y17.571 E100.69918
G1 X64.598 Y17.396 E100.76107
G1 X65.786 Y17.301 E100.82301
G1 X66.618 Y17.281 E100.86626
G1 X178.326 Y17.281 E106.67161
G1 X179.517 Y17.321 E106.73354
G1 X180.702 Y17.441 E106.79543
G1 X181.877 Y17.64 E106.85737
G1 X183.036 Y17.917 E106.9193
G1 X184.173 Y18.272 E106.9812
G1 X185.284 Y18.702 E107.04311
G1 X186.364 Y19.205 E107.10502
G1 X187.408 Y19.78 E107.16696
G1 X188.41 Y20.424 E107.22887
G1 X189.368 Y21.133 E107.2908
G1 X190.275 Y21.905 E107.3527
G1 X190.877 Y22.48 E107.39596
G1 X191.023 Y22.626 E107.40669
G1 X191.837 Y23.496 E107.46861
G1 X192.59 Y24.419 E107.53052
G1 X193.28 Y25.39 E107.59242
G1 X193.904 Y26.406 E107.65439
G1 X194.457 Y27.461 E107.71629
G1 X194.939 Y28.551 E107.77823
