;FLAVOR:Marlin
;TIME:7726
;Filament used: 6.07524m
;Layer height: 0.2
;Generated with Cura_SteamEngine 3.6.0
M140 S70
M105
M190 S70
M104 S215
M105
M109 S215
M82 ;absolute extrusion mode
G28 ; home all axes
M117 Purge extruder
G92 E0 ; reset extruder
G1 Z1.0 F3000 ; move z up little to prevent scratching of surface
G1 X0.1 Y20 Z0.3 F5000.0 ; move to start-line position G1 X0.1 Y200.0 Z0.3 F1500.0 E15 ; draw 1st line
G1 X0.4 Y200.0 Z0.3 F5000.0 ; move to side a little
G1 X0.4 Y20 Z0.3 F1500.0 E30 ; draw 2nd line
G92 E0 ; reset extruder
G1 Z1.0 F3000 ; move z up little to prevent scratching of surface
M117 All systems go!
G92 E0
G1 F6000 E-5
;LAYER_COUNT:18
;LAYER:0
M107
M204 S5000
M205 X30 Y30
G0 F7200 X75.359 Y63.552 Z0.2
M204 S500
M205 X20 Y20
;TYPE:SKIRT
G1 F6000 E0
G1 F900 X76.304 Y62.482 E0.04748
G1 X76.623 Y62.146 E0.06289
G1 X77.518 Y61.262 E0.10473
G1 X78.467 Y60.436 E0.14658
G1 X79.385 Y59.731 E0.18507
G1 X79.933 Y59.335 E0.20756
G1 X80.976 Y58.63 E0.24943
G1 X82.061 Y57.994 E0.29126
G1 X83.185 Y57.427 E0.33313
G1 X83.907 Y57.109 E0.35937
G1 X84.547 Y56.842 E0.38244
G1 X85.723 Y56.395 E0.42428
G1 X86.925 Y56.023 E0.46613
G1 X88.148 Y55.729 E0.50797
G1 X89.296 Y55.526 E0.54674
G1 X90.073 Y55.412 E0.57286
G1 X91.323 Y55.269 E0.61471
G1 X92.963 Y55.202 E0.6693
G1 X142.532 Y55.242 E2.31797
G1 X143.79 Y55.283 E2.35984
G1 X145.042 Y55.404 E2.40167
G1 X146.285 Y55.604 E2.44355
G1 X147.512 Y55.883 E2.4854
G1 X148.441 Y56.149 E2.51754
G1 X149.184 Y56.382 E2.54344
G1 X150.372 Y56.797 E2.58529
G1 X151.531 Y57.286 E2.62713
G1 X152.657 Y57.848 E2.66899
G1 X153.69 Y58.445 E2.70867
G1 X154.316 Y58.833 E2.73317
G1 X155.364 Y59.53 E2.77503
G1 X156.366 Y60.292 E2.8169
G1 X157.518 Y61.304 E2.8679
G1 X157.854 Y61.623 E2.88331
G1 X158.738 Y62.518 E2.92515
G1 X159.564 Y63.467 E2.96699
G1 X160.595 Y64.849 E3.02434
G1 X161.073 Y65.552 E3.05262
G1 X161.747 Y66.615 E3.09448
G1 X162.352 Y67.718 E3.13632
G1 X162.886 Y68.857 E3.17816
G1 X163.331 Y69.986 E3.21852
G1 X163.546 Y70.584 E3.23966
G1 X163.934 Y71.781 E3.28151
G1 X164.245 Y73.001 E3.32339
G1 X164.554 Y74.773 E3.38321
G1 X164.64 Y75.446 E3.40578
G1 X164.76 Y76.699 E3.44764
G1 X164.8 Y77.961 E3.48964
G1 X164.781 Y157.362 E6.13053
G1 X164.741 Y158.62 E6.17239
G1 X164.621 Y159.872 E6.21422
G1 X164.421 Y161.115 E6.2561
G1 X164.078 Y162.586 E6.30634
G1 X163.845 Y163.437 E6.33568
G1 X163.474 Y164.639 E6.37752
G1 X163.028 Y165.816 E6.41938
G1 X162.508 Y166.962 E6.46124
G1 X161.916 Y168.072 E6.50308
G1 X161.408 Y168.907 E6.53559
G1 X160.909 Y169.684 E6.5663
G1 X160.196 Y170.721 E6.60816
G1 X159.418 Y171.71 E6.65001
G1 X158.579 Y172.648 E6.69187
G1 X158.078 Y173.155 E6.71558
G1 X157.745 Y173.48 E6.73105
G1 X156.817 Y174.33 E6.77291
G1 X155.837 Y175.119 E6.81476
G1 X154.79 Y175.857 E6.85736
G1 X154.23 Y176.225 E6.87965
G1 X153.157 Y176.882 E6.92149
G1 X152.044 Y177.47 E6.96336
G1 X150.896 Y177.986 E7.00522
G1 X149.277 Y178.572 E7.06249
G1 X148.342 Y178.865 E7.09508
G1 X147.13 Y179.203 E7.13693
G1 X145.898 Y179.463 E7.17881
G1 X144.653 Y179.645 E7.22066
G1 X143.399 Y179.747 E7.2625
G1 X142.432 Y179.771 E7.29468
G1 X92.856 Y179.799 E8.94358
G1 X91.598 Y179.76 E8.98544
G1 X89.886 Y179.577 E9.04271
G1 X89.317 Y179.491 E9.06185
G1 X88.079 Y179.263 E9.10372
G1 X86.859 Y178.957 E9.14555
G1 X85.66 Y178.575 E9.1874
G1 X84.425 Y178.09 E9.23153
G1 X83.522 Y177.7 E9.26425
G1 X82.384 Y177.165 E9.30607
G1 X81.281 Y176.558 E9.34795
G1 X80.219 Y175.883 E9.3898
G1 X78.863 Y174.87 E9.4461
G1 X78.349 Y174.451 E9.46815
G1 X77.399 Y173.625 E9.51002
G1 X76.504 Y172.741 E9.55186
G1 X75.666 Y171.801 E9.59375
G1 X75.129 Y171.13 E9.62233
G1 X74.681 Y170.544 E9.64687
G1 X73.949 Y169.52 E9.68873
G1 X73.283 Y168.452 E9.7306
G1 X72.505 Y166.969 E9.7863
G1 X72.269 Y166.469 E9.80469
G1 X71.769 Y165.315 E9.84652
G1 X71.342 Y164.131 E9.88838
G1 X70.939 Y162.708 E9.93757
G1 X70.791 Y162.101 E9.95835
G1 X70.531 Y160.87 E10.0002
G1 X70.351 Y159.624 E10.04207
G1 X70.25 Y158.37 E10.08391
G1 X70.227 Y157.417 E10.11562
G1 X70.201 Y77.857 E12.76179
G1 X70.241 Y76.6 E12.80362
G1 X70.36 Y75.347 E12.84549
G1 X70.533 Y74.241 E12.88272
G1 X70.678 Y73.459 E12.90917
G1 X70.946 Y72.23 E12.95101
G1 X71.293 Y71.02 E12.99288
G1 X71.715 Y69.834 E13.03474
G1 X72.212 Y68.678 E13.0766
G1 X72.738 Y67.635 E13.11545
G1 X73.255 Y66.681 E13.15154
G1 X73.889 Y65.594 E13.19339
G1 X74.592 Y64.55 E13.23525
G1 X74.872 Y64.186 E13.25053
G0 F810 X75.359 Y63.552
M204 S5000
M205 X30 Y30
G0 F7200 X75.692 Y63.777
M204 S500
M205 X20 Y20
G1 F6000 E13.27714
G1 F900 X76.594 Y62.758 E13.3224
G1 X76.913 Y62.422 E13.33781
G1 X77.799 Y61.546 E13.37925
G1 X78.74 Y60.73 E13.42068
G1 X79.619 Y60.055 E13.45754
G1 X80.167 Y59.659 E13.48002
G1 X81.2 Y58.962 E13.52147
G1 X82.275 Y58.333 E13.5629
G1 X83.388 Y57.774 E13.60432
G1 X84.061 Y57.479 E13.62876
G1 X84.701 Y57.212 E13.65183
G1 X85.865 Y56.769 E13.69325
G1 X87.055 Y56.402 E13.73467
G1 X88.267 Y56.113 E13.77611
G1 X89.354 Y55.921 E13.81282
G1 X90.131 Y55.807 E13.83894
G1 X91.368 Y55.666 E13.88035
G1 X92.963 Y55.602 E13.93345
G1 X142.532 Y55.642 E15.58212
G1 X143.777 Y55.683 E15.62355
G1 X145.016 Y55.804 E15.66496
G1 X146.246 Y56.004 E15.7064
G1 X147.46 Y56.283 E15.74783
G1 X148.321 Y56.531 E15.77763
G1 X149.064 Y56.764 E15.80353
G1 X150.24 Y57.175 E15.84497
G1 X151.387 Y57.66 E15.88639
G1 X152.501 Y58.218 E15.92783
G1 X153.479 Y58.785 E15.96543
G1 X154.105 Y59.173 E15.98992
G1 X155.142 Y59.863 E16.03135
G1 X156.133 Y60.618 E16.07279
G1 X157.242 Y61.594 E16.12192
G1 X157.578 Y61.913 E16.13733
G1 X158.454 Y62.799 E16.17877
G1 X159.27 Y63.74 E16.2202
G1 X160.264 Y65.074 E16.27553
G1 X160.742 Y65.777 E16.30381
G1 X161.409 Y66.829 E16.34524
G1 X162.007 Y67.921 E16.38665
G1 X162.534 Y69.05 E16.42809
G1 X162.955 Y70.121 E16.46636
G1 X163.17 Y70.719 E16.4875
G1 X163.554 Y71.905 E16.52896
G1 X163.86 Y73.112 E16.57037
G1 X164.158 Y74.824 E16.62817
G1 X164.244 Y75.497 E16.65074
G1 X164.362 Y76.737 E16.69217
G1 X164.4 Y77.961 E16.7329
G1 X164.381 Y157.362 E19.37378
G1 X164.341 Y158.607 E19.41521
G1 X164.221 Y159.846 E19.45662
G1 X164.021 Y161.076 E19.49806
G1 X163.692 Y162.48 E19.54603
G1 X163.459 Y163.331 E19.57537
G1 X163.092 Y164.521 E19.61679
G1 X162.649 Y165.686 E19.65825
G1 X162.132 Y166.819 E19.69967
G1 X161.544 Y167.917 E19.74109
G1 X161.072 Y168.691 E19.77125
G1 X160.573 Y169.468 E19.80196
G1 X159.866 Y170.494 E19.8434
G1 X159.095 Y171.473 E19.88485
G1 X158.263 Y172.4 E19.92628
G1 X157.799 Y172.869 E19.94822
G1 X157.466 Y173.194 E19.9637
G1 X156.547 Y174.035 E20.00513
G1 X155.576 Y174.815 E20.04656
G1 X154.57 Y175.523 E20.08747
G1 X154.01 Y175.891 E20.10976
G1 X152.948 Y176.541 E20.15117
G1 X151.846 Y177.122 E20.19261
G1 X150.709 Y177.631 E20.23404
G1 X149.157 Y178.19 E20.28891
G1 X148.222 Y178.483 E20.3215
G1 X147.022 Y178.817 E20.36293
G1 X145.803 Y179.074 E20.40436
G1 X144.57 Y179.252 E20.4458
G1 X143.329 Y179.35 E20.4872
G1 X142.432 Y179.371 E20.51704
G1 X92.856 Y179.399 E22.16595
G1 X91.611 Y179.36 E22.20738
G1 X89.946 Y179.181 E22.26307
G1 X89.377 Y179.095 E22.28221
G1 X88.152 Y178.87 E22.32364
G1 X86.944 Y178.566 E22.36507
G1 X85.758 Y178.185 E22.4065
G1 X84.584 Y177.723 E22.44846
G1 X83.681 Y177.333 E22.48118
G1 X82.554 Y176.803 E22.5226
G1 X81.463 Y176.201 E22.56405
G1 X80.413 Y175.531 E22.60547
G1 X79.115 Y174.56 E22.65939
G1 X78.601 Y174.141 E22.68144
G1 X77.662 Y173.323 E22.72286
G1 X76.776 Y172.447 E22.7643
G1 X75.949 Y171.516 E22.80572
G1 X75.447 Y170.887 E22.83249
G1 X74.999 Y170.301 E22.85702
G1 X74.275 Y169.287 E22.89846
G1 X73.617 Y168.229 E22.9399
G1 X72.867 Y166.799 E22.99361
G1 X72.631 Y166.299 E23.012
G1 X72.136 Y165.156 E23.05343
G1 X71.715 Y163.983 E23.09488
G1 X71.327 Y162.614 E23.1422
G1 X71.179 Y162.007 E23.16298
G1 X70.923 Y160.787 E23.20444
G1 X70.746 Y159.555 E23.24584
G1 X70.648 Y158.313 E23.28728
G1 X70.627 Y157.417 E23.31709
G1 X70.601 Y77.857 E25.96327
G1 X70.641 Y76.612 E26.0047
G1 X70.76 Y75.372 E26.04613
G1 X70.926 Y74.314 E26.08175
G1 X71.071 Y73.532 E26.1082
G1 X71.337 Y72.315 E26.14963
G1 X71.681 Y71.118 E26.19106
G1 X72.101 Y69.945 E26.2325
G1 X72.596 Y68.802 E26.27392
G1 X73.09 Y67.826 E26.31031
G1 X73.607 Y66.872 E26.3464
G1 X74.235 Y65.796 E26.38784
G1 X74.931 Y64.763 E26.42926
G1 X75.204 Y64.41 E26.44411
G0 F810 X75.692 Y63.777
M204 S5000
M205 X30 Y30
G0 F7200 X76.025 Y64.002
M204 S500
M205 X20 Y20
G1 F6000 E26.47071
G1 F900 X76.884 Y63.033 E26.51378
G1 X77.203 Y62.697 E26.52919
G1 X78.08 Y61.831 E26.57019
G1 X79.012 Y61.024 E26.61119
G1 X79.854 Y60.379 E26.64647
G1 X80.402 Y59.983 E26.66896
G1 X81.424 Y59.294 E26.70995
G1 X82.488 Y58.672 E26.75094
G1 X83.591 Y58.121 E26.79195
G1 X84.215 Y57.848 E26.81461
G1 X84.855 Y57.581 E26.83767
G1 X86.007 Y57.143 E26.87866
G1 X87.185 Y56.781 E26.91965
G1 X88.385 Y56.497 E26.96067
G1 X89.412 Y56.317 E26.99534
G1 X90.189 Y56.203 E27.02146
G1 X91.414 Y56.064 E27.06247
G1 X92.962 Y56.002 E27.114
G1 X142.531 Y56.042 E28.76267
G1 X143.763 Y56.083 E28.80367
G1 X144.99 Y56.204 E28.84468
G1 X146.207 Y56.404 E28.8857
G1 X147.407 Y56.682 E28.92667
G1 X148.201 Y56.913 E28.95417
G1 X148.944 Y57.146 E28.98007
G1 X150.108 Y57.552 E29.02107
G1 X151.243 Y58.034 E29.06208
G1 X152.344 Y58.588 E29.10308
G1 X153.269 Y59.125 E29.13865
G1 X153.895 Y59.513 E29.16315
G1 X154.921 Y60.197 E29.20416
G1 X155.9 Y60.945 E29.24514
G1 X156.967 Y61.884 E29.29241
G1 X157.303 Y62.203 E29.30782
G1 X158.169 Y63.08 E29.34882
G1 X158.976 Y64.012 E29.38982
G1 X159.933 Y65.299 E29.44316
G1 X160.411 Y66.002 E29.47144
G1 X161.071 Y67.043 E29.51243
G1 X161.661 Y68.125 E29.55342
G1 X162.181 Y69.243 E29.59444
G1 X162.579 Y70.257 E29.63067
G1 X162.794 Y70.855 E29.6518
G1 X163.173 Y72.028 E29.6928
G1 X163.475 Y73.223 E29.7338
G1 X163.761 Y74.875 E29.78956
G1 X163.847 Y75.548 E29.81213
G1 X163.963 Y76.775 E29.85312
G1 X164 Y77.961 E29.89258
G1 X163.981 Y157.362 E32.53347
G1 X163.941 Y158.594 E32.57447
G1 X163.821 Y159.82 E32.61544
G1 X163.621 Y161.037 E32.65646
G1 X163.307 Y162.374 E32.70214
G1 X163.074 Y163.225 E32.73149
G1 X162.71 Y164.403 E32.7725
G1 X162.27 Y165.555 E32.81351
G1 X161.757 Y166.676 E32.85451
G1 X161.172 Y167.761 E32.89551
G1 X160.735 Y168.475 E32.92336
G1 X160.236 Y169.252 E32.95407
G1 X159.537 Y170.267 E32.99506
G1 X158.773 Y171.235 E33.03607
G1 X157.52 Y172.582 E33.09726
G1 X157.187 Y172.907 E33.11274
G1 X156.277 Y173.739 E33.15375
G1 X155.315 Y174.51 E33.19475
G1 X154.35 Y175.188 E33.23398
G1 X153.79 Y175.556 E33.25627
G1 X152.739 Y176.2 E33.29726
G1 X151.648 Y176.773 E33.33825
G1 X150.522 Y177.275 E33.37926
G1 X149.038 Y177.809 E33.43171
G1 X148.103 Y178.102 E33.4643
G1 X146.915 Y178.432 E33.50531
G1 X145.708 Y178.684 E33.54632
G1 X144.488 Y178.858 E33.58731
G1 X143.259 Y178.953 E33.62831
G1 X142.432 Y178.971 E33.65582
G1 X92.856 Y178.999 E35.30472
G1 X91.624 Y178.96 E35.34572
G1 X90.006 Y178.786 E35.39985
G1 X89.437 Y178.7 E35.41899
G1 X88.224 Y178.476 E35.46001
G1 X87.029 Y178.174 E35.50101
G1 X85.856 Y177.795 E35.54201
G1 X84.743 Y177.356 E35.5818
G1 X83.84 Y176.966 E35.61452
G1 X82.724 Y176.44 E35.65555
G1 X81.646 Y175.844 E35.69652
G1 X80.608 Y175.179 E35.73752
G1 X79.368 Y174.25 E35.78906
G1 X78.854 Y173.831 E35.81111
G1 X77.924 Y173.021 E35.85213
G1 X77.049 Y172.153 E35.89313
G1 X76.232 Y171.23 E35.93412
G1 X75.765 Y170.644 E35.95905
G1 X75.317 Y170.058 E35.98358
G1 X74.6 Y169.055 E36.02459
G1 X73.95 Y168.007 E36.0656
G1 X73.229 Y166.628 E36.11736
G1 X72.993 Y166.128 E36.13575
G1 X72.503 Y164.997 E36.17675
G1 X72.088 Y163.836 E36.21775
G1 X71.716 Y162.519 E36.26327
G1 X71.568 Y161.912 E36.28405
G1 X71.315 Y160.705 E36.32507
G1 X71.141 Y159.485 E36.36606
G1 X71.046 Y158.256 E36.40706
G1 X71.027 Y157.417 E36.43497
G1 X71.001 Y77.857 E39.08114
G1 X71.041 Y76.625 E39.12214
G1 X71.16 Y75.398 E39.16314
G1 X71.319 Y74.387 E39.19718
G1 X71.464 Y73.605 E39.22364
G1 X71.728 Y72.401 E39.26463
G1 X72.07 Y71.216 E39.30565
G1 X72.487 Y70.057 E39.34662
G1 X72.979 Y68.926 E39.38764
G1 X73.441 Y68.016 E39.42159
G1 X73.958 Y67.062 E39.45768
G1 X74.58 Y65.998 E39.49867
G1 X75.27 Y64.976 E39.53968
G1 X75.535 Y64.634 E39.55407
G0 F810 X76.025 Y64.002
M204 S5000
M205 X30 Y30
G0 F7200 X76.358 Y64.227
M204 S500
M205 X20 Y20
G1 F6000 E39.58068
G1 F900 X77.174 Y63.308 E39.62156
G1 X77.493 Y62.972 E39.63697
G1 X78.361 Y62.116 E39.67752
G1 X79.284 Y61.318 E39.7181
G1 X80.088 Y60.703 E39.75176
G1 X80.636 Y60.307 E39.77425
G1 X81.647 Y59.626 E39.8148
G1 X82.701 Y59.012 E39.85537
G1 X83.793 Y58.468 E39.89594
G1 X84.369 Y58.217 E39.91684
G1 X85.009 Y57.95 E39.93991
G1 X86.149 Y57.517 E39.98046
G1 X87.315 Y57.161 E40.02101
G1 X88.502 Y56.881 E40.06158
G1 X89.47 Y56.713 E40.09425
G1 X90.247 Y56.599 E40.12037
G1 X91.459 Y56.462 E40.16094
G1 X92.962 Y56.402 E40.21097
G1 X142.531 Y56.442 E41.85964
G1 X143.75 Y56.483 E41.90021
G1 X144.964 Y56.604 E41.94079
G1 X146.167 Y56.804 E41.98135
G1 X147.354 Y57.082 E42.0219
G1 X148.082 Y57.294 E42.04712
G1 X148.825 Y57.527 E42.07302
G1 X149.976 Y57.93 E42.11358
G1 X151.098 Y58.408 E42.15414
G1 X152.187 Y58.958 E42.19472
G1 X153.058 Y59.465 E42.22824
G1 X153.684 Y59.853 E42.25273
G1 X154.699 Y60.53 E42.29331
G1 X155.668 Y61.271 E42.33389
G1 X156.692 Y62.174 E42.3793
G1 X157.028 Y62.493 E42.3947
G1 X157.884 Y63.361 E42.43525
G1 X158.682 Y64.284 E42.47583
G1 X159.602 Y65.524 E42.52719
G1 X160.08 Y66.227 E42.55546
G1 X160.733 Y67.257 E42.59603
G1 X161.316 Y68.328 E42.63658
G1 X161.828 Y69.435 E42.67715
G1 X162.202 Y70.392 E42.71132
G1 X162.417 Y70.99 E42.73246
G1 X162.792 Y72.151 E42.77304
G1 X163.09 Y73.333 E42.81358
G1 X163.364 Y74.925 E42.86731
G1 X163.45 Y75.598 E42.88988
G1 X163.565 Y76.813 E42.93047
G1 X163.6 Y77.96 E42.96864
G1 X163.581 Y157.361 E45.60952
G1 X163.541 Y158.58 E45.65009
G1 X163.421 Y159.794 E45.69066
G1 X163.221 Y160.997 E45.73123
G1 X162.921 Y162.269 E45.77469
G1 X162.688 Y163.12 E45.80404
G1 X162.327 Y164.285 E45.84461
G1 X161.891 Y165.424 E45.88517
G1 X161.381 Y166.532 E45.92574
G1 X160.8 Y167.604 E45.96629
G1 X160.398 Y168.259 E45.99185
G1 X159.899 Y169.036 E46.02257
G1 X159.207 Y170.04 E46.06312
G1 X158.45 Y170.997 E46.10371
G1 X157.24 Y172.296 E46.16275
G1 X156.907 Y172.621 E46.17823
G1 X156.007 Y173.444 E46.21879
G1 X155.055 Y174.206 E46.25935
G1 X154.131 Y174.854 E46.29689
G1 X153.571 Y175.222 E46.31917
G1 X152.53 Y175.858 E46.35975
G1 X151.45 Y176.425 E46.40032
G1 X150.335 Y176.919 E46.44088
G1 X148.918 Y177.427 E46.49095
G1 X147.983 Y177.72 E46.52354
G1 X146.808 Y178.046 E46.56409
G1 X145.614 Y178.295 E46.60466
G1 X144.406 Y178.465 E46.64523
G1 X143.19 Y178.555 E46.68579
G1 X142.432 Y178.571 E46.71101
G1 X92.856 Y178.599 E48.35991
G1 X91.636 Y178.56 E48.40051
G1 X90.065 Y178.39 E48.45307
G1 X89.496 Y178.304 E48.47221
G1 X88.297 Y178.082 E48.51276
G1 X87.115 Y177.783 E48.55331
G1 X85.955 Y177.406 E48.59388
G1 X84.901 Y176.988 E48.63159
G1 X83.998 Y176.598 E48.66431
G1 X82.895 Y176.078 E48.70487
G1 X81.828 Y175.487 E48.74544
G1 X80.802 Y174.827 E48.78601
G1 X79.621 Y173.94 E48.83514
G1 X79.107 Y173.521 E48.85719
G1 X78.187 Y172.72 E48.89777
G1 X77.322 Y171.86 E48.93834
G1 X76.515 Y170.945 E48.97891
G1 X76.083 Y170.401 E49.00202
G1 X75.635 Y169.815 E49.02655
G1 X74.926 Y168.822 E49.06713
G1 X74.284 Y167.785 E49.1077
G1 X73.591 Y166.457 E49.15752
G1 X73.355 Y165.957 E49.17591
G1 X72.87 Y164.838 E49.21647
G1 X72.461 Y163.689 E49.25704
G1 X72.104 Y162.424 E49.30076
G1 X71.956 Y161.817 E49.32154
G1 X71.706 Y160.623 E49.36211
G1 X71.535 Y159.416 E49.40266
G1 X71.444 Y158.199 E49.44325
G1 X71.427 Y157.417 E49.46926
G1 X71.401 Y77.857 E52.11544
G1 X71.441 Y76.638 E52.15601
G1 X71.56 Y75.424 E52.19658
G1 X71.713 Y74.46 E52.22904
G1 X71.858 Y73.678 E52.25549
G1 X72.119 Y72.487 E52.29605
G1 X72.458 Y71.315 E52.33663
G1 X72.874 Y70.168 E52.37721
G1 X73.363 Y69.051 E52.41776
G1 X73.793 Y68.207 E52.44927
G1 X74.31 Y67.253 E52.48536
G1 X74.926 Y66.2 E52.52593
G1 X75.61 Y65.19 E52.5665
G1 X75.868 Y64.858 E52.58049
G0 F810 X76.358 Y64.227
M204 S5000
M205 X30 Y30
G0 F7200 X76.691 Y64.453
M204 S500
M205 X20 Y20
G1 F6000 E52.6071
G1 F900 X77.464 Y63.584 E52.64578
G1 X77.783 Y63.248 E52.66119
G1 X78.642 Y62.401 E52.70131
