;FLAVOR:Marlin
;TIME:3791
;Filament used: 3.00982m
;Layer height: 0.16
;Generated with Cura_SteamEngine 3.6.0
M140 S70
M105
M190 S70
M104 S215
M105
M109 S215
M82 ;absolute extrusion mode
G28 ; home all axes
M117 Purge extruder
G92 E0 ; reset extruder
G1 Z1.0 F3000 ; move z up little to prevent scratching of surface
G1 X0.1 Y20 Z0.3 F5000.0 ; move to start-line position G1 X0.1 Y200.0 Z0.3 F1500.0 E15 ; draw 1st line
G1 X0.4 Y200.0 Z0.3 F5000.0 ; move to side a little
G1 X0.4 Y20 Z0.3 F1500.0 E30 ; draw 2nd line
G92 E0 ; reset extruder
G1 Z1.0 F3000 ; move z up little to prevent scratching of surface
M117 All systems go!
G92 E0
G1 F6000 E-5
;LAYER_COUNT:126
;LAYER:0
M107
M204 S5000
M205 X30 Y30
G0 F7200 X93.499 Y93.616 Z0.16
M204 S500
M205 X20 Y20
;TYPE:SKIRT
G1 F6000 E0
G1 F900 X93.616 Y93.499 E0.0044
G1 X94.534 Y92.638 E0.03789
G1 X95.504 Y91.837 E0.07136
G1 X96.524 Y91.099 E0.10486
G1 X97.588 Y90.428 E0.13833
G1 X98.693 Y89.825 E0.17183
G1 X99.834 Y89.294 E0.20531
G1 X101.006 Y88.836 E0.2388
G1 X102.205 Y88.454 E0.27228
G1 X103.426 Y88.149 E0.30577
G1 X104.663 Y87.922 E0.33923
G1 X105.913 Y87.773 E0.37273
G1 X107.617 Y87.7 E0.41811
G1 X127.383 Y87.7 E0.94404
G1 X128.641 Y87.74 E0.97753
G1 X129.893 Y87.86 E1.011
G1 X131.136 Y88.059 E1.04449
G1 X132.363 Y88.337 E1.07797
G1 X133.571 Y88.692 E1.11147
G1 X134.753 Y89.123 E1.14495
G1 X135.905 Y89.628 E1.17842
G1 X137.024 Y90.206 E1.21193
G1 X138.103 Y90.853 E1.2454
G1 X139.139 Y91.567 E1.27888
G1 X140.127 Y92.346 E1.31236
G1 X141.384 Y93.499 E1.35775
G1 X141.501 Y93.616 E1.36215
G1 X142.362 Y94.534 E1.39564
G1 X143.163 Y95.504 E1.42911
G1 X143.901 Y96.524 E1.46261
G1 X144.572 Y97.588 E1.49608
G1 X145.175 Y98.693 E1.52957
G1 X145.706 Y99.834 E1.56306
G1 X146.164 Y101.006 E1.59654
G1 X146.546 Y102.205 E1.63003
G1 X146.851 Y103.426 E1.66351
G1 X147.078 Y104.663 E1.69698
G1 X147.227 Y105.913 E1.73047
G1 X147.3 Y107.617 E1.77585
G1 X147.3 Y127.383 E2.30179
G1 X147.26 Y128.641 E2.33528
G1 X147.14 Y129.893 E2.36875
G1 X146.941 Y131.136 E2.40224
G1 X146.663 Y132.363 E2.43572
G1 X146.308 Y133.571 E2.46922
G1 X145.877 Y134.753 E2.50269
G1 X145.372 Y135.905 E2.53616
G1 X144.794 Y137.024 E2.56967
G1 X144.147 Y138.103 E2.60315
G1 X143.433 Y139.139 E2.63663
G1 X142.654 Y140.127 E2.67011
G1 X141.501 Y141.384 E2.71549
G1 X141.384 Y141.501 E2.7199
G1 X140.466 Y142.362 E2.75338
G1 X139.496 Y143.163 E2.78686
G1 X138.476 Y143.901 E2.82036
G1 X137.412 Y144.572 E2.85383
G1 X136.307 Y145.175 E2.88732
G1 X135.166 Y145.706 E2.92081
G1 X133.994 Y146.164 E2.95429
G1 X132.795 Y146.546 E2.98777
G1 X131.574 Y146.851 E3.02126
G1 X130.337 Y147.078 E3.05472
G1 X129.087 Y147.227 E3.08822
G1 X127.383 Y147.3 E3.1336
G1 X107.617 Y147.3 E3.65954
G1 X106.359 Y147.26 E3.69303
G1 X105.107 Y147.14 E3.72649
G1 X103.864 Y146.941 E3.75999
G1 X102.637 Y146.663 E3.79346
G1 X101.429 Y146.308 E3.82696
G1 X100.247 Y145.877 E3.86044
G1 X99.095 Y145.372 E3.89391
G1 X97.976 Y144.794 E3.92742
G1 X96.897 Y144.147 E3.9609
G1 X95.861 Y143.433 E3.99438
G1 X94.873 Y142.654 E4.02785
G1 X93.616 Y141.501 E4.07324
G1 X93.499 Y141.384 E4.07764
G1 X92.638 Y140.466 E4.11113
G1 X91.837 Y139.496 E4.1446
G1 X91.099 Y138.476 E4.1781
G1 X90.428 Y137.412 E4.21157
G1 X89.825 Y136.307 E4.24507
G1 X89.294 Y135.166 E4.27855
G1 X88.836 Y133.994 E4.31203
G1 X88.454 Y132.795 E4.34552
G1 X88.149 Y131.574 E4.379
G1 X87.922 Y130.337 E4.41247
G1 X87.773 Y129.087 E4.44596
G1 X87.7 Y127.383 E4.49135
G1 X87.7 Y107.617 E5.01728
G1 X87.74 Y106.359 E5.05077
G1 X87.86 Y105.107 E5.08424
G1 X88.059 Y103.864 E5.11773
G1 X88.337 Y102.637 E5.15121
G1 X88.692 Y101.429 E5.18471
G1 X89.123 Y100.247 E5.21819
G1 X89.628 Y99.095 E5.25165
G1 X90.206 Y97.976 E5.28517
G1 X90.853 Y96.897 E5.31864
G1 X91.567 Y95.861 E5.35212
G1 X92.346 Y94.873 E5.3856
G1 X92.823 Y94.353 E5.40437
G0 F810 X93.499 Y93.616
M204 S5000
M205 X30 Y30
G0 F7200 X93.782 Y93.899
M204 S500
M205 X20 Y20
G1 F6000 E5.43098
G1 F900 X93.899 Y93.782 E5.43539
G1 X94.808 Y92.93 E5.46854
G1 X95.769 Y92.138 E5.50167
G1 X96.779 Y91.409 E5.53481
G1 X97.834 Y90.747 E5.56795
G1 X98.93 Y90.154 E5.60111
G1 X100.061 Y89.632 E5.63426
G1 X101.223 Y89.184 E5.66739
G1 X102.412 Y88.811 E5.70055
G1 X103.622 Y88.516 E5.73369
G1 X104.848 Y88.299 E5.76682
G1 X106.086 Y88.16 E5.79997
G1 X107.617 Y88.1 E5.84073
G1 X127.383 Y88.1 E6.36667
G1 X128.628 Y88.14 E6.39981
G1 X129.868 Y88.26 E6.43296
G1 X131.097 Y88.459 E6.46609
G1 X132.312 Y88.737 E6.49925
G1 X133.506 Y89.092 E6.5324
G1 X134.674 Y89.522 E6.56552
G1 X135.813 Y90.027 E6.59867
G1 X136.917 Y90.604 E6.63181
G1 X137.982 Y91.251 E6.66497
G1 X139.003 Y91.965 E6.69812
G1 X139.976 Y92.742 E6.73125
G1 X141.101 Y93.782 E6.77202
G1 X141.218 Y93.899 E6.77642
G1 X142.07 Y94.808 E6.80957
G1 X142.862 Y95.769 E6.84271
G1 X143.591 Y96.779 E6.87585
G1 X144.253 Y97.834 E6.90899
G1 X144.846 Y98.93 E6.94215
G1 X145.368 Y100.061 E6.97529
G1 X145.816 Y101.223 E7.00843
G1 X146.189 Y102.412 E7.04159
G1 X146.484 Y103.622 E7.07472
G1 X146.701 Y104.848 E7.10785
G1 X146.84 Y106.086 E7.141
G1 X146.9 Y107.617 E7.18177
G1 X146.9 Y127.383 E7.70771
G1 X146.86 Y128.628 E7.74085
G1 X146.74 Y129.868 E7.774
G1 X146.541 Y131.097 E7.80713
G1 X146.263 Y132.312 E7.84029
G1 X145.908 Y133.506 E7.87343
G1 X145.478 Y134.674 E7.90655
G1 X144.973 Y135.813 E7.9397
G1 X144.396 Y136.917 E7.97285
G1 X143.749 Y137.982 E8.00601
G1 X143.035 Y139.003 E8.03916
G1 X142.258 Y139.976 E8.07229
G1 X141.218 Y141.101 E8.11305
G1 X141.101 Y141.218 E8.11746
G1 X140.192 Y142.07 E8.15061
G1 X139.231 Y142.862 E8.18374
G1 X138.221 Y143.591 E8.21688
G1 X137.166 Y144.253 E8.25003
G1 X136.07 Y144.846 E8.28318
G1 X134.939 Y145.368 E8.31633
G1 X133.777 Y145.816 E8.34946
G1 X132.588 Y146.189 E8.38262
G1 X131.378 Y146.484 E8.41576
G1 X130.152 Y146.701 E8.44889
G1 X128.914 Y146.84 E8.48204
G1 X127.383 Y146.9 E8.5228
G1 X107.617 Y146.9 E9.04874
G1 X106.372 Y146.86 E9.08188
G1 X105.132 Y146.74 E9.11503
G1 X103.903 Y146.541 E9.14816
G1 X102.688 Y146.263 E9.18132
G1 X101.494 Y145.908 E9.21447
G1 X100.326 Y145.478 E9.24759
G1 X99.187 Y144.973 E9.28074
G1 X98.083 Y144.396 E9.31388
G1 X97.018 Y143.749 E9.34704
G1 X95.997 Y143.035 E9.38019
G1 X95.024 Y142.258 E9.41332
G1 X93.899 Y141.218 E9.45409
G1 X93.782 Y141.101 E9.45849
G1 X92.93 Y140.192 E9.49164
G1 X92.138 Y139.231 E9.52478
G1 X91.409 Y138.221 E9.55792
G1 X90.747 Y137.166 E9.59106
G1 X90.154 Y136.07 E9.62422
G1 X89.632 Y134.939 E9.65736
G1 X89.184 Y133.777 E9.6905
G1 X88.811 Y132.588 E9.72366
G1 X88.516 Y131.378 E9.7568
G1 X88.299 Y130.152 E9.78992
G1 X88.16 Y128.914 E9.82307
G1 X88.1 Y127.383 E9.86384
G1 X88.1 Y107.617 E10.38978
G1 X88.14 Y106.372 E10.42292
G1 X88.26 Y105.132 E10.45607
G1 X88.459 Y103.903 E10.4892
G1 X88.737 Y102.688 E10.52236
G1 X89.092 Y101.494 E10.5555
G1 X89.522 Y100.326 E10.58862
G1 X90.027 Y99.187 E10.62177
G1 X90.604 Y98.083 E10.65492
G1 X91.251 Y97.018 E10.68808
G1 X91.965 Y95.997 E10.72123
G1 X92.742 Y95.024 E10.75436
G1 X93.104 Y94.633 E10.76854
G0 F810 X93.782 Y93.899
M204 S5000
M205 X30 Y30
G0 F7200 X94.065 Y94.182
M204 S500
M205 X20 Y20
G1 F6000 E10.79515
G1 F900 X94.182 Y94.065 E10.79955
G1 X95.081 Y93.222 E10.83234
G1 X96.034 Y92.439 E10.86516
G1 X97.035 Y91.72 E10.89795
G1 X98.08 Y91.067 E10.93074
G1 X99.166 Y90.483 E10.96355
G1 X100.287 Y89.971 E10.99634
G1 X101.439 Y89.532 E11.02914
G1 X102.617 Y89.17 E11.06194
G1 X103.817 Y88.884 E11.09476
G1 X105.032 Y88.677 E11.12755
G1 X106.258 Y88.549 E11.16035
G1 X107.617 Y88.5 E11.19654
G1 X127.383 Y88.5 E11.72247
G1 X128.615 Y88.54 E11.75527
G1 X129.842 Y88.66 E11.78807
G1 X131.058 Y88.859 E11.82086
G1 X132.26 Y89.136 E11.85368
G1 X133.44 Y89.491 E11.88647
G1 X134.595 Y89.922 E11.91927
G1 X135.72 Y90.427 E11.95208
G1 X136.809 Y91.003 E11.98486
G1 X137.859 Y91.649 E12.01767
G1 X138.865 Y92.362 E12.05048
G1 X139.823 Y93.138 E12.08328
G1 X140.818 Y94.065 E12.11946
G1 X140.935 Y94.182 E12.12387
G1 X141.778 Y95.081 E12.15666
G1 X142.561 Y96.034 E12.18948
G1 X143.28 Y97.035 E12.22227
G1 X143.933 Y98.08 E12.25506
G1 X144.517 Y99.166 E12.28787
G1 X145.029 Y100.287 E12.32066
G1 X145.468 Y101.439 E12.35346
G1 X145.83 Y102.617 E12.38625
G1 X146.116 Y103.817 E12.41908
G1 X146.323 Y105.032 E12.45187
G1 X146.451 Y106.258 E12.48467
G1 X146.5 Y107.617 E12.52086
G1 X146.5 Y127.383 E13.04679
G1 X146.46 Y128.615 E13.07959
G1 X146.34 Y129.842 E13.11239
G1 X146.141 Y131.058 E13.14518
G1 X145.864 Y132.26 E13.178
G1 X145.509 Y133.44 E13.21079
G1 X145.078 Y134.595 E13.24359
G1 X144.573 Y135.72 E13.2764
G1 X143.997 Y136.809 E13.30918
G1 X143.351 Y137.859 E13.34198
G1 X142.638 Y138.865 E13.37479
G1 X141.862 Y139.823 E13.4076
G1 X140.935 Y140.818 E13.44378
G1 X140.818 Y140.935 E13.44818
G1 X139.919 Y141.778 E13.48098
G1 X138.966 Y142.561 E13.5138
G1 X137.965 Y143.28 E13.54659
G1 X136.92 Y143.933 E13.57938
G1 X135.834 Y144.517 E13.61219
G1 X134.713 Y145.029 E13.64498
G1 X133.561 Y145.468 E13.67778
G1 X132.383 Y145.83 E13.71057
G1 X131.183 Y146.116 E13.7434
G1 X129.968 Y146.323 E13.77619
G1 X128.742 Y146.451 E13.80899
G1 X127.383 Y146.5 E13.84517
G1 X107.617 Y146.5 E14.37111
G1 X106.385 Y146.46 E14.40391
G1 X105.158 Y146.34 E14.43671
G1 X103.942 Y146.141 E14.4695
G1 X102.74 Y145.864 E14.50232
G1 X101.56 Y145.509 E14.53511
G1 X100.405 Y145.078 E14.56791
G1 X99.28 Y144.573 E14.60072
G1 X98.191 Y143.997 E14.6335
G1 X97.141 Y143.351 E14.6663
G1 X96.135 Y142.638 E14.69911
G1 X95.177 Y141.862 E14.73192
G1 X94.182 Y140.935 E14.7681
G1 X94.065 Y140.818 E14.7725
G1 X93.222 Y139.919 E14.8053
G1 X92.439 Y138.966 E14.83811
G1 X91.72 Y137.965 E14.87091
G1 X91.067 Y136.92 E14.9037
G1 X90.483 Y135.834 E14.93651
G1 X89.971 Y134.713 E14.9693
G1 X89.532 Y133.561 E15.0021
G1 X89.17 Y132.383 E15.03489
G1 X88.884 Y131.183 E15.06771
G1 X88.677 Y129.968 E15.10051
G1 X88.549 Y128.742 E15.13331
G1 X88.5 Y127.383 E15.16949
G1 X88.5 Y107.617 E15.69543
G1 X88.54 Y106.385 E15.72823
G1 X88.66 Y105.158 E15.76103
G1 X88.859 Y103.942 E15.79382
G1 X89.136 Y102.74 E15.82664
G1 X89.491 Y101.56 E15.85942
G1 X89.922 Y100.405 E15.89223
G1 X90.427 Y99.28 E15.92504
G1 X91.003 Y98.191 E15.95782
G1 X91.649 Y97.141 E15.99062
G1 X92.362 Y96.135 E16.02343
G1 X93.138 Y95.177 E16.05623
G1 X93.383 Y94.914 E16.0658
G0 F810 X94.065 Y94.182
M204 S5000
M205 X30 Y30
G0 F7200 X94.348 Y94.465
M204 S500
M205 X20 Y20
G1 F6000 E16.09241
G1 F900 X94.465 Y94.348 E16.09681
G1 X95.355 Y93.514 E16.12926
G1 X96.298 Y92.741 E16.16171
G1 X97.29 Y92.03 E16.19418
G1 X98.326 Y91.387 E16.22663
G1 X99.402 Y90.813 E16.25908
G1 X100.513 Y90.31 E16.29153
G1 X101.655 Y89.881 E16.32399
G1 X102.822 Y89.529 E16.35642
G1 X104.011 Y89.253 E16.3889
G1 X105.214 Y89.056 E16.42133
G1 X106.428 Y88.938 E16.45379
G1 X107.617 Y88.9 E16.48544
G1 X127.383 Y88.9 E17.01138
G1 X128.602 Y88.94 E17.04383
G1 X129.816 Y89.06 E17.07629
G1 X131.019 Y89.259 E17.10873
G1 X132.207 Y89.536 E17.14119
G1 X133.374 Y89.891 E17.17365
G1 X134.515 Y90.322 E17.2061
G1 X135.625 Y90.826 E17.23854
G1 X136.7 Y91.402 E17.27099
G1 X137.735 Y92.047 E17.30344
G1 X138.726 Y92.759 E17.33591
G1 X139.668 Y93.534 E17.36837
G1 X140.535 Y94.348 E17.40001
G1 X140.652 Y94.465 E17.40441
G1 X141.486 Y95.355 E17.43687
G1 X142.259 Y96.298 E17.46931
G1 X142.97 Y97.29 E17.50178
G1 X143.613 Y98.326 E17.53423
G1 X144.187 Y99.402 E17.56668
G1 X144.69 Y100.513 E17.59913
G1 X145.119 Y101.655 E17.63159
G1 X145.471 Y102.822 E17.66402
G1 X145.747 Y104.011 E17.6965
G1 X145.944 Y105.214 E17.72893
G1 X146.062 Y106.428 E17.76139
G1 X146.1 Y107.617 E17.79304
G1 X146.1 Y127.383 E18.31898
G1 X146.06 Y128.602 E18.35143
G1 X145.94 Y129.816 E18.38389
G1 X145.741 Y131.019 E18.41634
G1 X145.464 Y132.207 E18.44879
G1 X145.109 Y133.374 E18.48125
G1 X144.678 Y134.515 E18.5137
G1 X144.174 Y135.625 E18.54614
G1 X143.598 Y136.7 E18.57859
G1 X142.953 Y137.735 E18.61104
G1 X142.241 Y138.726 E18.64351
G1 X141.466 Y139.668 E18.67597
G1 X140.652 Y140.535 E18.70761
G1 X140.535 Y140.652 E18.71201
G1 X139.645 Y141.486 E18.74447
G1 X138.702 Y142.259 E18.77691
G1 X137.71 Y142.97 E18.80939
G1 X136.674 Y143.613 E18.84183
G1 X135.598 Y144.187 E18.87428
G1 X134.487 Y144.69 E18.90673
G1 X133.345 Y145.119 E18.93919
G1 X132.178 Y145.471 E18.97162
G1 X130.989 Y145.747 E19.0041
G1 X129.786 Y145.944 E19.03654
G1 X128.572 Y146.062 E19.06899
G1 X127.383 Y146.1 E19.10064
G1 X107.617 Y146.1 E19.62658
G1 X106.398 Y146.06 E19.65903
G1 X105.184 Y145.94 E19.69149
G1 X103.981 Y145.741 E19.72394
G1 X102.793 Y145.464 E19.7564
G1 X101.626 Y145.109 E19.78885
G1 X100.485 Y144.678 E19.82131
G1 X99.375 Y144.174 E19.85374
G1 X98.3 Y143.598 E19.88619
G1 X97.265 Y142.953 E19.91864
G1 X96.274 Y142.241 E19.95111
G1 X95.332 Y141.466 E19.98357
G1 X94.465 Y140.652 E20.01521
G1 X94.348 Y140.535 E20.01962
G1 X93.514 Y139.645 E20.05207
G1 X92.741 Y138.702 E20.08451
G1 X92.03 Y137.71 E20.11699
G1 X91.387 Y136.674 E20.14943
G1 X90.813 Y135.598 E20.18188
G1 X90.31 Y134.487 E20.21433
G1 X89.881 Y133.345 E20.24679
G1 X89.529 Y132.178 E20.27922
G1 X89.253 Y130.989 E20.3117
G1 X89.056 Y129.786 E20.34414
G1 X88.938 Y128.572 E20.37659
G1 X88.9 Y127.383 E20.40825
G1 X88.9 Y107.617 E20.93418
G1 X88.94 Y106.398 E20.96664
G1 X89.06 Y105.184 E20.99909
G1 X89.259 Y103.981 E21.03154
G1 X89.536 Y102.793 E21.064
G1 X89.891 Y101.626 E21.09645
G1 X90.322 Y100.485 E21.12891
G1 X90.826 Y99.375 E21.16134
G1 X91.402 Y98.3 E21.1938
G1 X92.047 Y97.265 E21.22625
G1 X92.759 Y96.274 E21.25871
G1 X93.534 Y95.332 E21.29117
G1 X93.664 Y95.194 E21.29622
G0 F810 X94.348 Y94.465
M204 S5000
M205 X30 Y30
G0 F7200 X94.631 Y94.748
M204 S500
M205 X20 Y20
G1 F6000 E21.32282
G1 F900 X94.748 Y94.631 E21.32723
G1 X95.629 Y93.806 E21.35934
G1 X96.562 Y93.042 E21.39143
G1 X97.544 Y92.341 E21.42353
G1 X98.571 Y91.707 E21.45565
G1 X99.637 Y91.143 E21.48774
G1 X100.738 Y90.65 E21.51983
G1 X101.87 Y90.231 E21.55195
G1 X103.027 Y89.888 E21.58406
G1 X104.203 Y89.623 E21.61614
G1 X105.395 Y89.436 E21.64824
G1 X106.597 Y89.329 E21.68035
G1 X107.617 Y89.3 E21.7075
G1 X127.383 Y89.3 E22.23344
G1 X128.589 Y89.34 E22.26555
G1 X129.789 Y89.46 E22.29763
G1 X130.979 Y89.659 E22.32974
G1 X132.153 Y89.936 E22.36183
G1 X133.307 Y90.291 E22.39396
G1 X134.434 Y90.721 E22.42606
G1 X135.53 Y91.225 E22.45815
G1 X136.59 Y91.801 E22.49025
G1 X137.61 Y92.445 E22.52235
G1 X138.585 Y93.156 E22.55446
G1 X139.511 Y93.93 E22.58657
G1 X140.252 Y94.631 E22.61371
G1 X140.369 Y94.748 E22.61812
G1 X141.194 Y95.629 E22.65023
G1 X141.958 Y96.562 E22.68232
G1 X142.659 Y97.544 E22.71442
G1 X143.293 Y98.571 E22.74654
G1 X143.857 Y99.637 E22.77862
G1 X144.35 Y100.738 E22.81072
G1 X144.769 Y101.87 E22.84284
G1 X145.112 Y103.027 E22.87495
G1 X145.377 Y104.203 E22.90703
G1 X145.564 Y105.395 E22.93913
G1 X145.671 Y106.597 E22.97124
G1 X145.7 Y107.617 E22.99839
G1 X145.7 Y127.383 E23.52433
G1 X145.66 Y128.589 E23.55643
G1 X145.54 Y129.789 E23.58852
G1 X145.341 Y130.979 E23.62063
G1 X145.064 Y132.153 E23.65272
G1 X144.709 Y133.307 E23.68485
G1 X144.279 Y134.434 E23.71694
G1 X143.775 Y135.53 E23.74904
G1 X143.199 Y136.59 E23.78114
G1 X142.555 Y137.61 E23.81324
G1 X141.844 Y138.585 E23.84535
G1 X141.07 Y139.511 E23.87746
G1 X140.369 Y140.252 E23.9046
G1 X140.252 Y140.369 E23.909
G1 X139.371 Y141.194 E23.94112
G1 X138.438 Y141.958 E23.97321
G1 X137.456 Y142.659 E24.00531
G1 X136.429 Y143.293 E24.03742
G1 X135.363 Y143.857 E24.06951
G1 X134.262 Y144.35 E24.10161
G1 X133.13 Y144.769 E24.13373
G1 X131.973 Y145.112 E24.16584
G1 X130.797 Y145.377 E24.19791
G1 X129.605 Y145.564 E24.23002
G1 X128.403 Y145.671 E24.26213
G1 X127.383 Y145.7 E24.28928
G1 X107.617 Y145.7 E24.81522
G1 X106.411 Y145.66 E24.84732
G1 X105.211 Y145.54 E24.87941
G1 X104.021 Y145.341 E24.91152
G1 X102.847 Y145.064 E24.94361
G1 X101.693 Y144.709 E24.97574
G1 X100.566 Y144.279 E25.00783
G1 X99.47 Y143.775 E25.03993
G1 X98.41 Y143.199 E25.07203
G1 X97.39 Y142.555 E25.10413
G1 X96.415 Y141.844 E25.13624
G1 X95.489 Y141.07 E25.16835
G1 X94.748 Y140.369 E25.19549
G1 X94.631 Y140.252 E25.19989
G1 X93.806 Y139.371 E25.23201
G1 X93.042 Y138.438 E25.26409
G1 X92.341 Y137.456 E25.2962
G1 X91.707 Y136.429 E25.32831
G1 X91.143 Y135.363 E25.3604
G1 X90.65 Y134.262 E25.3925
