;FLAVOR:Marlin
;TIME:1346
;Filament used: 1.25833m
;Layer height: 0.2
;Generated with Cura_SteamEngine 3.6.0
M140 S70
M105
M190 S70
M104 S210
M105
M109 S210
M82 ;absolute extrusion mode
G28 ; home all axes
M117 Purge extruder
G92 E0 ; reset extruder
G1 Z1.0 F3000 ; move z up little to prevent scratching of surface
G1 X0.1 Y20 Z0.3 F5000.0 ; move to start-line position G1 X0.1 Y200.0 Z0.3 F1500.0 E15 ; draw 1st line
G1 X0.4 Y200.0 Z0.3 F5000.0 ; move to side a little
G1 X0.4 Y20 Z0.3 F1500.0 E30 ; draw 2nd line
G92 E0 ; reset extruder
G1 Z1.0 F3000 ; move z up little to prevent scratching of surface
M117 All systems go!
G92 E0
G1 F5100 E-6.5
;LAYER_COUNT:100
;LAYER:0
M107
M204 S5000
M205 X30 Y30
G0 F3600 X103.807 Y103.374 Z0.24
M204 S500
M205 X20 Y20
;TYPE:SKIRT
G1 F5100 E0.04158
G1 F1800 X104.329 Y102.96 E0.0562
G1 X104.897 Y102.612 E0.07082
G1 X105.502 Y102.335 E0.08543
G1 X106.136 Y102.131 E0.10005
G1 X106.79 Y102.006 E0.11467
G1 X107.509 Y101.959 E0.13048
G1 X127.491 Y101.96 E0.56912
G1 X128.156 Y102 E0.58375
G1 X128.811 Y102.119 E0.59836
G1 X129.448 Y102.316 E0.613
G1 X130.056 Y102.588 E0.62762
G1 X130.627 Y102.931 E0.64224
G1 X131.153 Y103.339 E0.65685
G1 X131.626 Y103.808 E0.67147
G1 X132.04 Y104.33 E0.6861
G1 X132.388 Y104.898 E0.70072
G1 X132.665 Y105.503 E0.71533
G1 X132.869 Y106.138 E0.72997
G1 X132.994 Y106.792 E0.74459
G1 X133.041 Y107.51 E0.76038
G1 X133.041 Y127.491 E1.199
G1 X133.001 Y128.156 E1.21362
G1 X132.882 Y128.811 E1.22824
G1 X132.685 Y129.447 E1.24285
G1 X132.413 Y130.055 E1.25747
G1 X132.07 Y130.627 E1.27211
G1 X131.662 Y131.153 E1.28673
G1 X131.193 Y131.626 E1.30135
G1 X130.671 Y132.04 E1.31597
G1 X130.103 Y132.388 E1.3306
G1 X129.498 Y132.665 E1.3452
G1 X128.864 Y132.869 E1.35982
G1 X128.21 Y132.994 E1.37444
G1 X127.491 Y133.041 E1.39026
G1 X107.509 Y133.041 E1.8289
G1 X106.844 Y133.001 E1.84352
G1 X106.189 Y132.882 E1.85813
G1 X105.553 Y132.685 E1.87275
G1 X104.945 Y132.413 E1.88737
G1 X104.373 Y132.07 E1.90201
G1 X103.847 Y131.662 E1.91662
G1 X103.374 Y131.193 E1.93125
G1 X102.96 Y130.671 E1.94587
G1 X102.612 Y130.103 E1.96049
G1 X102.335 Y129.498 E1.9751
G1 X102.131 Y128.864 E1.98972
G1 X102.006 Y128.21 E2.00434
G1 X101.959 Y127.491 E2.02015
G1 X101.959 Y107.509 E2.45879
G1 X101.999 Y106.844 E2.47342
G1 X102.118 Y106.189 E2.48803
G1 X102.315 Y105.553 E2.50265
G1 X102.587 Y104.945 E2.51727
G1 X102.93 Y104.373 E2.53191
G1 X103.338 Y103.847 E2.54652
G1 X103.807 Y103.374 E2.56114
M204 S5000
M205 X30 Y30
G0 F3600 X104.022 Y103.478
M204 S500
M205 X20 Y20
G1 F1800 X104.541 Y103.082 E2.57547
G1 X105.105 Y102.752 E2.58982
G1 X105.704 Y102.494 E2.60414
G1 X106.331 Y102.311 E2.61847
G1 X106.975 Y102.206 E2.6328
G1 X107.509 Y102.179 E2.64453
G1 X127.491 Y102.18 E3.08317
G1 X128.143 Y102.22 E3.09751
G1 X128.784 Y102.339 E3.11182
G1 X129.407 Y102.536 E3.12617
G1 X130 Y102.808 E3.14049
G1 X130.556 Y103.15 E3.15482
G1 X131.066 Y103.557 E3.16914
G1 X131.523 Y104.024 E3.18348
G1 X131.918 Y104.542 E3.19778
G1 X132.248 Y105.106 E3.21213
G1 X132.506 Y105.705 E3.22645
G1 X132.689 Y106.332 E3.24078
G1 X132.794 Y106.976 E3.25511
G1 X132.821 Y107.51 E3.26684
G1 X132.821 Y127.491 E3.70546
G1 X132.781 Y128.142 E3.71978
G1 X132.662 Y128.784 E3.73411
G1 X132.465 Y129.406 E3.74843
G1 X132.194 Y130 E3.76277
G1 X131.852 Y130.556 E3.77709
G1 X131.444 Y131.066 E3.79143
G1 X130.978 Y131.522 E3.80574
G1 X130.459 Y131.918 E3.82007
G1 X129.895 Y132.248 E3.83442
G1 X129.296 Y132.506 E3.84874
G1 X128.669 Y132.689 E3.86307
G1 X128.025 Y132.794 E3.8774
G1 X127.491 Y132.821 E3.88913
G1 X107.509 Y132.821 E4.32777
G1 X106.858 Y132.781 E4.34209
G1 X106.216 Y132.662 E4.35642
G1 X105.594 Y132.465 E4.37075
G1 X105 Y132.194 E4.38508
G1 X104.444 Y131.852 E4.39941
G1 X103.934 Y131.444 E4.41374
G1 X103.478 Y130.978 E4.42806
G1 X103.082 Y130.459 E4.44239
G1 X102.752 Y129.895 E4.45673
G1 X102.494 Y129.296 E4.47105
G1 X102.311 Y128.669 E4.48539
G1 X102.206 Y128.025 E4.49971
G1 X102.179 Y127.491 E4.51145
G1 X102.179 Y107.509 E4.95009
G1 X102.219 Y106.858 E4.9644
G1 X102.338 Y106.216 E4.97874
G1 X102.535 Y105.594 E4.99306
G1 X102.806 Y105 E5.00739
G1 X103.148 Y104.444 E5.02172
G1 X103.556 Y103.934 E5.03606
G1 X104.022 Y103.478 E5.05037
M204 S5000
M205 X30 Y30
G0 F3600 X104.237 Y103.584
M204 S500
M205 X20 Y20
G1 F1800 X104.753 Y103.206 E5.06441
G1 X105.312 Y102.896 E5.07844
G1 X105.905 Y102.657 E5.09248
G1 X106.523 Y102.495 E5.1065
G1 X107.156 Y102.411 E5.12052
G1 X107.509 Y102.399 E5.12827
G1 X127.491 Y102.4 E5.56691
G1 X128.129 Y102.44 E5.58094
G1 X128.757 Y102.559 E5.59498
G1 X129.365 Y102.756 E5.609
G1 X129.944 Y103.027 E5.62304
G1 X130.484 Y103.368 E5.63706
G1 X130.978 Y103.774 E5.65109
G1 X131.417 Y104.239 E5.66513
G1 X131.794 Y104.754 E5.67914
G1 X132.105 Y105.313 E5.69319
G1 X132.343 Y105.906 E5.70721
G1 X132.505 Y106.524 E5.72124
G1 X132.589 Y107.158 E5.73528
G1 X132.601 Y107.51 E5.74301
G1 X132.601 Y127.491 E6.18162
G1 X132.561 Y128.129 E6.19566
G1 X132.442 Y128.757 E6.20969
G1 X132.245 Y129.365 E6.22372
G1 X131.974 Y129.943 E6.23773
G1 X131.633 Y130.484 E6.25177
G1 X131.227 Y130.977 E6.26579
G1 X130.763 Y131.416 E6.27981
G1 X130.247 Y131.794 E6.29385
G1 X129.688 Y132.104 E6.30788
G1 X129.095 Y132.343 E6.32192
G1 X128.477 Y132.505 E6.33594
G1 X127.844 Y132.589 E6.34996
G1 X127.491 Y132.601 E6.35771
G1 X107.509 Y132.601 E6.79635
G1 X106.871 Y132.561 E6.81038
G1 X106.243 Y132.442 E6.82442
G1 X105.635 Y132.245 E6.83844
G1 X105.057 Y131.974 E6.85246
G1 X104.516 Y131.633 E6.8665
G1 X104.023 Y131.227 E6.88052
G1 X103.584 Y130.763 E6.89454
G1 X103.206 Y130.247 E6.90858
G1 X102.896 Y129.688 E6.92261
G1 X102.657 Y129.095 E6.93665
G1 X102.495 Y128.477 E6.95067
G1 X102.411 Y127.844 E6.96469
G1 X102.399 Y127.491 E6.97244
G1 X102.399 Y107.509 E7.41108
G1 X102.439 Y106.871 E7.42511
G1 X102.558 Y106.243 E7.43914
G1 X102.755 Y105.635 E7.45317
G1 X103.026 Y105.057 E7.46719
G1 X103.367 Y104.516 E7.48122
G1 X103.773 Y104.023 E7.49524
G1 X104.237 Y103.584 E7.50927
M204 S5000
M205 X30 Y30
G1 F5100 E1.00927
;MESH:20mm_calibration_cube.stl
G0 F3600 X108.174 Y106.835
G0 X108.174 Y108.174
G0 X126.77 Y126.77
G0 X126.84 Y126.84
M204 S500
M205 X20 Y20
;TYPE:WALL-INNER
G1 F5100 E7.55084
G1 F1800 X108.16 Y126.84 E8.37096
G1 X108.16 Y108.16 E9.19107
G1 X126.84 Y108.16 E10.01119
G1 X126.84 Y126.84 E10.8313
M204 S5000
M205 X30 Y30
G0 F3600 X126.77 Y126.77
G0 X127.28 Y127.28
M204 S500
M205 X20 Y20
;TYPE:WALL-OUTER
G1 F1800 X107.72 Y127.28 E11.69005
G1 X107.72 Y107.72 E12.5488
G1 X127.28 Y107.72 E13.40755
G1 X127.28 Y127.28 E14.2663
M204 S5000
M205 X30 Y30
G0 F3600 X127.08 Y127.28
G0 X126.77 Y126.77
G0 X126.41 Y126.41
M204 S500
M205 X20 Y20
;TYPE:SKIN
G1 F1800 X108.59 Y126.41 E15.04866
G1 X108.59 Y108.59 E15.83102
G1 X126.41 Y108.59 E16.61338
G1 X126.41 Y126.41 E17.39573
M204 S5000
M205 X30 Y30
G0 F3600 X125.989 Y109.01
M204 S500
M205 X20 Y20
G1 F1800 X125.811 Y109.01 E17.40355
G1 X125.989 Y109.188 E17.4146
M204 S5000
M205 X30 Y30
G0 F3600 X125.811 Y109.01
M204 S500
M205 X20 Y20
G1 F1800 X125.189 Y109.01 E17.44191
G1 X125.989 Y109.81 E17.49158
G1 X125.989 Y110.433 E17.51893
G1 X124.566 Y109.01 E17.60728
G1 X123.944 Y109.01 E17.63459
G1 X125.989 Y111.055 E17.76156
G1 X125.989 Y111.677 E17.78887
G1 X123.322 Y109.01 E17.95446
G1 X122.699 Y109.01 E17.98181
G1 X125.989 Y112.299 E18.18605
G1 X125.989 Y112.922 E18.21341
G1 X122.077 Y109.01 E18.4563
G1 X121.455 Y109.01 E18.48361
G1 X125.989 Y113.544 E18.76512
G1 X125.989 Y114.166 E18.79242
G1 X120.833 Y109.01 E19.11255
G1 X120.21 Y109.01 E19.13991
G1 X125.989 Y114.788 E19.49869
G1 X125.989 Y115.411 E19.52604
G1 X119.588 Y109.01 E19.92347
G1 X118.966 Y109.01 E19.95078
G1 X125.989 Y116.033 E20.38682
G1 X125.989 Y116.655 E20.41413
G1 X118.344 Y109.01 E20.8888
G1 X117.721 Y109.01 E20.91615
G1 X125.989 Y117.277 E21.42947
G1 X125.989 Y117.9 E21.45682
G1 X117.099 Y109.01 E22.00879
G1 X116.477 Y109.01 E22.0361
G1 X125.989 Y118.522 E22.62669
G1 X125.989 Y119.144 E22.654
G1 X115.855 Y109.01 E23.2832
G1 X115.232 Y109.01 E23.31056
G1 X125.989 Y119.766 E23.97841
G1 X125.989 Y120.389 E24.00577
G1 X114.61 Y109.01 E24.71227
G1 X113.988 Y109.01 E24.73958
G1 X125.989 Y121.011 E25.48471
G1 X125.989 Y121.633 E25.51202
G1 X113.366 Y109.01 E26.29576
G1 X112.743 Y109.01 E26.32311
G1 X125.989 Y122.255 E27.14551
G1 X125.989 Y122.878 E27.17286
G1 X112.121 Y109.01 E28.03391
G1 X111.499 Y109.01 E28.06122
G1 X125.989 Y123.5 E28.96088
G1 X125.989 Y124.122 E28.98819
G1 X110.877 Y109.01 E29.92648
G1 X110.254 Y109.01 E29.95383
G1 X125.989 Y124.744 E30.93076
G1 X125.989 Y125.367 E30.95812
G1 X109.632 Y109.01 E31.9737
G1 X109.009 Y109.009 E32.00105
G1 X125.989 Y125.989 E33.05532
G1 X125.367 Y125.989 E33.08263
G1 X109.009 Y109.631 E34.09828
G1 X109.009 Y110.254 E34.12563
G1 X124.744 Y125.989 E35.10259
G1 X124.122 Y125.989 E35.1299
G1 X109.009 Y110.876 E36.06825
G1 X109.009 Y111.498 E36.09556
G1 X123.5 Y125.989 E36.99529
G1 X122.878 Y125.989 E37.02259
G1 X109.009 Y112.12 E37.8837
G1 X109.009 Y112.743 E37.91105
G1 X122.255 Y125.989 E38.73348
G1 X121.633 Y125.989 E38.76079
G1 X109.009 Y113.365 E39.5446
G1 X109.009 Y113.987 E39.57191
G1 X121.011 Y125.989 E40.31709
G1 X120.389 Y125.989 E40.3444
G1 X109.009 Y114.609 E41.05097
G1 X109.009 Y115.232 E41.07832
G1 X119.766 Y125.989 E41.74621
G1 X119.144 Y125.989 E41.77352
G1 X109.009 Y115.854 E42.40279
G1 X109.009 Y116.476 E42.4301
G1 X118.522 Y125.989 E43.02075
G1 X117.9 Y125.989 E43.04806
G1 X109.009 Y117.099 E43.60006
G1 X109.009 Y117.721 E43.62736
G1 X117.277 Y125.989 E44.14071
G1 X116.655 Y125.989 E44.16802
G1 X109.009 Y118.343 E44.64275
G1 X109.009 Y118.965 E44.67006
G1 X116.033 Y125.989 E45.10617
G1 X115.411 Y125.989 E45.13348
M104 S200
G1 X109.009 Y119.588 E45.53094
G1 X109.009 Y120.21 E45.55825
G1 X114.788 Y125.989 E45.91706
G1 X114.166 Y125.989 E45.94437
G1 X109.009 Y120.832 E46.26456
G1 X109.009 Y121.454 E46.29187
G1 X113.544 Y125.989 E46.57344
G1 X112.922 Y125.989 E46.60075
G1 X109.009 Y122.077 E46.84367
G1 X109.009 Y122.699 E46.87098
G1 X112.299 Y125.989 E47.07525
G1 X111.677 Y125.989 E47.10256
G1 X109.009 Y123.321 E47.26821
G1 X109.009 Y123.943 E47.29552
G1 X111.055 Y125.989 E47.42255
G1 X110.433 Y125.989 E47.44986
G1 X109.009 Y124.566 E47.53824
G1 X109.009 Y125.188 E47.56555
G1 X109.81 Y125.989 E47.61528
G1 X109.188 Y125.989 E47.64259
G1 X109.009 Y125.81 E47.65371
M204 S5000
M205 X30 Y30
G0 F3600 X109.01 Y125.989
M204 S500
M205 X20 Y20
G1 F1800 X109.188 Y125.989 E47.66152
M204 S5000
M205 X30 Y30
;MESH:NONMESH
G0 F3600 X126.77 Y126.77
G0 X126.9 Y126.9
;TIME_ELAPSED:53.497118
;LAYER:1
M140 S70
G1 F5100 E41.16152
M106 S8.8
;MESH:20mm_calibration_cube.stl
G0 F5400 X126.9 Y126.9 Z0.44
M204 S500
M205 X20 Y20
;TYPE:WALL-INNER
G1 F5100 E47.7031
G1 F2700 X108.1 Y126.9 E48.32839
G1 X108.1 Y108.1 E48.95368
G1 X126.9 Y108.1 E49.57897
G1 X126.9 Y126.9 E50.20426
M204 S5000
M205 X30 Y30
G0 F5400 X126.83 Y126.83
G0 X127.3 Y127.3
M204 S500
M205 X20 Y20
;TYPE:WALL-OUTER
G1 F1800 X107.7 Y127.3 E50.85616
G1 X107.7 Y107.7 E51.50806
G1 X127.3 Y107.7 E52.15995
G1 X127.3 Y127.3 E52.81185
M204 S5000
M205 X30 Y30
G0 F5400 X127.1 Y127.3
G0 X126.83 Y126.83
G0 X126.51 Y126.51
M204 S500
M205 X20 Y20
;TYPE:SKIN
G1 F1800 X108.49 Y126.51 E53.4112
G1 X108.49 Y108.49 E54.01055
G1 X126.51 Y108.49 E54.6099
G1 X126.51 Y126.51 E55.20924
M204 S5000
M205 X30 Y30
G0 F5400 X126.129 Y126.129
M204 S500
M205 X20 Y20
G1 F1800 X126.129 Y125.6 E55.22684
G1 X125.6 Y126.129 E55.25172
M204 S5000
M205 X30 Y30
G0 F5400 X126.129 Y125.6
M204 S500
M205 X20 Y20
G1 F1800 X126.129 Y125.034 E55.27055
G1 X125.034 Y126.129 E55.32205
G1 X124.469 Y126.129 E55.34084
G1 X126.129 Y124.469 E55.41892
G1 X126.129 Y123.903 E55.43775
G1 X123.903 Y126.129 E55.54245
G1 X123.337 Y126.129 E55.56128
G1 X126.129 Y123.337 E55.69261
G1 X126.129 Y122.772 E55.7114
G1 X122.772 Y126.129 E55.8693
G1 X122.206 Y126.129 E55.88813
G1 X126.129 Y122.206 E56.07265
G1 X126.129 Y121.64 E56.09148
G1 X121.64 Y126.129 E56.30263
G1 X121.075 Y126.129 E56.32142
G1 X126.129 Y121.075 E56.55914
G1 X126.129 Y120.509 E56.57797
G1 X120.509 Y126.129 E56.84232
G1 X119.943 Y126.129 E56.86114
G1 X126.129 Y119.943 E57.15211
G1 X126.129 Y119.378 E57.1709
G1 X119.378 Y126.129 E57.48845
G1 X118.812 Y126.129 E57.50728
G1 X126.129 Y118.812 E57.85144
G1 X126.129 Y118.246 E57.87027
G1 X118.246 Y126.129 E58.24106
G1 X117.68 Y126.129 E58.25989
G1 X126.129 Y117.68 E58.6573
G1 X126.129 Y117.115 E58.67609
G1 X117.115 Y126.129 E59.10009
G1 X116.549 Y126.129 E59.11891
G1 X126.129 Y116.549 E59.56952
G1 X126.129 Y115.983 E59.58835
G1 X115.983 Y126.129 E60.06559
G1 X115.418 Y126.129 E60.08438
G1 X126.129 Y115.418 E60.58819
G1 X126.129 Y114.852 E60.60702
G1 X114.852 Y126.129 E61.13745
G1 X114.286 Y126.129 E61.15628
G1 X126.129 Y114.286 E61.71334
G1 X126.129 Y113.721 E61.73213
G1 X113.721 Y126.129 E62.31576
G1 X113.155 Y126.129 E62.33459
G1 X126.129 Y113.155 E62.94484
G1 X126.129 Y112.589 E62.96367
G1 X112.589 Y126.129 E63.60055
G1 X112.024 Y126.129 E63.61934
G1 X126.129 Y112.024 E64.2828
G1 X126.129 Y111.458 E64.30162
G1 X111.458 Y126.129 E64.9917
G1 X110.892 Y126.129 E65.01053
G1 X126.129 Y110.892 E65.72723
G1 X126.129 Y110.327 E65.74602
G1 X110.327 Y126.129 E66.4893
G1 X109.761 Y126.129 E66.50812
G1 X126.129 Y109.761 E67.27802
G1 X126.129 Y109.195 E67.29685
G1 X109.195 Y126.129 E68.09337
G1 X108.87 Y126.129 E68.10418
G1 X108.87 Y125.889 E68.11216
G1 X125.889 Y108.869 E68.91271
G1 X125.324 Y108.869 E68.9315
G1 X108.87 Y125.323 E69.70545
G1 X108.87 Y124.757 E69.72427
G1 X124.758 Y108.869 E70.4716
G1 X124.192 Y108.869 E70.49042
G1 X108.87 Y124.191 E71.21112
G1 X108.87 Y123.626 E71.22991
G1 X123.627 Y108.869 E71.92404
G1 X123.061 Y108.869 E71.94286
G1 X108.87 Y123.06 E72.61036
G1 X108.87 Y122.494 E72.62919
G1 X122.495 Y108.869 E73.27007
G1 X121.929 Y108.869 E73.28889
G1 X108.87 Y121.929 E73.90317
G1 X108.87 Y121.363 E73.922
G1 X121.364 Y108.869 E74.50968
G1 X120.798 Y108.869 E74.5285
G1 X108.87 Y120.797 E75.08956
G1 X108.87 Y120.232 E75.10835
G1 X120.232 Y108.869 E75.64281
G1 X119.667 Y108.869 E75.6616
G1 X108.87 Y119.666 E76.16946
G1 X108.87 Y119.1 E76.18828
G1 X119.101 Y108.869 E76.66952
G1 X118.535 Y108.869 E76.68834
G1 X108.87 Y118.535 E77.14298
G1 X108.87 Y117.969 E77.1618
G1 X117.97 Y108.869 E77.58984
G1 X117.404 Y108.869 E77.60866
G1 X108.87 Y117.403 E78.01008
G1 X108.87 Y116.838 E78.02887
G1 X116.838 Y108.869 E78.40368
G1 X116.273 Y108.869 E78.42247
G1 X108.87 Y116.272 E78.77069
G1 X108.87 Y115.706 E78.78951
G1 X115.707 Y108.869 E79.11111
G1 X115.141 Y108.869 E79.12993
G1 X108.87 Y115.141 E79.42492
G1 X108.87 Y114.575 E79.44375
G1 X114.576 Y108.869 E79.71214
G1 X114.01 Y108.869 E79.73097
G1 X108.87 Y114.009 E79.97274
G1 X108.87 Y113.443 E79.99156
G1 X113.444 Y108.869 E80.20671
G1 X112.878 Y108.869 E80.22553
G1 X108.87 Y112.878 E80.41408
G1 X108.87 Y112.312 E80.43291
G1 X112.313 Y108.869 E80.59485
G1 X111.747 Y108.869 E80.61368
G1 X108.87 Y111.746 E80.749
G1 X108.87 Y111.181 E80.7678
G1 X111.181 Y108.869 E80.87652
G1 X110.616 Y108.869 E80.89531
G1 X108.87 Y110.615 E80.97744
G1 X108.87 Y110.049 E80.99627
G1 X110.05 Y108.869 E81.05177
G1 X109.484 Y108.869 E81.07059
G1 X108.87 Y109.484 E81.0995
G1 X108.87 Y108.918 E81.11832
G1 X108.869 Y108.869 E81.11995
M204 S5000
M205 X30 Y30
;MESH:NONMESH
G0 F5400 X126.83 Y126.83
G0 X126.9 Y126.9
;TIME_ELAPSED:88.706606
;LAYER:2
G1 F5100 E74.61995
M106 S17.6
;MESH:20mm_calibration_cube.stl
G0 F7200 X126.9 Y126.9 Z0.64
M204 S500
M205 X20 Y20
;TYPE:WALL-INNER
G1 F5100 E81.16153
G1 F3600 X108.1 Y126.9 E81.78682
G1 X108.1 Y108.1 E82.41211
G1 X126.9 Y108.1 E83.0374
G1 X126.9 Y126.9 E83.66269
M204 S5000
M205 X30 Y30
G0 F7200 X126.83 Y126.83
G0 X127.3 Y127.3
M204 S500
M205 X20 Y20
;TYPE:WALL-OUTER
G1 F1800 X107.7 Y127.3 E84.31459
G1 X107.7 Y107.7 E84.96649
G1 X127.3 Y107.7 E85.61839
G1 X127.3 Y127.3 E86.27029
M204 S5000
M205 X30 Y30
G0 F7200 X127.1 Y127.3
G0 X126.83 Y126.83
G0 X126.51 Y126.51
M204 S500
M205 X20 Y20
;TYPE:SKIN
G1 F1800 X108.49 Y126.51 E86.86963
G1 X108.49 Y108.49 E87.46898
G1 X126.51 Y108.49 E88.06833
G1 X126.51 Y126.51 E88.66768
M204 S5000
M205 X30 Y30
