;FLAVOR:Marlin
;TIME:979
;Filament used: 0.517743m
;Layer height: 0.2
;Generated with Cura_SteamEngine 3.6.0
M140 S70
M105
M190 S70
M104 S215
M105
M109 S215
M82 ;absolute extrusion mode
G28 ; home all axes
M117 Purge extruder
G92 E0 ; reset extruder
G1 Z1.0 F3000 ; move z up little to prevent scratching of surface
G1 X0.1 Y20 Z0.3 F5000.0 ; move to start-line position G1 X0.1 Y200.0 Z0.3 F1500.0 E15 ; draw 1st line
G1 X0.4 Y200.0 Z0.3 F5000.0 ; move to side a little
G1 X0.4 Y20 Z0.3 F1500.0 E30 ; draw 2nd line
G92 E0 ; reset extruder
G1 Z1.0 F3000 ; move z up little to prevent scratching of surface
M117 All systems go!
G92 E0
G1 F6000 E-5
;LAYER_COUNT:51
;LAYER:0
M107
M204 S5000
M205 X30 Y30
G0 F7200 X94.926 Y94.953 Z0.2
M204 S500
M205 X20 Y20
;TYPE:SKIRT
G1 F6000 E0
G1 F900 X95.847 Y94.085 E0.0463
G1 X96.958 Y93.171 E0.09894
G1 X99.426 Y91.285 E0.21258
G1 X100.455 Y90.549 E0.25886
G1 X101.529 Y89.879 E0.30518
G1 X102.643 Y89.279 E0.35147
G1 X103.971 Y88.675 E0.40485
G1 X106.842 Y87.495 E0.51841
G1 X108.027 Y87.051 E0.56471
G1 X109.238 Y86.683 E0.61101
G1 X110.47 Y86.392 E0.65733
G1 X111.88 Y86.158 E0.70962
G1 X114.951 Y85.76 E0.82292
G1 X116.21 Y85.637 E0.8692
G1 X117.475 Y85.594 E0.91551
G1 X118.74 Y85.631 E0.96181
G1 X120.18 Y85.771 E1.01474
G1 X123.258 Y86.183 E1.12836
G1 X124.506 Y86.39 E1.17464
G1 X125.739 Y86.676 E1.22095
G1 X126.951 Y87.039 E1.26724
G1 X128.315 Y87.552 E1.32055
G1 X131.182 Y88.749 E1.43422
G1 X132.334 Y89.273 E1.48052
G1 X133.45 Y89.869 E1.52681
G1 X134.527 Y90.534 E1.57312
G1 X135.692 Y91.367 E1.62552
G1 X138.145 Y93.258 E1.73883
G1 X139.122 Y94.062 E1.78513
G1 X140.047 Y94.926 E1.83144
G1 X140.915 Y95.847 E1.87774
G1 X141.829 Y96.958 E1.93037
G1 X143.715 Y99.426 E2.04401
G1 X144.451 Y100.455 E2.0903
G1 X145.121 Y101.529 E2.13661
G1 X145.721 Y102.643 E2.1829
G1 X146.325 Y103.971 E2.23628
G1 X147.505 Y106.842 E2.34985
G1 X147.949 Y108.027 E2.39614
G1 X148.317 Y109.238 E2.44245
G1 X148.608 Y110.47 E2.48876
G1 X148.842 Y111.88 E2.54106
G1 X149.24 Y114.951 E2.65435
G1 X149.363 Y116.21 E2.70063
G1 X149.406 Y117.475 E2.74694
G1 X149.369 Y118.74 E2.79324
G1 X149.23 Y120.175 E2.84599
G1 X148.819 Y123.252 E2.95956
G1 X148.612 Y124.5 E3.00585
G1 X148.326 Y125.733 E3.05216
G1 X147.963 Y126.945 E3.09844
G1 X147.448 Y128.317 E3.15206
G1 X146.25 Y131.185 E3.26578
G1 X145.726 Y132.337 E3.31208
G1 X145.13 Y133.453 E3.35837
G1 X144.464 Y134.53 E3.4047
G1 X143.633 Y135.692 E3.45696
G1 X141.742 Y138.145 E3.57028
G1 X140.938 Y139.122 E3.61657
G1 X140.074 Y140.047 E3.66288
G1 X139.153 Y140.915 E3.70918
G1 X138.042 Y141.829 E3.76182
G1 X135.574 Y143.715 E3.87546
G1 X134.545 Y144.451 E3.92174
G1 X133.471 Y145.121 E3.96806
G1 X132.357 Y145.721 E4.01435
G1 X131.029 Y146.325 E4.06772
G1 X128.158 Y147.505 E4.18129
G1 X126.973 Y147.949 E4.22759
G1 X125.762 Y148.317 E4.27389
G1 X124.53 Y148.608 E4.32021
G1 X123.12 Y148.842 E4.3725
G1 X120.049 Y149.24 E4.4858
G1 X118.79 Y149.363 E4.53208
G1 X117.525 Y149.406 E4.57838
G1 X116.26 Y149.369 E4.62469
G1 X114.82 Y149.229 E4.67762
G1 X111.742 Y148.817 E4.79123
G1 X110.494 Y148.61 E4.83752
G1 X109.261 Y148.324 E4.88383
G1 X108.049 Y147.961 E4.93012
G1 X106.685 Y147.448 E4.98343
G1 X103.818 Y146.251 E5.0971
G1 X102.666 Y145.727 E5.1434
G1 X101.55 Y145.131 E5.18969
G1 X100.473 Y144.466 E5.236
G1 X99.306 Y143.631 E5.2885
G1 X96.851 Y141.738 E5.40192
G1 X95.874 Y140.934 E5.44821
G1 X94.95 Y140.07 E5.49449
G1 X94.082 Y139.149 E5.54079
G1 X93.166 Y138.036 E5.59353
G1 X91.281 Y135.568 E5.70715
G1 X90.545 Y134.538 E5.75347
G1 X89.876 Y133.465 E5.79973
G1 X89.275 Y132.351 E5.84604
G1 X88.674 Y131.026 E5.89927
G1 X87.495 Y128.157 E6.01275
G1 X87.051 Y126.972 E6.05905
G1 X86.683 Y125.761 E6.10536
G1 X86.392 Y124.529 E6.15167
G1 X86.158 Y123.12 E6.20393
G1 X85.76 Y120.049 E6.31722
G1 X85.637 Y118.79 E6.3635
G1 X85.594 Y117.525 E6.40981
G1 X85.631 Y116.26 E6.45611
G1 X85.77 Y114.825 E6.50886
G1 X86.181 Y111.748 E6.62244
G1 X86.388 Y110.5 E6.66872
G1 X86.674 Y109.267 E6.71503
G1 X87.037 Y108.055 E6.76132
G1 X87.552 Y106.683 E6.81493
G1 X88.75 Y103.815 E6.92865
G1 X89.274 Y102.663 E6.97495
G1 X89.87 Y101.547 E7.02124
G1 X90.536 Y100.47 E7.06757
G1 X91.367 Y99.308 E7.11983
G1 X93.258 Y96.855 E7.23315
G1 X94.062 Y95.878 E7.27944
G1 X94.43 Y95.484 E7.29917
G0 F810 X94.926 Y94.953
M204 S5000
M205 X30 Y30
G0 F7200 X95.258 Y95.244
M204 S500
M205 X20 Y20
G1 F6000 E7.32576
G1 F900 X96.17 Y94.387 E7.37155
G1 X97.225 Y93.521 E7.42149
G1 X99.693 Y91.635 E7.53513
G1 X100.711 Y90.907 E7.58092
G1 X101.774 Y90.246 E7.62671
G1 X102.876 Y89.654 E7.67248
G1 X104.139 Y89.082 E7.72321
G1 X107.01 Y87.902 E7.83677
G1 X108.182 Y87.463 E7.88256
G1 X109.379 Y87.101 E7.92831
G1 X110.598 Y86.815 E7.97412
G1 X111.936 Y86.594 E8.02374
G1 X115.007 Y86.196 E8.13703
G1 X116.253 Y86.075 E8.18284
G1 X117.504 Y86.034 E8.22863
G1 X118.755 Y86.073 E8.27442
G1 X120.122 Y86.207 E8.32467
G1 X123.2 Y86.619 E8.43829
G1 X124.434 Y86.825 E8.48406
G1 X125.653 Y87.109 E8.52986
G1 X126.851 Y87.47 E8.57563
G1 X128.146 Y87.958 E8.62626
G1 X131.013 Y89.155 E8.73993
G1 X132.152 Y89.673 E8.78571
G1 X133.255 Y90.264 E8.83149
G1 X134.318 Y90.924 E8.87727
G1 X135.423 Y91.716 E8.92701
G1 X137.876 Y93.607 E9.04033
G1 X138.842 Y94.402 E9.0861
G1 X139.756 Y95.258 E9.13191
G1 X140.613 Y96.17 E9.1777
G1 X141.479 Y97.225 E9.22764
G1 X143.365 Y99.693 E9.34128
G1 X144.093 Y100.711 E9.38707
G1 X144.754 Y101.774 E9.43286
G1 X145.346 Y102.876 E9.47863
G1 X145.918 Y104.139 E9.52936
G1 X147.098 Y107.01 E9.64292
G1 X147.537 Y108.182 E9.68871
G1 X147.899 Y109.379 E9.73446
G1 X148.185 Y110.598 E9.78027
G1 X148.406 Y111.936 E9.82989
G1 X148.804 Y115.007 E9.94318
G1 X148.925 Y116.253 E9.98898
G1 X148.966 Y117.504 E10.03478
G1 X148.927 Y118.755 E10.08057
G1 X148.794 Y120.116 E10.1306
G1 X148.383 Y123.193 E10.24418
G1 X148.177 Y124.428 E10.28998
G1 X147.894 Y125.647 E10.33577
G1 X147.533 Y126.845 E10.38155
G1 X147.042 Y128.148 E10.43249
G1 X145.844 Y131.016 E10.5462
G1 X145.325 Y132.155 E10.592
G1 X144.734 Y133.258 E10.63778
G1 X144.075 Y134.321 E10.68354
G1 X143.284 Y135.423 E10.73317
G1 X141.393 Y137.876 E10.84649
G1 X140.598 Y138.842 E10.89226
G1 X139.742 Y139.756 E10.93807
G1 X138.83 Y140.613 E10.98386
G1 X137.775 Y141.479 E11.0338
G1 X135.307 Y143.365 E11.14744
G1 X134.289 Y144.093 E11.19323
G1 X133.226 Y144.754 E11.23902
G1 X132.124 Y145.346 E11.28479
G1 X130.861 Y145.918 E11.33552
G1 X127.99 Y147.098 E11.44908
G1 X126.818 Y147.537 E11.49487
G1 X125.621 Y147.899 E11.54062
G1 X124.402 Y148.185 E11.58643
G1 X123.064 Y148.406 E11.63605
G1 X119.993 Y148.804 E11.74934
G1 X118.747 Y148.925 E11.79514
G1 X117.496 Y148.966 E11.84094
G1 X116.245 Y148.927 E11.88673
G1 X114.878 Y148.793 E11.93698
G1 X111.8 Y148.381 E12.0506
G1 X110.566 Y148.175 E12.09637
G1 X109.347 Y147.891 E12.14216
G1 X108.149 Y147.53 E12.18794
G1 X106.854 Y147.042 E12.23857
G1 X103.987 Y145.845 E12.35224
G1 X102.848 Y145.327 E12.39802
G1 X101.745 Y144.736 E12.4438
G1 X100.682 Y144.076 E12.48958
G1 X99.575 Y143.283 E12.5394
G1 X97.12 Y141.39 E12.65282
G1 X96.154 Y140.594 E12.69861
G1 X95.24 Y139.739 E12.7444
G1 X94.384 Y138.827 E12.79016
G1 X93.515 Y137.769 E12.84026
G1 X91.63 Y135.301 E12.95387
G1 X90.903 Y134.282 E12.99967
G1 X90.242 Y133.22 E13.04544
G1 X89.651 Y132.117 E13.09122
G1 X89.081 Y130.858 E13.14178
G1 X87.902 Y127.989 E13.25527
G1 X87.463 Y126.817 E13.30105
G1 X87.1 Y125.62 E13.34682
G1 X86.815 Y124.401 E13.39262
G1 X86.594 Y123.064 E13.4422
G1 X86.196 Y119.993 E13.55549
G1 X86.075 Y118.747 E13.60129
G1 X86.034 Y117.496 E13.64709
G1 X86.073 Y116.245 E13.69288
G1 X86.206 Y114.884 E13.74291
G1 X86.617 Y111.807 E13.85649
G1 X86.823 Y110.572 E13.90229
G1 X87.106 Y109.353 E13.94808
G1 X87.467 Y108.155 E13.99386
G1 X87.958 Y106.852 E14.0448
G1 X89.156 Y103.984 E14.15851
G1 X89.675 Y102.845 E14.20431
G1 X90.266 Y101.742 E14.25009
G1 X90.925 Y100.679 E14.29585
G1 X91.716 Y99.577 E14.34548
G1 X93.607 Y97.124 E14.4588
G1 X94.402 Y96.158 E14.50457
G1 X94.761 Y95.774 E14.5238
G0 F810 X95.258 Y95.244
M204 S5000
M205 X30 Y30
G0 F7200 X95.589 Y95.535
M204 S500
M205 X20 Y20
G1 F6000 E14.5504
G1 F900 X96.492 Y94.69 E14.59564
G1 X97.492 Y93.87 E14.64296
G1 X99.96 Y91.984 E14.7566
G1 X100.967 Y91.265 E14.80187
G1 X102.018 Y90.613 E14.84712
G1 X103.11 Y90.029 E14.89243
G1 X104.306 Y89.489 E14.94044
G1 X107.177 Y88.309 E15.054
G1 X108.336 Y87.876 E15.09927
G1 X109.52 Y87.519 E15.14451
G1 X110.726 Y87.238 E15.18982
G1 X111.993 Y87.031 E15.23678
G1 X115.064 Y86.633 E15.35008
G1 X116.296 Y86.513 E15.39537
G1 X117.532 Y86.474 E15.44061
G1 X118.769 Y86.515 E15.48589
G1 X120.063 Y86.643 E15.53347
G1 X123.141 Y87.055 E15.64708
G1 X124.362 Y87.259 E15.69237
G1 X125.566 Y87.541 E15.73762
G1 X126.75 Y87.9 E15.78288
G1 X127.976 Y88.364 E15.83084
G1 X130.843 Y89.561 E15.94451
G1 X131.969 Y90.074 E15.98978
G1 X133.059 Y90.659 E16.03504
G1 X134.109 Y91.313 E16.0803
G1 X135.155 Y92.064 E16.12741
G1 X137.608 Y93.955 E16.24072
G1 X138.563 Y94.742 E16.286
G1 X139.465 Y95.589 E16.33127
G1 X140.31 Y96.492 E16.37651
G1 X141.13 Y97.492 E16.42383
G1 X143.016 Y99.96 E16.53747
G1 X143.735 Y100.967 E16.58274
G1 X144.387 Y102.018 E16.62799
G1 X144.971 Y103.11 E16.6733
G1 X145.511 Y104.306 E16.72131
G1 X146.691 Y107.177 E16.83487
G1 X147.124 Y108.336 E16.88014
G1 X147.481 Y109.52 E16.92538
G1 X147.762 Y110.726 E16.97069
G1 X147.969 Y111.993 E17.01766
G1 X148.367 Y115.064 E17.13095
G1 X148.487 Y116.296 E17.17624
G1 X148.526 Y117.532 E17.22148
G1 X148.485 Y118.769 E17.26676
G1 X148.358 Y120.058 E17.31415
G1 X147.947 Y123.135 E17.42773
G1 X147.743 Y124.355 E17.47298
G1 X147.461 Y125.56 E17.51826
G1 X147.102 Y126.744 E17.56352
G1 X146.636 Y127.978 E17.61178
G1 X145.438 Y130.846 E17.7255
G1 X144.925 Y131.972 E17.77077
G1 X144.339 Y133.062 E17.81605
G1 X143.685 Y134.112 E17.8613
G1 X142.936 Y135.155 E17.90828
G1 X141.045 Y137.608 E18.0216
G1 X140.258 Y138.563 E18.06688
G1 X139.411 Y139.465 E18.11214
G1 X138.508 Y140.31 E18.15739
G1 X137.508 Y141.13 E18.2047
G1 X135.04 Y143.016 E18.31835
G1 X134.033 Y143.735 E18.36362
G1 X132.982 Y144.387 E18.40887
G1 X131.89 Y144.971 E18.45417
G1 X130.694 Y145.511 E18.50218
G1 X127.823 Y146.691 E18.61575
G1 X126.664 Y147.124 E18.66101
G1 X125.48 Y147.481 E18.70626
G1 X124.274 Y147.762 E18.75156
G1 X123.007 Y147.969 E18.79853
G1 X119.936 Y148.367 E18.91183
G1 X118.704 Y148.487 E18.95711
G1 X117.468 Y148.526 E19.00236
G1 X116.231 Y148.485 E19.04764
G1 X114.937 Y148.357 E19.09521
G1 X111.859 Y147.945 E19.20883
G1 X110.638 Y147.741 E19.25412
G1 X109.434 Y147.459 E19.29936
G1 X108.25 Y147.1 E19.34463
G1 X107.024 Y146.636 E19.39259
G1 X104.157 Y145.439 E19.50626
G1 X103.031 Y144.926 E19.55153
G1 X101.941 Y144.341 E19.59678
G1 X100.891 Y143.687 E19.64204
G1 X99.844 Y142.934 E19.68923
G1 X97.389 Y141.041 E19.80265
G1 X96.434 Y140.254 E19.84792
G1 X95.532 Y139.408 E19.89317
G1 X94.686 Y138.504 E19.93846
G1 X93.865 Y137.502 E19.98586
G1 X91.98 Y135.034 E20.09948
G1 X91.261 Y134.027 E20.14475
G1 X90.609 Y132.975 E20.19003
G1 X90.026 Y131.884 E20.23528
G1 X89.488 Y130.691 E20.28316
G1 X88.309 Y127.822 E20.39665
G1 X87.876 Y126.663 E20.44191
G1 X87.518 Y125.479 E20.48717
G1 X87.238 Y124.273 E20.53246
G1 X87.031 Y123.007 E20.5794
G1 X86.633 Y119.936 E20.69269
G1 X86.513 Y118.704 E20.73798
G1 X86.474 Y117.468 E20.78322
G1 X86.515 Y116.231 E20.82851
G1 X86.642 Y114.942 E20.87589
G1 X87.053 Y111.865 E20.98947
G1 X87.257 Y110.645 E21.03472
G1 X87.539 Y109.44 E21.08
G1 X87.898 Y108.256 E21.12527
G1 X88.364 Y107.022 E21.17353
G1 X89.562 Y104.154 E21.28724
G1 X90.075 Y103.028 E21.33251
G1 X90.661 Y101.938 E21.37779
G1 X91.315 Y100.888 E21.42305
G1 X92.064 Y99.845 E21.47003
G1 X93.955 Y97.392 E21.58334
G1 X94.742 Y96.437 E21.62862
G1 X95.092 Y96.065 E21.6473
G0 F810 X95.589 Y95.535
M204 S5000
M205 X30 Y30
G0 F7200 X95.92 Y95.827
M204 S500
M205 X20 Y20
G1 F6000 E21.6739
G1 F900 X96.814 Y94.992 E21.71866
G1 X97.76 Y94.22 E21.76333
G1 X100.228 Y92.334 E21.87697
G1 X101.223 Y91.623 E21.92171
G1 X102.263 Y90.98 E21.96645
G1 X103.342 Y90.405 E22.01118
G1 X104.473 Y89.896 E22.05656
G1 X107.344 Y88.716 E22.17012
G1 X108.49 Y88.288 E22.21488
G1 X109.661 Y87.936 E22.25961
G1 X110.853 Y87.662 E22.30436
G1 X112.05 Y87.467 E22.34873
G1 X115.121 Y87.069 E22.46203
G1 X116.338 Y86.952 E22.50676
G1 X117.56 Y86.914 E22.55149
G1 X118.782 Y86.956 E22.59622
G1 X120.005 Y87.079 E22.64119
G1 X123.083 Y87.491 E22.75481
G1 X124.289 Y87.693 E22.79955
G1 X125.48 Y87.973 E22.84431
G1 X126.649 Y88.331 E22.88904
G1 X127.807 Y88.77 E22.93435
G1 X130.674 Y89.967 E23.04802
G1 X131.786 Y90.474 E23.09273
G1 X132.863 Y91.054 E23.13748
G1 X133.9 Y91.703 E23.18224
G1 X134.886 Y92.413 E23.22669
G1 X137.339 Y94.304 E23.34001
G1 X138.283 Y95.082 E23.38477
G1 X139.173 Y95.92 E23.42949
G1 X140.008 Y96.814 E23.47425
G1 X140.78 Y97.76 E23.51892
G1 X142.666 Y100.228 E23.63256
G1 X143.377 Y101.223 E23.6773
G1 X144.02 Y102.263 E23.72204
G1 X144.595 Y103.342 E23.76677
G1 X145.104 Y104.473 E23.81215
G1 X146.284 Y107.344 E23.92571
G1 X146.712 Y108.49 E23.97047
G1 X147.064 Y109.661 E24.0152
G1 X147.338 Y110.853 E24.05995
G1 X147.533 Y112.05 E24.10432
G1 X147.931 Y115.121 E24.21762
G1 X148.048 Y116.338 E24.26235
G1 X148.086 Y117.56 E24.30708
G1 X148.044 Y118.782 E24.35181
G1 X147.921 Y120 E24.3966
G1 X147.51 Y123.077 E24.51018
G1 X147.309 Y124.283 E24.55491
G1 X147.029 Y125.474 E24.59967
G1 X146.672 Y126.643 E24.64439
G1 X146.23 Y127.809 E24.69001
G1 X145.032 Y130.677 E24.80373
G1 X144.524 Y131.789 E24.84846
G1 X143.944 Y132.866 E24.89321
G1 X143.296 Y133.903 E24.93795
G1 X142.587 Y134.886 E24.98229
G1 X140.696 Y137.339 E25.09561
G1 X139.918 Y138.283 E25.14036
G1 X139.08 Y139.173 E25.18509
G1 X138.186 Y140.008 E25.22984
G1 X137.24 Y140.78 E25.27451
G1 X134.772 Y142.666 E25.38816
G1 X133.777 Y143.377 E25.4329
G1 X132.737 Y144.02 E25.47763
G1 X131.658 Y144.595 E25.52236
G1 X130.527 Y145.104 E25.56774
G1 X127.656 Y146.284 E25.68131
G1 X126.51 Y146.712 E25.72606
G1 X125.339 Y147.064 E25.7708
G1 X124.147 Y147.338 E25.81555
G1 X122.95 Y147.533 E25.85992
G1 X119.879 Y147.931 E25.97321
G1 X118.662 Y148.048 E26.01794
G1 X117.44 Y148.086 E26.06267
G1 X116.218 Y148.044 E26.10741
G1 X114.995 Y147.921 E26.15238
G1 X111.917 Y147.509 E26.266
G1 X110.711 Y147.307 E26.31073
G1 X109.52 Y147.027 E26.35549
G1 X108.351 Y146.669 E26.40022
G1 X107.193 Y146.23 E26.44553
G1 X104.326 Y145.033 E26.5592
G1 X103.214 Y144.526 E26.60391
G1 X102.137 Y143.946 E26.64867
G1 X101.1 Y143.297 E26.69343
G1 X100.112 Y142.586 E26.73796
G1 X97.657 Y140.693 E26.85138
G1 X96.714 Y139.915 E26.89611
G1 X95.823 Y139.077 E26.94086
G1 X94.989 Y138.182 E26.98561
G1 X94.215 Y137.235 E27.03036
G1 X92.33 Y134.767 E27.14398
G1 X91.62 Y133.771 E27.18873
G1 X90.976 Y132.731 E27.23349
G1 X90.402 Y131.651 E27.27823
G1 X89.895 Y130.524 E27.32345
G1 X88.716 Y127.655 E27.43693
G1 X88.288 Y126.509 E27.48168
G1 X87.936 Y125.338 E27.52642
G1 X87.662 Y124.146 E27.57117
G1 X87.467 Y122.95 E27.6155
G1 X87.069 Y119.879 E27.7288
G1 X86.952 Y118.662 E27.77353
G1 X86.914 Y117.44 E27.81826
G1 X86.956 Y116.218 E27.86299
G1 X87.079 Y115 E27.90778
G1 X87.49 Y111.923 E28.02136
G1 X87.691 Y110.717 E28.06609
G1 X87.971 Y109.526 E28.11085
G1 X88.328 Y108.357 E28.15557
G1 X88.77 Y107.191 E28.20119
G1 X89.968 Y104.323 E28.31491
G1 X90.476 Y103.211 E28.35964
G1 X91.056 Y102.134 E28.40439
G1 X91.704 Y101.097 E28.44913
G1 X92.413 Y100.114 E28.49347
G1 X94.304 Y97.661 E28.60679
G1 X95.082 Y96.717 E28.65154
G1 X95.422 Y96.356 E28.66969
G0 F810 X95.92 Y95.827
M204 S5000
M205 X30 Y30
G0 F7200 X96.25 Y96.118
M204 S500
M205 X20 Y20
G1 F6000 E28.69628
G1 F900 X97.136 Y95.296 E28.7405
G1 X98.027 Y94.569 E28.78257
G1 X100.495 Y92.683 E28.89622
G1 X101.479 Y91.982 E28.94042
G1 X102.507 Y91.347 E28.98463
G1 X103.575 Y90.781 E29.02885
G1 X104.64 Y90.303 E29.07156
G1 X107.511 Y89.123 E29.18512
G1 X108.644 Y88.701 E29.22936
G1 X109.802 Y88.354 E29.27358
G1 X110.98 Y88.085 E29.31779
G1 X112.106 Y87.903 E29.35952
G1 X115.177 Y87.505 E29.47282
G1 X116.38 Y87.39 E29.51703
G1 X117.588 Y87.354 E29.56125
G1 X118.796 Y87.398 E29.60547
