;FLAVOR:Marlin
;TIME:6636
;Filament used: 7.92882m
;Layer height: 0.2
;Generated with Cura_SteamEngine 3.6.0
M140 S70
M105
M190 S70
M104 S210
M105
M109 S210
M82 ;absolute extrusion mode
G28 ; home all axes
M117 Purge extruder
G92 E0 ; reset extruder
G1 Z1.0 F3000 ; move z up little to prevent scratching of surface
G1 X0.1 Y20 Z0.3 F5000.0 ; move to start-line position G1 X0.1 Y200.0 Z0.3 F1500.0 E15 ; draw 1st line
G1 X0.4 Y200.0 Z0.3 F5000.0 ; move to side a little
G1 X0.4 Y20 Z0.3 F1500.0 E30 ; draw 2nd line
G92 E0 ; reset extruder
G1 Z1.0 F3000 ; move z up little to prevent scratching of surface
M117 All systems go!
G92 E0
G1 F6000 E-5
;LAYER_COUNT:126
;LAYER:0
M107
M204 S5000
M205 X30 Y30
G0 F7200 X67.993 Y96.861 Z0.2
M204 S500
M205 X20 Y20
;TYPE:SKIRT
G1 F6000 E0
G1 F900 X68.747 Y96.387 E0.03258
G1 X69.54 Y95.984 E0.06513
G1 X70.366 Y95.653 E0.09768
G1 X71.218 Y95.398 E0.13022
G1 X72.09 Y95.22 E0.16278
G1 X72.974 Y95.122 E0.19532
G1 X73.629 Y95.1 E0.2193
G1 X161.371 Y95.1 E3.42944
G1 X162.26 Y95.14 E3.462
G1 X163.141 Y95.26 E3.49453
G1 X164.009 Y95.458 E3.5271
G1 X164.855 Y95.733 E3.55965
G1 X165.673 Y96.083 E3.5922
G1 X166.456 Y96.506 E3.62476
G1 X167.198 Y96.996 E3.65729
G1 X167.893 Y97.552 E3.68986
G1 X168.371 Y98 E3.71382
G1 X168.5 Y98.129 E3.7205
G1 X169.101 Y98.785 E3.75305
G1 X169.639 Y99.493 E3.78558
G1 X170.113 Y100.247 E3.81817
G1 X170.516 Y101.04 E3.85071
G1 X170.847 Y101.866 E3.88327
G1 X171.102 Y102.718 E3.9158
G1 X171.28 Y103.59 E3.94837
G1 X171.378 Y104.474 E3.98091
G1 X171.4 Y105.129 E4.00488
G1 X171.4 Y129.866 E4.90992
G1 X171.36 Y130.755 E4.94247
G1 X171.24 Y131.636 E4.975
G1 X171.042 Y132.504 E5.00758
G1 X170.767 Y133.35 E5.04012
G1 X170.417 Y134.168 E5.07267
G1 X169.994 Y134.951 E5.10523
G1 X169.504 Y135.693 E5.13777
G1 X168.948 Y136.388 E5.17033
G1 X168.338 Y137.025 E5.2026
G1 X168.204 Y137.153 E5.20938
G1 X167.534 Y137.738 E5.24192
G1 X166.814 Y138.26 E5.27445
G1 X166.05 Y138.716 E5.30701
G1 X165.248 Y139.101 E5.33955
G1 X164.414 Y139.413 E5.37213
G1 X163.556 Y139.649 E5.40469
G1 X162.681 Y139.806 E5.43721
G1 X161.794 Y139.885 E5.46979
G1 X160.987 Y139.887 E5.49932
G1 X159.5 Y139.83 E5.55376
G1 X158.743 Y139.772 E5.58154
G1 X157.159 Y139.589 E5.63988
G1 X156.341 Y139.459 E5.67018
G1 X154.836 Y139.156 E5.72635
G1 X153.991 Y138.947 E5.75819
G1 X152.607 Y138.539 E5.81098
G1 X151.624 Y138.192 E5.84912
G1 X150.388 Y137.681 E5.89806
G1 X149.282 Y137.141 E5.94309
G1 X148.234 Y136.546 E5.98718
G1 X147.481 Y136.073 E6.01971
G1 X146.98 Y135.701 E6.04254
G1 X146.123 Y135.023 E6.08252
G1 X145.45 Y134.44 E6.1151
G1 X144.726 Y133.675 E6.15363
G1 X144.109 Y132.95 E6.18846
G1 X143.563 Y132.247 E6.22103
G1 X143.083 Y131.499 E6.25355
G1 X142.747 Y130.868 E6.2797
G1 X142.373 Y130.1 E6.31095
G1 X142.02 Y129.284 E6.34348
G1 X141.742 Y128.439 E6.37603
G1 X141.505 Y127.371 E6.41605
G1 X141.378 Y126.598 E6.44471
G1 X141.273 Y125.714 E6.47728
G1 X141.247 Y124.993 E6.50368
G1 X141.247 Y119.9 E6.69001
G1 X93.752 Y119.9 E8.42767
G1 X93.713 Y120.76 E8.45917
G1 X93.593 Y121.641 E8.4917
G1 X93.395 Y122.509 E8.52427
G1 X93.12 Y123.355 E8.55681
G1 X92.77 Y124.173 E8.58937
G1 X92.347 Y124.956 E8.62193
G1 X91.857 Y125.698 E8.65446
G1 X91.301 Y126.393 E8.68702
G1 X90.853 Y126.871 E8.71099
G1 X90.724 Y127 E8.71766
G1 X90.068 Y127.601 E8.75021
G1 X89.36 Y128.139 E8.78275
G1 X88.606 Y128.613 E8.81533
G1 X87.813 Y129.016 E8.84788
G1 X86.987 Y129.347 E8.88043
G1 X86.135 Y129.602 E8.91297
G1 X85.263 Y129.78 E8.94553
G1 X84.379 Y129.878 E8.97807
G1 X83.724 Y129.9 E9.00205
G1 X73.629 Y129.9 E9.37139
G1 X72.74 Y129.86 E9.40394
G1 X71.859 Y129.74 E9.43647
G1 X70.991 Y129.542 E9.46905
G1 X70.145 Y129.267 E9.50159
G1 X69.327 Y128.917 E9.53414
G1 X68.544 Y128.494 E9.5667
G1 X67.802 Y128.004 E9.59924
G1 X67.107 Y127.448 E9.6318
G1 X66.629 Y127 E9.65577
G1 X66.5 Y126.871 E9.66244
G1 X65.899 Y126.215 E9.69499
G1 X65.361 Y125.507 E9.72752
G1 X64.887 Y124.753 E9.76011
G1 X64.484 Y123.96 E9.79265
G1 X64.153 Y123.134 E9.82521
G1 X63.898 Y122.282 E9.85775
G1 X63.72 Y121.41 E9.89031
G1 X63.622 Y120.526 E9.92285
G1 X63.6 Y119.871 E9.94683
G1 X63.6 Y105.129 E10.48618
G1 X63.64 Y104.24 E10.51874
G1 X63.76 Y103.359 E10.55127
G1 X63.958 Y102.491 E10.58384
G1 X64.233 Y101.645 E10.61639
G1 X64.583 Y100.827 E10.64894
G1 X65.006 Y100.044 E10.6815
G1 X65.496 Y99.302 E10.71403
G1 X66.052 Y98.607 E10.74659
G1 X66.5 Y98.129 E10.77056
G1 X66.629 Y98 E10.77724
G1 X67.285 Y97.399 E10.80979
G1 X67.415 Y97.3 E10.81576
G0 F810 X67.993 Y96.861
M204 S5000
M205 X30 Y30
G0 F7200 X68.276 Y97.2
M204 S500
M205 X20 Y20
G1 F6000 E10.84236
G1 F900 X69.015 Y96.741 E10.87419
G1 X69.793 Y96.353 E10.906
G1 X70.603 Y96.037 E10.93781
G1 X71.439 Y95.797 E10.96963
G1 X72.294 Y95.635 E11.00147
G1 X73.159 Y95.552 E11.03326
G1 X73.629 Y95.54 E11.05046
G1 X161.371 Y95.54 E14.2606
G1 X162.24 Y95.58 E14.29243
G1 X163.101 Y95.7 E14.32423
G1 X163.948 Y95.898 E14.35606
G1 X164.773 Y96.173 E14.38787
G1 X165.569 Y96.523 E14.41969
G1 X166.33 Y96.944 E14.45151
G1 X167.049 Y97.434 E14.48334
G1 X167.72 Y97.987 E14.51515
G1 X168.06 Y98.311 E14.53233
G1 X168.189 Y98.44 E14.53901
G1 X168.775 Y99.082 E14.57081
G1 X169.3 Y99.776 E14.60265
G1 X169.759 Y100.515 E14.63448
G1 X170.147 Y101.293 E14.66628
G1 X170.463 Y102.103 E14.69809
G1 X170.703 Y102.939 E14.72992
G1 X170.865 Y103.794 E14.76175
G1 X170.948 Y104.659 E14.79355
G1 X170.96 Y105.129 E14.81075
G1 X170.96 Y129.866 E15.71578
G1 X170.92 Y130.735 E15.74761
G1 X170.8 Y131.596 E15.77941
G1 X170.602 Y132.443 E15.81123
G1 X170.327 Y133.268 E15.84305
G1 X169.977 Y134.064 E15.87486
G1 X169.556 Y134.825 E15.90668
G1 X169.066 Y135.544 E15.93852
G1 X168.513 Y136.215 E15.97033
G1 X168.034 Y136.707 E15.99545
G1 X167.9 Y136.835 E16.00223
G1 X167.244 Y137.406 E16.03405
G1 X166.539 Y137.914 E16.06584
G1 X165.79 Y138.356 E16.09766
G1 X165.003 Y138.727 E16.12949
G1 X164.186 Y139.024 E16.1613
G1 X163.344 Y139.245 E16.19315
G1 X162.486 Y139.387 E16.22496
G1 X161.619 Y139.451 E16.25677
G1 X161.004 Y139.447 E16.27927
G1 X159.517 Y139.39 E16.33371
G1 X158.793 Y139.334 E16.36028
G1 X157.209 Y139.151 E16.41862
G1 X156.428 Y139.028 E16.44755
G1 X154.923 Y138.725 E16.50371
G1 X154.115 Y138.525 E16.53417
G1 X152.731 Y138.117 E16.58696
G1 X151.792 Y137.785 E16.62339
G1 X150.556 Y137.274 E16.67233
G1 X149.499 Y136.759 E16.71534
G1 X148.451 Y136.164 E16.75944
G1 X147.716 Y135.7 E16.79124
G1 X147.253 Y135.356 E16.81234
G1 X146.396 Y134.678 E16.85232
G1 X145.739 Y134.108 E16.88414
G1 X145.061 Y133.39 E16.92027
G1 X144.444 Y132.665 E16.9551
G1 X143.911 Y131.978 E16.98691
G1 X143.444 Y131.244 E17.01874
G1 X143.143 Y130.676 E17.04226
G1 X142.769 Y129.908 E17.07351
G1 X142.424 Y129.109 E17.10536
G1 X142.155 Y128.282 E17.13717
G1 X141.939 Y127.3 E17.17396
G1 X141.812 Y126.527 E17.20262
G1 X141.711 Y125.663 E17.23445
G1 X141.687 Y124.993 E17.25897
G1 X141.687 Y119.46 E17.4614
G1 X93.313 Y119.46 E19.23122
G1 X93.313 Y119.871 E19.24626
G1 X93.273 Y120.74 E19.27809
G1 X93.153 Y121.601 E19.30989
G1 X92.955 Y122.448 E19.34172
G1 X92.68 Y123.273 E19.37353
G1 X92.33 Y124.069 E19.40535
G1 X91.909 Y124.83 E19.43716
G1 X91.419 Y125.549 E19.469
G1 X90.866 Y126.22 E19.50081
G1 X90.542 Y126.56 E19.51799
G1 X90.413 Y126.689 E19.52467
G1 X89.771 Y127.275 E19.55647
G1 X89.077 Y127.8 E19.58831
G1 X88.338 Y128.259 E19.62013
G1 X87.56 Y128.647 E19.65194
G1 X86.75 Y128.963 E19.68375
G1 X85.914 Y129.203 E19.71557
G1 X85.059 Y129.365 E19.74741
G1 X84.194 Y129.448 E19.7792
G1 X83.724 Y129.46 E19.7964
G1 X73.629 Y129.46 E20.16574
G1 X72.76 Y129.42 E20.19757
G1 X71.899 Y129.3 E20.22937
G1 X71.052 Y129.102 E20.2612
G1 X70.227 Y128.827 E20.29301
G1 X69.431 Y128.477 E20.32483
G1 X68.67 Y128.056 E20.35665
G1 X67.951 Y127.566 E20.38848
G1 X67.28 Y127.013 E20.42029
G1 X66.94 Y126.689 E20.43747
G1 X66.811 Y126.56 E20.44415
G1 X66.225 Y125.918 E20.47595
G1 X65.7 Y125.224 E20.50779
G1 X65.241 Y124.485 E20.53962
G1 X64.853 Y123.707 E20.57142
G1 X64.537 Y122.897 E20.60323
G1 X64.297 Y122.061 E20.63506
G1 X64.135 Y121.206 E20.66689
G1 X64.052 Y120.341 E20.69869
G1 X64.04 Y119.871 E20.71589
G1 X64.04 Y105.129 E21.25524
G1 X64.08 Y104.26 E21.28707
G1 X64.2 Y103.399 E21.31887
G1 X64.398 Y102.552 E21.3507
G1 X64.673 Y101.727 E21.38251
G1 X65.023 Y100.931 E21.41433
G1 X65.444 Y100.17 E21.44614
G1 X65.934 Y99.451 E21.47798
G1 X66.487 Y98.78 E21.50979
G1 X66.811 Y98.44 E21.52697
G1 X66.94 Y98.311 E21.53365
G1 X67.582 Y97.725 E21.56545
G1 X67.697 Y97.638 E21.57072
G0 F810 X68.276 Y97.2
M204 S5000
M205 X30 Y30
G0 F7200 X68.558 Y97.54
M204 S500
M205 X20 Y20
G1 F6000 E21.59732
G1 F900 X69.282 Y97.097 E21.62838
G1 X70.045 Y96.723 E21.65946
G1 X70.839 Y96.422 E21.69053
G1 X71.658 Y96.198 E21.7216
G1 X72.495 Y96.052 E21.75268
G1 X73.629 Y95.98 E21.79425
G1 X161.371 Y95.98 E25.00439
G1 X162.219 Y96.02 E25.03545
G1 X163.06 Y96.14 E25.06654
G1 X163.886 Y96.338 E25.09761
G1 X164.689 Y96.613 E25.12867
G1 X165.463 Y96.962 E25.15973
G1 X166.201 Y97.382 E25.1908
G1 X166.896 Y97.87 E25.22186
G1 X167.749 Y98.622 E25.26347
G1 X167.878 Y98.751 E25.27014
G1 X168.45 Y99.379 E25.30122
G1 X168.96 Y100.058 E25.33229
G1 X169.403 Y100.782 E25.36334
G1 X169.777 Y101.545 E25.39443
G1 X170.078 Y102.339 E25.4255
G1 X170.302 Y103.158 E25.45656
G1 X170.448 Y103.995 E25.48765
G1 X170.52 Y105.129 E25.52922
G1 X170.52 Y129.866 E26.43425
G1 X170.48 Y130.714 E26.46531
G1 X170.36 Y131.555 E26.49639
G1 X170.162 Y132.381 E26.52747
G1 X169.887 Y133.184 E26.55852
G1 X169.538 Y133.958 E26.58959
G1 X169.118 Y134.696 E26.62065
G1 X168.63 Y135.391 E26.65172
G1 X168.078 Y136.037 E26.68281
G1 X167.73 Y136.388 E26.70089
G1 X167.596 Y136.516 E26.70767
G1 X166.955 Y137.073 E26.73874
G1 X166.265 Y137.568 E26.76981
G1 X165.531 Y137.995 E26.80088
G1 X164.76 Y138.351 E26.83195
G1 X163.959 Y138.633 E26.86302
G1 X163.135 Y138.839 E26.89409
G1 X162.295 Y138.966 E26.92517
G1 X161.447 Y139.014 E26.95625
G1 X161.02 Y139.007 E26.97187
G1 X159.533 Y138.95 E27.02632
G1 X158.844 Y138.897 E27.0516
G1 X157.26 Y138.714 E27.10994
G1 X156.515 Y138.597 E27.13753
G1 X155.01 Y138.294 E27.19369
G1 X154.239 Y138.103 E27.22275
G1 X152.855 Y137.695 E27.27554
G1 X151.96 Y137.379 E27.31027
G1 X150.724 Y136.868 E27.3592
G1 X149.717 Y136.376 E27.40021
G1 X148.669 Y135.781 E27.4443
G1 X147.951 Y135.327 E27.47538
G1 X147.526 Y135.011 E27.49475
G1 X146.669 Y134.333 E27.53473
G1 X146.028 Y133.775 E27.56583
G1 X145.396 Y133.105 E27.59952
G1 X144.779 Y132.38 E27.63435
G1 X144.259 Y131.708 E27.66544
G1 X143.806 Y130.99 E27.6965
G1 X143.538 Y130.483 E27.71748
G1 X143.164 Y129.715 E27.74874
G1 X142.829 Y128.935 E27.77979
G1 X142.568 Y128.127 E27.81086
G1 X142.373 Y127.228 E27.84452
G1 X142.246 Y126.455 E27.87318
G1 X142.148 Y125.612 E27.90423
G1 X142.127 Y124.993 E27.92688
G1 X142.127 Y119.02 E28.14541
G1 X92.873 Y119.02 E29.94743
G1 X92.873 Y119.871 E29.97856
G1 X92.833 Y120.719 E30.00962
G1 X92.713 Y121.56 E30.0407
G1 X92.515 Y122.386 E30.07178
G1 X92.24 Y123.189 E30.10283
G1 X91.891 Y123.963 E30.1339
G1 X91.471 Y124.701 E30.16496
G1 X90.983 Y125.396 E30.19603
G1 X90.231 Y126.249 E30.23764
G1 X90.102 Y126.378 E30.24431
G1 X89.474 Y126.95 E30.27539
G1 X88.795 Y127.46 E30.30646
G1 X88.071 Y127.903 E30.33751
G1 X87.308 Y128.277 E30.3686
G1 X86.514 Y128.578 E30.39967
G1 X85.695 Y128.802 E30.43073
G1 X84.858 Y128.948 E30.46182
G1 X83.724 Y129.02 E30.50339
G1 X73.629 Y129.02 E30.87273
G1 X72.781 Y128.98 E30.90379
G1 X71.94 Y128.86 E30.93487
G1 X71.114 Y128.662 E30.96594
G1 X70.311 Y128.387 E30.997
G1 X69.537 Y128.038 E31.02806
G1 X68.799 Y127.618 E31.05913
G1 X68.104 Y127.13 E31.0902
G1 X67.251 Y126.378 E31.1318
G1 X67.122 Y126.249 E31.13847
G1 X66.55 Y125.621 E31.16955
G1 X66.04 Y124.942 E31.20062
G1 X65.597 Y124.218 E31.23168
G1 X65.223 Y123.455 E31.26276
G1 X64.922 Y122.661 E31.29383
G1 X64.698 Y121.842 E31.32489
G1 X64.552 Y121.005 E31.35598
G1 X64.48 Y119.871 E31.39755
G1 X64.48 Y105.129 E31.93691
G1 X64.52 Y104.281 E31.96796
G1 X64.64 Y103.44 E31.99905
G1 X64.838 Y102.614 E32.03012
G1 X65.113 Y101.811 E32.06118
G1 X65.462 Y101.037 E32.09224
G1 X65.882 Y100.299 E32.12331
G1 X66.37 Y99.604 E32.15438
G1 X67.122 Y98.751 E32.19598
G1 X67.251 Y98.622 E32.20265
G1 X67.879 Y98.05 E32.23373
G1 X67.977 Y97.976 E32.23822
G0 F810 X68.558 Y97.54
M204 S5000
M205 X30 Y30
G0 F7200 X68.839 Y97.881
M204 S500
M205 X20 Y20
G1 F6000 E32.26482
G1 F900 X69.548 Y97.453 E32.29512
G1 X70.295 Y97.094 E32.32544
G1 X71.073 Y96.81 E32.35575
G1 X71.874 Y96.601 E32.38603
G1 X72.692 Y96.471 E32.41634
G1 X73.629 Y96.42 E32.45067
G1 X161.371 Y96.42 E35.66081
G1 X162.198 Y96.46 E35.6911
G1 X163.018 Y96.58 E35.72142
G1 X163.822 Y96.778 E35.75172
G1 X164.603 Y97.052 E35.782
G1 X165.355 Y97.401 E35.81233
G1 X166.069 Y97.82 E35.84262
G1 X166.739 Y98.307 E35.87292
G1 X167.438 Y98.933 E35.90725
G1 X167.567 Y99.062 E35.91393
G1 X168.124 Y99.675 E35.94423
G1 X168.619 Y100.339 E35.97453
G1 X169.047 Y101.048 E36.00483
G1 X169.406 Y101.795 E36.03515
G1 X169.69 Y102.573 E36.06545
G1 X169.899 Y103.374 E36.09574
G1 X170.029 Y104.192 E36.12604
G1 X170.08 Y105.129 E36.16037
G1 X170.08 Y129.866 E37.0654
G1 X170.04 Y130.693 E37.0957
G1 X169.92 Y131.513 E37.12602
G1 X169.722 Y132.317 E37.15631
G1 X169.448 Y133.098 E37.18659
G1 X169.099 Y133.85 E37.21692
G1 X168.68 Y134.564 E37.24721
G1 X168.193 Y135.234 E37.27752
G1 X167.426 Y136.07 E37.31902
G1 X167.292 Y136.198 E37.3258
G1 X166.667 Y136.741 E37.3561
G1 X165.991 Y137.22 E37.38641
G1 X165.273 Y137.633 E37.41671
G1 X164.518 Y137.974 E37.44702
G1 X163.734 Y138.241 E37.47732
G1 X162.928 Y138.431 E37.50762
G1 X162.107 Y138.542 E37.53793
G1 X161.037 Y138.568 E37.57709
G1 X159.55 Y138.511 E37.63153
G1 X158.894 Y138.46 E37.6556
G1 X157.31 Y138.277 E37.71394
G1 X156.602 Y138.165 E37.74017
G1 X155.097 Y137.862 E37.79633
G1 X154.364 Y137.681 E37.82396
G1 X152.98 Y137.273 E37.87675
G1 X152.128 Y136.972 E37.90981
G1 X150.892 Y136.461 E37.95874
G1 X149.934 Y135.993 E37.99775
G1 X148.886 Y135.398 E38.04184
G1 X148.186 Y134.955 E38.07215
G1 X147.799 Y134.666 E38.08982
G1 X146.942 Y133.988 E38.1298
G1 X146.318 Y133.443 E38.16011
G1 X145.731 Y132.82 E38.19143
G1 X145.114 Y132.095 E38.22626
G1 X144.608 Y131.439 E38.25657
G1 X144.168 Y130.737 E38.28688
G1 X143.934 Y130.291 E38.30531
G1 X143.56 Y129.523 E38.33656
G1 X143.234 Y128.761 E38.36688
G1 X142.982 Y127.972 E38.39718
G1 X142.808 Y127.157 E38.42767
G1 X142.681 Y126.384 E38.45633
G1 X142.586 Y125.561 E38.48664
G1 X142.567 Y124.993 E38.50744
G1 X142.567 Y118.58 E38.74206
G1 X92.433 Y118.58 E40.57627
G1 X92.433 Y119.871 E40.62351
G1 X92.393 Y120.698 E40.6538
G1 X92.273 Y121.518 E40.68412
G1 X92.075 Y122.322 E40.71441
G1 X91.801 Y123.103 E40.74469
G1 X91.452 Y123.855 E40.77503
G1 X91.033 Y124.569 E40.80531
G1 X90.546 Y125.239 E40.83562
G1 X89.92 Y125.938 E40.86995
G1 X89.791 Y126.067 E40.87662
G1 X89.178 Y126.624 E40.90693
G1 X88.514 Y127.119 E40.93723
G1 X87.805 Y127.547 E40.96753
G1 X87.058 Y127.906 E40.99785
G1 X86.28 Y128.19 E41.02815
G1 X85.479 Y128.399 E41.05844
G1 X84.661 Y128.529 E41.08874
G1 X83.724 Y128.58 E41.12307
G1 X73.629 Y128.58 E41.49241
G1 X72.802 Y128.54 E41.5227
G1 X71.982 Y128.42 E41.55302
G1 X71.178 Y128.222 E41.58331
G1 X70.397 Y127.948 E41.6136
G1 X69.645 Y127.599 E41.64393
G1 X68.931 Y127.18 E41.67422
G1 X68.261 Y126.693 E41.70452
G1 X67.562 Y126.067 E41.73885
G1 X67.433 Y125.938 E41.74552
G1 X66.876 Y125.325 E41.77583
G1 X66.381 Y124.661 E41.80613
G1 X65.953 Y123.952 E41.83643
G1 X65.594 Y123.205 E41.86675
G1 X65.31 Y122.427 E41.89705
G1 X65.101 Y121.626 E41.92734
G1 X64.971 Y120.808 E41.95764
G1 X64.92 Y119.871 E41.99197
G1 X64.92 Y105.129 E42.53133
G1 X64.96 Y104.302 E42.56162
G1 X65.08 Y103.482 E42.59194
G1 X65.278 Y102.678 E42.62223
G1 X65.552 Y101.897 E42.65251
G1 X65.901 Y101.145 E42.68284
G1 X66.32 Y100.431 E42.71313
G1 X66.807 Y99.761 E42.74344
G1 X67.433 Y99.062 E42.77777
G1 X67.562 Y98.933 E42.78444
G1 X68.175 Y98.376 E42.81474
G1 X68.256 Y98.315 E42.81845
G0 F810 X68.839 Y97.881
M204 S5000
M205 X30 Y30
G0 F7200 X69.12 Y98.223
M204 S500
M205 X20 Y20
G1 F6000 E42.84505
G1 F900 X69.813 Y97.81 E42.87457
