;FLAVOR:Marlin
;TIME:1960
;Filament used: 1.56784m
;Layer height: 0.2
;Generated with Cura_SteamEngine 3.6.0
M140 S70
M105
M190 S70
M104 S215
M105
M109 S215
M82 ;absolute extrusion mode
G28 ; home all axes
M117 Purge extruder
G92 E0 ; reset extruder
G1 Z1.0 F3000 ; move z up little to prevent scratching of surface
G1 X0.1 Y20 Z0.3 F5000.0 ; move to start-line position G1 X0.1 Y200.0 Z0.3 F1500.0 E15 ; draw 1st line
G1 X0.4 Y200.0 Z0.3 F5000.0 ; move to side a little
G1 X0.4 Y20 Z0.3 F1500.0 E30 ; draw 2nd line
G92 E0 ; reset extruder
G1 Z1.0 F3000 ; move z up little to prevent scratching of surface
M117 All systems go!
G92 E0
G1 F6000 E-5
;LAYER_COUNT:76
;LAYER:0
M107
M204 S5000
M205 X30 Y30
G0 F7200 X79.523 Y107.837 Z0.2
M204 S500
M205 X20 Y20
;TYPE:SKIRT
G1 F6000 E0
G1 F900 X80.543 Y107.099 E0.04187
G1 X81.607 Y106.428 E0.08371
G1 X82.712 Y105.825 E0.12558
G1 X83.853 Y105.294 E0.16744
G1 X85.025 Y104.836 E0.20929
G1 X86.224 Y104.454 E0.25114
G1 X86.949 Y104.273 E0.276
G1 X87.11 Y104.043 E0.28534
G1 X87.864 Y103.036 E0.32718
G1 X88.416 Y102.375 E0.35582
G1 X89.678 Y100.93 E0.41963
G1 X90.535 Y100.009 E0.46147
G1 X91.409 Y99.181 E0.50152
G1 X93.32 Y97.476 E0.5867
G1 X94.285 Y96.668 E0.62856
G1 X95.557 Y95.75 E0.68073
G1 X97.681 Y94.341 E0.76551
G1 X98.751 Y93.679 E0.80736
G1 X100.101 Y92.97 E0.85807
G1 X102.409 Y91.869 E0.94312
G1 X103.561 Y91.364 E0.98496
G1 X104.716 Y90.942 E1.02586
G1 X106.536 Y90.34 E1.08962
G1 X107.743 Y89.983 E1.13148
G1 X108.904 Y89.716 E1.17111
G1 X111.416 Y89.218 E1.25628
G1 X112.657 Y89.013 E1.29812
G1 X114.196 Y88.869 E1.34953
G1 X116.745 Y88.731 E1.43443
G1 X118.003 Y88.703 E1.47628
G1 X119.566 Y88.78 E1.52833
G1 X122.111 Y89.006 E1.61331
G1 X123.361 Y89.157 E1.65519
G1 X124.545 Y89.375 E1.69523
G1 X126.427 Y89.782 E1.75927
G1 X127.648 Y90.087 E1.80113
G1 X128.803 Y90.454 E1.84144
G1 X131.206 Y91.298 E1.92615
G1 X132.38 Y91.752 E1.96802
G1 X133.771 Y92.408 E2.01917
G1 X136.039 Y93.586 E2.10417
G1 X137.137 Y94.201 E2.14603
G1 X138.442 Y95.06 E2.19799
G1 X140.521 Y96.549 E2.28305
G1 X141.52 Y97.314 E2.3249
G1 X142.688 Y98.347 E2.37676
G1 X144.538 Y100.119 E2.46196
G1 X145.419 Y101.018 E2.50383
G1 X146.194 Y101.914 E2.54323
G1 X147.401 Y103.396 E2.6068
G1 X148.072 Y104.275 E2.64358
G1 X148.344 Y104.337 E2.65286
G1 X149.552 Y104.692 E2.69473
G1 X150.734 Y105.123 E2.73658
G1 X151.886 Y105.628 E2.77842
G1 X153.005 Y106.206 E2.82031
G1 X154.084 Y106.853 E2.86215
G1 X155.12 Y107.567 E2.904
G1 X156.108 Y108.346 E2.94585
G1 X157.365 Y109.499 E3.00258
G1 X157.482 Y109.616 E3.00808
G1 X158.343 Y110.534 E3.04994
G1 X159.144 Y111.504 E3.09178
G1 X159.882 Y112.524 E3.13366
G1 X160.553 Y113.588 E3.17549
G1 X161.156 Y114.693 E3.21736
G1 X161.687 Y115.834 E3.25922
G1 X162.145 Y117.006 E3.30107
G1 X162.527 Y118.205 E3.34293
G1 X162.832 Y119.426 E3.38479
G1 X163.059 Y120.663 E3.42662
G1 X163.208 Y121.913 E3.46848
G1 X163.281 Y123.617 E3.52521
G1 X163.281 Y126.383 E3.61721
G1 X163.241 Y127.641 E3.65907
G1 X163.121 Y128.893 E3.7009
G1 X162.922 Y130.136 E3.74277
G1 X162.644 Y131.363 E3.78462
G1 X162.289 Y132.571 E3.8265
G1 X161.858 Y133.753 E3.86834
G1 X161.353 Y134.905 E3.91018
G1 X160.775 Y136.024 E3.95207
G1 X160.128 Y137.103 E3.99391
G1 X159.414 Y138.139 E4.03576
G1 X158.635 Y139.127 E4.07761
G1 X157.482 Y140.384 E4.13434
G1 X157.365 Y140.501 E4.13984
G1 X156.447 Y141.362 E4.1817
G1 X155.477 Y142.163 E4.22354
G1 X154.457 Y142.901 E4.26542
G1 X153.393 Y143.572 E4.30726
G1 X152.288 Y144.175 E4.34912
G1 X151.147 Y144.706 E4.39098
G1 X149.975 Y145.164 E4.43283
G1 X148.776 Y145.546 E4.47469
G1 X147.555 Y145.851 E4.51655
G1 X146.318 Y146.078 E4.55838
G1 X145.068 Y146.227 E4.60025
G1 X143.358 Y146.3 E4.65717
G1 X132.608 Y146.297 E5.01472
G1 X131.351 Y146.257 E5.05655
G1 X130.098 Y146.137 E5.09841
G1 X128.856 Y145.937 E5.14025
G1 X127.628 Y145.659 E5.18213
G1 X126.421 Y145.304 E5.22398
G1 X125.239 Y144.872 E5.26583
G1 X124.087 Y144.367 E5.30767
G1 X122.969 Y143.789 E5.34953
G1 X121.89 Y143.141 E5.39139
G1 X120.854 Y142.426 E5.43326
G1 X119.866 Y141.647 E5.47511
G1 X118.796 Y140.678 E5.52312
G1 X118.679 Y140.564 E5.52855
G1 X117.806 Y139.658 E5.5704
G1 X117.5 Y139.297 E5.58614
G1 X117.106 Y139.756 E5.60626
G1 X116.442 Y140.446 E5.63811
G1 X116.326 Y140.561 E5.64354
G1 X115.405 Y141.418 E5.68538
G1 X114.431 Y142.215 E5.72724
G1 X113.408 Y142.949 E5.76912
G1 X112.341 Y143.616 E5.81097
G1 X111.234 Y144.213 E5.8528
G1 X110.09 Y144.74 E5.8947
G1 X108.916 Y145.192 E5.93654
G1 X107.716 Y145.569 E5.97837
G1 X106.494 Y145.869 E6.02022
G1 X105.255 Y146.091 E6.06209
G1 X104.005 Y146.234 E6.10394
G1 X102.386 Y146.3 E6.15783
G1 X91.636 Y146.3 E6.51538
G1 X90.378 Y146.26 E6.55724
G1 X89.126 Y146.14 E6.59907
G1 X87.883 Y145.941 E6.64094
G1 X86.656 Y145.663 E6.68278
G1 X85.448 Y145.308 E6.72466
G1 X84.266 Y144.877 E6.76651
G1 X83.114 Y144.372 E6.80834
G1 X81.995 Y143.794 E6.85023
G1 X80.916 Y143.147 E6.89208
G1 X79.88 Y142.433 E6.93392
G1 X78.892 Y141.654 E6.97577
G1 X77.635 Y140.501 E7.0325
G1 X77.518 Y140.384 E7.03801
G1 X76.657 Y139.466 E7.07987
G1 X75.856 Y138.496 E7.12171
G1 X75.118 Y137.476 E7.16358
G1 X74.447 Y136.412 E7.20542
G1 X73.844 Y135.307 E7.24729
G1 X73.313 Y134.166 E7.28915
G1 X72.855 Y132.994 E7.331
G1 X72.473 Y131.795 E7.37285
G1 X72.168 Y130.574 E7.41471
G1 X71.941 Y129.337 E7.45654
G1 X71.792 Y128.087 E7.49841
G1 X71.719 Y126.383 E7.55514
G1 X71.719 Y123.617 E7.64714
G1 X71.759 Y122.359 E7.689
G1 X71.879 Y121.107 E7.73083
G1 X72.078 Y119.864 E7.7727
G1 X72.356 Y118.637 E7.81454
G1 X72.711 Y117.429 E7.85642
G1 X73.142 Y116.247 E7.89827
G1 X73.647 Y115.095 E7.9401
G1 X74.225 Y113.976 E7.98199
G1 X74.872 Y112.897 E8.02384
G1 X75.586 Y111.861 E8.06569
G1 X76.365 Y110.873 E8.10753
G1 X77.518 Y109.616 E8.16426
G1 X77.635 Y109.499 E8.16977
G1 X78.553 Y108.638 E8.21163
G1 X78.906 Y108.346 E8.22687
G0 F810 X79.523 Y107.837
M204 S5000
M205 X30 Y30
G0 F7200 X79.788 Y108.138
M204 S500
M205 X20 Y20
G1 F6000 E8.25347
G1 F900 X80.798 Y107.409 E8.2949
G1 X81.853 Y106.747 E8.33633
G1 X82.949 Y106.154 E8.37777
G1 X84.08 Y105.632 E8.41921
G1 X85.242 Y105.184 E8.46063
G1 X86.431 Y104.811 E8.50207
G1 X87.19 Y104.626 E8.52806
G1 X87.437 Y104.273 E8.54239
G1 X88.184 Y103.276 E8.58382
G1 X88.717 Y102.639 E8.61145
G1 X89.979 Y101.194 E8.67526
G1 X90.828 Y100.282 E8.7167
G1 X91.676 Y99.479 E8.75554
G1 X93.587 Y97.774 E8.84072
G1 X94.542 Y96.975 E8.88214
G1 X95.778 Y96.084 E8.93282
G1 X97.902 Y94.675 E9.01759
G1 X98.961 Y94.02 E9.05901
G1 X100.273 Y93.331 E9.10829
G1 X102.581 Y92.23 E9.19335
G1 X103.722 Y91.73 E9.23478
G1 X104.842 Y91.321 E9.27444
G1 X106.662 Y90.719 E9.3382
G1 X107.856 Y90.366 E9.37961
G1 X108.981 Y90.108 E9.418
G1 X111.493 Y89.61 E9.50317
G1 X112.722 Y89.407 E9.5446
G1 X114.217 Y89.268 E9.59454
G1 X116.766 Y89.13 E9.67945
G1 X118.012 Y89.103 E9.7209
G1 X119.531 Y89.178 E9.77148
G1 X122.076 Y89.404 E9.85646
G1 X123.313 Y89.554 E9.89791
G1 X124.461 Y89.766 E9.93673
G1 X126.343 Y90.173 E10.00078
G1 X127.551 Y90.476 E10.0422
G1 X128.671 Y90.831 E10.08128
G1 X131.074 Y91.675 E10.16599
G1 X132.235 Y92.125 E10.2074
G1 X133.587 Y92.763 E10.25712
G1 X135.855 Y93.941 E10.34213
G1 X136.942 Y94.55 E10.38357
G1 X138.209 Y95.385 E10.43404
G1 X140.288 Y96.874 E10.51909
G1 X141.277 Y97.631 E10.56051
G1 X142.411 Y98.636 E10.61091
G1 X144.261 Y100.408 E10.69612
G1 X145.133 Y101.298 E10.73756
G1 X145.884 Y102.167 E10.77576
G1 X147.091 Y103.649 E10.83933
G1 X147.842 Y104.634 E10.88053
G1 X148.293 Y104.737 E10.89591
G1 X149.487 Y105.092 E10.93734
G1 X150.655 Y105.522 E10.97874
G1 X151.794 Y106.027 E11.02018
G1 X152.898 Y106.604 E11.06161
G1 X153.963 Y107.251 E11.10306
G1 X154.984 Y107.965 E11.1445
G1 X155.957 Y108.742 E11.18591
G1 X157.082 Y109.782 E11.23687
G1 X157.199 Y109.899 E11.24237
G1 X158.051 Y110.808 E11.28381
G1 X158.843 Y111.769 E11.32523
G1 X159.572 Y112.779 E11.36666
G1 X160.234 Y113.834 E11.40808
G1 X160.827 Y114.93 E11.44953
G1 X161.349 Y116.061 E11.49096
G1 X161.797 Y117.223 E11.53238
G1 X162.17 Y118.412 E11.57383
G1 X162.465 Y119.622 E11.61525
G1 X162.682 Y120.848 E11.65666
G1 X162.821 Y122.086 E11.6981
G1 X162.881 Y123.617 E11.74906
G1 X162.881 Y126.383 E11.84106
G1 X162.841 Y127.628 E11.88249
G1 X162.721 Y128.868 E11.92392
G1 X162.522 Y130.097 E11.96533
G1 X162.244 Y131.312 E12.00678
G1 X161.889 Y132.506 E12.04822
G1 X161.459 Y133.674 E12.08961
G1 X160.954 Y134.813 E12.13105
G1 X160.377 Y135.917 E12.17248
G1 X159.73 Y136.982 E12.21393
G1 X159.016 Y138.003 E12.25537
G1 X158.239 Y138.976 E12.29678
G1 X157.199 Y140.101 E12.34774
G1 X157.082 Y140.218 E12.35324
G1 X156.173 Y141.07 E12.39468
G1 X155.212 Y141.862 E12.4361
G1 X154.202 Y142.591 E12.47753
G1 X153.147 Y143.253 E12.51895
G1 X152.051 Y143.846 E12.5604
G1 X150.92 Y144.368 E12.60183
G1 X149.758 Y144.816 E12.64325
G1 X148.569 Y145.189 E12.6847
G1 X147.359 Y145.484 E12.72612
G1 X146.133 Y145.701 E12.76753
G1 X144.895 Y145.84 E12.80897
G1 X143.359 Y145.9 E12.8601
G1 X132.609 Y145.897 E13.21764
G1 X131.364 Y145.857 E13.25907
G1 X130.124 Y145.737 E13.30051
G1 X128.894 Y145.537 E13.34195
G1 X127.68 Y145.259 E13.38338
G1 X126.486 Y144.904 E13.42481
G1 X125.318 Y144.473 E13.46622
G1 X124.179 Y143.967 E13.50767
G1 X123.075 Y143.39 E13.5491
G1 X122.011 Y142.743 E13.59052
G1 X120.99 Y142.029 E13.63196
G1 X120.017 Y141.251 E13.67339
G1 X119.075 Y140.392 E13.7158
G1 X118.958 Y140.278 E13.72123
G1 X118.095 Y139.38 E13.76265
G1 X117.504 Y138.682 E13.79307
G1 X116.716 Y139.588 E13.83301
G1 X116.16 Y140.162 E13.85959
G1 X116.044 Y140.277 E13.86502
G1 X115.132 Y141.125 E13.90644
G1 X114.167 Y141.913 E13.94788
G1 X113.154 Y142.637 E13.98929
G1 X112.096 Y143.295 E14.03073
G1 X110.998 Y143.884 E14.07217
G1 X109.865 Y144.4 E14.11358
G1 X108.701 Y144.844 E14.15502
G1 X107.51 Y145.211 E14.19647
G1 X106.299 Y145.501 E14.23788
G1 X105.072 Y145.713 E14.2793
G1 X103.833 Y145.846 E14.32075
G1 X102.386 Y145.9 E14.36891
G1 X91.636 Y145.9 E14.72645
G1 X90.391 Y145.86 E14.76788
G1 X89.151 Y145.74 E14.80932
G1 X87.922 Y145.541 E14.85073
G1 X86.707 Y145.263 E14.89218
G1 X85.513 Y144.908 E14.93361
G1 X84.345 Y144.478 E14.97501
G1 X83.206 Y143.973 E15.01645
G1 X82.102 Y143.396 E15.05788
G1 X81.037 Y142.749 E15.09933
G1 X80.016 Y142.035 E15.14077
G1 X79.043 Y141.258 E15.18218
G1 X77.918 Y140.218 E15.23314
G1 X77.801 Y140.101 E15.23864
G1 X76.949 Y139.192 E15.28008
G1 X76.157 Y138.231 E15.3215
G1 X75.428 Y137.221 E15.36293
G1 X74.766 Y136.166 E15.40435
G1 X74.173 Y135.07 E15.4458
G1 X73.651 Y133.939 E15.48723
G1 X73.203 Y132.777 E15.52865
G1 X72.83 Y131.588 E15.5701
G1 X72.535 Y130.378 E15.61152
G1 X72.318 Y129.152 E15.65293
G1 X72.179 Y127.914 E15.69437
G1 X72.119 Y126.383 E15.74533
G1 X72.119 Y123.617 E15.83733
G1 X72.159 Y122.372 E15.87876
G1 X72.279 Y121.132 E15.92019
G1 X72.478 Y119.903 E15.9616
G1 X72.756 Y118.688 E16.00306
G1 X73.111 Y117.494 E16.04449
G1 X73.541 Y116.326 E16.08588
G1 X74.046 Y115.187 E16.12732
G1 X74.623 Y114.083 E16.16875
G1 X75.27 Y113.018 E16.2102
G1 X75.984 Y111.997 E16.25164
G1 X76.761 Y111.024 E16.29305
G1 X77.801 Y109.899 E16.34401
G1 X77.918 Y109.782 E16.34951
G1 X78.827 Y108.93 E16.39095
G1 X79.171 Y108.646 E16.40579
G0 F810 X79.788 Y108.138
M204 S5000
M205 X30 Y30
G0 F7200 X80.053 Y108.439
M204 S500
M205 X20 Y20
G1 F6000 E16.4324
G1 F900 X81.054 Y107.72 E16.47339
G1 X82.099 Y107.067 E16.51437
G1 X83.185 Y106.483 E16.55539
G1 X84.306 Y105.971 E16.59637
G1 X85.458 Y105.532 E16.63738
G1 X86.636 Y105.17 E16.67837
G1 X87.43 Y104.981 E16.70551
G1 X87.765 Y104.502 E16.72495
G1 X88.504 Y103.516 E16.76594
G1 X89.018 Y102.902 E16.79257
G1 X90.28 Y101.457 E16.85638
G1 X91.121 Y100.555 E16.8974
G1 X91.942 Y99.778 E16.93499
G1 X93.853 Y98.073 E17.02018
G1 X94.799 Y97.282 E17.06119
G1 X95.999 Y96.417 E17.11039
G1 X98.123 Y95.008 E17.19517
G1 X99.172 Y94.36 E17.23618
G1 X100.445 Y93.692 E17.28399
G1 X102.753 Y92.591 E17.36904
G1 X103.883 Y92.097 E17.41006
G1 X104.967 Y91.701 E17.44844
G1 X106.787 Y91.099 E17.5122
G1 X107.97 Y90.75 E17.55323
G1 X109.059 Y90.501 E17.59038
G1 X111.571 Y90.003 E17.67556
G1 X112.788 Y89.802 E17.71658
G1 X114.239 Y89.668 E17.76505
G1 X116.788 Y89.53 E17.84995
G1 X118.02 Y89.503 E17.89094
G1 X119.496 Y89.576 E17.94009
G1 X122.041 Y89.802 E18.02507
G1 X123.264 Y89.951 E18.06605
G1 X124.376 Y90.157 E18.10366
G1 X126.258 Y90.564 E18.16771
G1 X127.454 Y90.864 E18.20872
G1 X128.538 Y91.209 E18.24655
G1 X130.941 Y92.053 E18.33126
G1 X132.09 Y92.499 E18.37226
G1 X133.403 Y93.118 E18.42054
G1 X135.671 Y94.296 E18.50554
G1 X136.746 Y94.899 E18.54654
G1 X137.976 Y95.71 E18.59554
G1 X140.055 Y97.199 E18.68059
G1 X141.034 Y97.949 E18.72161
G1 X142.135 Y98.925 E18.77055
G1 X143.985 Y100.697 E18.85575
G1 X144.847 Y101.578 E18.89675
G1 X145.574 Y102.42 E18.93375
G1 X146.781 Y103.902 E18.99732
G1 X147.528 Y104.882 E19.0383
G1 X147.599 Y104.988 E19.04254
G1 X148.241 Y105.136 E19.06446
G1 X149.421 Y105.491 E19.10544
G1 X150.576 Y105.922 E19.14645
G1 X151.701 Y106.427 E19.18746
G1 X152.79 Y107.003 E19.22843
G1 X153.84 Y107.649 E19.26944
G1 X154.846 Y108.362 E19.31045
G1 X155.804 Y109.138 E19.35145
G1 X156.799 Y110.065 E19.39668
G1 X156.916 Y110.182 E19.40219
G1 X157.759 Y111.081 E19.44318
G1 X158.542 Y112.034 E19.4842
G1 X159.261 Y113.035 E19.52519
G1 X159.914 Y114.08 E19.56618
G1 X160.498 Y115.166 E19.60719
G1 X161.01 Y116.287 E19.64818
G1 X161.449 Y117.439 E19.68918
G1 X161.811 Y118.617 E19.73017
G1 X162.097 Y119.817 E19.7712
G1 X162.304 Y121.032 E19.8122
G1 X162.432 Y122.258 E19.85319
G1 X162.481 Y123.617 E19.89842
G1 X162.481 Y126.383 E19.99042
G1 X162.441 Y127.615 E20.03142
G1 X162.321 Y128.842 E20.07242
G1 X162.122 Y130.058 E20.11341
G1 X161.845 Y131.26 E20.15443
G1 X161.49 Y132.44 E20.19542
G1 X161.059 Y133.595 E20.23642
G1 X160.554 Y134.72 E20.27744
G1 X159.978 Y135.809 E20.31841
G1 X159.332 Y136.859 E20.35941
G1 X158.619 Y137.865 E20.40042
G1 X157.843 Y138.823 E20.44143
G1 X156.916 Y139.818 E20.48666
G1 X156.799 Y139.935 E20.49216
G1 X155.9 Y140.778 E20.53315
G1 X154.947 Y141.561 E20.57418
G1 X153.946 Y142.28 E20.61517
G1 X152.901 Y142.933 E20.65615
G1 X151.815 Y143.517 E20.69717
G1 X150.694 Y144.029 E20.73816
G1 X149.542 Y144.468 E20.77916
G1 X148.364 Y144.83 E20.82015
G1 X147.164 Y145.116 E20.86118
G1 X145.949 Y145.323 E20.90217
G1 X144.723 Y145.451 E20.94317
G1 X143.359 Y145.5 E20.98857
G1 X132.609 Y145.497 E21.34611
G1 X131.377 Y145.457 E21.38711
G1 X130.15 Y145.337 E21.42812
G1 X128.933 Y145.137 E21.46914
G1 X127.732 Y144.859 E21.51014
G1 X126.552 Y144.504 E21.55112
G1 X125.397 Y144.073 E21.59213
G1 X124.272 Y143.568 E21.63314
G1 X123.183 Y142.991 E21.67413
G1 X122.133 Y142.345 E21.71513
G1 X121.128 Y141.632 E21.75612
G1 X120.17 Y140.855 E21.79714
G1 X119.355 Y140.105 E21.83398
G1 X119.238 Y139.991 E21.83941
G1 X118.383 Y139.103 E21.88041
G1 X117.588 Y138.161 E21.92141
G1 X117.497 Y138.037 E21.92653
G1 X117.143 Y138.494 E21.94575
G1 X116.327 Y139.418 E21.98676
G1 X115.879 Y139.878 E22.00811
G1 X115.763 Y139.993 E22.01355
G1 X114.86 Y140.832 E22.05454
G1 X113.904 Y141.611 E22.09556
G1 X112.9 Y142.326 E22.13655
G1 X111.852 Y142.974 E22.17754
G1 X110.763 Y143.553 E22.21856
G1 X109.64 Y144.061 E22.25955
G1 X108.486 Y144.494 E22.30055
G1 X107.306 Y144.852 E22.34156
G1 X106.106 Y145.132 E22.38255
G1 X104.89 Y145.334 E22.42354
G1 X103.663 Y145.457 E22.46456
G1 X102.386 Y145.5 E22.50706
G1 X91.636 Y145.5 E22.8646
G1 X90.404 Y145.46 E22.9056
G1 X89.177 Y145.34 E22.94661
G1 X87.961 Y145.141 E22.98759
G1 X86.759 Y144.864 E23.02861
G1 X85.579 Y144.509 E23.0696
G1 X84.424 Y144.078 E23.1106
G1 X83.299 Y143.573 E23.15162
G1 X82.21 Y142.997 E23.19259
G1 X81.16 Y142.351 E23.23359
G1 X80.154 Y141.638 E23.27461
G1 X79.196 Y140.862 E23.31561
G1 X78.201 Y139.935 E23.36084
G1 X78.084 Y139.818 E23.36634
G1 X77.241 Y138.919 E23.40733
G1 X76.458 Y137.966 E23.44836
G1 X75.739 Y136.965 E23.48935
G1 X75.086 Y135.92 E23.53033
G1 X74.502 Y134.834 E23.57135
G1 X73.99 Y133.713 E23.61234
G1 X73.551 Y132.561 E23.65334
G1 X73.189 Y131.383 E23.69433
G1 X72.903 Y130.183 E23.73536
G1 X72.696 Y128.968 E23.77635
G1 X72.568 Y127.742 E23.81735
G1 X72.519 Y126.383 E23.86258
