;FLAVOR:Marlin
;TIME:346
;Filament used: 0.218773m
;Layer height: 0.2
;Generated with Cura_SteamEngine 3.6.0
M140 S70
M105
M190 S70
M104 S215
M105
M109 S215
M82 ;absolute extrusion mode
G28 ; home all axes
M117 Purge extruder
G92 E0 ; reset extruder
G1 Z1.0 F3000 ; move z up little to prevent scratching of surface
G1 X0.1 Y20 Z0.3 F5000.0 ; move to start-line position G1 X0.1 Y200.0 Z0.3 F1500.0 E15 ; draw 1st line
G1 X0.4 Y200.0 Z0.3 F5000.0 ; move to side a little
G1 X0.4 Y20 Z0.3 F1500.0 E30 ; draw 2nd line
G92 E0 ; reset extruder
G1 Z1.0 F3000 ; move z up little to prevent scratching of surface
M117 All systems go!
G92 E0
G1 F6000 E-5
;LAYER_COUNT:11
;LAYER:0
M107
M204 S5000
M205 X30 Y30
G0 F7200 X94.115 Y109.273 Z0.2
M204 S500
M205 X20 Y20
;TYPE:SKIRT
G1 F6000 E0
G1 F900 X94.603 Y108.865 E0.02327
G1 X94.867 Y108.683 E0.035
G1 X96.239 Y107.802 E0.09466
G1 X97.078 Y107.368 E0.12922
G1 X97.677 Y107.126 E0.15285
G1 X98.482 Y106.877 E0.18368
G1 X99.765 Y106.594 E0.23175
G1 X100.393 Y106.496 E0.255
G1 X100.851 Y106.475 E0.27178
G1 X133.814 Y106.448 E1.47777
G1 X134.639 Y106.515 E1.50805
G1 X135.94 Y106.729 E1.55629
G1 X136.56 Y106.872 E1.57957
G1 X137.015 Y107.031 E1.5972
G1 X138.242 Y107.527 E1.64562
G1 X138.816 Y107.802 E1.66891
G1 X139.224 Y108.056 E1.68649
G1 X140.316 Y108.811 E1.73506
G1 X140.815 Y109.205 E1.75832
G1 X141.154 Y109.539 E1.77574
G1 X142.042 Y110.5 E1.82361
G1 X142.444 Y110.993 E1.84688
G1 X142.703 Y111.395 E1.86438
G1 X143.366 Y112.538 E1.91272
G1 X143.65 Y113.107 E1.93599
G1 X143.77 Y113.42 E1.94825
G1 X144.095 Y114.358 E1.98457
G1 X144.303 Y115.168 E2.01517
G1 X144.469 Y116.146 E2.05146
G1 X144.54 Y116.983 E2.08219
G1 X144.542 Y117.975 E2.11849
G1 X144.503 Y118.61 E2.14176
G1 X144.449 Y118.953 E2.15447
G1 X144.194 Y120.262 E2.20326
G1 X144.033 Y120.877 E2.22652
G1 X143.861 Y121.327 E2.24414
G1 X143.334 Y122.528 E2.29212
G1 X143.042 Y123.093 E2.31539
G1 X142.779 Y123.489 E2.33279
G1 X141.996 Y124.556 E2.38121
G1 X141.589 Y125.044 E2.40445
G1 X141.241 Y125.377 E2.42208
G1 X140.245 Y126.245 E2.47041
G1 X139.741 Y126.632 E2.49366
G1 X139.448 Y126.814 E2.50628
G1 X138.586 Y127.311 E2.54268
G1 X138.191 Y127.507 E2.55882
G1 X138.242 Y127.527 E2.56082
G1 X138.816 Y127.802 E2.58411
G1 X139.224 Y128.056 E2.60169
G1 X140.316 Y128.811 E2.65026
G1 X140.815 Y129.205 E2.67352
G1 X141.154 Y129.539 E2.69093
G1 X142.042 Y130.5 E2.73881
G1 X142.444 Y130.993 E2.76208
G1 X142.703 Y131.395 E2.77958
G1 X143.366 Y132.538 E2.82792
G1 X143.65 Y133.107 E2.85119
G1 X143.77 Y133.42 E2.86345
G1 X144.095 Y134.358 E2.89977
G1 X144.303 Y135.168 E2.93037
G1 X144.469 Y136.146 E2.96666
G1 X144.54 Y136.983 E2.99739
G1 X144.542 Y137.975 E3.03368
G1 X144.503 Y138.61 E3.05696
G1 X144.449 Y138.953 E3.06966
G1 X144.194 Y140.262 E3.11846
G1 X144.033 Y140.877 E3.14171
G1 X143.861 Y141.327 E3.15934
G1 X143.334 Y142.528 E3.20732
G1 X143.042 Y143.093 E3.23059
G1 X142.779 Y143.489 E3.24799
G1 X141.996 Y144.556 E3.29641
G1 X141.589 Y145.044 E3.31965
G1 X141.241 Y145.377 E3.33728
G1 X140.245 Y146.245 E3.38561
G1 X139.741 Y146.632 E3.40886
G1 X139.448 Y146.814 E3.42148
G1 X138.586 Y147.311 E3.45788
G1 X138.017 Y147.593 E3.48112
G1 X137.699 Y147.714 E3.49357
G1 X136.45 Y148.142 E3.54187
G1 X135.837 Y148.31 E3.56512
G1 X135.507 Y148.367 E3.57738
G1 X134.522 Y148.504 E3.61376
G1 X133.825 Y148.552 E3.63932
G1 X101.224 Y148.554 E4.83207
G1 X100.441 Y148.493 E4.8608
G1 X99.164 Y148.293 E4.90809
G1 X98.543 Y148.155 E4.93137
G1 X98.114 Y148.01 E4.94793
G1 X96.892 Y147.535 E4.9959
G1 X96.315 Y147.268 E5.01916
G1 X96.026 Y147.099 E5.03141
G1 X95.2 Y146.578 E5.06714
G1 X94.684 Y146.205 E5.09043
G1 X94.445 Y145.995 E5.10207
G1 X93.502 Y145.114 E5.14929
G1 X93.065 Y144.652 E5.17255
G1 X92.785 Y144.282 E5.18953
G1 X92.044 Y143.203 E5.23742
G1 X91.718 Y142.657 E5.26069
G1 X91.523 Y142.231 E5.27783
G1 X91.036 Y141.024 E5.32544
G1 X90.835 Y140.421 E5.3487
G1 X90.739 Y139.977 E5.36532
G1 X90.523 Y138.704 E5.41256
G1 X90.457 Y138.072 E5.43581
G1 X90.453 Y137.749 E5.44763
G1 X90.474 Y136.775 E5.48327
G1 X90.528 Y136.141 E5.50655
G1 X90.586 Y135.821 E5.51845
G1 X90.859 Y134.55 E5.56601
G1 X91.031 Y133.938 E5.58927
G1 X91.204 Y133.509 E5.60619
G1 X91.745 Y132.326 E5.65378
G1 X92.046 Y131.765 E5.67707
G1 X92.306 Y131.384 E5.69395
G1 X93.096 Y130.336 E5.74197
G1 X93.651 Y129.714 E5.77247
G1 X94.115 Y129.273 E5.79589
G1 X94.603 Y128.865 E5.81916
G1 X94.867 Y128.683 E5.83089
G1 X96.239 Y127.802 E5.89054
G1 X96.82 Y127.502 E5.91447
G1 X96.315 Y127.268 E5.93483
G1 X96.026 Y127.099 E5.94708
G1 X95.2 Y126.578 E5.98281
G1 X94.684 Y126.205 E6.0061
G1 X94.445 Y125.995 E6.01774
G1 X93.502 Y125.114 E6.06496
G1 X93.065 Y124.652 E6.08822
G1 X92.785 Y124.282 E6.1052
G1 X92.044 Y123.203 E6.15309
G1 X91.718 Y122.657 E6.17635
G1 X91.523 Y122.231 E6.19349
G1 X91.036 Y121.024 E6.24111
G1 X90.835 Y120.421 E6.26437
G1 X90.739 Y119.977 E6.28099
G1 X90.523 Y118.704 E6.32823
G1 X90.457 Y118.072 E6.35148
G1 X90.453 Y117.749 E6.36329
G1 X90.474 Y116.775 E6.39894
G1 X90.528 Y116.141 E6.42222
G1 X90.586 Y115.821 E6.43411
G1 X90.859 Y114.55 E6.48168
G1 X91.031 Y113.938 E6.50493
G1 X91.204 Y113.509 E6.52186
G1 X91.745 Y112.326 E6.56945
G1 X92.046 Y111.765 E6.59274
G1 X92.306 Y111.384 E6.60962
G1 X93.096 Y110.336 E6.65763
G1 X93.594 Y109.778 E6.685
G0 F810 X93.651 Y109.714
G0 X94.115 Y109.273
M204 S5000
M205 X30 Y30
G0 F7200 X94.418 Y109.592
M204 S500
M205 X20 Y20
G1 F6000 E6.7116
G1 F900 X95.105 Y109.053 E6.74354
G1 X96.477 Y108.172 E6.8032
G1 X97.242 Y107.776 E6.83471
G1 X97.841 Y107.534 E6.85835
G1 X98.577 Y107.306 E6.88654
G1 X99.86 Y107.023 E6.93461
G1 X100.461 Y106.932 E6.95685
G1 X100.851 Y106.915 E6.97113
G1 X133.814 Y106.888 E8.17712
G1 X134.568 Y106.949 E8.20479
G1 X135.869 Y107.163 E8.25303
G1 X136.461 Y107.301 E8.27527
G1 X136.85 Y107.439 E8.29037
G1 X138.077 Y107.935 E8.33879
G1 X138.625 Y108.199 E8.36105
G1 X138.973 Y108.418 E8.37609
G1 X140.065 Y109.173 E8.42466
G1 X140.541 Y109.551 E8.4469
G1 X140.831 Y109.838 E8.46183
G1 X141.719 Y110.799 E8.5097
G1 X142.101 Y111.271 E8.53191
G1 X142.322 Y111.616 E8.5469
G1 X142.985 Y112.759 E8.59525
G1 X143.354 Y113.564 E8.62765
G1 X143.679 Y114.502 E8.66397
G1 X143.869 Y115.242 E8.69192
G1 X144.035 Y116.22 E8.72821
G1 X144.1 Y116.984 E8.75626
G1 X144.102 Y117.976 E8.79256
G1 X144.017 Y118.868 E8.82534
G1 X143.762 Y120.177 E8.87413
G1 X143.607 Y120.765 E8.89638
G1 X143.458 Y121.15 E8.91148
G1 X142.931 Y122.351 E8.95947
G1 X142.65 Y122.891 E8.98174
G1 X142.425 Y123.228 E8.99656
G1 X141.642 Y124.295 E9.04498
G1 X141.251 Y124.76 E9.06721
G1 X140.952 Y125.045 E9.08232
G1 X139.956 Y125.913 E9.13066
G1 X139.229 Y126.432 E9.16334
G1 X138.367 Y126.929 E9.19974
G1 X137.557 Y127.298 E9.23231
G1 X136.986 Y127.494 E9.2544
G1 X138.077 Y127.935 E9.29745
G1 X138.625 Y128.199 E9.3197
G1 X138.973 Y128.418 E9.33475
G1 X140.065 Y129.173 E9.38332
G1 X140.541 Y129.551 E9.40556
G1 X140.831 Y129.838 E9.42048
G1 X141.719 Y130.799 E9.46836
G1 X142.101 Y131.271 E9.49057
G1 X142.322 Y131.616 E9.50556
G1 X142.985 Y132.759 E9.55391
G1 X143.354 Y133.564 E9.5863
G1 X143.679 Y134.502 E9.62262
G1 X143.869 Y135.242 E9.65058
G1 X144.035 Y136.22 E9.68687
G1 X144.1 Y136.984 E9.71492
G1 X144.102 Y137.976 E9.75121
G1 X144.017 Y138.868 E9.784
G1 X143.762 Y140.177 E9.83279
G1 X143.607 Y140.765 E9.85504
G1 X143.458 Y141.15 E9.87014
G1 X142.931 Y142.351 E9.91812
G1 X142.65 Y142.891 E9.9404
G1 X142.425 Y143.228 E9.95522
G1 X141.642 Y144.295 E10.00364
G1 X141.251 Y144.76 E10.02587
G1 X140.952 Y145.045 E10.04098
G1 X139.956 Y145.913 E10.08932
G1 X139.229 Y146.432 E10.122
G1 X138.367 Y146.929 E10.1584
G1 X137.557 Y147.298 E10.19097
G1 X136.308 Y147.726 E10.23927
G1 X135.446 Y147.931 E10.27169
G1 X134.461 Y148.068 E10.30807
G1 X133.825 Y148.112 E10.3314
G1 X101.224 Y148.114 E11.52414
G1 X100.509 Y148.058 E11.55038
G1 X99.232 Y147.858 E11.59767
G1 X98.639 Y147.725 E11.61991
G1 X98.273 Y147.6 E11.63406
G1 X97.051 Y147.125 E11.68202
G1 X96.26 Y146.727 E11.71442
G1 X95.434 Y146.206 E11.75015
G1 X94.745 Y145.674 E11.782
G1 X93.802 Y144.793 E11.82921
G1 X93.386 Y144.35 E11.85144
G1 X93.148 Y144.032 E11.86598
G1 X92.407 Y142.953 E11.91387
G1 X92.096 Y142.431 E11.9361
G1 X91.931 Y142.067 E11.95072
G1 X91.444 Y140.86 E11.99834
G1 X91.254 Y140.282 E12.0206
G1 X91.173 Y139.904 E12.03474
G1 X90.957 Y138.631 E12.08198
G1 X90.893 Y137.758 E12.11401
G1 X90.914 Y136.784 E12.14965
G1 X91.016 Y135.914 E12.1817
G1 X91.289 Y134.643 E12.22926
G1 X91.455 Y134.058 E12.25151
G1 X91.604 Y133.692 E12.26596
G1 X92.145 Y132.509 E12.31356
G1 X92.434 Y131.974 E12.3358
G1 X92.658 Y131.649 E12.35024
G1 X93.448 Y130.601 E12.39826
G1 X93.954 Y130.033 E12.42609
G1 X94.418 Y129.592 E12.44951
G1 X95.105 Y129.053 E12.48146
G1 X96.477 Y128.172 E12.54111
G1 X97.242 Y127.776 E12.57263
G1 X97.841 Y127.534 E12.59626
G1 X97.987 Y127.489 E12.60185
G1 X97.051 Y127.125 E12.6386
G1 X96.26 Y126.727 E12.67099
G1 X95.434 Y126.206 E12.70672
G1 X94.745 Y125.674 E12.73857
G1 X93.802 Y124.793 E12.78578
G1 X93.386 Y124.35 E12.80802
G1 X93.148 Y124.032 E12.82255
G1 X92.407 Y122.953 E12.87044
G1 X92.096 Y122.431 E12.89267
G1 X91.931 Y122.067 E12.90729
G1 X91.444 Y120.86 E12.95491
G1 X91.254 Y120.282 E12.97717
G1 X91.173 Y119.904 E12.99131
G1 X90.957 Y118.631 E13.03855
G1 X90.893 Y117.758 E13.07058
G1 X90.914 Y116.784 E13.10622
G1 X91.016 Y115.914 E13.13827
G1 X91.289 Y114.643 E13.18583
G1 X91.455 Y114.058 E13.20808
G1 X91.604 Y113.692 E13.22254
G1 X92.145 Y112.509 E13.27013
G1 X92.434 Y111.974 E13.29238
G1 X92.658 Y111.649 E13.30682
G1 X93.448 Y110.601 E13.35483
G1 X93.897 Y110.098 E13.3795
G0 F810 X93.954 Y110.033
G0 X94.418 Y109.592
M204 S5000
M205 X30 Y30
G0 F7200 X94.721 Y109.911
M204 S500
M205 X20 Y20
G1 F6000 E13.4061
G1 F900 X95.342 Y109.424 E13.43497
G1 X96.714 Y108.543 E13.49463
G1 X97.407 Y108.184 E13.52318
G1 X98.006 Y107.942 E13.54682
G1 X98.672 Y107.736 E13.57232
G1 X99.955 Y107.453 E13.62039
G1 X100.526 Y107.368 E13.64151
G1 X100.852 Y107.355 E13.65345
G1 X133.815 Y107.328 E14.85944
G1 X134.496 Y107.383 E14.88443
G1 X135.797 Y107.597 E14.93267
G1 X136.36 Y107.73 E14.95384
G1 X136.686 Y107.847 E14.96651
G1 X137.913 Y108.343 E15.01493
G1 X138.432 Y108.596 E15.03605
G1 X138.723 Y108.78 E15.04865
G1 X139.815 Y109.535 E15.09722
G1 X140.267 Y109.896 E15.11839
G1 X140.508 Y110.136 E15.13083
G1 X141.396 Y111.097 E15.1787
G1 X141.758 Y111.548 E15.19986
G1 X141.942 Y111.837 E15.21239
G1 X142.605 Y112.98 E15.26074
G1 X142.939 Y113.709 E15.29007
G1 X143.264 Y114.647 E15.32639
G1 X143.435 Y115.316 E15.35166
G1 X143.601 Y116.294 E15.38795
G1 X143.66 Y116.985 E15.41332
G1 X143.662 Y117.977 E15.44962
G1 X143.585 Y118.784 E15.47928
G1 X143.33 Y120.093 E15.52807
G1 X143.18 Y120.652 E15.54924
G1 X143.055 Y120.974 E15.56188
G1 X142.528 Y122.175 E15.60986
G1 X142.259 Y122.687 E15.63102
G1 X142.07 Y122.968 E15.64341
G1 X141.287 Y124.035 E15.69183
G1 X140.914 Y124.476 E15.71297
G1 X140.663 Y124.713 E15.7256
G1 X139.667 Y125.581 E15.77393
G1 X139.009 Y126.051 E15.80352
G1 X138.147 Y126.548 E15.83992
G1 X137.414 Y126.881 E15.86938
G1 X136.165 Y127.309 E15.91768
G1 X135.386 Y127.495 E15.94698
G1 X135.273 Y127.511 E15.95116
G1 X135.797 Y127.597 E15.97058
G1 X136.36 Y127.73 E15.99175
G1 X136.686 Y127.847 E16.00442
G1 X137.913 Y128.343 E16.05284
G1 X138.432 Y128.596 E16.07397
G1 X138.723 Y128.78 E16.08656
G1 X139.815 Y129.535 E16.13513
G1 X140.267 Y129.896 E16.1563
G1 X140.508 Y130.136 E16.16874
G1 X141.396 Y131.097 E16.21661
G1 X141.758 Y131.548 E16.23777
G1 X141.942 Y131.837 E16.25031
G1 X142.605 Y132.98 E16.29865
G1 X142.939 Y133.709 E16.32799
G1 X143.264 Y134.647 E16.36431
G1 X143.435 Y135.316 E16.38957
G1 X143.601 Y136.294 E16.42586
G1 X143.66 Y136.985 E16.45124
G1 X143.662 Y137.977 E16.48753
G1 X143.585 Y138.784 E16.51719
G1 X143.33 Y140.093 E16.56598
G1 X143.18 Y140.652 E16.58715
G1 X143.055 Y140.974 E16.59979
G1 X142.528 Y142.175 E16.64778
G1 X142.259 Y142.687 E16.66894
G1 X142.07 Y142.968 E16.68133
G1 X141.287 Y144.035 E16.72975
G1 X140.914 Y144.476 E16.75088
G1 X140.663 Y144.713 E16.76351
G1 X139.667 Y145.581 E16.81184
G1 X139.009 Y146.051 E16.84143
G1 X138.147 Y146.548 E16.87783
G1 X137.414 Y146.881 E16.90729
G1 X136.165 Y147.309 E16.95559
G1 X135.386 Y147.495 E16.98489
G1 X134.401 Y147.632 E17.02128
G1 X133.825 Y147.672 E17.0424
G1 X101.224 Y147.674 E18.23515
G1 X100.577 Y147.624 E18.25889
G1 X99.3 Y147.424 E18.30618
G1 X98.737 Y147.295 E18.32731
G1 X98.433 Y147.19 E18.33908
G1 X97.211 Y146.715 E18.38705
G1 X96.495 Y146.354 E18.41638
G1 X95.669 Y145.833 E18.45211
G1 X95.045 Y145.352 E18.48094
G1 X94.102 Y144.471 E18.52815
G1 X93.708 Y144.049 E18.54927
G1 X93.51 Y143.783 E18.56141
G1 X92.769 Y142.704 E18.60929
G1 X92.476 Y142.206 E18.63043
G1 X92.339 Y141.902 E18.64263
G1 X91.852 Y140.695 E18.69025
G1 X91.673 Y140.145 E18.71141
G1 X91.607 Y139.83 E18.72319
G1 X91.391 Y138.557 E18.77043
G1 X91.333 Y137.768 E18.79937
G1 X91.354 Y136.794 E18.83502
G1 X91.446 Y136.006 E18.86404
G1 X91.719 Y134.735 E18.9116
G1 X91.879 Y134.18 E18.93274
G1 X92.005 Y133.875 E18.94481
G1 X92.546 Y132.692 E18.9924
G1 X92.822 Y132.184 E19.01355
G1 X93.009 Y131.914 E19.02557
G1 X93.799 Y130.866 E19.07359
G1 X94.257 Y130.352 E19.09877
G1 X94.721 Y129.911 E19.12219
G1 X95.342 Y129.424 E19.15107
G1 X96.714 Y128.543 E19.21072
G1 X97.407 Y128.184 E19.23927
G1 X98.006 Y127.942 E19.26291
G1 X98.672 Y127.736 E19.28842
G1 X99.76 Y127.496 E19.32918
G1 X99.3 Y127.424 E19.34621
G1 X98.737 Y127.295 E19.36734
G1 X98.433 Y127.19 E19.37911
G1 X97.211 Y126.715 E19.42708
G1 X96.495 Y126.354 E19.45642
G1 X95.669 Y125.833 E19.49215
G1 X95.045 Y125.352 E19.52097
G1 X94.102 Y124.471 E19.56818
G1 X93.708 Y124.049 E19.58931
G1 X93.51 Y123.783 E19.60144
G1 X92.769 Y122.704 E19.64933
G1 X92.476 Y122.206 E19.67047
G1 X92.339 Y121.902 E19.68267
G1 X91.852 Y120.695 E19.73029
G1 X91.673 Y120.145 E19.75145
G1 X91.607 Y119.83 E19.76322
G1 X91.391 Y118.557 E19.81046
G1 X91.333 Y117.768 E19.83941
G1 X91.354 Y116.794 E19.87505
G1 X91.446 Y116.006 E19.90408
G1 X91.719 Y114.735 E19.95164
G1 X91.879 Y114.18 E19.97277
G1 X92.005 Y113.875 E19.98484
G1 X92.546 Y112.692 E20.03244
G1 X92.822 Y112.184 E20.05359
G1 X93.009 Y111.914 E20.0656
G1 X93.799 Y110.866 E20.11362
G1 X94.2 Y110.416 E20.13567
G0 F810 X94.257 Y110.352
G0 X94.721 Y109.911
M204 S5000
M205 X30 Y30
G0 F7200 X95.024 Y110.23
M204 S500
M205 X20 Y20
G1 F6000 E20.16227
G1 F900 X95.58 Y109.794 E20.18812
G1 X96.952 Y108.913 E20.24777
G1 X97.572 Y108.592 E20.27332
G1 X98.171 Y108.35 E20.29695
G1 X98.766 Y108.166 E20.31974
G1 X100.049 Y107.883 E20.36781
G1 X100.852 Y107.795 E20.39736
G1 X133.815 Y107.768 E21.60335
G1 X134.425 Y107.818 E21.62574
G1 X135.726 Y108.032 E21.67398
G1 X136.257 Y108.159 E21.69396
G1 X136.521 Y108.255 E21.70423
G1 X137.748 Y108.751 E21.75265
G1 X138.238 Y108.992 E21.77263
G1 X138.473 Y109.142 E21.78283
G1 X139.565 Y109.897 E21.8314
G1 X139.991 Y110.24 E21.85141
G1 X140.185 Y110.435 E21.86148
G1 X141.073 Y111.396 E21.90935
G1 X141.413 Y111.823 E21.92932
G1 X141.561 Y112.057 E21.93945
G1 X142.224 Y113.2 E21.98779
G1 X142.523 Y113.853 E22.01407
G1 X142.848 Y114.791 E22.05039
G1 X143.001 Y115.389 E22.07297
G1 X143.167 Y116.367 E22.10926
G1 X143.22 Y116.985 E22.13196
G1 X143.222 Y117.977 E22.16825
G1 X143.153 Y118.7 E22.19482
G1 X142.898 Y120.009 E22.24361
G1 X142.755 Y120.537 E22.26363
G1 X142.652 Y120.797 E22.27386
G1 X142.125 Y121.998 E22.32184
G1 X141.869 Y122.481 E22.34184
G1 X141.715 Y122.708 E22.35188
G1 X140.932 Y123.775 E22.4003
G1 X140.577 Y124.191 E22.42031
G1 X140.374 Y124.382 E22.43051
G1 X139.378 Y125.25 E22.47884
G1 X138.789 Y125.67 E22.50531
G1 X137.927 Y126.167 E22.54171
G1 X137.271 Y126.465 E22.56807
G1 X136.022 Y126.893 E22.61638
G1 X135.325 Y127.059 E22.64259
G1 X134.34 Y127.196 E22.67898
G1 X133.825 Y127.232 E22.69786
G1 X101.224 Y127.234 E23.89061
G1 X100.645 Y127.189 E23.91186
G1 X99.368 Y126.989 E23.95915
G1 X98.592 Y126.78 E23.98855
G1 X97.37 Y126.305 E24.03652
G1 X96.73 Y125.982 E24.06274
G1 X95.904 Y125.461 E24.09847
G1 X95.346 Y125.031 E24.12425
G1 X94.403 Y124.15 E24.17146
