;FLAVOR:Marlin
;TIME:682
;Filament used: 0.301961m
;Layer height: 0.2
;Generated with Cura_SteamEngine 3.6.0
M140 S70
M105
M190 S70
M104 S215
M105
M109 S215
M82 ;absolute extrusion mode
G28 ; home all axes
M117 Purge extruder
G92 E0 ; reset extruder
G1 Z1.0 F3000 ; move z up little to prevent scratching of surface
G1 X0.1 Y20 Z0.3 F5000.0 ; move to start-line position G1 X0.1 Y200.0 Z0.3 F1500.0 E15 ; draw 1st line
G1 X0.4 Y200.0 Z0.3 F5000.0 ; move to side a little
G1 X0.4 Y20 Z0.3 F1500.0 E30 ; draw 2nd line
G92 E0 ; reset extruder
G1 Z1.0 F3000 ; move z up little to prevent scratching of surface
M117 All systems go!
G92 E0
G1 F6000 E-5
;LAYER_COUNT:60
;LAYER:0
M107
M204 S5000
M205 X30 Y30
G0 F7200 X105.71 Y108.062 Z0.2
M204 S500
M205 X20 Y20
;TYPE:SKIRT
G1 F6000 E0
G1 F900 X106.2 Y107.657 E0.02326
G1 X106.66 Y107.36 E0.04329
G1 X107.684 Y106.775 E0.08644
G1 X108.255 Y106.495 E0.1097
G1 X108.856 Y106.289 E0.13295
G1 X109.479 Y106.16 E0.15623
G1 X109.97 Y106.114 E0.17427
G1 X111.097 Y106.064 E0.21554
G1 X111.733 Y106.076 E0.23881
G1 X112.362 Y106.167 E0.26207
G1 X112.975 Y106.337 E0.28534
G1 X113.245 Y106.452 E0.29608
G1 X113.443 Y106.472 E0.30336
G1 X114.07 Y106.574 E0.3266
G1 X114.68 Y106.754 E0.34987
G1 X115.263 Y107.009 E0.37315
G1 X116.04 Y107.504 E0.40685
G1 X117.954 Y108.983 E0.49535
G1 X118.136 Y109.143 E0.50422
G1 X118.306 Y109.154 E0.51045
G1 X118.93 Y109.273 E0.53369
G1 X119.412 Y109.43 E0.55224
G1 X119.542 Y109.415 E0.55703
G1 X120.177 Y109.382 E0.58029
G1 X120.811 Y109.43 E0.60355
G1 X121.373 Y109.544 E0.62453
G1 X121.496 Y109.536 E0.62904
G1 X122.311 Y109.602 E0.65896
G1 X122.778 Y109.678 E0.67627
G1 X123.398 Y109.819 E0.69953
G1 X123.995 Y110.037 E0.72278
G1 X124.56 Y110.328 E0.74603
G1 X125.085 Y110.688 E0.76932
G1 X125.56 Y111.111 E0.79259
G1 X125.891 Y111.491 E0.81103
G1 X126.241 Y111.413 E0.82415
G1 X127.023 Y111.351 E0.85285
G1 X127.765 Y111.35 E0.88
G1 X128.4 Y111.389 E0.90327
G1 X129.025 Y111.508 E0.92655
G1 X129.63 Y111.703 E0.94981
G1 X130.205 Y111.974 E0.97306
G1 X130.743 Y112.314 E0.99635
G1 X131.35 Y112.832 E1.02554
G1 X131.479 Y112.961 E1.03222
G1 X131.899 Y113.438 E1.05547
G1 X132.257 Y113.964 E1.07875
G1 X132.545 Y114.531 E1.10202
G1 X132.761 Y115.129 E1.12528
G1 X132.899 Y115.75 E1.14855
G1 X132.961 Y116.539 E1.17751
G1 X132.961 Y118.455 E1.24761
G1 X132.921 Y119.09 E1.27088
G1 X132.802 Y119.714 E1.29413
G1 X132.605 Y120.319 E1.3174
G1 X132.334 Y120.894 E1.34066
G1 X131.993 Y121.431 E1.36393
G1 X131.479 Y122.033 E1.39289
G1 X131.35 Y122.162 E1.39957
G1 X130.873 Y122.582 E1.42282
G1 X130.347 Y122.94 E1.4461
G1 X129.78 Y123.228 E1.46937
G1 X129.182 Y123.444 E1.49263
G1 X128.561 Y123.582 E1.5159
G1 X127.779 Y123.644 E1.5446
G1 X127.037 Y123.645 E1.57175
G1 X126.402 Y123.606 E1.59503
G1 X125.777 Y123.487 E1.6183
G1 X125.172 Y123.292 E1.64156
G1 X125.049 Y123.234 E1.64653
G1 X124.696 Y123.53 E1.66339
G1 X124.582 Y123.613 E1.66855
G1 X124.046 Y123.954 E1.69179
G1 X123.471 Y124.225 E1.71505
G1 X122.866 Y124.422 E1.73833
G1 X122.241 Y124.542 E1.76161
G1 X121.798 Y124.57 E1.77785
G1 X121.474 Y125.108 E1.80083
G1 X121.08 Y125.608 E1.82412
G1 X120.627 Y126.054 E1.84738
G1 X120.288 Y126.324 E1.86323
G1 X119.465 Y126.923 E1.90047
G1 X118.928 Y127.264 E1.92375
G1 X118.353 Y127.535 E1.947
G1 X117.748 Y127.732 E1.97028
G1 X117.123 Y127.852 E1.99356
G1 X116.487 Y127.892 E2.01688
G1 X115.471 Y127.892 E2.05405
G1 X114.836 Y127.852 E2.07733
G1 X114.212 Y127.733 E2.10057
G1 X113.607 Y127.536 E2.12385
G1 X113.032 Y127.265 E2.1471
G1 X112.491 Y126.921 E2.17056
G1 X111.669 Y126.322 E2.20777
G1 X111.18 Y125.916 E2.23103
G1 X110.745 Y125.452 E2.25429
G1 X110.372 Y124.937 E2.27756
G1 X110.067 Y124.379 E2.30083
G1 X109.885 Y123.92 E2.31889
G1 X109.804 Y123.905 E2.3219
G1 X109.199 Y123.708 E2.34518
G1 X108.624 Y123.437 E2.36844
G1 X108.496 Y123.356 E2.37398
G1 X108.107 Y123.383 E2.38825
G1 X107.457 Y123.383 E2.41203
G1 X106.822 Y123.343 E2.43531
G1 X106.198 Y123.224 E2.45855
G1 X106.001 Y123.16 E2.46613
G1 X105.479 Y123.127 E2.48526
G1 X104.855 Y123.008 E2.5085
G1 X104.25 Y122.811 E2.53178
G1 X103.675 Y122.54 E2.55504
G1 X103.138 Y122.199 E2.57831
G1 X102.28 Y121.575 E2.61713
G1 X101.79 Y121.17 E2.64038
G1 X101.355 Y120.706 E2.66365
G1 X100.982 Y120.191 E2.68692
G1 X100.676 Y119.633 E2.7102
G1 X100.444 Y119.047 E2.73326
G1 X100.117 Y118.041 E2.77196
G1 X99.959 Y117.425 E2.79523
G1 X99.879 Y116.794 E2.8185
G1 X99.879 Y116.158 E2.84177
G1 X99.959 Y115.528 E2.865
G1 X100.117 Y114.913 E2.88823
G1 X100.444 Y113.907 E2.92693
G1 X100.678 Y113.316 E2.95019
G1 X100.985 Y112.758 E2.97349
G1 X101.359 Y112.244 E2.99675
G1 X101.794 Y111.781 E3.01999
G1 X102.28 Y111.379 E3.04307
G1 X103.138 Y110.755 E3.08188
G1 X103.675 Y110.414 E3.10515
G1 X104.25 Y110.143 E3.12841
G1 X104.395 Y110.096 E3.13399
G1 X104.593 Y109.596 E3.15366
G1 X104.9 Y109.039 E3.17693
G1 X105.22 Y108.599 E3.19684
G0 F810 X105.274 Y108.525
G0 X105.71 Y108.062
M204 S5000
M205 X30 Y30
G0 F7200 X106.091 Y108.31
M204 S500
M205 X20 Y20
G1 F6000 E3.22343
G1 F900 X106.569 Y107.936 E3.24564
G1 X106.878 Y107.742 E3.25899
G1 X107.902 Y107.157 E3.30213
G1 X108.449 Y106.891 E3.32439
G1 X109.025 Y106.699 E3.3466
G1 X109.622 Y106.585 E3.36884
G1 X109.989 Y106.554 E3.38231
G1 X111.116 Y106.504 E3.42359
G1 X111.724 Y106.517 E3.44584
G1 X112.324 Y106.609 E3.46804
G1 X112.907 Y106.78 E3.49027
G1 X113.147 Y106.885 E3.49986
G1 X113.399 Y106.91 E3.50912
G1 X113.999 Y107.01 E3.53138
G1 X114.58 Y107.187 E3.5536
G1 X115.133 Y107.438 E3.57582
G1 X115.771 Y107.852 E3.60364
G1 X117.685 Y109.331 E3.69214
G1 X117.958 Y109.573 E3.70549
G1 X118.277 Y109.594 E3.71718
G1 X118.873 Y109.713 E3.73942
G1 X119.359 Y109.879 E3.75821
G1 X119.592 Y109.852 E3.76679
G1 X120.199 Y109.823 E3.78902
G1 X120.804 Y109.873 E3.81123
G1 X121.333 Y109.989 E3.83105
G1 X121.631 Y109.978 E3.84196
G1 X122.24 Y110.036 E3.86434
G1 X122.707 Y110.112 E3.88165
G1 X123.299 Y110.249 E3.90388
G1 X123.868 Y110.462 E3.92611
G1 X124.404 Y110.748 E3.94833
G1 X124.898 Y111.102 E3.97057
G1 X125.341 Y111.518 E3.9928
G1 X125.725 Y111.986 E4.01495
G1 X125.847 Y111.945 E4.01966
G1 X126.443 Y111.828 E4.04188
G1 X127.024 Y111.791 E4.06318
G1 X127.766 Y111.79 E4.09033
G1 X128.372 Y111.829 E4.11255
G1 X128.968 Y111.948 E4.13478
G1 X129.543 Y112.143 E4.157
G1 X130.088 Y112.412 E4.17923
G1 X130.593 Y112.751 E4.20148
G1 X131.039 Y113.143 E4.22321
G1 X131.168 Y113.272 E4.22988
G1 X131.568 Y113.729 E4.2521
G1 X131.905 Y114.235 E4.27435
G1 X132.173 Y114.78 E4.29657
G1 X132.367 Y115.356 E4.3188
G1 X132.484 Y115.952 E4.34102
G1 X132.521 Y116.539 E4.36254
G1 X132.521 Y118.455 E4.43264
G1 X132.481 Y119.061 E4.45486
G1 X132.362 Y119.657 E4.4771
G1 X132.166 Y120.232 E4.49932
G1 X131.895 Y120.776 E4.52156
G1 X131.556 Y121.281 E4.54381
G1 X131.168 Y121.722 E4.5653
G1 X131.039 Y121.851 E4.57198
G1 X130.582 Y122.251 E4.5942
G1 X130.076 Y122.588 E4.61644
G1 X129.531 Y122.856 E4.63866
G1 X128.955 Y123.05 E4.66089
G1 X128.359 Y123.167 E4.68312
G1 X127.778 Y123.204 E4.70442
G1 X127.036 Y123.205 E4.73156
G1 X126.43 Y123.166 E4.75378
G1 X125.834 Y123.047 E4.77602
G1 X125.259 Y122.852 E4.79823
G1 X124.968 Y122.708 E4.81011
G1 X124.76 Y122.916 E4.82087
G1 X124.437 Y123.174 E4.83599
G1 X124.323 Y123.257 E4.84115
G1 X123.81 Y123.582 E4.86337
G1 X123.258 Y123.836 E4.8856
G1 X122.677 Y124.016 E4.90786
G1 X122.078 Y124.118 E4.93009
G1 X121.604 Y124.142 E4.94745
G1 X121.506 Y124.142 E4.95104
G1 X121.386 Y124.408 E4.96171
G1 X121.065 Y124.924 E4.98395
G1 X120.679 Y125.394 E5.0062
G1 X120.029 Y125.968 E5.03792
G1 X119.206 Y126.567 E5.07516
G1 X118.692 Y126.892 E5.09741
G1 X118.14 Y127.146 E5.11964
G1 X117.56 Y127.326 E5.14186
G1 X116.961 Y127.428 E5.16409
G1 X116.487 Y127.452 E5.18146
G1 X115.471 Y127.452 E5.21863
G1 X114.865 Y127.412 E5.24085
G1 X114.269 Y127.293 E5.26308
G1 X113.694 Y127.097 E5.28531
G1 X113.15 Y126.826 E5.30755
G1 X112.75 Y126.566 E5.325
G1 X111.928 Y125.967 E5.36221
G1 X111.462 Y125.577 E5.38444
G1 X111.05 Y125.13 E5.40669
G1 X110.701 Y124.633 E5.4289
G1 X110.42 Y124.094 E5.45114
G1 X110.256 Y123.663 E5.46801
G1 X110.215 Y123.536 E5.4729
G1 X109.861 Y123.465 E5.48611
G1 X109.286 Y123.269 E5.50833
G1 X108.742 Y122.998 E5.53057
G1 X108.616 Y122.913 E5.53613
G1 X108.107 Y122.943 E5.55478
G1 X107.457 Y122.943 E5.57856
G1 X106.851 Y122.903 E5.60078
G1 X106.255 Y122.784 E5.62302
G1 X106.081 Y122.725 E5.62974
G1 X105.508 Y122.687 E5.65075
G1 X104.912 Y122.568 E5.67299
G1 X104.337 Y122.372 E5.69521
G1 X103.793 Y122.101 E5.71745
G1 X103.397 Y121.843 E5.73474
G1 X102.539 Y121.219 E5.77355
G1 X102.072 Y120.83 E5.79579
G1 X101.66 Y120.384 E5.81801
G1 X101.31 Y119.887 E5.84025
G1 X101.029 Y119.348 E5.86248
G1 X100.862 Y118.911 E5.8796
G1 X100.535 Y117.905 E5.9183
G1 X100.386 Y117.316 E5.94053
G1 X100.315 Y116.713 E5.96274
G1 X100.324 Y116.105 E5.98499
G1 X100.413 Y115.504 E6.00722
G1 X100.535 Y115.049 E6.02445
G1 X100.862 Y114.043 E6.06315
G1 X101.088 Y113.479 E6.08538
G1 X101.385 Y112.949 E6.10761
G1 X101.75 Y112.463 E6.12985
G1 X102.175 Y112.028 E6.1521
G1 X102.539 Y111.735 E6.16919
G1 X103.397 Y111.111 E6.20801
G1 X103.91 Y110.786 E6.23023
G1 X104.462 Y110.532 E6.25246
G1 X104.737 Y110.447 E6.26299
G1 X104.777 Y110.324 E6.26772
G1 X105.003 Y109.76 E6.28995
G1 X105.3 Y109.23 E6.31218
G1 X105.594 Y108.839 E6.33008
G0 F810 X105.665 Y108.744
G0 X106.091 Y108.31
M204 S5000
M205 X30 Y30
G0 F7200 X106.469 Y108.564
M204 S500
M205 X20 Y20
G1 F6000 E6.35667
G1 F900 X107.097 Y108.125 E6.38471
G1 X108.121 Y107.54 E6.42785
G1 X108.641 Y107.288 E6.449
G1 X109.191 Y107.111 E6.47013
G1 X110.009 Y106.993 E6.50037
G1 X111.136 Y106.943 E6.54164
G1 X111.713 Y106.957 E6.56276
G1 X112.284 Y107.051 E6.58393
G1 X112.836 Y107.223 E6.60509
G1 X113.045 Y107.317 E6.61347
G1 X113.356 Y107.348 E6.62491
G1 X113.926 Y107.445 E6.64606
G1 X114.477 Y107.619 E6.6672
G1 X114.999 Y107.867 E6.68834
G1 X115.502 Y108.2 E6.71041
G1 X117.416 Y109.679 E6.79891
G1 X117.778 Y110.001 E6.81664
G1 X118.248 Y110.034 E6.83387
G1 X118.813 Y110.153 E6.855
G1 X119.299 Y110.328 E6.8739
G1 X119.642 Y110.289 E6.88653
G1 X120.219 Y110.263 E6.90766
G1 X120.794 Y110.317 E6.92879
G1 X121.262 Y110.427 E6.94638
G1 X121.759 Y110.424 E6.96456
G1 X122.169 Y110.47 E6.97965
G1 X122.636 Y110.546 E6.99697
G1 X123.199 Y110.678 E7.01812
G1 X123.738 Y110.887 E7.03927
G1 X124.243 Y111.167 E7.0604
G1 X124.705 Y111.515 E7.08156
G1 X125.114 Y111.923 E7.1027
G1 X125.463 Y112.384 E7.12385
G1 X125.533 Y112.509 E7.12909
G1 X126.069 Y112.343 E7.14962
G1 X126.64 Y112.249 E7.17079
G1 X127.024 Y112.231 E7.18486
G1 X127.766 Y112.23 E7.212
G1 X128.343 Y112.269 E7.23316
G1 X128.909 Y112.388 E7.25432
G1 X129.453 Y112.583 E7.27547
G1 X129.964 Y112.851 E7.29658
G1 X130.434 Y113.188 E7.31774
G1 X130.728 Y113.454 E7.33224
G1 X130.857 Y113.583 E7.33892
G1 X131.236 Y114.019 E7.36005
G1 X131.552 Y114.503 E7.3812
G1 X131.798 Y115.026 E7.40234
G1 X131.969 Y115.578 E7.42349
G1 X132.063 Y116.149 E7.44466
G1 X132.081 Y116.539 E7.45894
G1 X132.081 Y118.455 E7.52904
G1 X132.041 Y119.032 E7.5502
G1 X131.922 Y119.597 E7.57133
G1 X131.726 Y120.141 E7.59248
G1 X131.457 Y120.652 E7.61361
G1 X131.12 Y121.122 E7.63477
G1 X130.857 Y121.411 E7.64907
G1 X130.728 Y121.54 E7.65574
G1 X130.292 Y121.919 E7.67688
G1 X129.808 Y122.235 E7.69802
G1 X129.285 Y122.481 E7.71917
G1 X128.733 Y122.652 E7.74031
G1 X128.162 Y122.746 E7.76148
G1 X127.778 Y122.764 E7.77555
G1 X127.036 Y122.765 E7.80269
G1 X126.459 Y122.726 E7.82385
G1 X125.893 Y122.607 E7.84501
G1 X125.349 Y122.412 E7.86616
G1 X124.875 Y122.164 E7.88573
G1 X124.725 Y122.342 E7.89424
G1 X124.178 Y122.818 E7.92077
G1 X124.064 Y122.901 E7.92593
G1 X123.575 Y123.208 E7.94706
G1 X123.047 Y123.445 E7.96823
G1 X122.493 Y123.606 E7.98934
G1 X121.921 Y123.69 E8.01049
G1 X121.604 Y123.702 E8.0221
G1 X121.222 Y123.702 E8.03607
G1 X121.214 Y123.727 E8.03703
G1 X120.971 Y124.251 E8.05817
G1 X120.657 Y124.736 E8.0793
G1 X120.28 Y125.174 E8.10045
G1 X119.77 Y125.613 E8.12507
G1 X118.947 Y126.212 E8.16231
G1 X118.457 Y126.519 E8.18346
G1 X117.93 Y126.755 E8.20459
G1 X117.375 Y126.917 E8.22574
G1 X116.803 Y127 E8.24689
G1 X116.487 Y127.012 E8.25846
G1 X115.471 Y127.012 E8.29563
G1 X114.894 Y126.972 E8.31679
G1 X114.329 Y126.853 E8.33791
G1 X113.785 Y126.657 E8.35907
G1 X113.274 Y126.388 E8.3802
G1 X113.009 Y126.21 E8.39188
G1 X112.187 Y125.611 E8.42909
G1 X111.745 Y125.239 E8.45022
G1 X111.358 Y124.81 E8.47136
G1 X111.034 Y124.332 E8.49249
G1 X110.779 Y123.813 E8.51365
G1 X110.674 Y123.526 E8.52483
G1 X110.551 Y123.149 E8.53934
G1 X110.486 Y123.144 E8.54172
G1 X109.921 Y123.025 E8.56285
G1 X109.377 Y122.829 E8.584
G1 X108.866 Y122.56 E8.60513
G1 X108.712 Y122.449 E8.61207
G1 X108.475 Y122.487 E8.62086
G1 X108.107 Y122.503 E8.63433
G1 X107.457 Y122.503 E8.65811
G1 X106.88 Y122.463 E8.67927
G1 X106.315 Y122.344 E8.7004
G1 X106.157 Y122.287 E8.70654
G1 X106.114 Y122.287 E8.70812
G1 X105.537 Y122.247 E8.72928
G1 X104.972 Y122.128 E8.7504
G1 X104.428 Y121.932 E8.77156
G1 X103.917 Y121.663 E8.79269
G1 X103.655 Y121.488 E8.80421
G1 X102.797 Y120.864 E8.84303
G1 X102.355 Y120.492 E8.86416
G1 X101.967 Y120.063 E8.88533
G1 X101.643 Y119.585 E8.90645
G1 X101.388 Y119.066 E8.92761
G1 X101.281 Y118.775 E8.93895
G1 X100.954 Y117.769 E8.97765
G1 X100.814 Y117.209 E8.99877
G1 X100.752 Y116.634 E9.01993
G1 X100.77 Y116.056 E9.04109
G1 X100.868 Y115.487 E9.06221
G1 X100.954 Y115.185 E9.0737
G1 X101.281 Y114.179 E9.1124
G1 X101.497 Y113.643 E9.13355
G1 X101.785 Y113.142 E9.15469
G1 X102.139 Y112.685 E9.17584
G1 X102.553 Y112.282 E9.19697
G1 X102.797 Y112.09 E9.20833
G1 X103.655 Y111.466 E9.24715
G1 X104.145 Y111.16 E9.26828
G1 X104.673 Y110.923 E9.28946
G1 X105.083 Y110.804 E9.30508
G1 X105.195 Y110.46 E9.31831
G1 X105.412 Y109.924 E9.33947
G1 X105.7 Y109.423 E9.36061
G1 X105.963 Y109.085 E9.37628
G0 F810 X106.055 Y108.967
G0 X106.469 Y108.564
M204 S5000
M205 X30 Y30
G0 F7200 X106.443 Y109.195
M204 S500
M205 X20 Y20
G1 F6000 E9.40288
G1 F900 X106.845 Y108.825 E9.42287
G1 X107.315 Y108.507 E9.44363
G1 X108.339 Y107.922 E9.48678
G1 X108.832 Y107.686 E9.50677
G1 X109.354 Y107.524 E9.52677
G1 X110.028 Y107.433 E9.55165
G1 X111.155 Y107.383 E9.59293
G1 X111.702 Y107.398 E9.61295
G1 X112.24 Y107.494 E9.63294
G1 X112.759 Y107.666 E9.65295
G1 X112.937 Y107.749 E9.66013
G1 X113.313 Y107.786 E9.67395
G1 X113.852 Y107.879 E9.69396
G1 X114.371 Y108.05 E9.71396
G1 X114.86 Y108.295 E9.73397
G1 X115.233 Y108.549 E9.75048
G1 X117.147 Y110.028 E9.83897
G1 X117.554 Y110.393 E9.85898
G1 X117.588 Y110.434 E9.86092
G1 X117.671 Y110.434 E9.86396
G1 X118.216 Y110.474 E9.88395
G1 X118.75 Y110.593 E9.90397
G1 X119.235 Y110.778 E9.92296
G1 X119.692 Y110.726 E9.93979
G1 X120.238 Y110.704 E9.95978
G1 X120.781 Y110.761 E9.97976
G1 X121.217 Y110.874 E9.99624
G1 X121.333 Y110.86 E10.00051
G1 X122.099 Y110.905 E10.02858
G1 X122.566 Y110.981 E10.04589
G1 X123.097 Y111.108 E10.06587
G1 X123.605 Y111.311 E10.08588
G1 X124.077 Y111.586 E10.10587
G1 X124.505 Y111.927 E10.12589
G1 X124.878 Y112.326 E10.14587
G1 X125.189 Y112.776 E10.16589
G1 X125.34 Y113.081 E10.17834
G1 X125.76 Y112.893 E10.19517
G1 X126.286 Y112.746 E10.21516
G1 X127.025 Y112.671 E10.24233
G1 X127.767 Y112.67 E10.26948
G1 X128.312 Y112.709 E10.28947
G1 X128.846 Y112.827 E10.30948
G1 X129.357 Y113.022 E10.32949
G1 X129.833 Y113.289 E10.34946
G1 X130.417 Y113.765 E10.37702
G1 X130.546 Y113.894 E10.3837
G1 X130.903 Y114.308 E10.4037
G1 X131.196 Y114.77 E10.42371
G1 X131.419 Y115.269 E10.44371
G1 X131.566 Y115.795 E10.46369
G1 X131.641 Y116.539 E10.49105
G1 X131.641 Y118.455 E10.56115
G1 X131.601 Y119 E10.58114
G1 X131.482 Y119.534 E10.60116
G1 X131.287 Y120.044 E10.62113
G1 X131.019 Y120.521 E10.64115
G1 X130.546 Y121.1 E10.6685
G1 X130.417 Y121.229 E10.67518
G1 X130.003 Y121.586 E10.69518
G1 X129.541 Y121.879 E10.71519
G1 X129.042 Y122.102 E10.73519
G1 X128.516 Y122.249 E10.75517
G1 X127.777 Y122.324 E10.78235
G1 X127.035 Y122.325 E10.80949
G1 X126.49 Y122.286 E10.82949
G1 X125.956 Y122.168 E10.84949
G1 X125.445 Y121.973 E10.8695
G1 X124.969 Y121.706 E10.88947
G1 X124.788 Y121.558 E10.89803
