;FLAVOR:Marlin
;TIME:2815
;Filament used: 1.91226m
;Layer height: 0.2
;Generated with Cura_SteamEngine 3.6.0
M140 S70
M105
M190 S70
M104 S215
M105
M109 S215
M82 ;absolute extrusion mode
G28 ; home all axes
M117 Purge extruder
G92 E0 ; reset extruder
G1 Z1.0 F3000 ; move z up little to prevent scratching of surface
G1 X0.1 Y20 Z0.3 F5000.0 ; move to start-line position G1 X0.1 Y200.0 Z0.3 F1500.0 E15 ; draw 1st line
G1 X0.4 Y200.0 Z0.3 F5000.0 ; move to side a little
G1 X0.4 Y20 Z0.3 F1500.0 E30 ; draw 2nd line
G92 E0 ; reset extruder
G1 Z1.0 F3000 ; move z up little to prevent scratching of surface
M117 All systems go!
G92 E0
G1 F6000 E-5
;LAYER_COUNT:146
;LAYER:0
M107
M204 S5000
M205 X30 Y30
G0 F7200 X88.605 Y19.953 Z0.2
M204 S500
M205 X20 Y20
;TYPE:SKIRT
G1 F6000 E0
G1 F900 X88.803 Y19.09 E0.02945
G1 X89.078 Y18.249 E0.05888
G1 X89.428 Y17.436 E0.08832
G1 X89.85 Y16.657 E0.11779
G1 X90.341 Y15.921 E0.14721
G1 X90.896 Y15.231 E0.17666
G1 X91.315 Y14.784 E0.19704
G1 X91.432 Y14.667 E0.20255
G1 X92.086 Y14.07 E0.232
G1 X92.791 Y13.535 E0.26143
G1 X93.541 Y13.065 E0.29087
G1 X94.331 Y12.665 E0.32032
G1 X95.153 Y12.337 E0.34976
G1 X96.002 Y12.086 E0.37921
G1 X96.87 Y11.911 E0.40866
G1 X97.75 Y11.816 E0.4381
G1 X98.362 Y11.797 E0.45846
G1 X132.609 Y11.797 E1.59752
G1 X133.493 Y11.837 E1.62695
G1 X134.37 Y11.957 E1.65639
G1 X135.233 Y12.155 E1.68584
G1 X136.074 Y12.43 E1.71527
G1 X136.887 Y12.78 E1.74471
G1 X137.666 Y13.202 E1.77418
G1 X138.402 Y13.693 E1.80361
G1 X139.092 Y14.248 E1.83306
G1 X139.539 Y14.667 E1.85343
G1 X139.656 Y14.784 E1.85894
G1 X139.887 Y15.037 E1.87033
G1 X140.105 Y15.155 E1.87858
G1 X140.841 Y15.646 E1.908
G1 X141.531 Y16.201 E1.93746
G1 X141.978 Y16.62 E1.95783
G1 X142.095 Y16.737 E1.96334
G1 X142.692 Y17.391 E1.99279
G1 X143.227 Y18.096 E2.02223
G1 X143.697 Y18.846 E2.05166
G1 X144.097 Y19.636 E2.08112
G1 X144.425 Y20.458 E2.11055
G1 X144.676 Y21.307 E2.14
G1 X144.851 Y22.175 E2.16945
G1 X144.946 Y23.055 E2.19889
G1 X144.965 Y23.667 E2.21925
G1 X144.965 Y39.528 E2.74679
G1 X144.925 Y40.412 E2.77622
G1 X144.805 Y41.289 E2.80566
G1 X144.607 Y42.152 E2.83511
G1 X144.332 Y42.993 E2.86454
G1 X143.982 Y43.806 E2.89398
G1 X143.56 Y44.585 E2.92345
G1 X143.069 Y45.321 E2.95288
G1 X142.514 Y46.011 E2.98233
G1 X142.095 Y46.458 E3.00271
G1 X141.978 Y46.575 E3.00821
G1 X141.324 Y47.172 E3.03766
G1 X140.619 Y47.707 E3.0671
G1 X139.882 Y48.169 E3.09603
G1 X139.656 Y48.41 E3.10702
G1 X139.539 Y48.527 E3.11252
G1 X138.885 Y49.124 E3.14197
G1 X138.18 Y49.659 E3.17141
G1 X137.43 Y50.129 E3.20085
G1 X136.64 Y50.529 E3.2303
G1 X135.818 Y50.857 E3.25973
G1 X134.969 Y51.108 E3.28918
G1 X134.101 Y51.283 E3.31863
G1 X133.221 Y51.378 E3.34807
G1 X132.609 Y51.397 E3.36844
G1 X98.362 Y51.397 E4.50749
G1 X97.478 Y51.357 E4.53693
G1 X96.601 Y51.237 E4.56637
G1 X95.738 Y51.039 E4.59582
G1 X94.897 Y50.764 E4.62525
G1 X94.084 Y50.414 E4.65469
G1 X93.305 Y49.992 E4.68415
G1 X92.569 Y49.501 E4.71358
G1 X91.879 Y48.946 E4.74303
G1 X91.432 Y48.527 E4.76341
G1 X91.315 Y48.41 E4.76891
G1 X90.718 Y47.756 E4.79837
G1 X90.183 Y47.051 E4.8278
G1 X89.713 Y46.301 E4.85724
G1 X89.313 Y45.511 E4.88669
G1 X88.985 Y44.689 E4.91613
G1 X88.734 Y43.84 E4.94557
G1 X88.559 Y42.972 E4.97502
G1 X88.464 Y42.092 E5.00446
G1 X88.445 Y41.48 E5.02483
G1 X88.445 Y21.714 E5.68225
G1 X88.485 Y20.83 E5.71168
G1 X88.497 Y20.745 E5.71454
G0 F810 X88.605 Y19.953
M204 S5000
M205 X30 Y30
G0 F7200 X89.005 Y19.989
M204 S500
M205 X20 Y20
G1 F6000 E5.74114
G1 F900 X89.203 Y19.145 E5.76998
G1 X89.478 Y18.323 E5.79881
G1 X89.828 Y17.53 E5.82764
G1 X90.249 Y16.772 E5.85647
G1 X90.738 Y16.057 E5.88529
G1 X91.291 Y15.389 E5.91413
G1 X91.598 Y15.067 E5.92893
G1 X91.715 Y14.95 E5.93443
G1 X92.356 Y14.366 E5.96327
G1 X93.048 Y13.843 E5.99212
G1 X93.785 Y13.387 E6.02095
G1 X94.56 Y13 E6.04976
G1 X95.369 Y12.686 E6.07862
G1 X96.202 Y12.448 E6.10744
G1 X97.054 Y12.288 E6.13627
G1 X97.917 Y12.208 E6.16509
G1 X98.362 Y12.197 E6.1799
G1 X132.609 Y12.197 E7.31896
G1 X133.475 Y12.237 E7.34779
G1 X134.334 Y12.357 E7.37664
G1 X135.178 Y12.555 E7.40548
G1 X136 Y12.83 E7.4343
G1 X136.793 Y13.18 E7.46313
G1 X137.551 Y13.601 E7.49197
G1 X138.266 Y14.09 E7.52078
G1 X138.934 Y14.643 E7.54963
G1 X139.256 Y14.95 E7.56442
G1 X139.373 Y15.067 E7.56993
G1 X139.639 Y15.359 E7.58307
G1 X139.99 Y15.554 E7.59642
G1 X140.705 Y16.043 E7.62523
G1 X141.373 Y16.596 E7.65407
G1 X141.695 Y16.903 E7.66887
G1 X141.812 Y17.02 E7.67438
G1 X142.396 Y17.661 E7.70322
G1 X142.919 Y18.353 E7.73207
G1 X143.375 Y19.09 E7.76089
G1 X143.762 Y19.865 E7.7897
G1 X144.076 Y20.674 E7.81857
G1 X144.314 Y21.507 E7.84738
G1 X144.474 Y22.359 E7.87621
G1 X144.554 Y23.222 E7.90504
G1 X144.565 Y23.667 E7.91985
G1 X144.565 Y39.528 E8.44738
G1 X144.525 Y40.394 E8.47622
G1 X144.405 Y41.253 E8.50507
G1 X144.207 Y42.097 E8.5339
G1 X143.932 Y42.919 E8.56273
G1 X143.582 Y43.712 E8.59156
G1 X143.161 Y44.47 E8.6204
G1 X142.672 Y45.185 E8.64921
G1 X142.119 Y45.853 E8.67805
G1 X141.812 Y46.175 E8.69285
G1 X141.695 Y46.292 E8.69835
G1 X141.054 Y46.876 E8.72719
G1 X140.362 Y47.399 E8.75604
G1 X139.643 Y47.844 E8.78417
G1 X139.373 Y48.127 E8.79718
G1 X139.256 Y48.244 E8.80268
G1 X138.615 Y48.828 E8.83152
G1 X137.923 Y49.351 E8.86037
G1 X137.186 Y49.807 E8.8892
G1 X136.411 Y50.194 E8.91801
G1 X135.602 Y50.508 E8.94687
G1 X134.769 Y50.746 E8.97569
G1 X133.917 Y50.906 E9.00452
G1 X133.054 Y50.986 E9.03335
G1 X132.609 Y50.997 E9.04815
G1 X98.362 Y50.997 E10.18721
G1 X97.496 Y50.957 E10.21605
G1 X96.637 Y50.837 E10.24489
G1 X95.793 Y50.639 E10.27373
G1 X94.971 Y50.364 E10.30256
G1 X94.178 Y50.014 E10.33139
G1 X93.42 Y49.593 E10.36022
G1 X92.705 Y49.104 E10.38904
G1 X92.037 Y48.551 E10.41788
G1 X91.715 Y48.244 E10.43268
G1 X91.598 Y48.127 E10.43818
G1 X91.014 Y47.486 E10.46702
G1 X90.491 Y46.794 E10.49587
G1 X90.035 Y46.057 E10.5247
G1 X89.648 Y45.282 E10.55351
G1 X89.334 Y44.473 E10.58237
G1 X89.096 Y43.64 E10.61119
G1 X88.936 Y42.788 E10.64002
G1 X88.856 Y41.925 E10.66884
G1 X88.845 Y41.48 E10.68365
G1 X88.845 Y21.714 E11.34107
G1 X88.885 Y20.848 E11.3699
G1 X88.895 Y20.781 E11.37216
G0 F810 X89.005 Y19.989
M204 S5000
M205 X30 Y30
G0 F7200 X89.405 Y20.027
M204 S500
M205 X20 Y20
G1 F6000 E11.39876
G1 F900 X89.603 Y19.202 E11.42698
G1 X89.878 Y18.399 E11.45521
G1 X90.227 Y17.626 E11.48342
G1 X90.647 Y16.89 E11.51161
G1 X91.135 Y16.196 E11.53983
G1 X91.881 Y15.35 E11.57734
G1 X91.998 Y15.233 E11.58284
G1 X92.625 Y14.662 E11.61105
G1 X93.304 Y14.153 E11.63928
G1 X94.027 Y13.71 E11.66748
G1 X94.789 Y13.337 E11.69569
G1 X95.583 Y13.037 E11.72393
G1 X96.401 Y12.813 E11.75213
G1 X97.237 Y12.668 E11.78035
G1 X98.362 Y12.597 E11.81785
G1 X132.609 Y12.597 E12.95691
G1 X133.456 Y12.637 E12.98511
G1 X134.296 Y12.757 E13.01333
G1 X135.121 Y12.955 E13.04155
G1 X135.924 Y13.23 E13.06978
G1 X136.697 Y13.579 E13.09799
G1 X137.433 Y13.999 E13.12617
G1 X138.127 Y14.487 E13.15439
G1 X138.973 Y15.233 E13.19191
G1 X139.09 Y15.35 E13.19741
G1 X139.385 Y15.674 E13.21199
G1 X139.872 Y15.952 E13.23064
G1 X140.566 Y16.44 E13.25885
G1 X141.412 Y17.186 E13.29637
G1 X141.529 Y17.303 E13.30187
G1 X142.1 Y17.93 E13.33008
G1 X142.609 Y18.609 E13.3583
G1 X143.052 Y19.332 E13.3865
G1 X143.425 Y20.094 E13.41472
G1 X143.725 Y20.888 E13.44295
G1 X143.949 Y21.706 E13.47116
G1 X144.094 Y22.542 E13.49938
G1 X144.165 Y23.667 E13.53687
G1 X144.165 Y39.528 E14.06441
G1 X144.125 Y40.375 E14.09262
G1 X144.005 Y41.215 E14.12084
G1 X143.807 Y42.04 E14.14906
G1 X143.532 Y42.843 E14.17729
G1 X143.183 Y43.616 E14.2055
G1 X142.763 Y44.352 E14.23368
G1 X142.275 Y45.046 E14.2619
G1 X141.529 Y45.892 E14.29941
G1 X141.412 Y46.009 E14.30492
G1 X140.785 Y46.58 E14.33312
G1 X140.106 Y47.089 E14.36135
G1 X139.383 Y47.532 E14.38955
G1 X139.352 Y47.547 E14.3907
G1 X139.09 Y47.844 E14.40387
G1 X138.973 Y47.961 E14.40937
G1 X138.346 Y48.532 E14.43758
G1 X137.667 Y49.041 E14.4658
G1 X136.944 Y49.484 E14.494
G1 X136.182 Y49.857 E14.52222
G1 X135.388 Y50.157 E14.55045
G1 X134.57 Y50.381 E14.57866
G1 X133.734 Y50.526 E14.60688
G1 X132.609 Y50.597 E14.64437
G1 X98.362 Y50.597 E15.78343
G1 X97.515 Y50.557 E15.81164
G1 X96.675 Y50.437 E15.83986
G1 X95.85 Y50.239 E15.86808
G1 X95.047 Y49.964 E15.89631
G1 X94.274 Y49.615 E15.92452
G1 X93.538 Y49.195 E15.9527
G1 X92.844 Y48.707 E15.98092
G1 X91.998 Y47.961 E16.01844
G1 X91.881 Y47.844 E16.02394
G1 X91.31 Y47.217 E16.05214
G1 X90.801 Y46.538 E16.08037
G1 X90.358 Y45.815 E16.10857
G1 X89.985 Y45.053 E16.13679
G1 X89.685 Y44.259 E16.16502
G1 X89.461 Y43.441 E16.19323
G1 X89.316 Y42.605 E16.22145
G1 X89.245 Y41.48 E16.25894
G1 X89.245 Y21.714 E16.91636
G1 X89.285 Y20.867 E16.94456
G1 X89.292 Y20.819 E16.94618
G0 F810 X89.405 Y20.027
M204 S5000
M205 X30 Y30
G0 F7200 X89.805 Y20.065
M204 S500
M205 X20 Y20
G1 F6000 E16.97278
G1 F900 X90.003 Y19.26 E17.00036
G1 X90.277 Y18.478 E17.02792
G1 X90.626 Y17.725 E17.05552
G1 X91.046 Y17.01 E17.0831
G1 X91.532 Y16.339 E17.11066
G1 X92.164 Y15.633 E17.14217
G1 X92.281 Y15.516 E17.14768
G1 X92.895 Y14.958 E17.17527
G1 X93.56 Y14.463 E17.20284
G1 X94.269 Y14.033 E17.23042
G1 X95.016 Y13.674 E17.25799
G1 X95.795 Y13.389 E17.28558
G1 X96.597 Y13.18 E17.31314
G1 X97.416 Y13.049 E17.34073
G1 X98.362 Y12.997 E17.37224
G1 X132.609 Y12.997 E18.5113
G1 X133.437 Y13.037 E18.53887
G1 X134.258 Y13.157 E18.56647
G1 X135.063 Y13.355 E18.59404
G1 X135.845 Y13.629 E18.6216
G1 X136.598 Y13.978 E18.64921
G1 X137.313 Y14.398 E18.67679
G1 X137.984 Y14.884 E18.70434
G1 X138.69 Y15.516 E18.73586
G1 X138.807 Y15.633 E18.74136
G1 X139.125 Y15.982 E18.75707
G1 X139.752 Y16.351 E18.78126
G1 X140.423 Y16.837 E18.80882
G1 X141.129 Y17.469 E18.84034
G1 X141.246 Y17.586 E18.84584
G1 X141.804 Y18.2 E18.87343
G1 X142.299 Y18.865 E18.90101
G1 X142.729 Y19.574 E18.92859
G1 X143.088 Y20.321 E18.95615
G1 X143.373 Y21.1 E18.98374
G1 X143.582 Y21.902 E19.01131
G1 X143.713 Y22.721 E19.03889
G1 X143.765 Y23.667 E19.07041
G1 X143.765 Y39.528 E19.59794
G1 X143.725 Y40.356 E19.62552
G1 X143.605 Y41.177 E19.65311
G1 X143.407 Y41.982 E19.68069
G1 X143.133 Y42.764 E19.70824
G1 X142.784 Y43.517 E19.73585
G1 X142.364 Y44.232 E19.76343
G1 X141.878 Y44.903 E19.79099
G1 X141.246 Y45.609 E19.8225
G1 X141.129 Y45.726 E19.82801
G1 X140.515 Y46.284 E19.8556
G1 X139.85 Y46.779 E19.88317
G1 X139.141 Y47.209 E19.91075
G1 X139.108 Y47.225 E19.91197
G1 X138.807 Y47.561 E19.92698
G1 X138.69 Y47.678 E19.93248
G1 X138.076 Y48.236 E19.96007
G1 X137.411 Y48.731 E19.98765
G1 X136.702 Y49.161 E20.01523
G1 X135.955 Y49.52 E20.04279
G1 X135.176 Y49.805 E20.07038
G1 X134.374 Y50.014 E20.09795
G1 X133.555 Y50.145 E20.12553
G1 X132.609 Y50.197 E20.15705
G1 X98.362 Y50.197 E21.2961
G1 X97.534 Y50.157 E21.32368
G1 X96.713 Y50.037 E21.35127
G1 X95.908 Y49.839 E21.37885
G1 X95.126 Y49.565 E21.40641
G1 X94.373 Y49.216 E21.43401
G1 X93.658 Y48.796 E21.46159
G1 X92.987 Y48.31 E21.48915
G1 X92.281 Y47.678 E21.52066
G1 X92.164 Y47.561 E21.52617
G1 X91.606 Y46.947 E21.55376
G1 X91.111 Y46.282 E21.58133
G1 X90.681 Y45.573 E21.60891
G1 X90.322 Y44.826 E21.63648
G1 X90.037 Y44.047 E21.66407
G1 X89.828 Y43.245 E21.69163
G1 X89.697 Y42.426 E21.71922
G1 X89.645 Y41.48 E21.75073
G1 X89.645 Y21.714 E22.40815
G1 X89.685 Y20.886 E22.43572
G1 X89.69 Y20.857 E22.4367
G0 F810 X89.805 Y20.065
M204 S5000
M205 X30 Y30
G0 F7200 X90.205 Y20.104
M204 S500
M205 X20 Y20
G1 F6000 E22.46331
G1 F900 X90.402 Y19.319 E22.49023
G1 X90.677 Y18.558 E22.51714
G1 X91.025 Y17.827 E22.54407
G1 X91.444 Y17.133 E22.57103
G1 X91.929 Y16.485 E22.59795
G1 X92.447 Y15.916 E22.62355
G1 X92.564 Y15.799 E22.62905
G1 X93.164 Y15.255 E22.65599
G1 X93.815 Y14.773 E22.68293
G1 X94.51 Y14.358 E22.70985
G1 X95.242 Y14.014 E22.73675
G1 X96.006 Y13.743 E22.76371
G1 X96.792 Y13.549 E22.79064
G1 X97.593 Y13.433 E22.81756
G1 X98.362 Y13.397 E22.84316
G1 X132.609 Y13.397 E23.98222
G1 X133.418 Y13.437 E24.00916
G1 X134.219 Y13.557 E24.0361
G1 X135.004 Y13.754 E24.06302
G1 X135.765 Y14.029 E24.08994
G1 X136.496 Y14.377 E24.11686
G1 X137.19 Y14.796 E24.14383
G1 X137.838 Y15.281 E24.17075
G1 X138.407 Y15.799 E24.19634
G1 X138.524 Y15.916 E24.20184
G1 X138.872 Y16.3 E24.21908
G1 X138.935 Y16.33 E24.2214
G1 X139.629 Y16.749 E24.24836
G1 X140.277 Y17.234 E24.27528
G1 X140.846 Y17.752 E24.30088
G1 X140.963 Y17.869 E24.30638
G1 X141.507 Y18.469 E24.33332
G1 X141.989 Y19.12 E24.36026
G1 X142.404 Y19.815 E24.38718
G1 X142.748 Y20.547 E24.41408
G1 X143.019 Y21.311 E24.44104
G1 X143.213 Y22.097 E24.46797
G1 X143.329 Y22.898 E24.49489
G1 X143.365 Y23.667 E24.5205
G1 X143.365 Y39.528 E25.04803
G1 X143.325 Y40.337 E25.07498
G1 X143.205 Y41.138 E25.10191
G1 X143.008 Y41.923 E25.12883
G1 X142.733 Y42.684 E25.15575
G1 X142.385 Y43.415 E25.18267
G1 X141.966 Y44.109 E25.20964
G1 X141.481 Y44.757 E25.23656
G1 X140.963 Y45.326 E25.26215
G1 X140.846 Y45.443 E25.26765
G1 X140.246 Y45.987 E25.29459
G1 X139.595 Y46.469 E25.32153
G1 X138.9 Y46.884 E25.34846
G1 X138.87 Y46.898 E25.34956
G1 X138.524 Y47.278 E25.36665
G1 X138.407 Y47.395 E25.37215
G1 X137.807 Y47.939 E25.39909
G1 X137.156 Y48.421 E25.42603
G1 X136.461 Y48.836 E25.45295
G1 X135.729 Y49.18 E25.47986
G1 X134.965 Y49.451 E25.50682
G1 X134.179 Y49.645 E25.53374
G1 X133.378 Y49.761 E25.56066
G1 X132.609 Y49.797 E25.58627
G1 X98.362 Y49.797 E26.72533
G1 X97.553 Y49.757 E26.75227
G1 X96.752 Y49.637 E26.77921
G1 X95.967 Y49.44 E26.80613
G1 X95.206 Y49.165 E26.83304
G1 X94.475 Y48.817 E26.85997
G1 X93.781 Y48.398 E26.88693
G1 X93.133 Y47.913 E26.91385
G1 X92.564 Y47.395 E26.93944
G1 X92.447 Y47.278 E26.94495
G1 X91.903 Y46.678 E26.97188
G1 X91.421 Y46.027 E26.99883
G1 X91.006 Y45.332 E27.02575
G1 X90.662 Y44.6 E27.05265
G1 X90.391 Y43.836 E27.07961
G1 X90.197 Y43.05 E27.10654
G1 X90.081 Y42.249 E27.13346
G1 X90.045 Y41.48 E27.15906
G1 X90.045 Y21.714 E27.81648
G1 X90.085 Y20.905 E27.84342
G1 X90.087 Y20.896 E27.84373
G0 F810 X90.205 Y20.104
M204 S5000
M205 X30 Y30
G0 F7200 X90.604 Y20.145
M204 S500
M205 X20 Y20
G1 F6000 E27.87034
G1 F900 X90.802 Y19.38 E27.89662
G1 X91.076 Y18.64 E27.92287
G1 X91.424 Y17.931 E27.94913
G1 X91.842 Y17.26 E27.97543
G1 X92.325 Y16.636 E28.00167
G1 X92.73 Y16.199 E28.02149
G1 X92.847 Y16.082 E28.02699
G1 X93.433 Y15.552 E28.05327
G1 X94.069 Y15.085 E28.07952
G1 X94.749 Y14.684 E28.10577
G1 X95.467 Y14.354 E28.13206
G1 X96.214 Y14.099 E28.15831
G1 X96.983 Y13.92 E28.18457
G1 X97.767 Y13.82 E28.21086
G1 X98.362 Y13.797 E28.23066
G1 X132.609 Y13.797 E29.36972
G1 X133.398 Y13.837 E29.396
G1 X134.178 Y13.956 E29.42224
G1 X134.943 Y14.154 E29.44852
G1 X135.683 Y14.428 E29.47477
G1 X136.392 Y14.776 E29.50104
G1 X137.063 Y15.194 E29.52733
G1 X137.687 Y15.677 E29.55358
G1 X138.124 Y16.082 E29.57339
G1 X138.241 Y16.199 E29.5789
G1 X138.632 Y16.631 E29.59828
G1 X138.831 Y16.729 E29.60565
G1 X139.502 Y17.147 E29.63195
G1 X140.126 Y17.63 E29.65819
G1 X140.563 Y18.035 E29.67801
G1 X140.68 Y18.152 E29.68351
G1 X141.21 Y18.738 E29.70979
G1 X141.677 Y19.374 E29.73604
G1 X142.078 Y20.054 E29.76229
G1 X142.408 Y20.772 E29.78858
G1 X142.663 Y21.519 E29.81483
G1 X142.842 Y22.288 E29.84109
G1 X142.942 Y23.072 E29.86738
G1 X142.965 Y23.667 E29.88718
G1 X142.965 Y39.528 E30.41472
G1 X142.925 Y40.317 E30.441
G1 X142.806 Y41.097 E30.46724
G1 X142.608 Y41.862 E30.49352
G1 X142.334 Y42.602 E30.51977
G1 X141.986 Y43.311 E30.54604
G1 X141.568 Y43.982 E30.57233
G1 X141.085 Y44.606 E30.59857
G1 X140.68 Y45.043 E30.61839
G1 X140.563 Y45.16 E30.62389
G1 X139.977 Y45.69 E30.65017
G1 X139.341 Y46.157 E30.67642
G1 X138.661 Y46.558 E30.70267
G1 X138.635 Y46.57 E30.70363
G1 X138.241 Y46.995 E30.7229
G1 X138.124 Y47.112 E30.72841
G1 X137.538 Y47.642 E30.75469
G1 X136.902 Y48.109 E30.78093
G1 X136.222 Y48.51 E30.80719
G1 X135.504 Y48.84 E30.83347
G1 X134.757 Y49.095 E30.85972
G1 X133.988 Y49.274 E30.88598
G1 X133.204 Y49.374 E30.91227
G1 X132.609 Y49.397 E30.93207
G1 X98.362 Y49.397 E32.07113
G1 X97.573 Y49.357 E32.09741
G1 X96.793 Y49.238 E32.12365
G1 X96.028 Y49.04 E32.14993
G1 X95.288 Y48.766 E32.17618
G1 X94.579 Y48.418 E32.20245
G1 X93.908 Y48 E32.22874
G1 X93.284 Y47.517 E32.25499
G1 X92.847 Y47.112 E32.27481
