;FLAVOR:Marlin
;TIME:5096
;Filament used: 4.05015m
;Layer height: 0.16
;Generated with Cura_SteamEngine 3.6.0
M140 S70
M105
M190 S70
M104 S215
M105
M109 S215
M82 ;absolute extrusion mode
G28 ; home all axes
M117 Purge extruder
G92 E0 ; reset extruder
G1 Z1.0 F3000 ; move z up little to prevent scratching of surface
G1 X0.1 Y20 Z0.3 F5000.0 ; move to start-line position G1 X0.1 Y200.0 Z0.3 F1500.0 E15 ; draw 1st line
G1 X0.4 Y200.0 Z0.3 F5000.0 ; move to side a little
G1 X0.4 Y20 Z0.3 F1500.0 E30 ; draw 2nd line
G92 E0 ; reset extruder
G1 Z1.0 F3000 ; move z up little to prevent scratching of surface
M117 All systems go!
G92 E0
G1 F6000 E-5
;LAYER_COUNT:28
;LAYER:0
M107
M204 S5000
M205 X30 Y30
G0 F7200 X94.618 Y50.19 Z0.2
M204 S500
M205 X20 Y20
;TYPE:SKIRT
G1 F6000 E0
G1 F900 X94.959 Y49.653 E0.02327
G1 X95.473 Y49.051 E0.05223
G1 X95.602 Y48.922 E0.05891
G1 X96.079 Y48.502 E0.08216
G1 X96.605 Y48.144 E0.10544
G1 X97.172 Y47.856 E0.12871
G1 X97.77 Y47.64 E0.15197
G1 X98.391 Y47.502 E0.17524
G1 X99.18 Y47.44 E0.2042
G1 X107.82 Y47.44 E0.5203
G1 X108.455 Y47.48 E0.54358
G1 X109.079 Y47.599 E0.56682
G1 X109.684 Y47.796 E0.5901
G1 X110.259 Y48.067 E0.61336
G1 X110.497 Y48.218 E0.62367
G1 X110.605 Y48.144 E0.62846
G1 X111.172 Y47.856 E0.65173
G1 X111.77 Y47.64 E0.67499
G1 X112.391 Y47.502 E0.69826
G1 X113.18 Y47.44 E0.72722
G1 X121.82 Y47.44 E1.04332
G1 X122.455 Y47.48 E1.0666
G1 X123.079 Y47.599 E1.08984
G1 X123.684 Y47.796 E1.11312
G1 X124.259 Y48.067 E1.13638
G1 X124.796 Y48.408 E1.15965
G1 X125.398 Y48.922 E1.18861
G1 X125.527 Y49.051 E1.19529
G1 X125.947 Y49.528 E1.21854
G1 X126.305 Y50.054 E1.24182
G1 X126.593 Y50.621 E1.26508
G1 X126.809 Y51.219 E1.28835
G1 X126.947 Y51.84 E1.31162
G1 X127.009 Y52.629 E1.34058
G1 X127.01 Y182.371 E6.08734
G1 X126.97 Y183.006 E6.11061
G1 X126.851 Y183.63 E6.13385
G1 X126.654 Y184.235 E6.15713
G1 X126.383 Y184.81 E6.18039
G1 X126.042 Y185.347 E6.20366
G1 X125.528 Y185.949 E6.23262
G1 X125.399 Y186.078 E6.2393
G1 X124.922 Y186.498 E6.26255
G1 X124.396 Y186.856 E6.28583
G1 X123.829 Y187.144 E6.3091
G1 X123.231 Y187.36 E6.33236
G1 X122.61 Y187.498 E6.35563
G1 X121.821 Y187.56 E6.38459
G1 X113.179 Y187.56 E6.70077
G1 X112.544 Y187.52 E6.72404
G1 X111.92 Y187.401 E6.74728
G1 X111.315 Y187.204 E6.77056
G1 X110.74 Y186.933 E6.79382
G1 X110.504 Y186.783 E6.80405
G1 X110.396 Y186.856 E6.80882
G1 X109.829 Y187.144 E6.83209
G1 X109.231 Y187.36 E6.85535
G1 X108.61 Y187.498 E6.87862
G1 X107.821 Y187.56 E6.90758
G1 X99.179 Y187.56 E7.22376
G1 X98.544 Y187.52 E7.24703
G1 X97.92 Y187.401 E7.27028
G1 X97.315 Y187.204 E7.29355
G1 X96.74 Y186.933 E7.31681
G1 X96.203 Y186.592 E7.34008
G1 X95.601 Y186.078 E7.36904
G1 X95.472 Y185.949 E7.37572
G1 X95.052 Y185.472 E7.39897
G1 X94.694 Y184.946 E7.42225
G1 X94.406 Y184.379 E7.44552
G1 X94.19 Y183.781 E7.46878
G1 X94.052 Y183.16 E7.49205
G1 X93.99 Y182.371 E7.52101
G1 X93.991 Y52.629 E12.26777
G1 X94.031 Y51.994 E12.29105
G1 X94.15 Y51.37 E12.31429
G1 X94.319 Y50.852 E12.33422
G0 F810 X94.347 Y50.765
G0 X94.618 Y50.19
M204 S5000
M205 X30 Y30
G0 F7200 X95.057 Y50.308
M204 S500
M205 X20 Y20
G1 F6000 E12.36082
G1 F900 X95.396 Y49.803 E12.38307
G1 X95.784 Y49.362 E12.40456
G1 X95.913 Y49.233 E12.41124
G1 X96.37 Y48.833 E12.43346
G1 X96.876 Y48.496 E12.4557
G1 X97.421 Y48.228 E12.47792
G1 X97.997 Y48.034 E12.50016
G1 X98.593 Y47.917 E12.52238
G1 X99.18 Y47.88 E12.5439
G1 X107.82 Y47.88 E12.86
G1 X108.426 Y47.92 E12.88222
G1 X109.022 Y48.039 E12.90446
G1 X109.597 Y48.235 E12.92668
G1 X110.141 Y48.506 E12.94892
G1 X110.5 Y48.747 E12.96474
G1 X110.876 Y48.496 E12.98128
G1 X111.421 Y48.228 E13.0035
G1 X111.997 Y48.034 E13.02574
G1 X112.593 Y47.917 E13.04796
G1 X113.18 Y47.88 E13.06948
G1 X121.82 Y47.88 E13.38558
G1 X122.426 Y47.92 E13.4078
G1 X123.022 Y48.039 E13.43003
G1 X123.597 Y48.235 E13.45226
G1 X124.141 Y48.506 E13.4745
G1 X124.646 Y48.845 E13.49675
G1 X125.087 Y49.233 E13.51824
G1 X125.216 Y49.362 E13.52491
G1 X125.616 Y49.819 E13.54713
G1 X125.953 Y50.325 E13.56938
G1 X126.221 Y50.87 E13.5916
G1 X126.415 Y51.446 E13.61383
G1 X126.532 Y52.042 E13.63605
G1 X126.569 Y52.629 E13.65757
G1 X126.57 Y182.371 E18.40433
G1 X126.53 Y182.977 E18.42655
G1 X126.411 Y183.573 E18.44879
G1 X126.215 Y184.148 E18.47101
G1 X125.944 Y184.692 E18.49325
G1 X125.605 Y185.197 E18.5155
G1 X125.217 Y185.638 E18.53699
G1 X125.088 Y185.767 E18.54367
G1 X124.631 Y186.167 E18.56589
G1 X124.125 Y186.504 E18.58813
G1 X123.58 Y186.772 E18.61035
G1 X123.004 Y186.966 E18.63259
G1 X122.408 Y187.083 E18.65481
G1 X121.821 Y187.12 E18.67633
G1 X113.179 Y187.12 E18.9925
G1 X112.573 Y187.08 E19.01472
G1 X111.977 Y186.961 E19.03696
G1 X111.402 Y186.765 E19.05919
G1 X110.858 Y186.494 E19.08142
G1 X110.5 Y186.254 E19.09719
G1 X110.125 Y186.504 E19.11368
G1 X109.58 Y186.772 E19.1359
G1 X109.004 Y186.966 E19.15814
G1 X108.408 Y187.083 E19.18036
G1 X107.821 Y187.12 E19.20188
G1 X99.179 Y187.12 E19.51805
G1 X98.573 Y187.08 E19.54027
G1 X97.977 Y186.961 E19.56251
G1 X97.402 Y186.765 E19.58473
G1 X96.858 Y186.494 E19.60697
G1 X96.353 Y186.155 E19.62922
G1 X95.912 Y185.767 E19.65071
G1 X95.783 Y185.638 E19.65739
G1 X95.383 Y185.181 E19.67961
G1 X95.046 Y184.675 E19.70185
G1 X94.778 Y184.13 E19.72407
G1 X94.584 Y183.554 E19.74631
G1 X94.467 Y182.958 E19.76853
G1 X94.43 Y182.371 E19.79005
G1 X94.431 Y52.629 E24.53681
G1 X94.471 Y52.023 E24.55903
G1 X94.59 Y51.427 E24.58126
G1 X94.748 Y50.965 E24.59913
G0 F810 X94.786 Y50.852
G0 X95.057 Y50.308
M204 S5000
M205 X30 Y30
G0 F7200 X95.495 Y50.432
M204 S500
M205 X20 Y20
G1 F6000 E24.62572
G1 F900 X95.832 Y49.962 E24.64688
G1 X96.095 Y49.673 E24.66118
G1 X96.224 Y49.544 E24.66785
G1 X96.66 Y49.165 E24.68899
G1 X97.144 Y48.849 E24.71014
G1 X97.667 Y48.603 E24.73128
G1 X98.219 Y48.432 E24.75243
G1 X98.79 Y48.338 E24.7736
G1 X99.18 Y48.32 E24.78788
G1 X107.82 Y48.32 E25.10399
G1 X108.397 Y48.36 E25.12515
G1 X108.962 Y48.479 E25.14627
G1 X109.506 Y48.675 E25.16743
G1 X110.017 Y48.944 E25.18855
G1 X110.487 Y49.281 E25.20971
G1 X110.506 Y49.299 E25.21067
G1 X110.66 Y49.165 E25.21814
G1 X111.144 Y48.849 E25.23929
G1 X111.667 Y48.603 E25.26043
G1 X112.219 Y48.432 E25.28157
G1 X112.79 Y48.338 E25.30275
G1 X113.18 Y48.32 E25.31703
G1 X121.82 Y48.32 E25.63313
G1 X122.397 Y48.36 E25.6543
G1 X122.962 Y48.479 E25.67542
G1 X123.506 Y48.675 E25.69658
G1 X124.017 Y48.944 E25.7177
G1 X124.487 Y49.281 E25.73886
G1 X124.776 Y49.544 E25.75316
G1 X124.905 Y49.673 E25.75983
G1 X125.284 Y50.109 E25.78097
G1 X125.6 Y50.593 E25.80212
G1 X125.846 Y51.116 E25.82326
G1 X126.017 Y51.668 E25.8444
G1 X126.111 Y52.239 E25.86558
G1 X126.129 Y52.629 E25.87986
G1 X126.13 Y182.371 E30.62662
G1 X126.09 Y182.948 E30.64778
G1 X125.971 Y183.513 E30.66891
G1 X125.775 Y184.057 E30.69006
G1 X125.506 Y184.568 E30.71119
G1 X125.169 Y185.038 E30.73235
G1 X124.906 Y185.327 E30.74664
G1 X124.777 Y185.456 E30.75332
G1 X124.341 Y185.835 E30.77445
G1 X123.857 Y186.151 E30.7956
G1 X123.334 Y186.397 E30.81675
G1 X122.782 Y186.568 E30.83789
G1 X122.211 Y186.662 E30.85906
G1 X121.821 Y186.68 E30.87335
G1 X113.179 Y186.68 E31.18952
G1 X112.602 Y186.64 E31.21068
G1 X112.037 Y186.521 E31.23181
G1 X111.493 Y186.325 E31.25296
G1 X110.982 Y186.056 E31.27409
G1 X110.512 Y185.719 E31.29525
G1 X110.494 Y185.702 E31.29616
G1 X110.341 Y185.835 E31.30357
G1 X109.857 Y186.151 E31.32472
G1 X109.334 Y186.397 E31.34587
G1 X108.782 Y186.568 E31.36701
G1 X108.211 Y186.662 E31.38818
G1 X107.821 Y186.68 E31.40246
G1 X99.179 Y186.68 E31.71864
G1 X98.602 Y186.64 E31.7398
G1 X98.037 Y186.521 E31.76093
G1 X97.493 Y186.325 E31.78208
G1 X96.982 Y186.056 E31.80321
G1 X96.512 Y185.719 E31.82437
G1 X96.223 Y185.456 E31.83867
G1 X96.094 Y185.327 E31.84534
G1 X95.715 Y184.891 E31.86648
G1 X95.399 Y184.407 E31.88762
G1 X95.153 Y183.884 E31.90877
G1 X94.982 Y183.332 E31.92991
G1 X94.888 Y182.761 E31.95108
G1 X94.87 Y182.371 E31.96537
G1 X94.871 Y52.629 E36.71213
G1 X94.911 Y52.052 E36.73329
G1 X95.03 Y51.487 E36.75441
G1 X95.176 Y51.084 E36.7701
G0 F810 X95.226 Y50.943
G0 X95.495 Y50.432
M204 S5000
M205 X30 Y30
G0 F7200 X95.665 Y51.04
M204 S500
M205 X20 Y20
G1 F6000 E36.79669
G1 F900 X95.933 Y50.563 E36.81671
G1 X96.406 Y49.984 E36.84406
G1 X96.535 Y49.855 E36.85074
G1 X96.949 Y49.498 E36.87074
G1 X97.411 Y49.205 E36.89075
G1 X97.91 Y48.982 E36.91075
G1 X98.436 Y48.835 E36.93073
G1 X99.18 Y48.76 E36.95809
G1 X107.82 Y48.76 E37.2742
G1 X108.365 Y48.8 E37.29419
G1 X108.899 Y48.919 E37.3142
G1 X109.409 Y49.114 E37.33418
G1 X109.886 Y49.382 E37.3542
G1 X110.465 Y49.855 E37.38155
G1 X110.5 Y49.89 E37.38336
G1 X110.535 Y49.855 E37.38517
G1 X110.949 Y49.498 E37.40517
G1 X111.411 Y49.205 E37.42519
G1 X111.91 Y48.982 E37.44519
G1 X112.436 Y48.835 E37.46517
G1 X113.18 Y48.76 E37.49253
G1 X121.82 Y48.76 E37.80863
G1 X122.365 Y48.8 E37.82862
G1 X122.899 Y48.919 E37.84864
G1 X123.409 Y49.114 E37.86862
G1 X123.886 Y49.382 E37.88863
G1 X124.465 Y49.855 E37.91599
G1 X124.594 Y49.984 E37.92266
G1 X124.951 Y50.398 E37.94266
G1 X125.244 Y50.86 E37.96268
G1 X125.467 Y51.359 E37.98267
G1 X125.614 Y51.885 E38.00266
G1 X125.689 Y52.629 E38.03001
G1 X125.69 Y182.371 E42.77677
G1 X125.65 Y182.916 E42.79677
G1 X125.531 Y183.45 E42.81678
G1 X125.336 Y183.96 E42.83676
G1 X125.068 Y184.437 E42.85678
G1 X124.595 Y185.016 E42.88413
G1 X124.466 Y185.145 E42.8908
G1 X124.052 Y185.502 E42.9108
G1 X123.59 Y185.795 E42.93082
G1 X123.091 Y186.018 E42.95082
G1 X122.565 Y186.165 E42.9708
G1 X121.821 Y186.24 E42.99816
G1 X113.179 Y186.24 E43.31433
G1 X112.634 Y186.2 E43.33433
G1 X112.1 Y186.081 E43.35434
G1 X111.59 Y185.886 E43.37432
G1 X111.113 Y185.618 E43.39434
G1 X110.534 Y185.145 E43.42169
G1 X110.5 Y185.111 E43.42345
G1 X110.466 Y185.145 E43.42521
G1 X110.052 Y185.502 E43.44521
G1 X109.59 Y185.795 E43.46522
G1 X109.091 Y186.018 E43.48522
G1 X108.565 Y186.165 E43.5052
G1 X107.821 Y186.24 E43.53256
G1 X99.179 Y186.24 E43.84874
G1 X98.634 Y186.2 E43.86873
G1 X98.1 Y186.081 E43.88875
G1 X97.59 Y185.886 E43.90872
G1 X97.113 Y185.618 E43.92874
G1 X96.534 Y185.145 E43.9561
G1 X96.405 Y185.016 E43.96277
G1 X96.048 Y184.602 E43.98277
G1 X95.755 Y184.14 E44.00279
G1 X95.532 Y183.641 E44.02278
G1 X95.385 Y183.115 E44.04276
G1 X95.31 Y182.371 E44.07012
G1 X95.311 Y52.629 E48.81688
G1 X95.351 Y52.084 E48.83688
G1 X95.431 Y51.726 E48.8503
G0 F810 X95.47 Y51.55
G0 X95.665 Y51.04
M204 S5000
M205 X30 Y30
G0 F7200 X96.105 Y51.143
M204 S500
M205 X20 Y20
G1 F6000 E48.87689
G1 F900 X96.371 Y50.704 E48.89567
G1 X96.718 Y50.296 E48.91527
G1 X96.847 Y50.167 E48.92194
G1 X97.237 Y49.833 E48.94073
G1 X97.674 Y49.564 E48.9595
G1 X98.148 Y49.366 E48.9783
G1 X98.646 Y49.243 E48.99707
G1 X99.18 Y49.2 E49.01667
G1 X107.82 Y49.2 E49.33277
G1 X108.332 Y49.24 E49.35156
G1 X108.831 Y49.359 E49.37033
G1 X109.306 Y49.554 E49.38911
G1 X109.745 Y49.82 E49.40789
G1 X110.153 Y50.167 E49.42749
G1 X110.282 Y50.296 E49.43416
G1 X110.501 Y50.551 E49.44646
G1 X110.718 Y50.296 E49.45871
G1 X110.847 Y50.167 E49.46539
G1 X111.237 Y49.833 E49.48417
G1 X111.674 Y49.564 E49.50295
G1 X112.148 Y49.366 E49.52174
G1 X112.646 Y49.243 E49.54051
G1 X113.18 Y49.2 E49.56011
G1 X121.82 Y49.2 E49.87621
G1 X122.332 Y49.24 E49.895
G1 X122.831 Y49.359 E49.91377
G1 X123.306 Y49.554 E49.93256
G1 X123.745 Y49.82 E49.95134
G1 X124.153 Y50.167 E49.97093
G1 X124.282 Y50.296 E49.97761
G1 X124.616 Y50.686 E49.99639
G1 X124.885 Y51.123 E50.01517
G1 X125.083 Y51.597 E50.03396
G1 X125.206 Y52.095 E50.05273
G1 X125.249 Y52.629 E50.07233
G1 X125.25 Y182.371 E54.81909
G1 X125.21 Y182.883 E54.83788
G1 X125.091 Y183.382 E54.85665
G1 X124.896 Y183.857 E54.87543
G1 X124.63 Y184.296 E54.89421
G1 X124.283 Y184.704 E54.91381
G1 X124.154 Y184.833 E54.92048
G1 X123.764 Y185.167 E54.93927
G1 X123.327 Y185.436 E54.95804
G1 X122.853 Y185.634 E54.97684
G1 X122.355 Y185.757 E54.9956
G1 X121.821 Y185.8 E55.0152
G1 X113.179 Y185.8 E55.33138
G1 X112.667 Y185.76 E55.35017
G1 X112.168 Y185.641 E55.36894
G1 X111.693 Y185.446 E55.38773
G1 X111.254 Y185.18 E55.40651
G1 X110.846 Y184.833 E55.4261
G1 X110.717 Y184.704 E55.43278
G1 X110.499 Y184.45 E55.44502
G1 X110.283 Y184.704 E55.45722
G1 X110.154 Y184.833 E55.46389
G1 X109.764 Y185.167 E55.48268
G1 X109.327 Y185.436 E55.50146
G1 X108.853 Y185.634 E55.52025
G1 X108.355 Y185.757 E55.53902
G1 X107.821 Y185.8 E55.55862
G1 X99.179 Y185.8 E55.87479
G1 X98.667 Y185.76 E55.89358
G1 X98.168 Y185.641 E55.91235
G1 X97.693 Y185.446 E55.93114
G1 X97.254 Y185.18 E55.94992
G1 X96.846 Y184.833 E55.96951
G1 X96.717 Y184.704 E55.97619
G1 X96.383 Y184.314 E55.99497
G1 X96.114 Y183.877 E56.01375
G1 X95.916 Y183.403 E56.03254
G1 X95.793 Y182.905 E56.05131
G1 X95.75 Y182.371 E56.07091
G1 X95.751 Y52.629 E60.81767
G1 X95.791 Y52.117 E60.83646
G1 X95.861 Y51.826 E60.84741
G0 F810 X95.91 Y51.618
G0 X96.105 Y51.143
M204 S5000
M205 X30 Y30
G0 F7200 X96.544 Y51.253
M204 S500
M205 X20 Y20
G1 F6000 E60.87401
G1 F900 X96.808 Y50.855 E60.89148
G1 X97.029 Y50.607 E60.90363
G1 X97.158 Y50.478 E60.91031
G1 X97.523 Y50.169 E60.92781
G1 X97.934 Y49.926 E60.94527
G1 X98.38 Y49.754 E60.96276
G1 X98.848 Y49.659 E60.98023
G1 X99.18 Y49.64 E60.9924
G1 X107.82 Y49.64 E61.30851
G1 X108.296 Y49.68 E61.32598
G1 X108.759 Y49.799 E61.34347
G1 X109.196 Y49.993 E61.36096
G1 X109.594 Y50.257 E61.37844
G1 X109.842 Y50.478 E61.39059
G1 X109.971 Y50.607 E61.39727
G1 X110.28 Y50.972 E61.41476
G1 X110.502 Y51.348 E61.43074
G1 X110.544 Y51.253 E61.43454
G1 X110.808 Y50.855 E61.45201
G1 X111.029 Y50.607 E61.46416
G1 X111.158 Y50.478 E61.47084
G1 X111.523 Y50.169 E61.48834
G1 X111.934 Y49.926 E61.5058
G1 X112.38 Y49.754 E61.52329
G1 X112.848 Y49.659 E61.54076
G1 X113.18 Y49.64 E61.55293
G1 X121.82 Y49.64 E61.86904
G1 X122.296 Y49.68 E61.88651
G1 X122.759 Y49.799 E61.904
G1 X123.196 Y49.993 E61.92149
G1 X123.594 Y50.257 E61.93897
G1 X123.842 Y50.478 E61.95112
G1 X123.971 Y50.607 E61.9578
G1 X124.28 Y50.972 E61.97529
G1 X124.523 Y51.383 E61.99276
G1 X124.695 Y51.829 E62.01025
G1 X124.79 Y52.297 E62.02772
G1 X124.809 Y52.629 E62.03989
G1 X124.81 Y182.371 E66.78665
G1 X124.77 Y182.847 E66.80412
G1 X124.651 Y183.31 E66.82161
G1 X124.457 Y183.747 E66.83911
G1 X124.193 Y184.145 E66.85658
G1 X123.972 Y184.393 E66.86873
G1 X123.843 Y184.522 E66.87541
G1 X123.478 Y184.831 E66.89291
G1 X123.067 Y185.074 E66.91037
G1 X122.621 Y185.246 E66.92786
G1 X122.153 Y185.341 E66.94533
G1 X121.821 Y185.36 E66.9575
G1 X113.179 Y185.36 E67.27368
G1 X112.703 Y185.32 E67.29115
G1 X112.24 Y185.201 E67.30864
G1 X111.803 Y185.007 E67.32614
G1 X111.405 Y184.743 E67.34361
G1 X111.157 Y184.522 E67.35576
G1 X111.028 Y184.393 E67.36244
G1 X110.719 Y184.028 E67.37993
G1 X110.498 Y183.654 E67.39583
G1 X110.457 Y183.747 E67.39955
G1 X110.193 Y184.145 E67.41702
G1 X109.972 Y184.393 E67.42917
G1 X109.843 Y184.522 E67.43585
G1 X109.478 Y184.831 E67.45335
G1 X109.067 Y185.074 E67.47081
G1 X108.621 Y185.246 E67.4883
G1 X108.153 Y185.341 E67.50577
G1 X107.821 Y185.36 E67.51794
G1 X99.179 Y185.36 E67.83412
G1 X98.703 Y185.32 E67.85159
G1 X98.24 Y185.201 E67.86908
G1 X97.803 Y185.007 E67.88658
G1 X97.405 Y184.743 E67.90405
G1 X97.157 Y184.522 E67.9162
G1 X97.028 Y184.393 E67.92288
G1 X96.719 Y184.028 E67.94037
G1 X96.476 Y183.617 E67.95784
G1 X96.304 Y183.171 E67.97533
G1 X96.209 Y182.703 E67.9928
G1 X96.19 Y182.371 E68.00497
G1 X96.191 Y52.629 E72.75173
G1 X96.231 Y52.153 E72.76921
G1 X96.289 Y51.931 E72.7776
G0 F810 X96.35 Y51.69
G0 X96.544 Y51.253
M204 S5000
M205 X30 Y30
G0 F7200 X96.982 Y51.373
M204 S500
M205 X20 Y20
G1 F6000 E72.8042
G1 F900 X97.34 Y50.918 E72.82538
G1 X97.469 Y50.789 E72.83206
G1 X97.807 Y50.508 E72.84814
G1 X98.19 Y50.292 E72.86422
G1 X98.605 Y50.149 E72.88028
G1 X99.18 Y50.08 E72.90147
G1 X107.82 Y50.08 E73.21758
G1 X108.258 Y50.12 E73.23367
G1 X108.681 Y50.238 E73.24973
G1 X109.076 Y50.431 E73.26582
G1 X109.531 Y50.789 E73.287
G1 X109.66 Y50.918 E73.29368
G1 X109.941 Y51.256 E73.30976
G1 X110.157 Y51.639 E73.32584
G1 X110.3 Y52.054 E73.3419
G1 X110.369 Y52.629 E73.36309
G1 X110.37 Y182.371 E78.10985
G1 X110.33 Y182.809 E78.12594
G1 X110.212 Y183.232 E78.14201
G1 X110.019 Y183.627 E78.15809
