;FLAVOR:RepRap
;TIME:2427
;Generated with Cura_SteamEngine 2.3.1
M190 S70
M104 S215
M109 S215
G28 ; home all axes
M117 Purge extruder
G92 E0 ; reset extruder
G1 Z1.0 F3000 ; move z up little to prevent scratching of surface
G1 X0.1 Y20 Z0.3 F5000.0 ; move to start-line position G1 X0.1 Y200.0 Z0.3 F1500.0 E15 ; draw 1st line
G1 X0.4 Y200.0 Z0.3 F5000.0 ; move to side a little
G1 X0.4 Y20 Z0.3 F1500.0 E30 ; draw 2nd line
G92 E0 ; reset extruder
G1 Z1.0 F3000 ; move z up little to prevent scratching of surface

M117 All systems go!
;LAYER_COUNT:463
;LAYER:0
M117 INDICATOR-Layer0
M107
G1 F4200 E-5
G0 F1800 X97.298 Y96.834 Z.16
;TYPE:SKIRT
G1 F4200 E0
G1 F1200 X97.648 Y96.506 E0.01404
G1 X99.061 Y95.338 E0.0677
G1 X99.446 Y95.059 E0.08161
G1 X100.979 Y94.086 E0.13476
G1 X101.398 Y93.855 E0.14876
G1 X103.051 Y93.078 E0.20222
G1 X103.494 Y92.903 E0.21616
G1 X105.221 Y92.342 E0.26931
G1 X105.683 Y92.223 E0.28327
G1 X107.477 Y91.881 E0.33673
G1 X107.95 Y91.822 E0.35068
G1 X109.761 Y91.708 E0.40379
G1 X110.239 Y91.708 E0.41778
G1 X112.05 Y91.822 E0.47089
G1 X112.523 Y91.881 E0.48484
G1 X114.317 Y92.223 E0.5383
G1 X114.779 Y92.342 E0.55226
G1 X116.506 Y92.903 E0.60541
G1 X116.949 Y93.078 E0.61935
G1 X118.602 Y93.855 E0.67281
G1 X119.021 Y94.085 E0.6868
G1 X120.553 Y95.057 E0.7399
G1 X120.938 Y95.337 E0.75384
G1 X122.351 Y96.505 E0.80749
G1 X122.701 Y96.833 E0.82153
G1 X123.938 Y98.151 E0.87444
G1 X124.24 Y98.517 E0.88833
G1 X125.312 Y99.991 E0.94167
G1 X125.569 Y100.395 E0.95569
G1 X126.446 Y101.99 E1.00896
G1 X126.648 Y102.419 E1.02284
G1 X127.32 Y104.112 E1.07615
G1 X127.468 Y104.566 E1.09013
G1 X127.922 Y106.328 E1.14339
G1 X128.012 Y106.798 E1.15739
G1 X128.241 Y108.605 E1.2107
G1 X128.271 Y109.083 E1.22472
G1 X128.271 Y110.912 E1.27826
G1 X128.241 Y111.389 E1.29224
G1 X128.012 Y113.2 E1.34567
G1 X127.922 Y113.672 E1.35974
G1 X127.469 Y115.429 E1.41284
G1 X127.322 Y115.878 E1.42667
G1 X126.65 Y117.576 E1.48012
G1 X126.446 Y118.01 E1.49416
G1 X125.568 Y119.606 E1.54747
G1 X125.312 Y120.009 E1.56145
G1 X124.241 Y121.482 E1.61475
G1 X123.939 Y121.848 E1.62864
G1 X122.702 Y123.166 E1.68154
G1 X122.352 Y123.494 E1.69558
G1 X120.939 Y124.662 E1.74924
G1 X120.554 Y124.941 E1.76316
G1 X119.021 Y125.914 E1.8163
G1 X118.602 Y126.145 E1.8303
G1 X116.949 Y126.922 E1.88376
G1 X116.506 Y127.097 E1.89771
G1 X114.779 Y127.658 E1.95085
G1 X114.317 Y127.777 E1.96482
G1 X112.523 Y128.119 E2.01827
G1 X112.05 Y128.178 E2.03222
G1 X110.239 Y128.292 E2.08533
G1 X109.761 Y128.292 E2.09932
G1 X107.95 Y128.178 E2.15244
G1 X107.477 Y128.119 E2.16639
G1 X105.683 Y127.777 E2.21984
G1 X105.221 Y127.658 E2.2338
G1 X103.494 Y127.097 E2.28695
G1 X103.051 Y126.922 E2.30089
G1 X101.398 Y126.145 E2.35435
G1 X100.979 Y125.914 E2.36836
G1 X99.446 Y124.941 E2.4215
G1 X99.061 Y124.662 E2.43542
G1 X97.648 Y123.494 E2.48907
G1 X97.298 Y123.166 E2.50311
G1 X96.061 Y121.848 E2.55602
G1 X95.759 Y121.482 E2.56991
G1 X94.688 Y120.009 E2.62321
G1 X94.432 Y119.606 E2.63719
G1 X93.554 Y118.01 E2.6905
G1 X93.35 Y117.576 E2.70454
G1 X92.678 Y115.878 E2.75799
G1 X92.531 Y115.429 E2.77181
G1 X92.078 Y113.672 E2.82492
G1 X91.988 Y113.2 E2.83899
G1 X91.759 Y111.389 E2.89241
G1 X91.729 Y110.912 E2.9064
G1 X91.729 Y109.084 E2.95991
G1 X91.759 Y108.606 E2.97392
G1 X91.988 Y106.799 E3.02724
G1 X92.078 Y106.329 E3.04124
G1 X92.532 Y104.567 E3.0945
G1 X92.68 Y104.114 E3.10845
G1 X93.352 Y102.42 E3.16179
G1 X93.554 Y101.99 E3.17569
G1 X94.431 Y100.395 E3.22897
G1 X94.688 Y99.991 E3.24298
G1 X95.759 Y98.518 E3.29629
G1 X96.061 Y98.152 E3.31018
G1 X97.298 Y96.834 E3.36308
G0 F1800 X97.59 Y97.108
G1 F1200 X97.903 Y96.814 E3.37565
G1 X99.316 Y95.646 E3.42931
G1 X99.66 Y95.396 E3.44175
G1 X101.193 Y94.423 E3.4949
G1 X101.569 Y94.217 E3.50745
G1 X103.222 Y93.44 E3.56091
G1 X103.618 Y93.283 E3.57337
G1 X105.345 Y92.722 E3.62652
G1 X105.758 Y92.616 E3.639
G1 X107.552 Y92.274 E3.69246
G1 X107.975 Y92.221 E3.70493
G1 X109.786 Y92.107 E3.75804
G1 X110.214 Y92.107 E3.77057
G1 X112.025 Y92.221 E3.82368
G1 X112.448 Y92.274 E3.83616
G1 X114.242 Y92.616 E3.88961
G1 X114.655 Y92.722 E3.90209
G1 X116.382 Y93.283 E3.95524
G1 X116.778 Y93.44 E3.96771
G1 X118.431 Y94.217 E4.02117
G1 X118.806 Y94.423 E4.03369
G1 X120.338 Y95.395 E4.0868
G1 X120.683 Y95.645 E4.09927
G1 X122.096 Y96.813 E4.15292
G1 X122.409 Y97.107 E4.16549
G1 X123.646 Y98.425 E4.2184
G1 X123.917 Y98.752 E4.23083
G1 X124.989 Y100.226 E4.28417
G1 X125.218 Y100.588 E4.29671
G1 X126.095 Y102.183 E4.34999
G1 X126.276 Y102.567 E4.36241
G1 X126.948 Y104.26 E4.41572
G1 X127.08 Y104.666 E4.42822
G1 X127.534 Y106.428 E4.48148
G1 X127.615 Y106.849 E4.49402
G1 X127.844 Y108.656 E4.54734
G1 X127.871 Y109.083 E4.55986
G1 X127.871 Y110.912 E4.61339
G1 X127.844 Y111.339 E4.62592
G1 X127.615 Y113.15 E4.67934
G1 X127.534 Y113.572 E4.69192
G1 X127.081 Y115.329 E4.74503
G1 X126.95 Y115.731 E4.7574
G1 X126.278 Y117.429 E4.81085
G1 X126.096 Y117.817 E4.8234
G1 X125.218 Y119.413 E4.87671
G1 X124.989 Y119.773 E4.8892
G1 X123.918 Y121.246 E4.9425
G1 X123.647 Y121.574 E4.95496
G1 X122.41 Y122.892 E5.00786
G1 X122.097 Y123.186 E5.02043
G1 X120.684 Y124.354 E5.07409
G1 X120.34 Y124.604 E5.08653
G1 X118.807 Y125.577 E5.13968
G1 X118.431 Y125.783 E5.15223
G1 X116.778 Y126.56 E5.20569
G1 X116.382 Y126.717 E5.21815
G1 X114.655 Y127.278 E5.2713
G1 X114.242 Y127.384 E5.28378
G1 X112.448 Y127.726 E5.33724
G1 X112.025 Y127.779 E5.34971
G1 X110.214 Y127.893 E5.40282
G1 X109.786 Y127.893 E5.41535
G1 X107.975 Y127.779 E5.46846
G1 X107.552 Y127.726 E5.48094
G1 X105.758 Y127.384 E5.53439
G1 X105.345 Y127.278 E5.54687
G1 X103.618 Y126.717 E5.60002
G1 X103.222 Y126.56 E5.61249
G1 X101.569 Y125.783 E5.66595
G1 X101.193 Y125.577 E5.6785
G1 X99.66 Y124.604 E5.73164
G1 X99.316 Y124.354 E5.74409
G1 X97.903 Y123.186 E5.79775
G1 X97.59 Y122.892 E5.81031
G1 X96.353 Y121.574 E5.86322
G1 X96.082 Y121.246 E5.87567
G1 X95.011 Y119.773 E5.92898
G1 X94.782 Y119.413 E5.94147
G1 X93.904 Y117.817 E5.99478
G1 X93.722 Y117.429 E6.00732
G1 X93.05 Y115.731 E6.06077
G1 X92.919 Y115.329 E6.07315
G1 X92.466 Y113.572 E6.12626
G1 X92.385 Y113.15 E6.13883
G1 X92.156 Y111.339 E6.19226
G1 X92.129 Y110.912 E6.20478
G1 X92.129 Y109.084 E6.25829
G1 X92.156 Y108.657 E6.27081
G1 X92.385 Y106.85 E6.32412
G1 X92.466 Y106.429 E6.33667
G1 X92.92 Y104.667 E6.38993
G1 X93.052 Y104.261 E6.40242
G1 X93.724 Y102.567 E6.45576
G1 X93.905 Y102.183 E6.46819
G1 X94.782 Y100.588 E6.52146
G1 X95.011 Y100.227 E6.53398
G1 X96.082 Y98.754 E6.58728
G1 X96.353 Y98.426 E6.59973
G1 X97.59 Y97.108 E6.65264
G0 F1800 X97.882 Y97.382
G1 F1200 X98.158 Y97.123 E6.66372
G1 X99.571 Y95.955 E6.71737
G1 X99.874 Y95.734 E6.72835
G1 X101.407 Y94.761 E6.78149
G1 X101.739 Y94.579 E6.79258
G1 X103.392 Y93.802 E6.84604
G1 X103.741 Y93.664 E6.85702
G1 X105.468 Y93.103 E6.91017
G1 X105.833 Y93.009 E6.9212
G1 X107.627 Y92.667 E6.97465
G1 X108.001 Y92.62 E6.98569
G1 X109.812 Y92.506 E7.0388
G1 X110.188 Y92.506 E7.0498
G1 X111.999 Y92.62 E7.10291
G1 X112.373 Y92.667 E7.11395
G1 X114.167 Y93.009 E7.1674
G1 X114.532 Y93.103 E7.17843
G1 X116.259 Y93.664 E7.23158
G1 X116.608 Y93.802 E7.24256
G1 X118.261 Y94.579 E7.29602
G1 X118.592 Y94.761 E7.30708
G1 X120.124 Y95.733 E7.36018
G1 X120.428 Y95.954 E7.37118
G1 X121.841 Y97.122 E7.42484
G1 X122.117 Y97.381 E7.43592
G1 X123.354 Y98.699 E7.48882
G1 X123.593 Y98.987 E7.49978
G1 X124.665 Y100.461 E7.55312
G1 X124.868 Y100.781 E7.56422
G1 X125.745 Y102.376 E7.61749
G1 X125.904 Y102.714 E7.62842
G1 X126.576 Y104.407 E7.68174
G1 X126.693 Y104.765 E7.69276
G1 X127.147 Y106.527 E7.74602
G1 X127.218 Y106.899 E7.7571
G1 X127.447 Y108.706 E7.81041
G1 X127.471 Y109.083 E7.82147
G1 X127.471 Y110.912 E7.875
G1 X127.447 Y111.288 E7.88603
G1 X127.218 Y113.099 E7.93946
G1 X127.147 Y113.472 E7.95057
G1 X126.694 Y115.229 E8.00368
G1 X126.578 Y115.584 E8.01461
G1 X125.906 Y117.282 E8.06806
G1 X125.746 Y117.624 E8.07911
G1 X124.868 Y119.22 E8.13243
G1 X124.665 Y119.538 E8.14347
G1 X123.594 Y121.011 E8.19677
G1 X123.355 Y121.3 E8.20775
G1 X122.118 Y122.618 E8.26066
G1 X121.842 Y122.877 E8.27173
G1 X120.429 Y124.045 E8.32539
G1 X120.126 Y124.266 E8.33637
G1 X118.593 Y125.239 E8.38951
G1 X118.261 Y125.421 E8.40059
G1 X116.608 Y126.198 E8.45405
G1 X116.259 Y126.336 E8.46504
G1 X114.532 Y126.897 E8.51818
G1 X114.167 Y126.991 E8.52922
G1 X112.373 Y127.333 E8.58267
G1 X111.999 Y127.38 E8.5937
G1 X110.188 Y127.494 E8.64681
G1 X109.812 Y127.494 E8.65782
G1 X108.001 Y127.38 E8.71093
G1 X107.627 Y127.333 E8.72196
G1 X105.833 Y126.991 E8.77542
G1 X105.468 Y126.897 E8.78645
G1 X103.741 Y126.336 E8.8396
G1 X103.392 Y126.198 E8.85058
G1 X101.739 Y125.421 E8.90404
G1 X101.407 Y125.239 E8.91512
G1 X99.874 Y124.266 E8.96827
G1 X99.571 Y124.045 E8.97924
G1 X98.158 Y122.877 E9.0329
G1 X97.882 Y122.618 E9.04398
G1 X96.645 Y121.3 E9.09688
G1 X96.406 Y121.011 E9.10786
G1 X95.335 Y119.538 E9.16116
G1 X95.132 Y119.22 E9.17221
G1 X94.254 Y117.624 E9.22552
G1 X94.094 Y117.282 E9.23657
G1 X93.422 Y115.584 E9.29002
G1 X93.306 Y115.229 E9.30095
G1 X92.853 Y113.472 E9.35406
G1 X92.782 Y113.099 E9.36517
G1 X92.553 Y111.288 E9.4186
G1 X92.529 Y110.912 E9.42963
G1 X92.529 Y109.084 E9.48313
G1 X92.553 Y108.707 E9.49419
G1 X92.782 Y106.9 E9.5475
G1 X92.853 Y106.528 E9.55859
G1 X93.307 Y104.766 E9.61184
G1 X93.423 Y104.409 E9.62283
G1 X94.095 Y102.715 E9.67617
G1 X94.255 Y102.376 E9.68714
G1 X95.132 Y100.781 E9.74042
G1 X95.335 Y100.462 E9.75148
G1 X96.406 Y98.989 E9.80479
G1 X96.645 Y98.7 E9.81577
G1 X97.882 Y97.382 E9.86867
G0 F1800 X98.173 Y97.656
G1 F1200 X98.412 Y97.431 E9.87828
G1 X99.825 Y96.263 E9.93194
G1 X100.089 Y96.072 E9.94147
G1 X101.622 Y95.099 E9.99462
G1 X101.909 Y94.941 E10.00421
G1 X103.562 Y94.164 E10.05767
G1 X103.865 Y94.044 E10.0672
G1 X105.592 Y93.483 E10.12035
G1 X105.908 Y93.402 E10.1299
G1 X107.702 Y93.06 E10.18335
G1 X108.026 Y93.019 E10.19291
G1 X109.837 Y92.905 E10.24602
G1 X110.163 Y92.905 E10.25557
G1 X111.974 Y93.019 E10.30868
G1 X112.298 Y93.06 E10.31823
G1 X114.092 Y93.402 E10.37169
G1 X114.408 Y93.483 E10.38124
G1 X116.135 Y94.044 E10.43438
G1 X116.438 Y94.164 E10.44392
G1 X118.091 Y94.941 E10.49738
G1 X118.378 Y95.099 E10.50697
G1 X119.91 Y96.071 E10.56008
G1 X120.174 Y96.262 E10.56961
G1 X121.587 Y97.43 E10.62327
G1 X121.826 Y97.655 E10.63288
G1 X123.063 Y98.973 E10.68578
G1 X123.27 Y99.223 E10.69528
G1 X124.342 Y100.697 E10.74863
G1 X124.517 Y100.973 E10.75819
G1 X125.394 Y102.568 E10.81147
G1 X125.533 Y102.862 E10.82099
G1 X126.205 Y104.555 E10.8743
G1 X126.306 Y104.865 E10.88384
G1 X126.76 Y106.627 E10.9371
G1 X126.821 Y106.949 E10.94669
G1 X127.05 Y108.756 E11
G1 X127.071 Y109.083 E11.00959
G1 X127.071 Y110.912 E11.06313
G1 X127.05 Y111.238 E11.07269
G1 X126.821 Y113.049 E11.12612
G1 X126.76 Y113.372 E11.13574
G1 X126.307 Y115.129 E11.18884
G1 X126.207 Y115.437 E11.19832
G1 X125.535 Y117.135 E11.25177
G1 X125.395 Y117.431 E11.26136
G1 X124.517 Y119.027 E11.31467
G1 X124.342 Y119.303 E11.32424
G1 X123.271 Y120.776 E11.37754
G1 X123.064 Y121.026 E11.38704
G1 X121.827 Y122.344 E11.43995
G1 X121.588 Y122.569 E11.44955
G1 X120.175 Y123.737 E11.50321
G1 X119.911 Y123.928 E11.51275
G1 X118.378 Y124.901 E11.56589
G1 X118.091 Y125.059 E11.57548
G1 X116.438 Y125.836 E11.62894
G1 X116.135 Y125.956 E11.63848
G1 X114.408 Y126.517 E11.69163
G1 X114.092 Y126.598 E11.70118
G1 X112.298 Y126.94 E11.75463
G1 X111.974 Y126.981 E11.76419
G1 X110.163 Y127.095 E11.8173
G1 X109.837 Y127.095 E11.82684
G1 X108.026 Y126.981 E11.87995
G1 X107.702 Y126.94 E11.88951
G1 X105.908 Y126.598 E11.94296
G1 X105.592 Y126.517 E11.95251
G1 X103.865 Y125.956 E12.00566
G1 X103.562 Y125.836 E12.0152
G1 X101.909 Y125.059 E12.06866
G1 X101.622 Y124.901 E12.07825
G1 X100.089 Y123.928 E12.13139
G1 X99.825 Y123.737 E12.14093
G1 X98.412 Y122.569 E12.19459
G1 X98.173 Y122.344 E12.20419
G1 X96.936 Y121.026 E12.2571
G1 X96.729 Y120.776 E12.2666
G1 X95.658 Y119.303 E12.3199
G1 X95.483 Y119.027 E12.32947
G1 X94.605 Y117.431 E12.38278
G1 X94.465 Y117.135 E12.39237
G1 X93.793 Y115.437 E12.44582
G1 X93.693 Y115.129 E12.45529
G1 X93.24 Y113.372 E12.5084
G1 X93.179 Y113.049 E12.51802
G1 X92.95 Y111.238 E12.57145
G1 X92.929 Y110.912 E12.58101
G1 X92.929 Y109.084 E12.63452
G1 X92.95 Y108.757 E12.64411
G1 X93.179 Y106.95 E12.69742
G1 X93.24 Y106.628 E12.70701
G1 X93.694 Y104.866 E12.76027
G1 X93.795 Y104.556 E12.76981
G1 X94.467 Y102.862 E12.82315
G1 X94.606 Y102.568 E12.83267
G1 X95.483 Y100.973 E12.88594
G1 X95.658 Y100.697 E12.89551
G1 X96.729 Y99.224 E12.94881
G1 X96.936 Y98.974 E12.95831
G1 X98.173 Y97.656 E13.01122
G0 F1800 X98.465 Y97.929
G1 F1200 X98.667 Y97.739 E13.01934
G1 X100.08 Y96.571 E13.07299
G1 X100.303 Y96.41 E13.08104
G1 X101.836 Y95.437 E13.13419
G1 X102.079 Y95.303 E13.14231
G1 X103.732 Y94.526 E13.19577
G1 X103.988 Y94.425 E13.20382
G1 X105.715 Y93.864 E13.25697
G1 X105.983 Y93.795 E13.26507
G1 X107.777 Y93.453 E13.31853
G1 X108.051 Y93.418 E13.32661
G1 X109.862 Y93.304 E13.37972
G1 X110.138 Y93.304 E13.3878
G1 X111.949 Y93.418 E13.44091
G1 X112.223 Y93.453 E13.449
G1 X114.017 Y93.795 E13.50245
G1 X114.285 Y93.864 E13.51055
G1 X116.012 Y94.425 E13.5637
G1 X116.268 Y94.526 E13.57175
G1 X117.921 Y95.303 E13.62521
G1 X118.164 Y95.436 E13.63332
G1 X119.696 Y96.408 E13.68642
G1 X119.919 Y96.57 E13.69449
G1 X121.332 Y97.738 E13.74815
G1 X121.534 Y97.928 E13.75626
G1 X122.771 Y99.246 E13.80917
G1 X122.946 Y99.458 E13.81722
G1 X124.018 Y100.932 E13.87056
G1 X124.167 Y101.166 E13.87868
G1 X125.044 Y102.761 E13.93196
G1 X125.161 Y103.009 E13.93998
G1 X125.833 Y104.702 E13.9933
G1 X125.918 Y104.965 E14.00139
G1 X126.372 Y106.727 E14.05464
G1 X126.425 Y106.999 E14.06275
G1 X126.654 Y108.806 E14.11606
G1 X126.671 Y109.083 E14.12419
G1 X126.671 Y110.912 E14.17772
G1 X126.654 Y111.188 E14.18581
G1 X126.425 Y112.999 E14.23924
G1 X126.372 Y113.272 E14.24738
G1 X125.919 Y115.029 E14.30049
G1 X125.835 Y115.29 E14.30851
G1 X125.163 Y116.988 E14.36196
G1 X125.045 Y117.238 E14.37005
G1 X124.167 Y118.834 E14.42337
G1 X124.018 Y119.068 E14.43149
G1 X122.947 Y120.541 E14.48479
G1 X122.772 Y120.753 E14.49284
G1 X121.535 Y122.071 E14.54574
G1 X121.333 Y122.261 E14.55386
G1 X119.92 Y123.429 E14.60752
G1 X119.697 Y123.59 E14.61557
G1 X118.164 Y124.563 E14.66871
G1 X117.921 Y124.697 E14.67684
G1 X116.268 Y125.474 E14.7303
G1 X116.012 Y125.575 E14.73835
G1 X114.285 Y126.136 E14.7915
G1 X114.017 Y126.205 E14.7996
G1 X112.223 Y126.547 E14.85305
G1 X111.949 Y126.582 E14.86114
G1 X110.138 Y126.696 E14.91425
G1 X109.862 Y126.696 E14.92233
G1 X108.051 Y126.582 E14.97544
G1 X107.777 Y126.547 E14.98352
G1 X105.983 Y126.205 E15.03698
G1 X105.715 Y126.136 E15.04508
G1 X103.988 Y125.575 E15.09822
G1 X103.732 Y125.474 E15.10628
G1 X102.079 Y124.697 E15.15974
G1 X101.836 Y124.563 E15.16786
G1 X100.303 Y123.59 E15.221
G1 X100.08 Y123.429 E15.22905
G1 X98.667 Y122.261 E15.28271
G1 X98.465 Y122.071 E15.29083
G1 X97.228 Y120.753 E15.34373
G1 X97.053 Y120.541 E15.35178
G1 X95.982 Y119.068 E15.40508
G1 X95.833 Y118.834 E15.4132
G1 X94.955 Y117.238 E15.46652
G1 X94.837 Y116.988 E15.47461
G1 X94.165 Y115.29 E15.52806
G1 X94.081 Y115.029 E15.53608
G1 X93.628 Y113.272 E15.58919
G1 X93.575 Y112.999 E15.59733
G1 X93.346 Y111.188 E15.65076
G1 X93.329 Y110.912 E15.65885
G1 X93.329 Y109.084 E15.71236
G1 X93.346 Y108.807 E15.72048
G1 X93.575 Y107 E15.77379
G1 X93.628 Y106.728 E15.7819
G1 X94.082 Y104.966 E15.83516
G1 X94.167 Y104.704 E15.84322
G1 X94.839 Y103.01 E15.89656
G1 X94.956 Y102.761 E15.90461
G1 X95.833 Y101.166 E15.95789
G1 X95.982 Y100.932 E15.96601
G1 X97.053 Y99.459 E16.01931
G1 X97.228 Y99.247 E16.02736
G1 X98.465 Y97.929 E16.08026
G0 F1800 X98.757 Y98.203
G1 F1200 X98.922 Y98.048 E16.08689
G1 X100.335 Y96.88 E16.14055
G1 X100.517 Y96.747 E16.14714
G1 X102.05 Y95.774 E16.20029
G1 X102.249 Y95.665 E16.20693
G1 X103.902 Y94.888 E16.26039
G1 X104.112 Y94.805 E16.267
G1 X105.839 Y94.244 E16.32015
G1 X106.058 Y94.188 E16.32676
G1 X107.852 Y93.846 E16.38022
G1 X108.076 Y93.818 E16.38682
G1 X109.887 Y93.704 E16.43993
G1 X110.113 Y93.704 E16.44655
G1 X111.924 Y93.818 E16.49966
