;FLAVOR:RepRap
;TIME:3408
;Generated with Cura_SteamEngine 2.3.1
M190 S70
M104 S215
M109 S215
G28 ; home all axes
M117 Purge extruder
G92 E0 ; reset extruder
G1 Z1.0 F3000 ; move z up little to prevent scratching of surface
G1 X0.1 Y20 Z0.3 F5000.0 ; move to start-line position G1 X0.1 Y200.0 Z0.3 F1500.0 E15 ; draw 1st line
G1 X0.4 Y200.0 Z0.3 F5000.0 ; move to side a little
G1 X0.4 Y20 Z0.3 F1500.0 E30 ; draw 2nd line
G92 E0 ; reset extruder
G1 Z1.0 F3000 ; move z up little to prevent scratching of surface

M117 All systems go!
;LAYER_COUNT:131
;LAYER:0
M117 INDICATOR-Layer0
M107
G1 F4200 E-5
G0 F1800 X91.292 Y91.337 Z.16
G0 X91.597 Y91.034
;TYPE:SKIRT
G1 F4200 E0
G1 F1200 X91.88 Y90.783 E0.01107
G1 X92.317 Y90.448 E0.02719
G1 X92.745 Y90.206 E0.04158
G1 X93.497 Y89.842 E0.06603
G1 X94.009 Y89.638 E0.08216
G1 X94.519 Y89.515 E0.09752
G1 X94.933 Y89.445 E0.10981
G1 X95.565 Y89.392 E0.12837
G1 X110.965 Y89.386 E0.57911
G1 X110.953 Y89.173 E0.58536
G1 X110.964 Y84.955 E0.70881
G1 X111.005 Y84.406 E0.72493
G1 X111.126 Y83.868 E0.74107
G1 X111.323 Y83.353 E0.75721
G1 X111.592 Y82.873 E0.77331
G1 X111.928 Y82.436 E0.78944
G1 X112.323 Y82.052 E0.80557
G1 X112.774 Y81.728 E0.82182
G1 X113.171 Y81.484 E0.83546
G1 X113.66 Y81.23 E0.85159
G1 X114.181 Y81.05 E0.86772
G1 X114.722 Y80.946 E0.88385
G1 X115.067 Y80.926 E0.89396
G1 X115.31 Y80.856 E0.90136
G1 X115.856 Y80.782 E0.91749
G1 X116.377 Y80.784 E0.93274
G1 X116.714 Y80.809 E0.94263
G1 X117.259 Y80.89 E0.95876
G1 X117.787 Y81.048 E0.97489
G1 X118.286 Y81.282 E0.99102
G1 X118.746 Y81.584 E1.00713
G1 X118.907 Y81.728 E1.01345
G1 X118.962 Y81.699 E1.01527
G1 X119.482 Y81.516 E1.0314
G1 X120.228 Y81.392 E1.05354
G1 X121.482 Y81.31 E1.09032
G1 X122.033 Y81.314 E1.10645
G1 X122.578 Y81.398 E1.12259
G1 X123.104 Y81.559 E1.13869
G1 X123.602 Y81.795 E1.15482
G1 X124.061 Y82.101 E1.17096
G1 X124.47 Y82.469 E1.18707
G1 X124.822 Y82.893 E1.20319
G1 X125.109 Y83.364 E1.21934
G1 X125.325 Y83.871 E1.23547
G1 X125.465 Y84.404 E1.2516
G1 X125.53 Y85.102 E1.27212
G1 X125.53 Y97.183 E1.62571
G1 X125.49 Y97.733 E1.64185
G1 X125.371 Y98.271 E1.65798
G1 X125.175 Y98.786 E1.67411
G1 X124.984 Y99.129 E1.6856
G1 X125.302 Y99.131 E1.69491
G1 X125.847 Y99.215 E1.71105
G1 X126.373 Y99.376 E1.72715
G1 X126.871 Y99.612 E1.74328
G1 X127.33 Y99.918 E1.75942
G1 X127.739 Y100.286 E1.77553
G1 X128.091 Y100.71 E1.79166
G1 X128.378 Y101.181 E1.8078
G1 X128.594 Y101.688 E1.82393
G1 X128.734 Y102.221 E1.84006
G1 X128.799 Y102.919 E1.86058
G1 X128.799 Y115 E2.21418
G1 X128.759 Y115.55 E2.23032
G1 X128.64 Y116.088 E2.24644
G1 X128.444 Y116.603 E2.26257
G1 X128.176 Y117.084 E2.27869
G1 X127.842 Y117.522 E2.29481
G1 X127.447 Y117.906 E2.31093
G1 X127.001 Y118.23 E2.32707
G1 X126.513 Y118.485 E2.34318
G1 X125.993 Y118.668 E2.35932
G1 X125.452 Y118.773 E2.37545
G1 X124.999 Y118.8 E2.38873
G1 X105.087 Y118.8 E2.97153
G1 X105.056 Y119.225 E2.98401
G1 X104.937 Y119.763 E3.00013
G1 X104.741 Y120.278 E3.01626
G1 X104.473 Y120.759 E3.03238
G1 X104.139 Y121.197 E3.0485
G1 X103.744 Y121.581 E3.06462
G1 X103.164 Y121.984 E3.08529
G1 X102.962 Y122.098 E3.09208
G1 X102.463 Y122.334 E3.10824
G1 X101.936 Y122.494 E3.12436
G1 X101.392 Y122.577 E3.14047
G1 X100.841 Y122.581 E3.15659
G1 X100.295 Y122.504 E3.17273
G1 X99.766 Y122.349 E3.18887
G1 X99.088 Y122.016 E3.21098
G1 X98.681 Y121.763 E3.225
G1 X98.082 Y121.302 E3.24713
G1 X94.627 Y118.048 E3.38604
G1 X94.254 Y117.642 E3.40218
G1 X93.944 Y117.187 E3.41829
G1 X93.746 Y116.795 E3.43114
G1 X93.421 Y116.046 E3.45504
G1 X93.239 Y115.526 E3.47117
G1 X93.134 Y114.985 E3.4873
G1 X93.107 Y114.59 E3.49888
G1 X93.081 Y112.859 E3.54956
G1 X93.113 Y112.309 E3.56568
G1 X93.213 Y111.81 E3.58058
G1 X93.372 Y111.222 E3.5984
G1 X93.554 Y110.702 E3.61453
G1 X93.881 Y110.102 E3.63453
G1 X94.228 Y109.583 E3.6528
G1 X94.567 Y109.148 E3.66894
G1 X94.865 Y108.852 E3.68124
G1 X95.157 Y108.593 E3.69266
G1 X95.595 Y108.258 E3.7088
G1 X96.17 Y107.949 E3.72791
G1 X97.092 Y107.55 E3.75731
G1 X97.612 Y107.368 E3.77344
G1 X98.153 Y107.263 E3.78957
G1 X98.595 Y107.237 E3.80253
G1 X114.235 Y107.213 E4.26029
G1 X114.222 Y106.985 E4.26698
G1 X114.237 Y102.764 E4.39052
G1 X114.279 Y102.215 E4.40664
G1 X114.4 Y101.678 E4.42275
G1 X114.597 Y101.163 E4.43889
G1 X114.698 Y100.983 E4.44493
G1 X101.817 Y100.983 E4.82194
G1 X101.786 Y101.409 E4.83444
G1 X101.667 Y101.947 E4.85057
G1 X101.471 Y102.462 E4.8667
G1 X101.203 Y102.943 E4.88281
G1 X100.868 Y103.38 E4.89893
G1 X100.473 Y103.765 E4.91508
G1 X99.894 Y104.167 E4.93571
G1 X99.692 Y104.281 E4.94249
G1 X99.193 Y104.517 E4.95865
G1 X98.666 Y104.677 E4.97477
G1 X98.122 Y104.76 E4.99088
G1 X97.571 Y104.764 E5.00701
G1 X97.025 Y104.687 E5.02314
G1 X96.496 Y104.532 E5.03928
G1 X95.819 Y104.2 E5.06135
G1 X95.415 Y103.949 E5.07527
G1 X94.815 Y103.488 E5.09742
G1 X91.357 Y100.233 E5.23641
G1 X90.985 Y99.827 E5.25253
G1 X90.674 Y99.372 E5.26866
G1 X90.475 Y98.976 E5.28163
G1 X90.151 Y98.228 E5.30549
G1 X89.969 Y97.708 E5.32162
G1 X89.865 Y97.167 E5.33774
G1 X89.838 Y96.775 E5.34924
G1 X89.812 Y95.042 E5.39997
G1 X89.844 Y94.492 E5.4161
G1 X89.943 Y93.994 E5.43096
G1 X90.101 Y93.409 E5.44869
G1 X90.283 Y92.889 E5.46482
G1 X90.606 Y92.295 E5.48461
G1 X90.954 Y91.772 E5.50299
G1 X91.292 Y91.337 E5.51912
G1 X91.597 Y91.034 E5.5317
G0 F1800 X91.862 Y91.333
G1 F1200 X92.145 Y91.082 E5.54277
G1 X92.56 Y90.767 E5.55802
G1 X92.92 Y90.566 E5.57009
G1 X93.672 Y90.202 E5.59454
G1 X94.157 Y90.011 E5.6098
G1 X94.586 Y89.91 E5.6227
G1 X95 Y89.84 E5.63499
G1 X95.566 Y89.792 E5.65161
G1 X111.41 Y89.786 E6.11535
G1 X111.353 Y89.174 E6.13334
G1 X111.364 Y84.956 E6.2568
G1 X111.405 Y84.437 E6.27204
G1 X111.526 Y83.93 E6.28729
G1 X111.722 Y83.447 E6.30255
G1 X111.99 Y83 E6.3178
G1 X112.323 Y82.599 E6.33306
G1 X112.713 Y82.253 E6.34832
G1 X112.984 Y82.068 E6.35792
G1 X113.381 Y81.824 E6.37156
G1 X113.844 Y81.586 E6.3868
G1 X114.339 Y81.422 E6.40206
G1 X114.853 Y81.335 E6.41732
G1 X115.137 Y81.322 E6.42564
G1 X115.448 Y81.236 E6.43508
G1 X115.966 Y81.176 E6.45035
G1 X116.348 Y81.183 E6.46153
G1 X116.685 Y81.208 E6.47142
G1 X117.2 Y81.287 E6.48667
G1 X117.697 Y81.443 E6.50192
G1 X118.165 Y81.673 E6.51718
G1 X118.591 Y81.972 E6.53241
G1 X118.837 Y82.207 E6.54237
G1 X118.856 Y82.195 E6.54303
G1 X119.331 Y81.982 E6.55826
G1 X119.834 Y81.845 E6.57352
G1 X120.254 Y81.791 E6.58592
G1 X121.508 Y81.709 E6.6227
G1 X122.029 Y81.715 E6.63795
G1 X122.543 Y81.801 E6.6532
G1 X123.038 Y81.964 E6.66846
G1 X123.503 Y82.201 E6.68373
G1 X123.925 Y82.506 E6.69897
G1 X124.296 Y82.872 E6.71422
G1 X124.607 Y83.29 E6.72947
G1 X124.85 Y83.751 E6.74473
G1 X125.02 Y84.244 E6.75999
G1 X125.112 Y84.757 E6.77524
G1 X125.13 Y85.102 E6.78536
G1 X125.13 Y97.183 E7.13895
G1 X125.09 Y97.703 E7.15422
G1 X124.971 Y98.21 E7.16946
G1 X124.776 Y98.693 E7.18471
G1 X124.51 Y99.141 E7.19996
G1 X124.178 Y99.543 E7.21522
G1 X124.151 Y99.567 E7.21627
G1 X124.777 Y99.526 E7.23464
G1 X125.298 Y99.532 E7.24989
G1 X125.812 Y99.618 E7.26514
G1 X126.307 Y99.781 E7.28039
G1 X126.772 Y100.018 E7.29567
G1 X127.194 Y100.323 E7.31091
G1 X127.565 Y100.689 E7.32616
G1 X127.876 Y101.107 E7.34141
G1 X128.119 Y101.568 E7.35666
G1 X128.289 Y102.061 E7.37193
G1 X128.381 Y102.574 E7.38718
G1 X128.399 Y102.919 E7.39729
G1 X128.399 Y115 E7.75089
G1 X128.359 Y115.52 E7.76616
G1 X128.24 Y116.027 E7.7814
G1 X128.045 Y116.51 E7.79664
G1 X127.779 Y116.958 E7.81189
G1 X127.447 Y117.36 E7.82715
G1 X127.057 Y117.706 E7.84241
G1 X126.619 Y117.989 E7.85768
G1 X126.144 Y118.202 E7.87291
G1 X125.641 Y118.339 E7.88817
G1 X124.999 Y118.4 E7.90705
G1 X104.696 Y118.4 E8.50129
G1 X104.696 Y118.675 E8.50934
G1 X104.656 Y119.195 E8.52461
G1 X104.537 Y119.702 E8.53985
G1 X104.342 Y120.185 E8.55509
G1 X104.076 Y120.633 E8.57034
G1 X103.744 Y121.035 E8.5856
G1 X103.354 Y121.381 E8.60086
G1 X102.967 Y121.636 E8.61443
G1 X102.765 Y121.75 E8.62122
G1 X102.293 Y121.971 E8.63647
G1 X101.793 Y122.116 E8.65171
G1 X101.276 Y122.184 E8.66697
G1 X100.755 Y122.172 E8.68222
G1 X100.242 Y122.08 E8.69748
G1 X99.749 Y121.912 E8.71272
G1 X99.299 Y121.677 E8.72758
G1 X98.892 Y121.424 E8.74161
G1 X98.356 Y121.011 E8.76141
G1 X94.901 Y117.757 E8.90033
G1 X94.55 Y117.372 E8.91558
G1 X94.262 Y116.937 E8.93085
G1 X94.113 Y116.635 E8.9407
G1 X93.788 Y115.886 E8.9646
G1 X93.618 Y115.394 E8.97984
G1 X93.525 Y114.881 E8.99509
G1 X93.507 Y114.584 E9.0038
G1 X93.481 Y112.853 E9.05447
G1 X93.514 Y112.333 E9.06972
G1 X93.599 Y111.914 E9.08224
G1 X93.758 Y111.326 E9.10007
G1 X93.932 Y110.835 E9.11531
G1 X94.214 Y110.324 E9.1324
G1 X94.561 Y109.805 E9.15067
G1 X94.883 Y109.395 E9.16593
G1 X95.131 Y109.151 E9.17611
G1 X95.423 Y108.892 E9.18753
G1 X95.838 Y108.577 E9.20278
G1 X96.329 Y108.316 E9.21906
G1 X97.251 Y107.917 E9.24846
G1 X97.743 Y107.747 E9.2637
G1 X98.256 Y107.655 E9.27895
G1 X98.596 Y107.637 E9.28892
G1 X114.68 Y107.612 E9.75968
G1 X114.622 Y106.987 E9.77805
G1 X114.637 Y102.766 E9.9016
G1 X114.679 Y102.246 E9.91687
G1 X114.799 Y101.739 E9.93212
G1 X114.996 Y101.257 E9.94736
G1 X115.264 Y100.81 E9.96261
G1 X115.453 Y100.583 E9.97126
G1 X101.426 Y100.583 E10.38181
G1 X101.426 Y100.859 E10.38989
G1 X101.386 Y101.379 E10.40515
G1 X101.267 Y101.886 E10.4204
G1 X101.072 Y102.369 E10.43564
G1 X100.805 Y102.817 E10.45091
G1 X100.473 Y103.219 E10.46617
G1 X100.083 Y103.565 E10.48143
G1 X99.697 Y103.819 E10.49495
G1 X99.495 Y103.933 E10.50174
G1 X99.023 Y104.154 E10.51699
G1 X98.523 Y104.299 E10.53223
G1 X98.006 Y104.367 E10.54749
G1 X97.485 Y104.355 E10.56275
G1 X96.972 Y104.263 E10.578
G1 X96.479 Y104.095 E10.59325
G1 X96.03 Y103.86 E10.60808
G1 X95.626 Y103.609 E10.622
G1 X95.09 Y103.197 E10.64179
G1 X91.632 Y99.942 E10.78078
G1 X91.281 Y99.556 E10.79606
G1 X90.993 Y99.122 E10.8113
G1 X90.842 Y98.817 E10.82126
G1 X90.518 Y98.069 E10.84512
G1 X90.348 Y97.577 E10.86036
G1 X90.256 Y97.064 E10.87561
G1 X90.238 Y96.769 E10.88426
G1 X90.212 Y95.036 E10.93499
G1 X90.245 Y94.516 E10.95024
G1 X90.33 Y94.098 E10.96272
G1 X90.488 Y93.513 E10.98046
G1 X90.662 Y93.022 E10.99571
G1 X90.939 Y92.517 E11.01257
G1 X91.287 Y91.994 E11.03095
G1 X91.608 Y91.583 E11.04622
G1 X91.862 Y91.333 E11.05665
G0 F1800 X92.127 Y91.633
G1 F1200 X92.41 Y91.382 E11.06772
G1 X92.802 Y91.088 E11.08206
G1 X93.094 Y90.926 E11.09183
G1 X93.846 Y90.562 E11.11629
G1 X94.302 Y90.385 E11.1306
G1 X94.653 Y90.304 E11.14115
G1 X95.067 Y90.234 E11.15344
G1 X95.566 Y90.192 E11.16809
G1 X111.936 Y90.185 E11.64723
G1 X111.857 Y89.966 E11.65404
G1 X111.768 Y89.485 E11.66836
G1 X111.753 Y89.175 E11.67744
G1 X111.764 Y84.957 E11.8009
G1 X111.805 Y84.469 E11.81523
G1 X111.925 Y83.995 E11.82954
G1 X112.121 Y83.546 E11.84388
G1 X112.387 Y83.135 E11.85821
G1 X112.716 Y82.773 E11.87253
G1 X113.193 Y82.409 E11.89009
G1 X113.59 Y82.165 E11.90373
G1 X114.027 Y81.944 E11.91806
G1 X114.493 Y81.796 E11.93237
G1 X115.161 Y81.721 E11.95205
G1 X115.186 Y81.721 E11.95278
G1 X115.583 Y81.618 E11.96478
G1 X116.07 Y81.574 E11.9791
G1 X116.318 Y81.582 E11.98636
G1 X116.655 Y81.607 E11.99625
G1 X117.139 Y81.683 E12.01059
G1 X117.603 Y81.837 E12.0249
G1 X118.037 Y82.064 E12.03923
G1 X118.428 Y82.358 E12.05355
G1 X118.766 Y82.713 E12.0679
G1 X118.77 Y82.72 E12.06814
G1 X118.805 Y82.692 E12.06945
G1 X119.233 Y82.454 E12.08378
G1 X119.693 Y82.288 E12.09809
G1 X120.28 Y82.19 E12.11551
G1 X121.534 Y82.108 E12.15229
G1 X122.024 Y82.116 E12.16664
G1 X122.505 Y82.204 E12.18095
G1 X122.966 Y82.369 E12.19528
G1 X123.394 Y82.606 E12.2096
G1 X123.778 Y82.91 E12.22394
G1 X124.107 Y83.272 E12.23825
G1 X124.373 Y83.683 E12.25258
G1 X124.569 Y84.132 E12.26692
G1 X124.689 Y84.606 E12.28123
G1 X124.73 Y85.102 E12.2958
G1 X124.73 Y97.183 E12.6494
G1 X124.69 Y97.671 E12.66373
G1 X124.571 Y98.146 E12.67806
G1 X124.377 Y98.595 E12.69238
G1 X124.112 Y99.007 E12.70671
G1 X123.784 Y99.37 E12.72103
G1 X123.401 Y99.675 E12.73536
G1 X122.973 Y99.913 E12.7497
G1 X122.513 Y100.079 E12.76401
G1 X122.032 Y100.168 E12.77833
G1 X121.73 Y100.183 E12.78718
G1 X121.718 Y100.183 E12.78753
G1 X122.048 Y100.53 E12.80155
G1 X122.074 Y100.509 E12.80252
G1 X122.502 Y100.271 E12.81686
G1 X122.962 Y100.105 E12.83117
G1 X123.549 Y100.007 E12.84859
G1 X124.803 Y99.925 E12.88537
G1 X125.293 Y99.933 E12.89972
G1 X125.774 Y100.021 E12.91403
G1 X126.235 Y100.186 E12.92836
G1 X126.663 Y100.423 E12.94268
G1 X127.047 Y100.727 E12.95701
G1 X127.376 Y101.089 E12.97133
G1 X127.642 Y101.5 E12.98566
G1 X127.838 Y101.949 E13
G1 X127.958 Y102.423 E13.01431
G1 X127.999 Y102.919 E13.02888
G1 X127.999 Y115 E13.38247
G1 X127.959 Y115.488 E13.39681
G1 X127.84 Y115.963 E13.41114
G1 X127.646 Y116.412 E13.42545
G1 X127.381 Y116.824 E13.43979
G1 X127.053 Y117.187 E13.45411
G1 X126.67 Y117.492 E13.46844
G1 X126.242 Y117.73 E13.48278
G1 X125.782 Y117.896 E13.49709
G1 X125.301 Y117.985 E13.51141
G1 X124.999 Y118 E13.52026
G1 X104.296 Y118 E14.12621
G1 X104.296 Y118.675 E14.14597
G1 X104.256 Y119.163 E14.1603
G1 X104.137 Y119.638 E14.17463
G1 X103.943 Y120.087 E14.18895
G1 X103.678 Y120.499 E14.20328
G1 X103.35 Y120.862 E14.2176
G1 X102.77 Y121.288 E14.23867
G1 X102.568 Y121.402 E14.24546
G1 X102.124 Y121.607 E14.25977
G1 X101.652 Y121.737 E14.2741
G1 X101.165 Y121.788 E14.28843
G1 X100.677 Y121.76 E14.30274
G1 X100.199 Y121.652 E14.31708
G1 X99.745 Y121.469 E14.33141
G1 X99.51 Y121.337 E14.3393
G1 X99.103 Y121.084 E14.35332
G1 X98.63 Y120.72 E14.37079
G1 X95.175 Y117.466 E14.50971
G1 X94.847 Y117.102 E14.52405
G1 X94.48 Y116.476 E14.54529
G1 X94.155 Y115.727 E14.56918
G1 X93.997 Y115.264 E14.5835
G1 X93.907 Y114.578 E14.60375
G1 X93.881 Y112.847 E14.65442
G1 X93.914 Y112.359 E14.66874
G1 X93.985 Y112.019 E14.6789
G1 X94.144 Y111.431 E14.69673
G1 X94.31 Y110.97 E14.71107
G1 X94.546 Y110.547 E14.72525
G1 X94.893 Y110.028 E14.74352
G1 X95.197 Y109.644 E14.75786
G1 X95.396 Y109.451 E14.76597
G1 X95.688 Y109.192 E14.7774
G1 X96.08 Y108.898 E14.79174
G1 X96.488 Y108.683 E14.80524
G1 X97.41 Y108.284 E14.83464
G1 X97.873 Y108.127 E14.84895
G1 X98.596 Y108.037 E14.87028
G1 X115.209 Y108.011 E15.35652
G1 X115.126 Y107.782 E15.36365
G1 X115.037 Y107.301 E15.37797
G1 X115.022 Y106.988 E15.38714
G1 X115.037 Y102.767 E15.51068
G1 X115.079 Y102.28 E15.52499
G1 X115.199 Y101.805 E15.53933
G1 X115.395 Y101.357 E15.55364
G1 X115.661 Y100.946 E15.56797
G1 X115.991 Y100.584 E15.58231
G1 X116.46 Y100.226 E15.59958
G1 X116.53 Y100.183 E15.60198
G1 X101.026 Y100.183 E16.05577
G1 X101.026 Y100.859 E16.07555
G1 X100.986 Y101.347 E16.08989
G1 X100.867 Y101.822 E16.10422
G1 X100.673 Y102.271 E16.11853
G1 X100.408 Y102.682 E16.13285
G1 X100.079 Y103.045 E16.14719
G1 X99.5 Y103.471 E16.16823
G1 X99.298 Y103.585 E16.17501
G1 X98.854 Y103.79 E16.18933
G1 X98.382 Y103.92 E16.20366
G1 X97.895 Y103.971 E16.21799
G1 X97.407 Y103.943 E16.2323
G1 X96.929 Y103.835 E16.24664
G1 X96.475 Y103.652 E16.26097
G1 X96.241 Y103.52 E16.26883
G1 X95.837 Y103.269 E16.28275
G1 X95.364 Y102.905 E16.30022
G1 X91.906 Y99.65 E16.43922
G1 X91.578 Y99.287 E16.45354
G1 X91.209 Y98.658 E16.47488
G1 X90.885 Y97.91 E16.49874
G1 X90.728 Y97.447 E16.51305
G1 X90.638 Y96.763 E16.53324
G1 X90.612 Y95.03 E16.58397
G1 X90.645 Y94.542 E16.59829
G1 X90.716 Y94.203 E16.60842
G1 X90.874 Y93.618 E16.62616
G1 X91.04 Y93.157 E16.6405
G1 X91.272 Y92.738 E16.65452
G1 X91.62 Y92.215 E16.67291
G1 X91.924 Y91.831 E16.68724
G1 X92.127 Y91.633 E16.69554
G0 F1800 X92.676 Y91.681
G1 F1200 X93.042 Y91.41 E16.70887
G1 X93.268 Y91.286 E16.71641
G1 X94.02 Y90.922 E16.74087
G1 X94.446 Y90.76 E16.75421
G1 X94.72 Y90.698 E16.76243
G1 X95.134 Y90.628 E16.77472
G1 X95.566 Y90.592 E16.78741
G1 X112.574 Y90.585 E17.28521
G1 X112.494 Y90.47 E17.28931
G1 X112.304 Y90.056 E17.30265
G1 X112.189 Y89.615 E17.31598
G1 X112.153 Y89.176 E17.32888
G1 X112.164 Y84.958 E17.45233
G1 X112.205 Y84.504 E17.46568
G1 X112.325 Y84.065 E17.479
G1 X112.519 Y83.653 E17.49233
G1 X112.783 Y83.281 E17.50568
G1 X113.107 Y82.961 E17.51901
G1 X113.403 Y82.75 E17.52964
G1 X113.8 Y82.506 E17.54328
G1 X114.207 Y82.302 E17.55661
G1 X114.644 Y82.173 E17.56994
G1 X115.161 Y82.121 E17.58515
G1 X115.243 Y82.121 E17.58755
G1 X115.27 Y82.109 E17.58842
