;FLAVOR:RepRap
;TIME:4744
;Generated with Cura_SteamEngine 2.3.1
M190 S70
M104 S215
M109 S215
G28 ; home all axes
M117 Purge extruder
G92 E0 ; reset extruder
G1 Z1.0 F3000 ; move z up little to prevent scratching of surface
G1 X0.1 Y20 Z0.3 F5000.0 ; move to start-line position G1 X0.1 Y200.0 Z0.3 F1500.0 E15 ; draw 1st line
G1 X0.4 Y200.0 Z0.3 F5000.0 ; move to side a little
G1 X0.4 Y20 Z0.3 F1500.0 E30 ; draw 2nd line
G92 E0 ; reset extruder
G1 Z1.0 F3000 ; move z up little to prevent scratching of surface

M117 All systems go!
;LAYER_COUNT:58
;LAYER:0
M117 INDICATOR-Layer0
M107
G1 F4200 E-5
G0 F1800 X85.393 Y51.852 Z.16
;TYPE:SKIRT
G1 F4200 E0
G1 F1200 X86.752 Y49.817 E0.07162
G1 X86.975 Y49.516 E0.08259
G1 X88.543 Y47.606 E0.15492
G1 X88.793 Y47.33 E0.16582
G1 X90.515 Y45.608 E0.23709
G1 X90.791 Y45.358 E0.24799
G1 X92.702 Y43.789 E0.32036
G1 X93.003 Y43.566 E0.33133
G1 X95.038 Y42.207 E0.40295
G1 X95.355 Y42.016 E0.41378
G1 X97.512 Y40.862 E0.48538
G1 X97.851 Y40.702 E0.49635
G1 X100.126 Y39.76 E0.56842
G1 X100.479 Y39.634 E0.57939
G1 X102.82 Y38.925 E0.65099
G1 X103.178 Y38.835 E0.66179
G1 X105.589 Y38.354 E0.73375
G1 X105.96 Y38.299 E0.74473
G1 X108.402 Y38.059 E0.81654
G1 X108.774 Y38.041 E0.82745
G1 X111.226 Y38.041 E0.89921
G1 X111.598 Y38.059 E0.91011
G1 X114.04 Y38.299 E0.98193
G1 X114.411 Y38.354 E0.99291
G1 X116.822 Y38.835 E1.06487
G1 X117.18 Y38.925 E1.07567
G1 X119.521 Y39.634 E1.14726
G1 X119.874 Y39.76 E1.15824
G1 X122.149 Y40.702 E1.2303
G1 X122.488 Y40.862 E1.24128
G1 X124.645 Y42.016 E1.31288
G1 X124.962 Y42.207 E1.32371
G1 X126.997 Y43.566 E1.39533
G1 X127.298 Y43.789 E1.4063
G1 X129.208 Y45.357 E1.47862
G1 X129.484 Y45.607 E1.48952
G1 X131.206 Y47.329 E1.5608
G1 X131.456 Y47.605 E1.5717
G1 X133.025 Y49.516 E1.64407
G1 X133.248 Y49.816 E1.65501
G1 X134.606 Y51.849 E1.72657
G1 X134.797 Y52.167 E1.73743
G1 X135.952 Y54.326 E1.80909
G1 X136.112 Y54.665 E1.82007
G1 X137.054 Y56.94 E1.89213
G1 X137.18 Y57.293 E1.9031
G1 X137.889 Y59.634 E1.9747
G1 X137.978 Y59.991 E1.98547
G1 X138.459 Y62.4 E2.05737
G1 X138.515 Y62.772 E2.06838
G1 X138.755 Y65.214 E2.1402
G1 X138.773 Y65.586 E2.1511
G1 X138.773 Y68.041 E2.22295
G1 X138.755 Y68.413 E2.23385
G1 X138.515 Y70.855 E2.30567
G1 X138.46 Y71.226 E2.31665
G1 X137.979 Y73.637 E2.38861
G1 X137.889 Y73.995 E2.39941
G1 X137.181 Y76.334 E2.47094
G1 X137.055 Y76.687 E2.48191
G1 X136.112 Y78.964 E2.55404
G1 X135.952 Y79.303 E2.56502
G1 X134.798 Y81.46 E2.63662
G1 X134.607 Y81.777 E2.64745
G1 X133.248 Y83.812 E2.71907
G1 X133.025 Y84.113 E2.73004
G1 X131.457 Y86.023 E2.80236
G1 X131.207 Y86.299 E2.81326
G1 X129.485 Y88.021 E2.88454
G1 X129.209 Y88.271 E2.89544
G1 X127.3 Y89.838 E2.96773
G1 X126.999 Y90.061 E2.97869
G1 X124.961 Y91.422 E3.05042
G1 X124.643 Y91.613 E3.06128
G1 X122.491 Y92.764 E3.13271
G1 X122.154 Y92.924 E3.14363
G1 X121.748 Y93.092 E3.15649
G1 X123.521 Y94.381 E3.22065
G1 X124.11 Y94.912 E3.24386
G1 X126.487 Y97.551 E3.34781
G1 X126.955 Y98.195 E3.37111
G1 X128.701 Y101.222 E3.47339
G1 X129.023 Y101.945 E3.49656
G1 X130.12 Y105.317 E3.60034
G1 X130.285 Y106.096 E3.62365
G1 X130.653 Y109.601 E3.7268
G1 X130.653 Y110.394 E3.75001
G1 X130.285 Y113.905 E3.85334
G1 X130.12 Y114.685 E3.87667
G1 X129.03 Y118.035 E3.97978
G1 X128.708 Y118.756 E4.00289
G1 X126.945 Y121.815 E4.10623
G1 X126.476 Y122.461 E4.1296
G1 X124.115 Y125.082 E4.23285
G1 X123.527 Y125.612 E4.25602
G1 X120.678 Y127.684 E4.35913
G1 X119.989 Y128.082 E4.38241
G1 X116.737 Y129.53 E4.48661
G1 X115.98 Y129.776 E4.5099
G1 X112.572 Y130.499 E4.61187
G1 X111.783 Y130.582 E4.63509
G1 X108.217 Y130.582 E4.73946
G1 X107.428 Y130.499 E4.76269
G1 X104.02 Y129.776 E4.86465
G1 X103.263 Y129.53 E4.88795
G1 X100.011 Y128.082 E4.99214
G1 X99.322 Y127.684 E5.01543
G1 X96.473 Y125.612 E5.11854
G1 X95.885 Y125.082 E5.14171
G1 X93.524 Y122.461 E5.24496
G1 X93.055 Y121.815 E5.26832
G1 X91.292 Y118.756 E5.37166
G1 X90.97 Y118.035 E5.39477
G1 X89.88 Y114.685 E5.49788
G1 X89.715 Y113.906 E5.52119
G1 X89.347 Y110.399 E5.6244
G1 X89.347 Y109.606 E5.64761
G1 X89.715 Y106.094 E5.75097
G1 X89.88 Y105.314 E5.7743
G1 X90.97 Y101.964 E5.87741
G1 X91.292 Y101.242 E5.90055
G1 X93.055 Y98.184 E6.00386
G1 X93.524 Y97.539 E6.02721
G1 X95.885 Y94.918 E6.13045
G1 X96.473 Y94.388 E6.15362
G1 X98.254 Y93.093 E6.21808
G1 X97.846 Y92.924 E6.231
G1 X97.509 Y92.764 E6.24192
G1 X95.357 Y91.613 E6.31335
G1 X95.039 Y91.422 E6.32421
G1 X93.001 Y90.061 E6.39594
G1 X92.7 Y89.838 E6.4069
G1 X90.791 Y88.271 E6.47919
G1 X90.515 Y88.021 E6.49009
G1 X88.793 Y86.299 E6.56137
G1 X88.543 Y86.023 E6.57226
G1 X86.975 Y84.113 E6.64459
G1 X86.752 Y83.812 E6.65556
G1 X85.393 Y81.777 E6.72718
G1 X85.202 Y81.46 E6.73801
G1 X84.048 Y79.303 E6.80961
G1 X83.888 Y78.964 E6.82058
G1 X82.945 Y76.687 E6.89272
G1 X82.819 Y76.334 E6.90369
G1 X82.111 Y73.995 E6.97522
G1 X82.021 Y73.637 E6.98602
G1 X81.54 Y71.226 E7.05798
G1 X81.485 Y70.855 E7.06896
G1 X81.245 Y68.415 E7.14072
G1 X81.227 Y68.043 E7.15162
G1 X81.227 Y65.588 E7.22347
G1 X81.245 Y65.216 E7.23437
G1 X81.485 Y62.774 E7.30619
G1 X81.54 Y62.403 E7.31717
G1 X82.021 Y59.992 E7.38913
G1 X82.111 Y59.634 E7.39993
G1 X82.819 Y57.295 E7.47146
G1 X82.945 Y56.942 E7.48243
G1 X83.888 Y54.665 E7.55457
G1 X84.048 Y54.326 E7.56554
G1 X85.202 Y52.169 E7.63714
G1 X85.393 Y51.852 E7.64797
G0 F1800 X85.726 Y52.074
G1 F1200 X87.085 Y50.039 E7.71959
G1 X87.284 Y49.77 E7.72939
G1 X88.852 Y47.86 E7.80172
G1 X89.076 Y47.613 E7.81148
G1 X90.798 Y45.891 E7.88275
G1 X91.045 Y45.667 E7.89251
G1 X92.956 Y44.098 E7.96488
G1 X93.225 Y43.899 E7.97468
G1 X95.26 Y42.54 E8.0463
G1 X95.544 Y42.369 E8.056
G1 X97.701 Y41.215 E8.1276
G1 X98.004 Y41.072 E8.13741
G1 X100.279 Y40.13 E8.20948
G1 X100.594 Y40.017 E8.21927
G1 X102.935 Y39.308 E8.29087
G1 X103.256 Y39.228 E8.30055
G1 X105.667 Y38.747 E8.37251
G1 X105.999 Y38.697 E8.38233
G1 X108.441 Y38.457 E8.45415
G1 X108.774 Y38.441 E8.46391
G1 X111.226 Y38.441 E8.53568
G1 X111.559 Y38.457 E8.54543
G1 X114.001 Y38.697 E8.61725
G1 X114.333 Y38.747 E8.62708
G1 X116.744 Y39.228 E8.69904
G1 X117.065 Y39.308 E8.70872
G1 X119.406 Y40.017 E8.78031
G1 X119.721 Y40.13 E8.79011
G1 X121.996 Y41.072 E8.86218
G1 X122.299 Y41.215 E8.87198
G1 X124.456 Y42.369 E8.94358
G1 X124.74 Y42.54 E8.95329
G1 X126.775 Y43.899 E9.02491
G1 X127.044 Y44.098 E9.0347
G1 X128.954 Y45.666 E9.10703
G1 X129.201 Y45.89 E9.11679
G1 X130.923 Y47.612 E9.18807
G1 X131.147 Y47.859 E9.19783
G1 X132.716 Y49.77 E9.2702
G1 X132.915 Y50.038 E9.27997
G1 X134.273 Y52.071 E9.35153
G1 X134.444 Y52.356 E9.36126
G1 X135.599 Y54.515 E9.43292
G1 X135.742 Y54.818 E9.44273
G1 X136.684 Y57.093 E9.5148
G1 X136.797 Y57.408 E9.52459
G1 X137.506 Y59.749 E9.59618
G1 X137.586 Y60.069 E9.60584
G1 X138.067 Y62.478 E9.67774
G1 X138.117 Y62.811 E9.68759
G1 X138.357 Y65.253 E9.75941
G1 X138.373 Y65.586 E9.76917
G1 X138.373 Y68.041 E9.84103
G1 X138.357 Y68.374 E9.85078
G1 X138.117 Y70.816 E9.9226
G1 X138.067 Y71.148 E9.93243
G1 X137.586 Y73.559 E10.00439
G1 X137.506 Y73.879 E10.01404
G1 X136.798 Y76.218 E10.08557
G1 X136.685 Y76.534 E10.09539
G1 X135.742 Y78.811 E10.16753
G1 X135.599 Y79.114 E10.17733
G1 X134.445 Y81.271 E10.24893
G1 X134.274 Y81.555 E10.25864
G1 X132.915 Y83.59 E10.33026
G1 X132.716 Y83.859 E10.34005
G1 X131.148 Y85.769 E10.41238
G1 X130.924 Y86.016 E10.42214
G1 X129.202 Y87.738 E10.49342
G1 X128.955 Y87.962 E10.50318
G1 X127.046 Y89.529 E10.57547
G1 X126.777 Y89.728 E10.58526
G1 X124.739 Y91.089 E10.65699
G1 X124.455 Y91.26 E10.66669
G1 X122.303 Y92.411 E10.73812
G1 X122.001 Y92.554 E10.7479
G1 X120.934 Y92.996 E10.78171
G1 X123.285 Y94.705 E10.86678
G1 X123.812 Y95.18 E10.88754
G1 X126.189 Y97.819 E10.9915
G1 X126.608 Y98.395 E11.01234
G1 X128.354 Y101.422 E11.11462
G1 X128.642 Y102.069 E11.13535
G1 X129.739 Y105.441 E11.23914
G1 X129.887 Y106.138 E11.25999
G1 X130.255 Y109.643 E11.36314
G1 X130.255 Y110.352 E11.3839
G1 X129.887 Y113.863 E11.48722
G1 X129.739 Y114.561 E11.50811
G1 X128.649 Y117.911 E11.61122
G1 X128.362 Y118.557 E11.63191
G1 X126.599 Y121.616 E11.73524
G1 X126.179 Y122.194 E11.75616
G1 X123.818 Y124.815 E11.85941
G1 X123.292 Y125.289 E11.88013
G1 X120.443 Y127.361 E11.98324
G1 X119.826 Y127.717 E12.00409
G1 X116.574 Y129.165 E12.10828
G1 X115.897 Y129.385 E12.12911
G1 X112.489 Y130.108 E12.23108
G1 X111.783 Y130.182 E12.25186
G1 X108.217 Y130.182 E12.35623
G1 X107.511 Y130.108 E12.37701
G1 X104.103 Y129.385 E12.47898
G1 X103.426 Y129.165 E12.49981
G1 X100.174 Y127.717 E12.604
G1 X99.557 Y127.361 E12.62485
G1 X96.708 Y125.289 E12.72796
G1 X96.182 Y124.815 E12.74869
G1 X93.821 Y122.194 E12.85193
G1 X93.401 Y121.616 E12.87285
G1 X91.638 Y118.557 E12.97619
G1 X91.351 Y117.911 E12.99688
G1 X90.261 Y114.561 E13.09999
G1 X90.113 Y113.864 E13.12084
G1 X89.745 Y110.357 E13.22405
G1 X89.745 Y109.648 E13.2448
G1 X90.113 Y106.136 E13.34816
G1 X90.261 Y105.438 E13.36904
G1 X91.351 Y102.088 E13.47215
G1 X91.638 Y101.442 E13.49284
G1 X93.401 Y98.384 E13.59616
G1 X93.821 Y97.806 E13.61707
G1 X96.182 Y95.185 E13.72032
G1 X96.708 Y94.711 E13.74104
G1 X99.066 Y92.996 E13.82638
G1 X97.999 Y92.554 E13.86018
G1 X97.697 Y92.411 E13.86996
G1 X95.545 Y91.26 E13.94139
G1 X95.261 Y91.089 E13.9511
G1 X93.223 Y89.728 E14.02283
G1 X92.954 Y89.529 E14.03262
G1 X91.045 Y87.962 E14.10491
G1 X90.798 Y87.738 E14.11467
G1 X89.076 Y86.016 E14.18594
G1 X88.852 Y85.769 E14.1957
G1 X87.284 Y83.859 E14.26803
G1 X87.085 Y83.59 E14.27783
G1 X85.726 Y81.555 E14.34945
G1 X85.555 Y81.271 E14.35915
G1 X84.401 Y79.114 E14.43075
G1 X84.258 Y78.811 E14.44056
G1 X83.315 Y76.534 E14.51269
G1 X83.202 Y76.218 E14.52252
G1 X82.494 Y73.879 E14.59404
G1 X82.414 Y73.559 E14.6037
G1 X81.933 Y71.148 E14.67566
G1 X81.883 Y70.816 E14.68548
G1 X81.643 Y68.376 E14.75724
G1 X81.627 Y68.043 E14.767
G1 X81.627 Y65.588 E14.83886
G1 X81.643 Y65.255 E14.84861
G1 X81.883 Y62.813 E14.92043
G1 X81.933 Y62.481 E14.93026
G1 X82.414 Y60.07 E15.00222
G1 X82.494 Y59.75 E15.01187
G1 X83.202 Y57.411 E15.0834
G1 X83.315 Y57.095 E15.09322
G1 X84.258 Y54.818 E15.16536
G1 X84.401 Y54.515 E15.17516
G1 X85.555 Y52.358 E15.24676
G1 X85.726 Y52.074 E15.25647
G0 F1800 X86.058 Y52.296
G1 F1200 X87.417 Y50.261 E15.32809
G1 X87.593 Y50.023 E15.33675
G1 X89.161 Y48.113 E15.40908
G1 X89.359 Y47.896 E15.41768
G1 X91.081 Y46.174 E15.48896
G1 X91.298 Y45.976 E15.49756
G1 X93.209 Y44.407 E15.56993
G1 X93.447 Y44.231 E15.57859
G1 X95.482 Y42.872 E15.65021
G1 X95.733 Y42.722 E15.65877
G1 X97.89 Y41.568 E15.73037
G1 X98.157 Y41.441 E15.73903
G1 X100.432 Y40.499 E15.81109
G1 X100.71 Y40.4 E15.81973
G1 X103.051 Y39.691 E15.89132
G1 X103.334 Y39.62 E15.89986
G1 X105.745 Y39.139 E15.97182
G1 X106.039 Y39.095 E15.98052
G1 X108.481 Y38.855 E16.05234
G1 X108.774 Y38.841 E16.06093
G1 X111.226 Y38.841 E16.13269
G1 X111.519 Y38.855 E16.14128
G1 X113.961 Y39.095 E16.2131
G1 X114.255 Y39.139 E16.2218
G1 X116.666 Y39.62 E16.29376
G1 X116.949 Y39.691 E16.3023
G1 X119.29 Y40.4 E16.37389
G1 X119.568 Y40.499 E16.38253
G1 X121.843 Y41.441 E16.4546
G1 X122.11 Y41.568 E16.46325
G1 X124.267 Y42.722 E16.53485
G1 X124.518 Y42.872 E16.54341
G1 X126.553 Y44.231 E16.61503
G1 X126.791 Y44.407 E16.6237
G1 X128.701 Y45.975 E16.69602
G1 X128.918 Y46.173 E16.70462
G1 X130.64 Y47.895 E16.7759
G1 X130.838 Y48.112 E16.7845
G1 X132.407 Y50.023 E16.85687
G1 X132.583 Y50.261 E16.86553
G1 X133.941 Y52.294 E16.93709
G1 X134.091 Y52.545 E16.94565
G1 X135.246 Y54.704 E17.01731
G1 X135.373 Y54.971 E17.02597
G1 X136.315 Y57.246 E17.09804
G1 X136.414 Y57.524 E17.10667
G1 X137.123 Y59.865 E17.17827
G1 X137.194 Y60.148 E17.18681
G1 X137.675 Y62.557 E17.25871
G1 X137.719 Y62.851 E17.26741
G1 X137.959 Y65.293 E17.33923
G1 X137.973 Y65.586 E17.34781
G1 X137.973 Y68.041 E17.41967
G1 X137.959 Y68.334 E17.42825
G1 X137.719 Y70.776 E17.50007
G1 X137.675 Y71.07 E17.50877
G1 X137.194 Y73.481 E17.58073
G1 X137.123 Y73.763 E17.58924
G1 X136.415 Y76.102 E17.66077
G1 X136.316 Y76.381 E17.66944
G1 X135.373 Y78.658 E17.74157
G1 X135.246 Y78.925 E17.75022
G1 X134.092 Y81.082 E17.82182
G1 X133.942 Y81.333 E17.83038
G1 X132.583 Y83.368 E17.90201
G1 X132.407 Y83.606 E17.91067
G1 X130.839 Y85.516 E17.983
G1 X130.641 Y85.733 E17.9916
G1 X128.919 Y87.455 E18.06287
G1 X128.701 Y87.653 E18.07149
G1 X126.792 Y89.22 E18.14378
G1 X126.555 Y89.396 E18.15242
G1 X124.517 Y90.757 E18.22415
G1 X124.266 Y90.907 E18.23271
G1 X122.114 Y92.058 E18.30414
G1 X121.847 Y92.184 E18.31278
G1 X120.108 Y92.905 E18.36788
G1 X120.207 Y92.962 E18.37122
G1 X123.05 Y95.029 E18.4741
G1 X123.515 Y95.447 E18.4924
G1 X125.892 Y98.086 E18.59636
G1 X126.262 Y98.595 E18.61477
G1 X128.008 Y101.622 E18.71705
G1 X128.262 Y102.193 E18.73535
G1 X129.359 Y105.565 E18.83913
G1 X129.49 Y106.18 E18.85754
G1 X129.858 Y109.685 E18.96069
G1 X129.858 Y110.311 E18.97901
G1 X129.49 Y113.822 E19.08234
G1 X129.359 Y114.437 E19.10074
G1 X128.269 Y117.787 E19.20385
G1 X128.015 Y118.357 E19.22212
G1 X126.252 Y121.416 E19.32545
G1 X125.882 Y121.926 E19.3439
G1 X123.521 Y124.547 E19.44714
G1 X123.057 Y124.965 E19.46542
G1 X120.208 Y127.037 E19.56853
G1 X119.663 Y127.352 E19.58696
G1 X116.411 Y128.8 E19.69115
G1 X115.814 Y128.994 E19.70952
G1 X112.406 Y129.717 E19.81149
G1 X111.783 Y129.782 E19.82982
G1 X108.217 Y129.782 E19.9342
G1 X107.594 Y129.717 E19.95253
G1 X104.186 Y128.994 E20.0545
G1 X103.589 Y128.8 E20.07287
G1 X100.337 Y127.352 E20.17706
G1 X99.792 Y127.037 E20.19549
G1 X96.943 Y124.965 E20.29859
G1 X96.479 Y124.547 E20.31687
G1 X94.118 Y121.926 E20.42012
G1 X93.748 Y121.416 E20.43856
G1 X91.985 Y118.357 E20.5419
G1 X91.731 Y117.787 E20.56017
G1 X90.641 Y114.437 E20.66328
G1 X90.51 Y113.822 E20.68168
G1 X90.142 Y110.315 E20.78489
G1 X90.142 Y109.689 E20.80321
G1 X90.51 Y106.177 E20.90657
G1 X90.641 Y105.562 E20.92497
G1 X91.731 Y102.212 E21.02808
G1 X91.985 Y101.642 E21.04635
G1 X93.748 Y98.584 E21.14966
G1 X94.118 Y98.074 E21.1681
G1 X96.479 Y95.453 E21.27135
G1 X96.943 Y95.035 E21.28963
G1 X99.793 Y92.962 E21.39278
G1 X99.892 Y92.905 E21.39613
G1 X98.153 Y92.184 E21.45123
G1 X97.886 Y92.058 E21.45987
G1 X95.734 Y90.907 E21.5313
G1 X95.483 Y90.757 E21.53985
G1 X93.445 Y89.396 E21.61158
G1 X93.208 Y89.22 E21.62022
G1 X91.299 Y87.653 E21.69251
G1 X91.081 Y87.455 E21.70113
G1 X89.359 Y85.733 E21.77241
G1 X89.161 Y85.516 E21.78101
G1 X87.593 Y83.606 E21.85334
G1 X87.417 Y83.368 E21.862
G1 X86.058 Y81.333 E21.93362
G1 X85.908 Y81.082 E21.94218
G1 X84.754 Y78.925 E22.01378
G1 X84.627 Y78.658 E22.02243
G1 X83.684 Y76.381 E22.09457
G1 X83.585 Y76.102 E22.10323
G1 X82.877 Y73.763 E22.17476
G1 X82.806 Y73.481 E22.18327
G1 X82.325 Y71.07 E22.25523
G1 X82.281 Y70.777 E22.2639
G1 X82.041 Y68.337 E22.33566
G1 X82.027 Y68.043 E22.34428
G1 X82.027 Y65.588 E22.41613
G1 X82.041 Y65.295 E22.42472
G1 X82.281 Y62.853 E22.49654
G1 X82.325 Y62.559 E22.50524
G1 X82.806 Y60.148 E22.5772
G1 X82.877 Y59.866 E22.58571
G1 X83.585 Y57.527 E22.65724
G1 X83.684 Y57.248 E22.6659
G1 X84.627 Y54.971 E22.73804
G1 X84.754 Y54.704 E22.74669
G1 X85.908 Y52.547 E22.81829
G1 X86.058 Y52.296 E22.82685
G0 F1800 X86.391 Y52.518
G1 F1200 X87.75 Y50.483 E22.89847
G1 X87.902 Y50.277 E22.90596
G1 X89.47 Y48.367 E22.97829
G1 X89.642 Y48.179 E22.98575
G1 X91.364 Y46.457 E23.05703
G1 X91.552 Y46.286 E23.06447
G1 X93.463 Y44.717 E23.13684
G1 X93.669 Y44.564 E23.14435
G1 X95.704 Y43.205 E23.21597
G1 X95.921 Y43.074 E23.22339
G1 X98.078 Y41.92 E23.29499
G1 X98.31 Y41.811 E23.30249
G1 X100.585 Y40.869 E23.37456
G1 X100.826 Y40.783 E23.38205
G1 X103.167 Y40.074 E23.45364
G1 X103.412 Y40.012 E23.46104
G1 X105.823 Y39.531 E23.533
G1 X106.078 Y39.493 E23.54054
G1 X108.52 Y39.253 E23.61236
G1 X108.774 Y39.241 E23.61981
G1 X111.226 Y39.241 E23.69157
G1 X111.48 Y39.253 E23.69902
G1 X113.922 Y39.493 E23.77083
G1 X114.177 Y39.531 E23.77838
G1 X116.588 Y40.012 E23.85034
G1 X116.833 Y40.074 E23.85774
G1 X119.174 Y40.783 E23.92933
G1 X119.415 Y40.869 E23.93682
G1 X121.69 Y41.811 E24.00889
G1 X121.922 Y41.92 E24.01639
G1 X124.079 Y43.074 E24.08799
G1 X124.296 Y43.205 E24.09541
G1 X126.331 Y44.564 E24.16703
G1 X126.537 Y44.716 E24.17452
G1 X128.447 Y46.284 E24.24685
