;FLAVOR:Marlin
;TIME:21955
;Filament used: 20.4859m
;Layer height: 0.2
;Generated with Cura_SteamEngine 3.6.0
M140 S70
M105
M190 S70
M104 S215
M105
M109 S215
M82 ;absolute extrusion mode
G28 ; home all axes
M117 Purge extruder
G92 E0 ; reset extruder
G1 Z1.0 F3000 ; move z up little to prevent scratching of surface
G1 X0.1 Y20 Z0.3 F5000.0 ; move to start-line position G1 X0.1 Y200.0 Z0.3 F1500.0 E15 ; draw 1st line
G1 X0.4 Y200.0 Z0.3 F5000.0 ; move to side a little
G1 X0.4 Y20 Z0.3 F1500.0 E30 ; draw 2nd line
G92 E0 ; reset extruder
G1 Z1.0 F3000 ; move z up little to prevent scratching of surface
M117 All systems go!
G92 E0
G1 F6000 E-5
;LAYER_COUNT:28
;LAYER:0
M107
M204 S5000
M205 X30 Y30
G0 F7200 X56.869 Y63.016 Z0.2
M204 S500
M205 X20 Y20
;TYPE:SKIRT
G1 F6000 E0
G1 F900 X57.822 Y62.184 E0.04628
G1 X58.4 Y61.728 E0.07322
G1 X58.574 Y61.596 E0.08121
G1 X59.606 Y60.864 E0.1275
G1 X60.682 Y60.198 E0.1738
G1 X61.798 Y59.601 E0.2201
G1 X62.949 Y59.076 E0.26639
G1 X63.649 Y58.809 E0.2938
G1 X63.903 Y58.107 E0.32111
G1 X64.408 Y56.947 E0.3674
G1 X64.986 Y55.821 E0.4137
G1 X65.634 Y54.734 E0.46
G1 X66.349 Y53.69 E0.5063
G1 X67.128 Y52.694 E0.55256
G1 X68.344 Y51.364 E0.61849
G1 X68.473 Y51.235 E0.62517
G1 X69.395 Y50.369 E0.67145
G1 X70.371 Y49.563 E0.71776
G1 X71.395 Y48.82 E0.76404
G1 X72.465 Y48.143 E0.81037
G1 X73.574 Y47.536 E0.85662
G1 X74.721 Y46.999 E0.90296
G1 X75.898 Y46.536 E0.94923
G1 X77.103 Y46.149 E0.99554
G1 X78.329 Y45.838 E1.04181
G1 X79.573 Y45.606 E1.08811
G1 X80.829 Y45.452 E1.13441
G1 X82.629 Y45.371 E1.20033
G1 X152.371 Y45.37 E3.75192
G1 X153.635 Y45.41 E3.79819
G1 X154.895 Y45.53 E3.84449
G1 X156.145 Y45.729 E3.8908
G1 X157.379 Y46.007 E3.93708
G1 X158.594 Y46.362 E3.98339
G1 X159.784 Y46.793 E4.0297
G1 X160.944 Y47.298 E4.07598
G1 X162.069 Y47.876 E4.12226
G1 X163.156 Y48.524 E4.16856
G1 X164.2 Y49.239 E4.21485
G1 X165.197 Y50.018 E4.26114
G1 X166.527 Y51.234 E4.32708
G1 X166.656 Y51.363 E4.33375
G1 X167.522 Y52.285 E4.38003
G1 X168.328 Y53.261 E4.42634
G1 X169.071 Y54.285 E4.47263
G1 X169.748 Y55.355 E4.51895
G1 X170.355 Y56.464 E4.56521
G1 X170.892 Y57.611 E4.61154
G1 X171.355 Y58.788 E4.65781
G1 X171.367 Y58.826 E4.65927
G1 X171.519 Y58.879 E4.66516
G1 X172.685 Y59.371 E4.71146
G1 X173.818 Y59.935 E4.75777
G1 X174.912 Y60.57 E4.80405
G1 X176.426 Y61.612 E4.87129
G1 X176.6 Y61.744 E4.87928
G1 X177.583 Y62.541 E4.92558
G1 X178.514 Y63.397 E4.97185
G1 X179.39 Y64.311 E5.01817
G1 X180.205 Y65.279 E5.06447
G1 X180.958 Y66.296 E5.11076
G1 X181.646 Y67.358 E5.15706
G1 X182.264 Y68.462 E5.20335
G1 X182.812 Y69.603 E5.24966
G1 X183.287 Y70.776 E5.29596
G1 X183.686 Y71.976 E5.34222
G1 X184.009 Y73.2 E5.38854
G1 X184.254 Y74.441 E5.43482
G1 X184.42 Y75.696 E5.48113
G1 X184.506 Y76.958 E5.52741
G1 X184.52 Y77.694 E5.55434
G1 X184.52 Y103.838 E6.51085
G1 X184.48 Y105.103 E6.55716
G1 X184.36 Y106.362 E6.60343
G1 X184.161 Y107.612 E6.64974
G1 X183.883 Y108.847 E6.69605
G1 X183.528 Y110.061 E6.74233
G1 X183.097 Y111.251 E6.78863
G1 X182.592 Y112.411 E6.83492
G1 X182.014 Y113.537 E6.88123
G1 X181.366 Y114.624 E6.92753
G1 X180.651 Y115.668 E6.97382
G1 X179.872 Y116.664 E7.02008
G1 X179.111 Y117.52 E7.06199
G1 X179.39 Y117.811 E7.07674
G1 X180.205 Y118.779 E7.12303
G1 X180.958 Y119.796 E7.16933
G1 X181.646 Y120.858 E7.21562
G1 X182.264 Y121.962 E7.26191
G1 X182.812 Y123.103 E7.30822
G1 X183.287 Y124.276 E7.35452
G1 X183.686 Y125.476 E7.40079
G1 X184.009 Y126.7 E7.44711
G1 X184.254 Y127.941 E7.49338
G1 X184.42 Y129.196 E7.5397
G1 X184.506 Y130.458 E7.58598
G1 X184.52 Y131.194 E7.61291
G1 X184.52 Y157.338 E8.56942
G1 X184.48 Y158.603 E8.61572
G1 X184.36 Y159.862 E8.662
G1 X184.161 Y161.112 E8.7083
G1 X183.883 Y162.347 E8.75462
G1 X183.528 Y163.561 E8.80089
G1 X183.097 Y164.751 E8.8472
G1 X182.592 Y165.911 E8.89349
G1 X182.014 Y167.037 E8.93979
G1 X181.366 Y168.124 E8.98609
G1 X180.651 Y169.168 E9.03239
G1 X179.872 Y170.164 E9.07865
G1 X179.031 Y171.11 E9.12496
G1 X178.131 Y172 E9.17127
G1 X177.178 Y172.832 E9.21755
G1 X176.6 Y173.288 E9.24449
G1 X176.426 Y173.42 E9.25248
G1 X175.394 Y174.152 E9.29877
G1 X174.318 Y174.818 E9.34507
G1 X173.202 Y175.415 E9.39137
G1 X172.051 Y175.94 E9.43766
G1 X171.345 Y176.209 E9.4653
G1 X171.097 Y176.893 E9.49192
G1 X170.592 Y178.053 E9.5382
G1 X170.014 Y179.179 E9.58451
G1 X169.366 Y180.266 E9.63081
G1 X168.651 Y181.31 E9.6771
G1 X167.872 Y182.306 E9.72337
G1 X166.656 Y183.636 E9.7893
G1 X166.527 Y183.765 E9.79597
G1 X165.605 Y184.631 E9.84225
G1 X164.629 Y185.437 E9.88856
G1 X163.605 Y186.18 E9.93485
G1 X162.535 Y186.857 E9.98117
G1 X161.426 Y187.464 E10.02743
G1 X160.279 Y188.001 E10.07376
G1 X159.102 Y188.464 E10.12004
G1 X157.897 Y188.851 E10.16634
G1 X156.671 Y189.162 E10.21262
G1 X155.427 Y189.394 E10.25891
G1 X154.171 Y189.548 E10.30521
G1 X152.371 Y189.629 E10.37113
G1 X82.629 Y189.63 E12.92272
G1 X81.365 Y189.59 E12.96899
G1 X80.105 Y189.47 E13.0153
G1 X78.855 Y189.271 E13.06161
G1 X77.621 Y188.993 E13.10789
G1 X76.406 Y188.638 E13.1542
G1 X75.216 Y188.207 E13.2005
G1 X74.056 Y187.702 E13.24679
G1 X72.931 Y187.124 E13.29306
G1 X71.844 Y186.476 E13.33936
G1 X70.8 Y185.761 E13.38566
G1 X69.803 Y184.982 E13.43195
G1 X68.473 Y183.766 E13.49788
G1 X68.344 Y183.637 E13.50455
G1 X67.478 Y182.715 E13.55083
G1 X66.672 Y181.739 E13.59714
G1 X65.929 Y180.715 E13.64343
G1 X65.252 Y179.645 E13.68976
G1 X64.645 Y178.536 E13.73601
G1 X64.108 Y177.389 E13.78235
G1 X63.645 Y176.212 E13.82862
G1 X63.639 Y176.192 E13.82938
G1 X63.481 Y176.137 E13.8355
G1 X62.315 Y175.645 E13.88181
G1 X61.182 Y175.081 E13.92811
G1 X60.088 Y174.446 E13.97439
G1 X58.574 Y173.404 E14.04163
G1 X58.4 Y173.272 E14.04962
G1 X57.417 Y172.475 E14.09592
G1 X56.486 Y171.619 E14.14219
G1 X55.61 Y170.705 E14.18851
G1 X54.795 Y169.737 E14.23481
G1 X54.042 Y168.72 E14.2811
G1 X53.354 Y167.658 E14.3274
G1 X52.736 Y166.554 E14.37369
G1 X52.188 Y165.413 E14.42
G1 X51.713 Y164.24 E14.4663
G1 X51.314 Y163.04 E14.51257
G1 X50.991 Y161.816 E14.55888
G1 X50.746 Y160.575 E14.60516
G1 X50.58 Y159.32 E14.65148
G1 X50.494 Y158.058 E14.69775
G1 X50.48 Y157.322 E14.72469
G1 X50.48 Y131.178 E15.6812
G1 X50.52 Y129.913 E15.7275
G1 X50.64 Y128.654 E15.77377
G1 X50.839 Y127.404 E15.82008
G1 X51.117 Y126.169 E15.86639
G1 X51.472 Y124.955 E15.91267
G1 X51.903 Y123.765 E15.95897
G1 X52.408 Y122.605 E16.00526
G1 X52.986 Y121.479 E16.05157
G1 X53.634 Y120.392 E16.09787
G1 X54.349 Y119.348 E16.14416
G1 X55.128 Y118.352 E16.19042
G1 X55.889 Y117.496 E16.23233
G1 X55.61 Y117.205 E16.24708
G1 X54.795 Y116.237 E16.29337
G1 X54.042 Y115.22 E16.33967
G1 X53.354 Y114.158 E16.38597
G1 X52.736 Y113.054 E16.43226
G1 X52.188 Y111.913 E16.47857
G1 X51.713 Y110.74 E16.52487
G1 X51.314 Y109.54 E16.57113
G1 X50.991 Y108.316 E16.61745
G1 X50.746 Y107.075 E16.66373
G1 X50.58 Y105.82 E16.71004
G1 X50.494 Y104.558 E16.75632
G1 X50.48 Y103.822 E16.78325
G1 X50.48 Y77.678 E17.73976
G1 X50.52 Y76.413 E17.78607
G1 X50.64 Y75.154 E17.83234
G1 X50.839 Y73.904 E17.87865
G1 X51.117 Y72.669 E17.92496
G1 X51.472 Y71.455 E17.97124
G1 X51.903 Y70.265 E18.01754
G1 X52.408 Y69.105 E18.06383
G1 X52.986 Y67.979 E18.11014
G1 X53.634 Y66.892 E18.15643
G1 X54.349 Y65.848 E18.20273
G1 X55.128 Y64.852 E18.24899
G1 X55.969 Y63.906 E18.2953
G1 X56.352 Y63.527 E18.31501
G0 F810 X56.869 Y63.016
M204 S5000
M205 X30 Y30
G0 F7200 X57.3 Y63.216
M204 S500
M205 X20 Y20
G1 F6000 E18.34161
G1 F900 X58.666 Y62.079 E18.40664
G1 X58.84 Y61.947 E18.41463
G1 X59.861 Y61.223 E18.46042
G1 X60.926 Y60.565 E18.50622
G1 X62.03 Y59.977 E18.55198
G1 X63.17 Y59.461 E18.59777
G1 X63.992 Y59.151 E18.62991
G1 X64.343 Y58.193 E18.66724
G1 X64.848 Y57.048 E18.71302
G1 X65.425 Y55.938 E18.75879
G1 X66.072 Y54.867 E18.80457
G1 X66.786 Y53.839 E18.85036
G1 X67.564 Y52.859 E18.89614
G1 X68.655 Y51.675 E18.95504
G1 X68.784 Y51.546 E18.96172
G1 X69.697 Y50.69 E19.00751
G1 X70.662 Y49.894 E19.05327
G1 X71.676 Y49.161 E19.09905
G1 X72.736 Y48.494 E19.14487
G1 X73.835 Y47.897 E19.19063
G1 X74.971 Y47.371 E19.23643
G1 X76.137 Y46.918 E19.2822
G1 X77.331 Y46.541 E19.328
G1 X78.546 Y46.242 E19.37378
G1 X79.777 Y46.02 E19.41955
G1 X81.02 Y45.877 E19.46532
G1 X82.629 Y45.811 E19.52424
G1 X152.371 Y45.81 E22.07583
G1 X153.621 Y45.85 E22.12159
G1 X154.867 Y45.97 E22.16738
G1 X156.103 Y46.169 E22.21319
G1 X157.323 Y46.447 E22.25897
G1 X158.523 Y46.802 E22.30475
G1 X159.698 Y47.232 E22.35053
G1 X160.843 Y47.738 E22.39633
G1 X161.953 Y48.315 E22.4421
G1 X163.024 Y48.962 E22.48788
G1 X164.052 Y49.676 E22.53367
G1 X165.032 Y50.454 E22.57945
G1 X166.216 Y51.545 E22.63835
G1 X166.345 Y51.674 E22.64503
G1 X167.201 Y52.587 E22.69081
G1 X167.997 Y53.552 E22.73658
G1 X168.73 Y54.566 E22.78236
G1 X169.397 Y55.626 E22.82818
G1 X169.994 Y56.725 E22.87394
G1 X170.52 Y57.861 E22.91974
G1 X170.973 Y59.027 E22.9655
G1 X171.019 Y59.172 E22.97107
G1 X171.49 Y59.34 E22.98936
G1 X172.639 Y59.834 E23.03512
G1 X173.755 Y60.402 E23.08094
G1 X174.832 Y61.039 E23.12672
G1 X176.16 Y61.963 E23.18591
G1 X176.334 Y62.095 E23.1939
G1 X177.306 Y62.883 E23.23968
G1 X178.226 Y63.731 E23.28545
G1 X179.09 Y64.636 E23.33123
G1 X179.894 Y65.595 E23.37701
G1 X180.636 Y66.603 E23.42281
G1 X181.311 Y67.656 E23.46857
G1 X181.918 Y68.751 E23.51437
G1 X182.454 Y69.882 E23.56016
G1 X182.916 Y71.045 E23.60595
G1 X183.303 Y72.235 E23.65173
G1 X183.614 Y73.447 E23.69751
G1 X183.846 Y74.677 E23.7433
G1 X183.999 Y75.919 E23.78909
G1 X184.08 Y77.694 E23.8541
G1 X184.08 Y103.838 E24.8106
G1 X184.04 Y105.089 E24.8564
G1 X183.92 Y106.334 E24.90216
G1 X183.721 Y107.57 E24.94796
G1 X183.443 Y108.79 E24.99374
G1 X183.088 Y109.99 E25.03952
G1 X182.657 Y111.165 E25.08531
G1 X182.152 Y112.31 E25.1311
G1 X181.575 Y113.42 E25.17687
G1 X180.928 Y114.491 E25.22265
G1 X180.214 Y115.519 E25.26844
G1 X179.436 Y116.499 E25.31422
G1 X178.596 Y117.427 E25.36001
G1 X178.501 Y117.519 E25.36485
G1 X179.09 Y118.136 E25.39606
G1 X179.894 Y119.095 E25.44185
G1 X180.636 Y120.103 E25.48764
G1 X181.311 Y121.156 E25.5334
G1 X181.918 Y122.251 E25.5792
G1 X182.454 Y123.382 E25.625
G1 X182.916 Y124.545 E25.67078
G1 X183.303 Y125.735 E25.71656
G1 X183.614 Y126.947 E25.76234
G1 X183.846 Y128.177 E25.80813
G1 X183.999 Y129.419 E25.85392
G1 X184.08 Y131.194 E25.91893
G1 X184.08 Y157.338 E26.87543
G1 X184.04 Y158.589 E26.92123
G1 X183.92 Y159.834 E26.96699
G1 X183.721 Y161.07 E27.01279
G1 X183.443 Y162.29 E27.05857
G1 X183.088 Y163.49 E27.10435
G1 X182.657 Y164.665 E27.15014
G1 X182.152 Y165.81 E27.19593
G1 X181.575 Y166.92 E27.2417
G1 X180.928 Y167.991 E27.28748
G1 X180.214 Y169.019 E27.33327
G1 X179.436 Y169.999 E27.37905
G1 X178.596 Y170.927 E27.42484
G1 X177.7 Y171.8 E27.47061
G1 X176.334 Y172.937 E27.53564
G1 X176.16 Y173.069 E27.54363
G1 X175.139 Y173.793 E27.58942
G1 X174.074 Y174.451 E27.63522
G1 X172.97 Y175.039 E27.68098
G1 X171.83 Y175.555 E27.72677
G1 X171.002 Y175.868 E27.75915
G1 X170.657 Y176.807 E27.79575
G1 X170.152 Y177.952 E27.84154
G1 X169.575 Y179.062 E27.8873
G1 X168.928 Y180.133 E27.93308
G1 X168.214 Y181.161 E27.97888
G1 X167.436 Y182.141 E28.02466
G1 X166.345 Y183.325 E28.08356
G1 X166.216 Y183.454 E28.09023
G1 X165.303 Y184.31 E28.13602
G1 X164.338 Y185.106 E28.18179
G1 X163.324 Y185.839 E28.22757
G1 X162.264 Y186.506 E28.27339
G1 X161.165 Y187.103 E28.31914
G1 X160.029 Y187.629 E28.36494
G1 X158.863 Y188.082 E28.41071
G1 X157.669 Y188.459 E28.45652
G1 X156.454 Y188.758 E28.5023
G1 X155.223 Y188.98 E28.54806
G1 X153.98 Y189.123 E28.59384
G1 X152.371 Y189.189 E28.65276
G1 X82.629 Y189.19 E31.20435
G1 X81.379 Y189.15 E31.2501
G1 X80.133 Y189.03 E31.2959
G1 X78.897 Y188.831 E31.3417
G1 X77.677 Y188.553 E31.38748
G1 X76.477 Y188.198 E31.43327
G1 X75.302 Y187.768 E31.47904
G1 X74.157 Y187.262 E31.52484
G1 X73.047 Y186.685 E31.57061
G1 X71.976 Y186.038 E31.61639
G1 X70.948 Y185.324 E31.66218
G1 X69.968 Y184.546 E31.70796
G1 X68.784 Y183.455 E31.76687
G1 X68.655 Y183.326 E31.77354
G1 X67.799 Y182.413 E31.81933
G1 X67.003 Y181.448 E31.8651
G1 X66.27 Y180.434 E31.91087
G1 X65.603 Y179.374 E31.95669
G1 X65.006 Y178.275 E32.00245
G1 X64.48 Y177.139 E32.04825
G1 X64.027 Y175.973 E32.09402
G1 X63.987 Y175.846 E32.09889
G1 X63.51 Y175.676 E32.11742
G1 X62.361 Y175.182 E32.16317
G1 X61.245 Y174.614 E32.20899
G1 X60.168 Y173.977 E32.25477
G1 X58.84 Y173.053 E32.31396
G1 X58.666 Y172.921 E32.32195
G1 X57.694 Y172.133 E32.36773
G1 X56.774 Y171.285 E32.41351
G1 X55.91 Y170.38 E32.45928
G1 X55.106 Y169.421 E32.50507
G1 X54.364 Y168.413 E32.55086
G1 X53.689 Y167.36 E32.59662
G1 X53.082 Y166.265 E32.64243
G1 X52.546 Y165.134 E32.68822
G1 X52.084 Y163.971 E32.734
G1 X51.697 Y162.781 E32.77978
G1 X51.386 Y161.569 E32.82556
G1 X51.154 Y160.339 E32.87136
G1 X51.001 Y159.097 E32.91714
G1 X50.92 Y157.322 E32.98215
G1 X50.92 Y131.178 E33.93866
G1 X50.96 Y129.927 E33.98445
G1 X51.08 Y128.682 E34.03021
G1 X51.279 Y127.446 E34.07601
G1 X51.557 Y126.226 E34.12179
G1 X51.912 Y125.026 E34.16758
G1 X52.343 Y123.851 E34.21337
G1 X52.848 Y122.706 E34.25915
G1 X53.425 Y121.596 E34.30492
G1 X54.072 Y120.525 E34.3507
G1 X54.786 Y119.497 E34.39649
G1 X55.564 Y118.517 E34.44227
G1 X56.404 Y117.589 E34.48807
G1 X56.499 Y117.497 E34.4929
G1 X55.91 Y116.88 E34.52411
G1 X55.106 Y115.921 E34.5699
G1 X54.364 Y114.913 E34.61569
G1 X53.689 Y113.86 E34.66145
G1 X53.082 Y112.765 E34.70726
G1 X52.546 Y111.634 E34.75305
G1 X52.084 Y110.471 E34.79883
G1 X51.697 Y109.281 E34.84461
G1 X51.386 Y108.069 E34.89039
G1 X51.154 Y106.839 E34.93619
G1 X51.001 Y105.597 E34.98197
G1 X50.92 Y103.822 E35.04698
G1 X50.92 Y77.678 E36.00349
G1 X50.96 Y76.427 E36.04928
G1 X51.08 Y75.182 E36.09504
G1 X51.279 Y73.946 E36.14084
G1 X51.557 Y72.726 E36.18662
G1 X51.912 Y71.526 E36.23241
G1 X52.343 Y70.351 E36.2782
G1 X52.848 Y69.206 E36.32398
G1 X53.425 Y68.096 E36.36975
G1 X54.072 Y67.025 E36.41553
G1 X54.786 Y65.997 E36.46132
G1 X55.564 Y65.017 E36.5071
G1 X56.404 Y64.089 E36.5529
G1 X56.779 Y63.723 E36.57207
G0 F810 X57.3 Y63.216
M204 S5000
M205 X30 Y30
G0 F7200 X57.732 Y63.419
M204 S500
M205 X20 Y20
G1 F6000 E36.59867
G1 F900 X58.932 Y62.429 E36.65558
G1 X59.106 Y62.297 E36.66357
G1 X60.115 Y61.582 E36.70882
G1 X61.169 Y60.933 E36.7541
G1 X62.262 Y60.354 E36.79936
G1 X63.39 Y59.846 E36.84462
G1 X64.335 Y59.492 E36.88154
G1 X64.351 Y59.44 E36.88353
G1 X64.782 Y58.28 E36.9288
G1 X65.287 Y57.15 E36.97408
G1 X65.864 Y56.056 E37.01934
G1 X66.51 Y55.001 E37.0646
G1 X67.223 Y53.99 E37.10986
G1 X68 Y53.027 E37.15513
G1 X68.966 Y51.986 E37.20709
G1 X69.095 Y51.857 E37.21376
G1 X69.998 Y51.011 E37.25903
G1 X70.953 Y50.225 E37.30428
G1 X71.957 Y49.502 E37.34955
G1 X73.006 Y48.846 E37.39481
G1 X74.095 Y48.259 E37.44008
G1 X75.22 Y47.743 E37.48536
G1 X76.376 Y47.301 E37.53064
G1 X77.558 Y46.935 E37.57591
G1 X78.761 Y46.646 E37.62117
G1 X79.98 Y46.435 E37.66644
G1 X81.21 Y46.304 E37.71169
G1 X82.629 Y46.251 E37.76364
G1 X152.371 Y46.25 E40.31523
G1 X153.607 Y46.29 E40.36048
G1 X154.839 Y46.41 E40.40577
G1 X156.06 Y46.609 E40.45103
G1 X157.266 Y46.886 E40.4963
G1 X158.451 Y47.241 E40.54156
G1 X159.611 Y47.672 E40.58683
G1 X160.74 Y48.177 E40.63208
G1 X161.835 Y48.754 E40.67737
G1 X162.89 Y49.4 E40.72262
G1 X163.901 Y50.113 E40.76789
G1 X164.864 Y50.89 E40.81316
G1 X165.905 Y51.856 E40.86512
G1 X166.034 Y51.985 E40.87179
G1 X166.88 Y52.888 E40.91706
G1 X167.666 Y53.843 E40.96231
G1 X168.389 Y54.847 E41.00758
G1 X169.045 Y55.896 E41.05284
G1 X169.632 Y56.985 E41.09811
G1 X170.148 Y58.11 E41.14339
G1 X170.59 Y59.266 E41.18867
G1 X170.666 Y59.512 E41.19809
G1 X171.459 Y59.801 E41.22897
G1 X172.591 Y60.299 E41.27421
G1 X173.69 Y60.869 E41.31951
G1 X174.749 Y61.509 E41.36478
G1 X175.894 Y62.313 E41.41597
G1 X176.068 Y62.445 E41.42396
G1 X177.029 Y63.225 E41.46924
G1 X177.938 Y64.064 E41.5145
G1 X178.79 Y64.961 E41.55976
G1 X179.583 Y65.911 E41.60503
G1 X180.313 Y66.91 E41.6503
G1 X180.976 Y67.954 E41.69555
G1 X181.571 Y69.039 E41.74082
G1 X182.095 Y70.16 E41.78609
G1 X182.545 Y71.313 E41.83138
G1 X182.919 Y72.492 E41.87663
G1 X183.217 Y73.693 E41.9219
G1 X183.436 Y74.91 E41.96714
G1 X183.577 Y76.14 E42.01244
G1 X183.64 Y77.694 E42.06934
