;FLAVOR:Marlin
;TIME:757
;Filament used: 0.292259m
;Layer height: 0.16
;Generated with Cura_SteamEngine 3.6.0
M140 S70
M105
M190 S70
M104 S215
M105
M109 S215
M82 ;absolute extrusion mode
G28 ; home all axes
M117 Purge extruder
G92 E0 ; reset extruder
G1 Z1.0 F3000 ; move z up little to prevent scratching of surface
G1 X0.1 Y20 Z0.3 F5000.0 ; move to start-line position G1 X0.1 Y200.0 Z0.3 F1500.0 E15 ; draw 1st line
G1 X0.4 Y200.0 Z0.3 F5000.0 ; move to side a little
G1 X0.4 Y20 Z0.3 F1500.0 E30 ; draw 2nd line
G92 E0 ; reset extruder
G1 Z1.0 F3000 ; move z up little to prevent scratching of surface
M117 All systems go!
G92 E0
G1 F6000 E-5
;LAYER_COUNT:31
;LAYER:0
M107
M204 S5000
M205 X30 Y30
G0 F7200 X95.508 Y95.662 Z0.16
M204 S500
M205 X20 Y20
;TYPE:SKIRT
G1 F6000 E0
G1 F900 X96.421 Y94.797 E0.03346
G1 X97.505 Y93.9 E0.0709
G1 X99.822 Y92.118 E0.14868
G1 X100.843 Y91.383 E0.18215
G1 X101.909 Y90.714 E0.21564
G1 X103.016 Y90.115 E0.24913
G1 X104.29 Y89.531 E0.28642
G1 X106.988 Y88.409 E0.36417
G1 X108.165 Y87.963 E0.39766
G1 X109.368 Y87.592 E0.43116
G1 X110.591 Y87.299 E0.46462
G1 X111.975 Y87.065 E0.50197
G1 X114.871 Y86.679 E0.57971
G1 X116.123 Y86.552 E0.61319
G1 X117.381 Y86.505 E0.64669
G1 X118.639 Y86.539 E0.68017
G1 X120.055 Y86.672 E0.71802
G1 X122.952 Y87.051 E0.79576
G1 X124.194 Y87.254 E0.82924
G1 X125.421 Y87.535 E0.86274
G1 X126.627 Y87.894 E0.89622
G1 X127.945 Y88.385 E0.93364
G1 X130.646 Y89.501 E1.0114
G1 X131.793 Y90.018 E1.04488
G1 X132.905 Y90.607 E1.07836
G1 X133.978 Y91.265 E1.11185
G1 X135.121 Y92.078 E1.14917
G1 X137.441 Y93.854 E1.22692
G1 X138.415 Y94.65 E1.26039
G1 X139.337 Y95.507 E1.29388
G1 X140.202 Y96.42 E1.32735
G1 X141.099 Y97.504 E1.36478
G1 X142.882 Y99.822 E1.4426
G1 X143.617 Y100.843 E1.47607
G1 X144.286 Y101.909 E1.50956
G1 X144.886 Y103.016 E1.54306
G1 X145.472 Y104.295 E1.58049
G1 X146.593 Y106.992 E1.65821
G1 X147.038 Y108.168 E1.69167
G1 X147.409 Y109.371 E1.72516
G1 X147.702 Y110.595 E1.75865
G1 X147.935 Y111.975 E1.79589
G1 X148.321 Y114.871 E1.87363
G1 X148.448 Y116.123 E1.90711
G1 X148.495 Y117.381 E1.94061
G1 X148.461 Y118.639 E1.97409
G1 X148.328 Y120.055 E2.01194
G1 X147.949 Y122.952 E2.08968
G1 X147.746 Y124.194 E2.12316
G1 X147.465 Y125.421 E2.15666
G1 X147.106 Y126.627 E2.19014
G1 X146.617 Y127.942 E2.22747
G1 X145.502 Y130.642 E2.3052
G1 X144.985 Y131.789 E2.33867
G1 X144.396 Y132.901 E2.37215
G1 X143.738 Y133.973 E2.40562
G1 X142.922 Y135.121 E2.4431
G1 X141.145 Y137.442 E2.52088
G1 X140.349 Y138.416 E2.55435
G1 X139.492 Y139.338 E2.58784
G1 X138.579 Y140.203 E2.62131
G1 X137.495 Y141.1 E2.65875
G1 X135.178 Y142.882 E2.73652
G1 X134.157 Y143.617 E2.77
G1 X133.091 Y144.286 E2.80348
G1 X131.984 Y144.885 E2.83697
G1 X130.71 Y145.469 E2.87426
G1 X128.012 Y146.591 E2.95201
G1 X126.835 Y147.037 E2.9855
G1 X125.632 Y147.408 E3.019
G1 X124.409 Y147.701 E3.05246
G1 X123.025 Y147.935 E3.08981
G1 X120.129 Y148.321 E3.16755
G1 X118.877 Y148.448 E3.20103
G1 X117.619 Y148.495 E3.23453
G1 X116.361 Y148.461 E3.26802
G1 X114.945 Y148.328 E3.30586
G1 X112.048 Y147.949 E3.3836
G1 X110.806 Y147.746 E3.41709
G1 X109.579 Y147.465 E3.45058
G1 X108.373 Y147.106 E3.48406
G1 X107.055 Y146.615 E3.52148
G1 X104.354 Y145.499 E3.59925
G1 X103.207 Y144.982 E3.63272
G1 X102.095 Y144.393 E3.6662
G1 X101.022 Y143.735 E3.6997
G1 X99.879 Y142.922 E3.73702
G1 X97.559 Y141.146 E3.81476
G1 X96.585 Y140.35 E3.84823
G1 X95.663 Y139.493 E3.88172
G1 X94.798 Y138.58 E3.91519
G1 X93.901 Y137.496 E3.95263
G1 X92.118 Y135.178 E4.03044
G1 X91.383 Y134.157 E4.06391
G1 X90.714 Y133.091 E4.0974
G1 X90.114 Y131.984 E4.1309
G1 X89.528 Y130.705 E4.16834
G1 X88.407 Y128.008 E4.24605
G1 X87.962 Y126.832 E4.27951
G1 X87.591 Y125.629 E4.31301
G1 X87.298 Y124.405 E4.34649
G1 X87.065 Y123.025 E4.38373
G1 X86.679 Y120.129 E4.46147
G1 X86.552 Y118.877 E4.49496
G1 X86.505 Y117.619 E4.52845
G1 X86.539 Y116.361 E4.56194
G1 X86.672 Y114.945 E4.59978
G1 X87.051 Y112.048 E4.67752
G1 X87.254 Y110.806 E4.71101
G1 X87.535 Y109.579 E4.7445
G1 X87.894 Y108.373 E4.77798
G1 X88.383 Y107.058 E4.81531
G1 X89.498 Y104.358 E4.89304
G1 X90.015 Y103.211 E4.92651
G1 X90.604 Y102.099 E4.96
G1 X91.262 Y101.027 E4.99347
G1 X92.078 Y99.879 E5.03094
G1 X93.855 Y97.558 E5.10872
G1 X94.651 Y96.584 E5.14219
G1 X94.827 Y96.394 E5.14908
G0 F810 X95.508 Y95.662
M204 S5000
M205 X30 Y30
G0 F7200 X95.81 Y95.926
M204 S500
M205 X20 Y20
G1 F6000 E5.17569
G1 F900 X96.715 Y95.07 E5.20884
G1 X97.749 Y94.217 E5.2445
G1 X100.066 Y92.435 E5.32228
G1 X101.077 Y91.708 E5.35541
G1 X102.133 Y91.047 E5.38856
G1 X103.229 Y90.455 E5.42171
G1 X104.444 Y89.9 E5.45725
G1 X107.142 Y88.778 E5.535
G1 X108.307 Y88.337 E5.56814
G1 X109.497 Y87.972 E5.60126
G1 X110.709 Y87.683 E5.63442
G1 X112.028 Y87.461 E5.67
G1 X114.924 Y87.075 E5.74774
G1 X116.163 Y86.95 E5.78088
G1 X117.408 Y86.905 E5.81403
G1 X118.653 Y86.94 E5.84717
G1 X120.004 Y87.069 E5.88328
G1 X122.901 Y87.448 E5.96102
G1 X124.13 Y87.649 E5.99415
G1 X125.344 Y87.929 E6.0273
G1 X126.537 Y88.286 E6.06044
G1 X127.792 Y88.754 E6.09608
G1 X130.493 Y89.87 E6.17384
G1 X131.629 Y90.383 E6.20701
G1 X132.729 Y90.967 E6.24014
G1 X133.789 Y91.62 E6.27327
G1 X134.877 Y92.395 E6.30881
G1 X137.197 Y94.171 E6.38656
G1 X138.162 Y94.96 E6.41972
G1 X139.073 Y95.809 E6.45286
G1 X139.929 Y96.714 E6.486
G1 X140.782 Y97.748 E6.52167
G1 X142.565 Y100.066 E6.59948
G1 X143.293 Y101.077 E6.63263
G1 X143.953 Y102.133 E6.66577
G1 X144.545 Y103.229 E6.69891
G1 X145.102 Y104.448 E6.73457
G1 X146.223 Y107.145 E6.81229
G1 X146.664 Y108.31 E6.84543
G1 X147.029 Y109.501 E6.87858
G1 X147.317 Y110.713 E6.91172
G1 X147.539 Y112.028 E6.94721
G1 X147.925 Y114.924 E7.02495
G1 X148.05 Y116.163 E7.05808
G1 X148.095 Y117.408 E7.09123
G1 X148.06 Y118.653 E7.12437
G1 X147.931 Y120.004 E7.16048
G1 X147.552 Y122.901 E7.23822
G1 X147.351 Y124.13 E7.27136
G1 X147.071 Y125.344 E7.30451
G1 X146.714 Y126.537 E7.33764
G1 X146.247 Y127.789 E7.3732
G1 X145.132 Y130.489 E7.45092
G1 X144.62 Y131.624 E7.48406
G1 X144.036 Y132.725 E7.51722
G1 X143.383 Y133.785 E7.55034
G1 X142.605 Y134.877 E7.58602
G1 X140.828 Y137.198 E7.6638
G1 X140.039 Y138.163 E7.69697
G1 X139.19 Y139.074 E7.7301
G1 X138.285 Y139.93 E7.76325
G1 X137.251 Y140.783 E7.79891
G1 X134.934 Y142.565 E7.87669
G1 X133.923 Y143.292 E7.90982
G1 X132.867 Y143.953 E7.94297
G1 X131.771 Y144.545 E7.97612
G1 X130.556 Y145.1 E8.01166
G1 X127.858 Y146.222 E8.08941
G1 X126.693 Y146.663 E8.12255
G1 X125.503 Y147.028 E8.15567
G1 X124.291 Y147.317 E8.18883
G1 X122.972 Y147.539 E8.22441
G1 X120.076 Y147.925 E8.30215
G1 X118.837 Y148.05 E8.33529
G1 X117.592 Y148.095 E8.36844
G1 X116.347 Y148.06 E8.40158
G1 X114.996 Y147.931 E8.43769
G1 X112.099 Y147.552 E8.51543
G1 X110.87 Y147.351 E8.54856
G1 X109.656 Y147.071 E8.58171
G1 X108.463 Y146.714 E8.61485
G1 X107.208 Y146.246 E8.65049
G1 X104.507 Y145.13 E8.72825
G1 X103.371 Y144.617 E8.76142
G1 X102.271 Y144.033 E8.79455
G1 X101.211 Y143.38 E8.82768
G1 X100.123 Y142.605 E8.86322
G1 X97.803 Y140.829 E8.94097
G1 X96.838 Y140.04 E8.97413
G1 X95.927 Y139.191 E9.00727
G1 X95.071 Y138.286 E9.04041
G1 X94.218 Y137.252 E9.07608
G1 X92.435 Y134.934 E9.15389
G1 X91.707 Y133.923 E9.18704
G1 X91.047 Y132.867 E9.22018
G1 X90.455 Y131.771 E9.25332
G1 X89.898 Y130.552 E9.28898
G1 X88.777 Y127.855 E9.3667
G1 X88.336 Y126.69 E9.39984
G1 X87.971 Y125.499 E9.43299
G1 X87.683 Y124.287 E9.46613
G1 X87.461 Y122.972 E9.50162
G1 X87.075 Y120.076 E9.57936
G1 X86.95 Y118.837 E9.61249
G1 X86.905 Y117.592 E9.64564
G1 X86.94 Y116.347 E9.67878
G1 X87.069 Y114.996 E9.71489
G1 X87.448 Y112.099 E9.79263
G1 X87.649 Y110.87 E9.82577
G1 X87.929 Y109.656 E9.85892
G1 X88.286 Y108.463 E9.89205
G1 X88.753 Y107.211 E9.92761
G1 X89.868 Y104.511 E10.00534
G1 X90.38 Y103.376 E10.03847
G1 X90.964 Y102.275 E10.07163
G1 X91.617 Y101.215 E10.10475
G1 X92.395 Y100.123 E10.14043
G1 X94.172 Y97.802 E10.21821
G1 X94.961 Y96.837 E10.25138
G1 X95.129 Y96.657 E10.25793
G0 F810 X95.81 Y95.926
M204 S5000
M205 X30 Y30
G0 F7200 X96.112 Y96.189
M204 S500
M205 X20 Y20
G1 F6000 E10.28454
G1 F900 X97.009 Y95.345 E10.31731
G1 X97.993 Y94.534 E10.35124
G1 X100.31 Y92.752 E10.42901
G1 X101.311 Y92.033 E10.46181
G1 X102.356 Y91.38 E10.49459
G1 X103.442 Y90.796 E10.5274
G1 X104.597 Y90.27 E10.56117
G1 X107.295 Y89.148 E10.63892
G1 X108.448 Y88.711 E10.67173
G1 X109.627 Y88.351 E10.70453
G1 X110.827 Y88.068 E10.73734
G1 X112.081 Y87.858 E10.77117
G1 X114.977 Y87.472 E10.84891
G1 X116.203 Y87.348 E10.88169
G1 X117.435 Y87.305 E10.9145
G1 X118.667 Y87.342 E10.94729
G1 X119.952 Y87.466 E10.98164
G1 X122.849 Y87.845 E11.05938
G1 X124.065 Y88.044 E11.09217
G1 X125.266 Y88.322 E11.12497
G1 X126.447 Y88.677 E11.15778
G1 X127.639 Y89.124 E11.19166
G1 X130.34 Y90.24 E11.26942
G1 X131.464 Y90.747 E11.30223
G1 X132.552 Y91.327 E11.33503
G1 X133.6 Y91.975 E11.36782
G1 X134.634 Y92.713 E11.40162
G1 X136.954 Y94.489 E11.47936
G1 X137.908 Y95.27 E11.51217
G1 X138.81 Y96.111 E11.54498
G1 X139.655 Y97.008 E11.57777
G1 X140.465 Y97.992 E11.61168
G1 X142.248 Y100.31 E11.6895
G1 X142.968 Y101.311 E11.72231
G1 X143.621 Y102.356 E11.75509
G1 X144.205 Y103.442 E11.7879
G1 X144.733 Y104.602 E11.82182
G1 X145.854 Y107.299 E11.89953
G1 X146.29 Y108.452 E11.93233
G1 X146.65 Y109.631 E11.96513
G1 X146.933 Y110.83 E11.99791
G1 X147.142 Y112.081 E12.03166
G1 X147.528 Y114.977 E12.1094
G1 X147.652 Y116.203 E12.14218
G1 X147.695 Y117.435 E12.17499
G1 X147.658 Y118.667 E12.20778
G1 X147.534 Y119.952 E12.24213
G1 X147.155 Y122.849 E12.31987
G1 X146.956 Y124.065 E12.35266
G1 X146.678 Y125.266 E12.38546
G1 X146.323 Y126.447 E12.41827
G1 X145.877 Y127.636 E12.45206
G1 X144.762 Y130.336 E12.52979
G1 X144.255 Y131.46 E12.5626
G1 X143.676 Y132.548 E12.59539
G1 X143.028 Y133.596 E12.62818
G1 X142.287 Y134.634 E12.66211
G1 X140.51 Y136.955 E12.73989
G1 X139.729 Y137.909 E12.7727
G1 X138.888 Y138.811 E12.80551
G1 X137.991 Y139.655 E12.83828
G1 X137.007 Y140.466 E12.87221
G1 X134.69 Y142.248 E12.94999
G1 X133.689 Y142.967 E12.98278
G1 X132.644 Y143.62 E13.01557
G1 X131.558 Y144.204 E13.04838
G1 X130.403 Y144.73 E13.08215
G1 X127.705 Y145.852 E13.1599
G1 X126.552 Y146.289 E13.19271
G1 X125.373 Y146.649 E13.22551
G1 X124.173 Y146.932 E13.25831
G1 X122.919 Y147.142 E13.29214
G1 X120.023 Y147.528 E13.36988
G1 X118.797 Y147.652 E13.40267
G1 X117.565 Y147.695 E13.43547
G1 X116.333 Y147.658 E13.46827
G1 X115.048 Y147.534 E13.50262
G1 X112.151 Y147.155 E13.58036
G1 X110.935 Y146.956 E13.61314
G1 X109.734 Y146.678 E13.64595
G1 X108.553 Y146.323 E13.67876
G1 X107.361 Y145.876 E13.71263
G1 X104.66 Y144.76 E13.79039
G1 X103.536 Y144.253 E13.8232
G1 X102.448 Y143.673 E13.85601
G1 X101.4 Y143.025 E13.88879
G1 X100.366 Y142.287 E13.9226
G1 X98.046 Y140.511 E14.00034
G1 X97.092 Y139.73 E14.03314
G1 X96.19 Y138.889 E14.06596
G1 X95.345 Y137.992 E14.09875
G1 X94.535 Y137.008 E14.13266
G1 X92.752 Y134.69 E14.21047
G1 X92.032 Y133.689 E14.24328
G1 X91.379 Y132.644 E14.27607
G1 X90.795 Y131.558 E14.30888
G1 X90.267 Y130.398 E14.34279
G1 X89.146 Y127.701 E14.42051
G1 X88.71 Y126.548 E14.45331
G1 X88.35 Y125.369 E14.48611
G1 X88.067 Y124.17 E14.51889
G1 X87.858 Y122.919 E14.55263
G1 X87.472 Y120.023 E14.63037
G1 X87.348 Y118.797 E14.66316
G1 X87.305 Y117.565 E14.69596
G1 X87.342 Y116.333 E14.72876
G1 X87.466 Y115.048 E14.76311
G1 X87.845 Y112.151 E14.84085
G1 X88.044 Y110.935 E14.87363
G1 X88.322 Y109.734 E14.90644
G1 X88.677 Y108.553 E14.93925
G1 X89.123 Y107.364 E14.97304
G1 X90.238 Y104.664 E15.05076
G1 X90.745 Y103.54 E15.08357
G1 X91.324 Y102.452 E15.11637
G1 X91.972 Y101.404 E15.14915
G1 X92.713 Y100.366 E15.18309
G1 X94.49 Y98.045 E15.26087
G1 X95.271 Y97.091 E15.29367
G1 X95.43 Y96.92 E15.29989
G0 F810 X96.112 Y96.189
M204 S5000
M205 X30 Y30
G0 F7200 X96.413 Y96.453
M204 S500
M205 X20 Y20
G1 F6000 E15.32649
G1 F900 X97.303 Y95.619 E15.35895
G1 X98.237 Y94.851 E15.39112
G1 X100.554 Y93.069 E15.4689
G1 X101.544 Y92.358 E15.50133
G1 X102.579 Y91.713 E15.53378
G1 X103.655 Y91.137 E15.56625
G1 X104.751 Y90.639 E15.59829
G1 X107.449 Y89.517 E15.67603
G1 X108.59 Y89.086 E15.70849
G1 X109.757 Y88.73 E15.74095
G1 X110.944 Y88.452 E15.77339
G1 X112.134 Y88.254 E15.80549
G1 X115.03 Y87.868 E15.88323
G1 X116.243 Y87.747 E15.91566
G1 X117.462 Y87.705 E15.94812
G1 X118.681 Y87.743 E15.98057
G1 X119.9 Y87.862 E16.01316
G1 X122.797 Y88.241 E16.0909
G1 X124 Y88.439 E16.12334
G1 X125.188 Y88.715 E16.15579
G1 X126.356 Y89.069 E16.18827
G1 X127.487 Y89.494 E16.22041
G1 X130.188 Y90.61 E16.29818
G1 X131.299 Y91.112 E16.33062
G1 X132.375 Y91.686 E16.36306
G1 X133.411 Y92.33 E16.39552
G1 X134.391 Y93.031 E16.42758
G1 X136.711 Y94.807 E16.50533
G1 X137.655 Y95.579 E16.53777
G1 X138.546 Y96.412 E16.57023
G1 X139.38 Y97.302 E16.60268
G1 X140.148 Y98.236 E16.63486
G1 X141.931 Y100.554 E16.71267
G1 X142.643 Y101.544 E16.74512
G1 X143.288 Y102.579 E16.77757
G1 X143.863 Y103.655 E16.81003
G1 X144.363 Y104.755 E16.84218
G1 X145.484 Y107.452 E16.91989
G1 X145.915 Y108.593 E16.95235
G1 X146.271 Y109.76 E16.98481
G1 X146.549 Y110.947 E17.01725
G1 X146.746 Y112.134 E17.04927
G1 X147.132 Y115.03 E17.127
G1 X147.253 Y116.243 E17.15944
G1 X147.295 Y117.462 E17.19189
G1 X147.257 Y118.681 E17.22435
G1 X147.138 Y119.9 E17.25693
G1 X146.759 Y122.797 E17.33468
G1 X146.561 Y124 E17.36712
G1 X146.285 Y125.188 E17.39957
G1 X145.931 Y126.356 E17.43204
G1 X145.508 Y127.484 E17.4641
G1 X144.393 Y130.184 E17.54182
G1 X143.89 Y131.295 E17.57427
G1 X143.316 Y132.371 E17.60672
G1 X142.673 Y133.407 E17.63917
G1 X141.97 Y134.391 E17.67134
G1 X140.193 Y136.712 E17.74912
G1 X139.42 Y137.656 E17.78159
G1 X138.587 Y138.547 E17.81404
G1 X137.697 Y139.381 E17.8465
G1 X136.763 Y140.149 E17.87867
G1 X134.446 Y141.931 E17.95645
G1 X133.456 Y142.642 E17.98888
G1 X132.421 Y143.287 E18.02133
G1 X131.345 Y143.863 E18.0538
G1 X130.249 Y144.361 E18.08584
G1 X127.551 Y145.483 E18.16358
G1 X126.41 Y145.914 E18.19604
G1 X125.243 Y146.27 E18.2285
G1 X124.056 Y146.548 E18.26094
G1 X122.866 Y146.746 E18.29304
G1 X119.97 Y147.132 E18.37078
G1 X118.757 Y147.253 E18.40321
G1 X117.538 Y147.295 E18.43567
G1 X116.319 Y147.257 E18.46812
G1 X115.1 Y147.138 E18.50071
G1 X112.203 Y146.759 E18.57845
G1 X111 Y146.561 E18.61089
G1 X109.812 Y146.285 E18.64334
G1 X108.644 Y145.931 E18.67582
G1 X107.513 Y145.506 E18.70796
G1 X104.812 Y144.39 E18.78573
G1 X103.701 Y143.888 E18.81817
G1 X102.625 Y143.314 E18.85062
G1 X101.589 Y142.67 E18.88307
G1 X100.609 Y141.969 E18.91513
G1 X98.289 Y140.193 E18.99288
G1 X97.345 Y139.421 E19.02532
G1 X96.454 Y138.588 E19.05778
G1 X95.62 Y137.698 E19.09023
G1 X94.852 Y136.764 E19.12241
G1 X93.069 Y134.446 E19.20022
G1 X92.357 Y133.456 E19.23267
G1 X91.712 Y132.421 E19.26512
G1 X91.137 Y131.345 E19.29758
G1 X90.637 Y130.245 E19.32973
G1 X89.516 Y127.548 E19.40744
G1 X89.085 Y126.407 E19.4399
G1 X88.729 Y125.24 E19.47236
G1 X88.451 Y124.053 E19.5048
G1 X88.254 Y122.866 E19.53682
G1 X87.868 Y119.97 E19.61455
G1 X87.747 Y118.757 E19.64699
G1 X87.705 Y117.538 E19.67944
G1 X87.743 Y116.319 E19.7119
G1 X87.862 Y115.1 E19.74448
G1 X88.241 Y112.203 E19.82223
G1 X88.439 Y111 E19.85467
G1 X88.715 Y109.812 E19.88712
G1 X89.069 Y108.644 E19.91959
G1 X89.492 Y107.516 E19.95165
G1 X90.607 Y104.816 E20.02937
G1 X91.11 Y103.705 E20.06182
G1 X91.684 Y102.629 E20.09427
G1 X92.327 Y101.593 E20.12672
G1 X93.03 Y100.609 E20.1589
G1 X94.807 Y98.288 E20.23667
G1 X95.58 Y97.344 E20.26914
G1 X95.73 Y97.183 E20.27499
G0 F810 X96.413 Y96.453
M204 S5000
M205 X30 Y30
G0 F7200 X96.715 Y96.718
M204 S500
M205 X20 Y20
G1 F6000 E20.3016
G1 F900 X97.596 Y95.894 E20.3337
G1 X98.48 Y95.168 E20.36414
G1 X100.797 Y93.386 E20.44191
G1 X101.778 Y92.683 E20.47403
G1 X102.802 Y92.046 E20.50611
G1 X103.867 Y91.478 E20.53823
G1 X104.905 Y91.008 E20.56855
G1 X107.603 Y89.886 E20.6463
G1 X108.731 Y89.46 E20.67838
G1 X109.886 Y89.11 E20.71049
G1 X111.061 Y88.837 E20.74259
G1 X112.186 Y88.651 E20.77293
G1 X115.082 Y88.265 E20.85067
G1 X116.283 Y88.145 E20.88278
G1 X117.489 Y88.105 E20.91489
G1 X118.695 Y88.145 E20.947
G1 X119.848 Y88.259 E20.97783
G1 X122.745 Y88.638 E21.05557
