;FLAVOR:Marlin
;TIME:776
;Filament used: 0.313842m
;Layer height: 0.16
;Generated with Cura_SteamEngine 3.6.0
M140 S70
M105
M190 S70
M104 S215
M105
M109 S215
M82 ;absolute extrusion mode
G28 ; home all axes
M117 Purge extruder
G92 E0 ; reset extruder
G1 Z1.0 F3000 ; move z up little to prevent scratching of surface
G1 X0.1 Y20 Z0.3 F5000.0 ; move to start-line position G1 X0.1 Y200.0 Z0.3 F1500.0 E15 ; draw 1st line
G1 X0.4 Y200.0 Z0.3 F5000.0 ; move to side a little
G1 X0.4 Y20 Z0.3 F1500.0 E30 ; draw 2nd line
G92 E0 ; reset extruder
G1 Z1.0 F3000 ; move z up little to prevent scratching of surface
M117 All systems go!
G92 E0
G1 F6000 E-5
;LAYER_COUNT:31
;LAYER:0
M107
M204 S5000
M205 X30 Y30
G0 F7200 X94.986 Y95.15 Z0.16
M204 S500
M205 X20 Y20
;TYPE:SKIRT
G1 F6000 E0
G1 F900 X95.899 Y94.284 E0.03348
G1 X96.996 Y93.377 E0.07136
G1 X99.465 Y91.48 E0.1542
G1 X100.486 Y90.746 E0.18766
G1 X101.553 Y90.077 E0.22117
G1 X102.659 Y89.478 E0.25464
G1 X103.921 Y88.901 E0.29156
G1 X106.795 Y87.705 E0.37439
G1 X107.971 Y87.258 E0.40787
G1 X109.174 Y86.888 E0.44136
G1 X110.398 Y86.594 E0.47485
G1 X111.8 Y86.357 E0.51269
G1 X114.885 Y85.948 E0.59549
G1 X116.137 Y85.822 E0.62897
G1 X117.394 Y85.776 E0.66244
G1 X118.652 Y85.81 E0.69592
G1 X120.045 Y85.942 E0.73316
G1 X123.131 Y86.344 E0.81596
G1 X124.373 Y86.546 E0.84944
G1 X125.599 Y86.827 E0.88291
G1 X126.806 Y87.185 E0.91641
G1 X128.141 Y87.681 E0.9543
G1 X131.018 Y88.871 E1.03715
G1 X132.165 Y89.389 E1.07063
G1 X133.277 Y89.979 E1.10413
G1 X134.349 Y90.638 E1.13761
G1 X135.48 Y91.442 E1.17453
G1 X137.952 Y93.333 E1.25735
G1 X138.927 Y94.129 E1.29084
G1 X139.849 Y94.985 E1.32431
G1 X140.715 Y95.898 E1.3578
G1 X141.622 Y96.995 E1.39567
G1 X143.52 Y99.465 E1.47856
G1 X144.255 Y100.486 E1.51203
G1 X144.923 Y101.553 E1.54553
G1 X145.522 Y102.659 E1.57899
G1 X146.102 Y103.925 E1.61605
G1 X147.297 Y106.798 E1.69884
G1 X147.743 Y107.975 E1.73233
G1 X148.113 Y109.177 E1.76579
G1 X148.407 Y110.401 E1.79929
G1 X148.643 Y111.8 E1.83704
G1 X149.052 Y114.885 E1.91984
G1 X149.178 Y116.137 E1.95333
G1 X149.224 Y117.394 E1.98679
G1 X149.19 Y118.652 E2.02028
G1 X149.058 Y120.045 E2.05751
G1 X148.656 Y123.131 E2.14032
G1 X148.454 Y124.373 E2.1738
G1 X148.173 Y125.599 E2.20727
G1 X147.815 Y126.806 E2.24076
G1 X147.32 Y128.138 E2.27858
G1 X146.131 Y131.014 E2.36138
G1 X145.613 Y132.161 E2.39487
G1 X145.024 Y133.273 E2.42835
G1 X144.365 Y134.345 E2.46183
G1 X143.559 Y135.48 E2.49887
G1 X141.667 Y137.953 E2.58173
G1 X140.871 Y138.928 E2.61522
G1 X140.014 Y139.85 E2.64871
G1 X139.101 Y140.716 E2.68219
G1 X138.004 Y141.623 E2.72007
G1 X135.535 Y143.52 E2.80291
G1 X134.514 Y144.254 E2.83637
G1 X133.447 Y144.923 E2.86988
G1 X132.341 Y145.522 E2.90335
G1 X131.079 Y146.099 E2.94027
G1 X128.205 Y147.295 E3.0231
G1 X127.029 Y147.742 E3.05658
G1 X125.826 Y148.112 E3.09007
G1 X124.602 Y148.406 E3.12356
G1 X123.2 Y148.643 E3.1614
G1 X120.115 Y149.052 E3.2442
G1 X118.863 Y149.178 E3.27768
G1 X117.606 Y149.224 E3.31115
G1 X116.348 Y149.19 E3.34464
G1 X114.955 Y149.058 E3.38187
G1 X111.869 Y148.656 E3.46467
G1 X110.627 Y148.454 E3.49815
G1 X109.401 Y148.173 E3.53162
G1 X108.194 Y147.815 E3.56512
G1 X106.859 Y147.319 E3.60301
G1 X103.982 Y146.129 E3.68586
G1 X102.835 Y145.611 E3.71934
G1 X101.723 Y145.021 E3.75284
G1 X100.651 Y144.362 E3.78632
G1 X99.52 Y143.558 E3.82324
G1 X97.048 Y141.667 E3.90606
G1 X96.073 Y140.871 E3.93955
G1 X95.151 Y140.015 E3.97302
G1 X94.285 Y139.102 E4.00651
G1 X93.378 Y138.005 E4.04438
G1 X91.48 Y135.535 E4.12727
G1 X90.745 Y134.514 E4.16074
G1 X90.077 Y133.447 E4.19424
G1 X89.478 Y132.341 E4.2277
G1 X88.898 Y131.075 E4.26476
G1 X87.703 Y128.202 E4.34755
G1 X87.257 Y127.025 E4.38104
G1 X86.887 Y125.823 E4.4145
G1 X86.593 Y124.599 E4.448
G1 X86.357 Y123.2 E4.48575
G1 X85.948 Y120.115 E4.56855
G1 X85.822 Y118.863 E4.60204
G1 X85.776 Y117.606 E4.6355
G1 X85.81 Y116.348 E4.66899
G1 X85.942 Y114.955 E4.70622
G1 X86.344 Y111.869 E4.78903
G1 X86.546 Y110.627 E4.82251
G1 X86.827 Y109.401 E4.85598
G1 X87.185 Y108.194 E4.88948
G1 X87.68 Y106.862 E4.92729
G1 X88.869 Y103.986 E5.01009
G1 X89.387 Y102.839 E5.04358
G1 X89.976 Y101.727 E5.07706
G1 X90.635 Y100.655 E5.11054
G1 X91.441 Y99.52 E5.14758
G1 X93.333 Y97.047 E5.23044
G1 X94.129 Y96.072 E5.26393
G1 X94.305 Y95.882 E5.27082
G0 F810 X94.986 Y95.15
M204 S5000
M205 X30 Y30
G0 F7200 X95.288 Y95.414
M204 S500
M205 X20 Y20
G1 F6000 E5.29743
G1 F900 X96.193 Y94.558 E5.33057
G1 X97.239 Y93.694 E5.36667
G1 X99.708 Y91.797 E5.44952
G1 X100.72 Y91.071 E5.48266
G1 X101.776 Y90.41 E5.51581
G1 X102.872 Y89.819 E5.54894
G1 X104.074 Y89.27 E5.5841
G1 X106.948 Y88.074 E5.66693
G1 X108.113 Y87.633 E5.70007
G1 X109.304 Y87.267 E5.73323
G1 X110.516 Y86.978 E5.76638
G1 X111.852 Y86.753 E5.80243
G1 X114.937 Y86.344 E5.88523
G1 X116.177 Y86.22 E5.91839
G1 X117.422 Y86.176 E5.95154
G1 X118.667 Y86.212 E5.98468
G1 X119.993 Y86.339 E6.02012
G1 X123.079 Y86.741 E6.10293
G1 X124.308 Y86.941 E6.13606
G1 X125.522 Y87.22 E6.16921
G1 X126.716 Y87.576 E6.20236
G1 X127.988 Y88.051 E6.23849
G1 X130.865 Y89.241 E6.32133
G1 X132 Y89.754 E6.35447
G1 X133.1 Y90.338 E6.38761
G1 X134.16 Y90.992 E6.42075
G1 X135.237 Y91.759 E6.45593
G1 X137.709 Y93.65 E6.53874
G1 X138.674 Y94.439 E6.57191
G1 X139.586 Y95.287 E6.60505
G1 X140.441 Y96.192 E6.63817
G1 X141.305 Y97.238 E6.67427
G1 X143.203 Y99.708 E6.75716
G1 X143.93 Y100.72 E6.79031
G1 X144.59 Y101.776 E6.82345
G1 X145.182 Y102.872 E6.85659
G1 X145.732 Y104.079 E6.89189
G1 X146.927 Y106.952 E6.97468
G1 X147.369 Y108.116 E7.00781
G1 X147.734 Y109.307 E7.04095
G1 X148.022 Y110.519 E7.0741
G1 X148.247 Y111.852 E7.11007
G1 X148.656 Y114.937 E7.19288
G1 X148.78 Y116.177 E7.22603
G1 X148.824 Y117.422 E7.25918
G1 X148.788 Y118.667 E7.29232
G1 X148.661 Y119.993 E7.32777
G1 X148.259 Y123.079 E7.41057
G1 X148.059 Y124.308 E7.44371
G1 X147.78 Y125.522 E7.47685
G1 X147.424 Y126.716 E7.51
G1 X146.95 Y127.985 E7.54605
G1 X145.761 Y130.861 E7.62885
G1 X145.249 Y131.996 E7.66198
G1 X144.664 Y133.096 E7.69513
G1 X144.01 Y134.156 E7.72827
G1 X143.241 Y135.237 E7.76357
G1 X141.349 Y137.71 E7.84642
G1 X140.561 Y138.674 E7.87955
G1 X139.712 Y139.586 E7.91271
G1 X138.807 Y140.442 E7.94585
G1 X137.761 Y141.306 E7.98195
G1 X135.292 Y143.203 E8.0648
G1 X134.28 Y143.929 E8.09794
G1 X133.224 Y144.59 E8.13109
G1 X132.128 Y145.181 E8.16422
G1 X130.926 Y145.73 E8.19938
G1 X128.052 Y146.926 E8.28221
G1 X126.887 Y147.367 E8.31536
G1 X125.696 Y147.733 E8.34851
G1 X124.484 Y148.022 E8.38166
G1 X123.148 Y148.247 E8.41771
G1 X120.063 Y148.656 E8.50052
G1 X118.823 Y148.78 E8.53367
G1 X117.578 Y148.824 E8.56682
G1 X116.333 Y148.788 E8.59996
G1 X115.007 Y148.661 E8.63541
G1 X111.921 Y148.259 E8.71821
G1 X110.692 Y148.059 E8.75134
G1 X109.478 Y147.78 E8.78449
G1 X108.284 Y147.424 E8.81764
G1 X107.012 Y146.949 E8.85377
G1 X104.135 Y145.759 E8.93661
G1 X103 Y145.246 E8.96975
G1 X101.9 Y144.662 E9.00289
G1 X100.84 Y144.008 E9.03603
G1 X99.763 Y143.241 E9.07121
G1 X97.291 Y141.35 E9.15403
G1 X96.326 Y140.561 E9.18719
G1 X95.414 Y139.713 E9.22033
G1 X94.559 Y138.808 E9.25346
G1 X93.695 Y137.762 E9.28956
G1 X91.797 Y135.292 E9.37244
G1 X91.07 Y134.28 E9.4056
G1 X90.41 Y133.224 E9.43873
G1 X89.818 Y132.128 E9.47187
G1 X89.268 Y130.921 E9.50717
G1 X88.073 Y128.048 E9.58996
G1 X87.631 Y126.884 E9.62309
G1 X87.266 Y125.693 E9.65624
G1 X86.978 Y124.481 E9.68938
G1 X86.753 Y123.148 E9.72535
G1 X86.344 Y120.063 E9.80816
G1 X86.22 Y118.823 E9.84132
G1 X86.176 Y117.578 E9.87446
G1 X86.212 Y116.333 E9.90761
G1 X86.339 Y115.007 E9.94305
G1 X86.741 Y111.921 E10.02586
G1 X86.941 Y110.692 E10.05899
G1 X87.22 Y109.478 E10.09213
G1 X87.576 Y108.284 E10.12528
G1 X88.05 Y107.015 E10.16133
G1 X89.239 Y104.139 E10.24413
G1 X89.751 Y103.004 E10.27727
G1 X90.336 Y101.904 E10.31042
G1 X90.99 Y100.844 E10.34356
G1 X91.759 Y99.763 E10.37886
G1 X93.651 Y97.29 E10.46171
G1 X94.439 Y96.326 E10.49484
G1 X94.607 Y96.145 E10.50141
G0 F810 X95.288 Y95.414
M204 S5000
M205 X30 Y30
G0 F7200 X95.59 Y95.677
M204 S500
M205 X20 Y20
G1 F6000 E10.52802
G1 F900 X96.487 Y94.832 E10.56081
G1 X97.483 Y94.012 E10.59513
G1 X99.952 Y92.115 E10.67798
G1 X100.953 Y91.396 E10.71077
G1 X101.999 Y90.743 E10.74358
G1 X103.085 Y90.16 E10.77638
G1 X104.228 Y89.639 E10.8098
G1 X107.102 Y88.443 E10.89263
G1 X108.255 Y88.007 E10.92543
G1 X109.434 Y87.646 E10.95824
G1 X110.633 Y87.362 E10.99103
G1 X111.905 Y87.15 E11.02534
G1 X114.99 Y86.741 E11.10814
G1 X116.217 Y86.619 E11.14095
G1 X117.449 Y86.576 E11.17375
G1 X118.681 Y86.614 E11.20655
G1 X119.941 Y86.735 E11.24023
G1 X123.027 Y87.137 E11.32304
G1 X124.244 Y87.336 E11.35585
G1 X125.445 Y87.613 E11.38865
G1 X126.626 Y87.968 E11.42146
G1 X127.835 Y88.421 E11.45581
G1 X130.712 Y89.611 E11.53865
G1 X131.835 Y90.119 E11.57145
G1 X132.923 Y90.698 E11.60424
G1 X133.971 Y91.347 E11.63704
G1 X134.994 Y92.077 E11.67048
G1 X137.466 Y93.968 E11.7533
G1 X138.42 Y94.748 E11.78608
G1 X139.322 Y95.589 E11.8189
G1 X140.167 Y96.486 E11.85169
G1 X140.988 Y97.482 E11.88603
G1 X142.886 Y99.952 E11.96892
G1 X143.605 Y100.953 E12.00171
G1 X144.257 Y101.999 E12.03451
G1 X144.841 Y103.085 E12.06732
G1 X145.363 Y104.232 E12.10085
G1 X146.558 Y107.105 E12.18364
G1 X146.994 Y108.258 E12.21644
G1 X147.355 Y109.437 E12.24925
G1 X147.638 Y110.637 E12.28206
G1 X147.85 Y111.905 E12.31626
G1 X148.259 Y114.99 E12.39907
G1 X148.381 Y116.217 E12.43188
G1 X148.424 Y117.449 E12.46468
G1 X148.386 Y118.681 E12.49747
G1 X148.265 Y119.941 E12.53116
G1 X147.863 Y123.027 E12.61396
G1 X147.664 Y124.244 E12.64677
G1 X147.387 Y125.445 E12.67957
G1 X147.032 Y126.626 E12.71238
G1 X146.581 Y127.832 E12.74664
G1 X145.392 Y130.708 E12.82945
G1 X144.884 Y131.831 E12.86224
G1 X144.304 Y132.919 E12.89505
G1 X143.656 Y133.968 E12.92786
G1 X142.923 Y134.994 E12.96141
G1 X141.031 Y137.467 E13.04426
G1 X140.251 Y138.421 E13.07705
G1 X139.41 Y139.323 E13.10986
G1 X138.513 Y140.168 E13.14265
G1 X137.517 Y140.988 E13.17698
G1 X135.048 Y142.885 E13.25983
G1 X134.047 Y143.604 E13.29262
G1 X133.001 Y144.257 E13.32543
G1 X131.915 Y144.84 E13.35823
G1 X130.772 Y145.361 E13.39165
G1 X127.898 Y146.557 E13.47448
G1 X126.745 Y146.993 E13.50728
G1 X125.566 Y147.354 E13.54009
G1 X124.367 Y147.638 E13.57288
G1 X123.095 Y147.85 E13.60719
G1 X120.01 Y148.259 E13.68999
G1 X118.783 Y148.381 E13.7228
G1 X117.551 Y148.424 E13.7556
G1 X116.319 Y148.386 E13.7884
G1 X115.059 Y148.265 E13.82208
G1 X111.973 Y147.863 E13.90489
G1 X110.756 Y147.664 E13.9377
G1 X109.555 Y147.387 E13.97049
G1 X108.374 Y147.032 E14.00331
G1 X107.165 Y146.579 E14.03766
G1 X104.288 Y145.389 E14.1205
G1 X103.165 Y144.881 E14.1533
G1 X102.077 Y144.302 E14.18609
G1 X101.029 Y143.653 E14.21889
G1 X100.006 Y142.923 E14.25233
G1 X97.534 Y141.032 E14.33514
G1 X96.58 Y140.252 E14.36793
G1 X95.678 Y139.411 E14.40075
G1 X94.833 Y138.514 E14.43354
G1 X94.012 Y137.518 E14.46788
G1 X92.114 Y135.048 E14.55077
G1 X91.395 Y134.047 E14.58356
G1 X90.743 Y133.001 E14.61636
G1 X90.159 Y131.915 E14.64917
G1 X89.637 Y130.768 E14.6827
G1 X88.442 Y127.895 E14.76549
G1 X88.006 Y126.742 E14.79829
G1 X87.645 Y125.563 E14.8311
G1 X87.362 Y124.363 E14.8639
G1 X87.15 Y123.095 E14.89811
G1 X86.741 Y120.01 E14.98092
G1 X86.619 Y118.783 E15.01373
G1 X86.576 Y117.551 E15.04653
G1 X86.614 Y116.319 E15.07932
G1 X86.735 Y115.059 E15.113
G1 X87.137 Y111.973 E15.19581
G1 X87.336 Y110.756 E15.22862
G1 X87.613 Y109.555 E15.26142
G1 X87.968 Y108.374 E15.29423
G1 X88.419 Y107.168 E15.32849
G1 X89.608 Y104.292 E15.4113
G1 X90.116 Y103.169 E15.44409
G1 X90.696 Y102.081 E15.4769
G1 X91.344 Y101.032 E15.50971
G1 X92.077 Y100.006 E15.54326
G1 X93.969 Y97.533 E15.62611
G1 X94.749 Y96.579 E15.6589
G1 X94.908 Y96.408 E15.66511
G0 F810 X95.59 Y95.677
M204 S5000
M205 X30 Y30
G0 F7200 X95.892 Y95.941
M204 S500
M205 X20 Y20
G1 F6000 E15.69172
G1 F900 X96.781 Y95.106 E15.72417
G1 X97.727 Y94.329 E15.75675
G1 X100.196 Y92.432 E15.83959
G1 X101.187 Y91.721 E15.87205
G1 X102.222 Y91.076 E15.90449
G1 X103.298 Y90.501 E15.93696
G1 X104.382 Y90.009 E15.96863
G1 X107.256 Y88.813 E16.05146
G1 X108.397 Y88.381 E16.08392
G1 X109.563 Y88.025 E16.11636
G1 X110.751 Y87.747 E16.14883
G1 X111.957 Y87.546 E16.18136
G1 X115.042 Y87.137 E16.26416
G1 X116.256 Y87.017 E16.29662
G1 X117.475 Y86.976 E16.32908
G1 X118.694 Y87.015 E16.36153
G1 X119.89 Y87.132 E16.3935
G1 X122.976 Y87.534 E16.47631
G1 X124.179 Y87.731 E16.50875
G1 X125.367 Y88.007 E16.5412
G1 X126.535 Y88.359 E16.57366
G1 X127.682 Y88.79 E16.60626
G1 X130.559 Y89.98 E16.6891
G1 X131.67 Y90.483 E16.72155
G1 X132.746 Y91.058 E16.75401
G1 X133.782 Y91.702 E16.78647
G1 X134.751 Y92.395 E16.81817
G1 X137.223 Y94.286 E16.90098
G1 X138.167 Y95.058 E16.93343
G1 X139.058 Y95.891 E16.96589
G1 X139.893 Y96.78 E16.99834
G1 X140.671 Y97.726 E17.03093
G1 X142.569 Y100.196 E17.11381
G1 X143.28 Y101.187 E17.14627
G1 X143.924 Y102.222 E17.1787
G1 X144.5 Y103.298 E17.21118
G1 X144.994 Y104.386 E17.24297
G1 X146.189 Y107.259 E17.32577
G1 X146.62 Y108.4 E17.35822
G1 X146.975 Y109.566 E17.39065
G1 X147.254 Y110.754 E17.42312
G1 X147.454 Y111.957 E17.45557
G1 X147.863 Y115.042 E17.53837
G1 X147.983 Y116.256 E17.57083
G1 X148.024 Y117.475 E17.60329
G1 X147.985 Y118.694 E17.63574
G1 X147.868 Y119.89 E17.66771
G1 X147.466 Y122.976 E17.75052
G1 X147.269 Y124.179 E17.78296
G1 X146.993 Y125.367 E17.81541
G1 X146.641 Y126.535 E17.84787
G1 X146.211 Y127.679 E17.88039
G1 X145.022 Y130.555 E17.96319
G1 X144.519 Y131.667 E17.99567
G1 X143.945 Y132.742 E18.02809
G1 X143.301 Y133.778 E18.06055
G1 X142.606 Y134.751 E18.09237
G1 X140.714 Y137.224 E18.17522
G1 X139.941 Y138.168 E18.20768
G1 X139.108 Y139.059 E18.24014
G1 X138.219 Y139.894 E18.27259
G1 X137.273 Y140.671 E18.30516
G1 X134.804 Y142.568 E18.38801
G1 X133.813 Y143.279 E18.42046
G1 X132.778 Y143.924 E18.45291
G1 X131.702 Y144.499 E18.48538
G1 X130.618 Y144.991 E18.51705
G1 X127.744 Y146.187 E18.59988
G1 X126.603 Y146.619 E18.63234
G1 X125.437 Y146.975 E18.66478
G1 X124.249 Y147.253 E18.69725
G1 X123.043 Y147.454 E18.72978
G1 X119.958 Y147.863 E18.81258
G1 X118.744 Y147.983 E18.84504
G1 X117.525 Y148.024 E18.8775
G1 X116.306 Y147.985 E18.90995
G1 X115.11 Y147.868 E18.94192
G1 X112.024 Y147.466 E19.02473
G1 X110.821 Y147.269 E19.05717
G1 X109.633 Y146.993 E19.08962
G1 X108.465 Y146.641 E19.12208
G1 X107.318 Y146.21 E19.15468
G1 X104.441 Y145.02 E19.23752
G1 X103.33 Y144.517 E19.26997
G1 X102.254 Y143.942 E19.30243
G1 X101.218 Y143.298 E19.33489
G1 X100.249 Y142.605 E19.36659
G1 X97.777 Y140.714 E19.4494
G1 X96.833 Y139.942 E19.48185
G1 X95.942 Y139.109 E19.51431
G1 X95.107 Y138.22 E19.54676
G1 X94.329 Y137.274 E19.57935
G1 X92.431 Y134.804 E19.66223
G1 X91.72 Y133.813 E19.69469
G1 X91.076 Y132.778 E19.72712
G1 X90.5 Y131.702 E19.7596
G1 X90.006 Y130.614 E19.79139
G1 X88.811 Y127.741 E19.87418
G1 X88.38 Y126.6 E19.90664
G1 X88.025 Y125.434 E19.93907
G1 X87.746 Y124.246 E19.97154
G1 X87.546 Y123.043 E20.00399
G1 X87.137 Y119.958 E20.08679
G1 X87.017 Y118.744 E20.11925
G1 X86.976 Y117.525 E20.15171
G1 X87.015 Y116.306 E20.18416
G1 X87.132 Y115.11 E20.21613
G1 X87.534 Y112.024 E20.29894
G1 X87.731 Y110.821 E20.33138
G1 X88.007 Y109.633 E20.36383
G1 X88.359 Y108.465 E20.39629
G1 X88.789 Y107.321 E20.42881
G1 X89.978 Y104.445 E20.51161
G1 X90.481 Y103.333 E20.54409
G1 X91.055 Y102.258 E20.57651
G1 X91.699 Y101.222 E20.60897
G1 X92.394 Y100.249 E20.64079
G1 X94.286 Y97.776 E20.72364
G1 X95.059 Y96.832 E20.7561
G1 X95.209 Y96.671 E20.76196
G0 F810 X95.892 Y95.941
M204 S5000
M205 X30 Y30
G0 F7200 X96.193 Y96.205
M204 S500
M205 X20 Y20
G1 F6000 E20.78857
G1 F900 X97.074 Y95.381 E20.82066
G1 X97.97 Y94.646 E20.8515
G1 X100.439 Y92.749 E20.93435
G1 X101.42 Y92.046 E20.96646
G1 X102.445 Y91.41 E20.99856
G1 X103.51 Y90.842 E21.03067
G1 X104.535 Y90.378 E21.06061
G1 X107.409 Y89.182 E21.14344
G1 X108.538 Y88.756 E21.17555
G1 X109.693 Y88.405 E21.20767
G1 X110.868 Y88.131 E21.23977
G1 X112.01 Y87.943 E21.27057
G1 X115.095 Y87.534 E21.35337
G1 X116.296 Y87.415 E21.38548
G1 X117.501 Y87.376 E21.41756
G1 X118.707 Y87.417 E21.44967
G1 X119.838 Y87.528 E21.47991
