;FLAVOR:Marlin
;TIME:19540
;Filament used: 17.1341m
;Layer height: 0.2
;Generated with Cura_SteamEngine 3.6.0
M140 S70
M105
M190 S70
M104 S215
M105
M109 S215
M82 ;absolute extrusion mode
G28 ; home all axes
M117 Purge extruder
G92 E0 ; reset extruder
G1 Z1.0 F3000 ; move z up little to prevent scratching of surface
G1 X0.1 Y20 Z0.3 F5000.0 ; move to start-line position G1 X0.1 Y200.0 Z0.3 F1500.0 E15 ; draw 1st line
G1 X0.4 Y200.0 Z0.3 F5000.0 ; move to side a little
G1 X0.4 Y20 Z0.3 F1500.0 E30 ; draw 2nd line
G92 E0 ; reset extruder
G1 Z1.0 F3000 ; move z up little to prevent scratching of surface
M117 All systems go!
G92 E0
G1 F6000 E-5
;LAYER_COUNT:28
;LAYER:0
M107
M204 S5000
M205 X30 Y30
G0 F7200 X66.813 Y74.212 Z0.2
M204 S500
M205 X20 Y20
;TYPE:SKIRT
G1 F6000 E0
G1 F900 X67.442 Y73.647 E0.03093
G1 X67.616 Y73.515 E0.03892
G1 X68.146 Y73.163 E0.0622
G1 X68.715 Y72.88 E0.08545
G1 X69.316 Y72.672 E0.10872
G1 X69.938 Y72.54 E0.13198
G1 X70.572 Y72.487 E0.15526
G1 X71.207 Y72.514 E0.17851
G1 X71.998 Y72.662 E0.20795
G1 X77.44 Y74.137 E0.41424
G1 X77.44 Y65.52 E0.7295
G1 X77.48 Y64.885 E0.75278
G1 X77.599 Y64.261 E0.77602
G1 X77.796 Y63.656 E0.7993
G1 X78.067 Y63.081 E0.82256
G1 X78.408 Y62.544 E0.84583
G1 X78.922 Y61.942 E0.87479
G1 X79.051 Y61.813 E0.88147
G1 X79.528 Y61.393 E0.90472
G1 X80.054 Y61.035 E0.928
G1 X80.621 Y60.747 E0.95126
G1 X81.219 Y60.531 E0.97453
G1 X81.84 Y60.393 E0.9978
G1 X82.629 Y60.331 E1.02676
G1 X152.371 Y60.33 E3.57835
G1 X153.006 Y60.37 E3.60163
G1 X153.63 Y60.489 E3.62487
G1 X154.235 Y60.686 E3.64815
G1 X154.81 Y60.957 E3.6714
G1 X155.347 Y61.298 E3.69467
G1 X155.949 Y61.812 E3.72364
G1 X156.078 Y61.941 E3.73031
G1 X156.498 Y62.418 E3.75356
G1 X156.856 Y62.944 E3.77684
G1 X157.144 Y63.511 E3.80011
G1 X157.36 Y64.109 E3.82337
G1 X157.498 Y64.73 E3.84664
G1 X157.56 Y65.519 E3.8756
G1 X157.56 Y74.153 E4.19148
G1 X163.002 Y72.678 E4.39777
G1 X163.625 Y72.551 E4.42103
G1 X164.26 Y72.502 E4.44433
G1 X164.895 Y72.534 E4.4676
G1 X165.521 Y72.645 E4.49086
G1 X166.128 Y72.834 E4.51411
G1 X166.707 Y73.097 E4.53738
G1 X167.384 Y73.531 E4.5668
G1 X167.558 Y73.663 E4.57479
G1 X168.04 Y74.078 E4.59806
G1 X168.465 Y74.551 E4.62133
G1 X168.828 Y75.073 E4.64459
G1 X169.123 Y75.636 E4.66784
G1 X169.344 Y76.233 E4.69113
G1 X169.489 Y76.852 E4.71439
G1 X169.56 Y77.694 E4.74531
G1 X169.56 Y103.838 E5.70182
G1 X169.52 Y104.473 E5.7251
G1 X169.401 Y105.097 E5.74834
G1 X169.204 Y105.702 E5.77162
G1 X168.933 Y106.277 E5.79487
G1 X168.592 Y106.814 E5.81815
G1 X168.187 Y107.304 E5.8414
G1 X167.558 Y107.869 E5.87234
G1 X167.384 Y108.001 E5.88033
G1 X166.854 Y108.353 E5.90361
G1 X166.285 Y108.636 E5.92686
G1 X165.684 Y108.844 E5.95012
G1 X165.062 Y108.976 E5.97339
G1 X164.428 Y109.029 E5.99666
G1 X163.793 Y109.002 E6.01992
G1 X163.002 Y108.854 E6.04936
G1 X157.56 Y107.379 E6.25564
G1 X157.56 Y127.653 E6.99739
G1 X163.002 Y126.178 E7.20368
G1 X163.625 Y126.051 E7.22694
G1 X164.26 Y126.002 E7.25024
G1 X164.895 Y126.034 E7.2735
G1 X165.521 Y126.145 E7.29676
G1 X166.128 Y126.334 E7.32002
G1 X166.707 Y126.597 E7.34329
G1 X167.384 Y127.031 E7.37271
G1 X167.558 Y127.163 E7.3807
G1 X168.04 Y127.578 E7.40397
G1 X168.465 Y128.051 E7.42723
G1 X168.828 Y128.573 E7.4505
G1 X169.123 Y129.136 E7.47375
G1 X169.344 Y129.733 E7.49704
G1 X169.489 Y130.352 E7.5203
G1 X169.56 Y131.194 E7.55122
G1 X169.56 Y157.338 E8.50772
G1 X169.52 Y157.973 E8.531
G1 X169.401 Y158.597 E8.55424
G1 X169.204 Y159.202 E8.57752
G1 X168.933 Y159.777 E8.60078
G1 X168.592 Y160.314 E8.62405
G1 X168.187 Y160.804 E8.64731
G1 X167.558 Y161.369 E8.67824
G1 X167.384 Y161.501 E8.68623
G1 X166.854 Y161.853 E8.70951
G1 X166.285 Y162.136 E8.73276
G1 X165.684 Y162.344 E8.75603
G1 X165.062 Y162.476 E8.77929
G1 X164.428 Y162.529 E8.80257
G1 X163.793 Y162.502 E8.82582
G1 X163.002 Y162.354 E8.85526
G1 X157.56 Y160.879 E9.06155
G1 X157.56 Y169.48 E9.37623
G1 X157.52 Y170.115 E9.39951
G1 X157.401 Y170.739 E9.42275
G1 X157.204 Y171.344 E9.44603
G1 X156.933 Y171.919 E9.46928
G1 X156.592 Y172.456 E9.49256
G1 X156.078 Y173.058 E9.52152
G1 X155.949 Y173.187 E9.52819
G1 X155.472 Y173.607 E9.55144
G1 X154.946 Y173.965 E9.57472
G1 X154.379 Y174.253 E9.59799
G1 X153.781 Y174.469 E9.62125
G1 X153.16 Y174.607 E9.64452
G1 X152.371 Y174.669 E9.67348
G1 X82.629 Y174.67 E12.22507
G1 X81.994 Y174.63 E12.24835
G1 X81.37 Y174.511 E12.27159
G1 X80.765 Y174.314 E12.29487
G1 X80.19 Y174.043 E12.31813
G1 X79.653 Y173.702 E12.3414
G1 X79.051 Y173.188 E12.37036
G1 X78.922 Y173.059 E12.37703
G1 X78.502 Y172.582 E12.40029
G1 X78.144 Y172.056 E12.42357
G1 X77.856 Y171.489 E12.44683
G1 X77.64 Y170.891 E12.47009
G1 X77.502 Y170.27 E12.49337
G1 X77.44 Y169.481 E12.52232
G1 X77.44 Y160.863 E12.83762
G1 X71.998 Y162.338 E13.04391
G1 X71.375 Y162.465 E13.06717
G1 X70.74 Y162.514 E13.09047
G1 X70.105 Y162.482 E13.11373
G1 X69.479 Y162.371 E13.13699
G1 X68.872 Y162.182 E13.16025
G1 X68.293 Y161.919 E13.18352
G1 X67.616 Y161.485 E13.21294
G1 X67.442 Y161.353 E13.22093
G1 X66.96 Y160.938 E13.2442
G1 X66.535 Y160.465 E13.26747
G1 X66.172 Y159.943 E13.29073
G1 X65.877 Y159.38 E13.31398
G1 X65.656 Y158.783 E13.33727
G1 X65.511 Y158.164 E13.36053
G1 X65.44 Y157.322 E13.39145
G1 X65.44 Y131.178 E14.34796
G1 X65.48 Y130.543 E14.37123
G1 X65.599 Y129.919 E14.39448
G1 X65.796 Y129.314 E14.41775
G1 X66.067 Y128.739 E14.44101
G1 X66.408 Y128.202 E14.46428
G1 X66.813 Y127.712 E14.48754
G1 X67.442 Y127.147 E14.51848
G1 X67.616 Y127.015 E14.52647
G1 X68.146 Y126.663 E14.54974
G1 X68.715 Y126.38 E14.57299
G1 X69.316 Y126.172 E14.59626
G1 X69.938 Y126.04 E14.61953
G1 X70.572 Y125.987 E14.6428
G1 X71.207 Y126.014 E14.66606
G1 X71.998 Y126.162 E14.6955
G1 X77.44 Y127.637 E14.90178
G1 X77.44 Y107.363 E15.64353
G1 X71.998 Y108.838 E15.84982
G1 X71.375 Y108.965 E15.87308
G1 X70.74 Y109.014 E15.89638
G1 X70.105 Y108.982 E15.91964
G1 X69.479 Y108.871 E15.9429
G1 X68.872 Y108.682 E15.96616
G1 X68.293 Y108.419 E15.98943
G1 X67.616 Y107.985 E16.01885
G1 X67.442 Y107.853 E16.02684
G1 X66.96 Y107.438 E16.05011
G1 X66.535 Y106.965 E16.07337
G1 X66.172 Y106.443 E16.09664
G1 X65.877 Y105.88 E16.11989
G1 X65.656 Y105.283 E16.14318
G1 X65.511 Y104.664 E16.16644
G1 X65.44 Y103.822 E16.19735
G1 X65.44 Y77.678 E17.15386
G1 X65.48 Y77.043 E17.17714
G1 X65.599 Y76.419 E17.20038
G1 X65.796 Y75.814 E17.22366
G1 X66.067 Y75.239 E17.24692
G1 X66.359 Y74.779 E17.26685
G0 F810 X66.408 Y74.702
G0 X66.813 Y74.212
M204 S5000
M205 X30 Y30
G0 F7200 X67.247 Y74.397
M204 S500
M205 X20 Y20
G1 F6000 E17.29345
G1 F900 X67.708 Y73.997 E17.31578
G1 X67.882 Y73.865 E17.32377
G1 X68.389 Y73.531 E17.34598
G1 X68.936 Y73.266 E17.36822
G1 X69.512 Y73.074 E17.39043
G1 X70.109 Y72.961 E17.41266
G1 X70.716 Y72.926 E17.43491
G1 X71.322 Y72.972 E17.45714
G1 X71.882 Y73.087 E17.47806
G1 X77.88 Y74.713 E17.70542
G1 X77.88 Y65.52 E18.04176
G1 X77.92 Y64.914 E18.06398
G1 X78.039 Y64.318 E18.08621
G1 X78.235 Y63.743 E18.10844
G1 X78.506 Y63.199 E18.13068
G1 X78.845 Y62.694 E18.15293
G1 X79.233 Y62.253 E18.17442
G1 X79.362 Y62.124 E18.18109
G1 X79.819 Y61.724 E18.20331
G1 X80.325 Y61.387 E18.22556
G1 X80.87 Y61.119 E18.24778
G1 X81.446 Y60.925 E18.27001
G1 X82.042 Y60.808 E18.29223
G1 X82.629 Y60.771 E18.31375
G1 X152.371 Y60.77 E20.86534
G1 X152.977 Y60.81 E20.88756
G1 X153.573 Y60.929 E20.9098
G1 X154.148 Y61.125 E20.93203
G1 X154.692 Y61.396 E20.95426
G1 X155.196 Y61.735 E20.97648
G1 X155.638 Y62.123 E20.998
G1 X155.767 Y62.252 E21.00468
G1 X156.167 Y62.709 E21.0269
G1 X156.504 Y63.215 E21.04914
G1 X156.772 Y63.76 E21.07136
G1 X156.966 Y64.336 E21.09359
G1 X157.083 Y64.932 E21.11582
G1 X157.12 Y65.519 E21.13734
G1 X157.12 Y74.729 E21.47429
G1 X163.118 Y73.103 E21.70166
G1 X163.713 Y72.983 E21.72386
G1 X164.319 Y72.942 E21.74609
G1 X164.926 Y72.981 E21.76834
G1 X165.522 Y73.099 E21.79057
G1 X166.097 Y73.295 E21.81279
G1 X166.642 Y73.564 E21.83503
G1 X167.118 Y73.881 E21.85595
G1 X167.292 Y74.013 E21.86394
G1 X167.751 Y74.412 E21.8862
G1 X168.154 Y74.867 E21.90843
G1 X168.493 Y75.371 E21.93066
G1 X168.764 Y75.915 E21.95289
G1 X168.96 Y76.49 E21.97512
G1 X169.08 Y77.085 E21.99732
G1 X169.12 Y77.694 E22.01965
G1 X169.12 Y103.838 E22.97616
G1 X169.08 Y104.444 E22.99838
G1 X168.961 Y105.04 E23.02062
G1 X168.765 Y105.615 E23.04284
G1 X168.494 Y106.159 E23.06508
G1 X168.155 Y106.664 E23.08733
G1 X167.753 Y107.119 E23.10954
G1 X167.292 Y107.519 E23.13187
G1 X167.118 Y107.651 E23.13986
G1 X166.611 Y107.985 E23.16208
G1 X166.064 Y108.25 E23.18431
G1 X165.488 Y108.442 E23.20653
G1 X164.891 Y108.555 E23.22876
G1 X164.284 Y108.59 E23.251
G1 X163.678 Y108.544 E23.27324
G1 X163.118 Y108.429 E23.29415
G1 X157.12 Y106.803 E23.52152
G1 X157.12 Y128.229 E24.30541
G1 X163.118 Y126.603 E24.53278
G1 X163.713 Y126.483 E24.55498
G1 X164.319 Y126.442 E24.57721
G1 X164.926 Y126.481 E24.59946
G1 X165.522 Y126.599 E24.62169
G1 X166.097 Y126.795 E24.64391
G1 X166.642 Y127.064 E24.66615
G1 X167.118 Y127.381 E24.68707
G1 X167.292 Y127.513 E24.69506
G1 X167.751 Y127.912 E24.71731
G1 X168.154 Y128.367 E24.73955
G1 X168.493 Y128.871 E24.76177
G1 X168.764 Y129.415 E24.78401
G1 X168.96 Y129.99 E24.80624
G1 X169.08 Y130.585 E24.82844
G1 X169.12 Y131.194 E24.85077
G1 X169.12 Y157.338 E25.80728
G1 X169.08 Y157.944 E25.8295
G1 X168.961 Y158.54 E25.85173
G1 X168.765 Y159.115 E25.87396
G1 X168.494 Y159.659 E25.8962
G1 X168.155 Y160.164 E25.91845
G1 X167.753 Y160.619 E25.94066
G1 X167.292 Y161.019 E25.96299
G1 X167.118 Y161.151 E25.97098
G1 X166.611 Y161.485 E25.9932
G1 X166.064 Y161.75 E26.01543
G1 X165.488 Y161.942 E26.03765
G1 X164.891 Y162.055 E26.05988
G1 X164.284 Y162.09 E26.08212
G1 X163.678 Y162.044 E26.10436
G1 X163.118 Y161.929 E26.12527
G1 X157.12 Y160.303 E26.35264
G1 X157.12 Y169.48 E26.68839
G1 X157.08 Y170.086 E26.71061
G1 X156.961 Y170.682 E26.73284
G1 X156.765 Y171.257 E26.75507
G1 X156.494 Y171.801 E26.7773
G1 X156.155 Y172.306 E26.79956
G1 X155.767 Y172.747 E26.82105
G1 X155.638 Y172.876 E26.82772
G1 X155.181 Y173.276 E26.84994
G1 X154.675 Y173.613 E26.87218
G1 X154.13 Y173.881 E26.8944
G1 X153.554 Y174.075 E26.91664
G1 X152.958 Y174.192 E26.93886
G1 X152.371 Y174.229 E26.96038
G1 X82.629 Y174.23 E29.51197
G1 X82.023 Y174.19 E29.53419
G1 X81.427 Y174.071 E29.55643
G1 X80.852 Y173.875 E29.57865
G1 X80.308 Y173.604 E29.60089
G1 X79.804 Y173.265 E29.62311
G1 X79.362 Y172.877 E29.64463
G1 X79.233 Y172.748 E29.6513
G1 X78.833 Y172.291 E29.67352
G1 X78.496 Y171.785 E29.69577
G1 X78.228 Y171.24 E29.71799
G1 X78.034 Y170.664 E29.74022
G1 X77.917 Y170.068 E29.76244
G1 X77.88 Y169.481 E29.78396
G1 X77.88 Y160.287 E30.12034
G1 X71.882 Y161.913 E30.3477
G1 X71.287 Y162.033 E30.36991
G1 X70.681 Y162.074 E30.39213
G1 X70.074 Y162.035 E30.41438
G1 X69.478 Y161.917 E30.43661
G1 X68.903 Y161.721 E30.45884
G1 X68.358 Y161.452 E30.48107
G1 X67.882 Y161.135 E30.502
G1 X67.708 Y161.003 E30.50999
G1 X67.249 Y160.604 E30.53224
G1 X66.846 Y160.149 E30.55448
G1 X66.507 Y159.645 E30.5767
G1 X66.236 Y159.101 E30.59893
G1 X66.04 Y158.526 E30.62116
G1 X65.92 Y157.931 E30.64337
G1 X65.88 Y157.322 E30.66569
G1 X65.88 Y131.178 E31.6222
G1 X65.92 Y130.572 E31.64442
G1 X66.039 Y129.976 E31.66666
G1 X66.235 Y129.401 E31.68888
G1 X66.506 Y128.857 E31.71112
G1 X66.845 Y128.352 E31.73337
G1 X67.247 Y127.897 E31.75559
G1 X67.708 Y127.497 E31.77792
G1 X67.882 Y127.365 E31.78591
G1 X68.389 Y127.031 E31.80812
G1 X68.936 Y126.766 E31.83036
G1 X69.512 Y126.574 E31.85257
G1 X70.109 Y126.461 E31.8748
G1 X70.716 Y126.426 E31.89704
G1 X71.322 Y126.472 E31.91928
G1 X71.882 Y126.587 E31.9402
G1 X77.88 Y128.213 E32.16756
G1 X77.88 Y106.787 E32.95145
G1 X71.882 Y108.413 E33.17882
G1 X71.287 Y108.533 E33.20103
G1 X70.681 Y108.574 E33.22325
G1 X70.074 Y108.535 E33.2455
G1 X69.478 Y108.417 E33.26773
G1 X68.903 Y108.221 E33.28996
G1 X68.358 Y107.952 E33.31219
G1 X67.882 Y107.635 E33.33311
G1 X67.708 Y107.503 E33.34111
G1 X67.249 Y107.104 E33.36336
G1 X66.846 Y106.649 E33.38559
G1 X66.507 Y106.145 E33.40782
G1 X66.236 Y105.601 E33.43005
G1 X66.04 Y105.026 E33.45228
G1 X65.92 Y104.431 E33.47448
G1 X65.88 Y103.822 E33.49681
G1 X65.88 Y77.678 E34.45332
G1 X65.92 Y77.072 E34.47554
G1 X66.039 Y76.476 E34.49778
G1 X66.235 Y75.901 E34.52
G1 X66.506 Y75.357 E34.54224
G1 X66.779 Y74.951 E34.56014
G0 F810 X66.845 Y74.852
G0 X67.247 Y74.397
M204 S5000
M205 X30 Y30
G0 F7200 X67.281 Y75.011
M204 S500
M205 X20 Y20
G1 F6000 E34.58674
G1 F900 X67.68 Y74.593 E34.60788
G1 X67.974 Y74.348 E34.62188
G1 X68.148 Y74.216 E34.62987
G1 X68.631 Y73.899 E34.65101
G1 X69.154 Y73.652 E34.67217
G1 X69.705 Y73.48 E34.69329
G1 X70.275 Y73.385 E34.71443
G1 X70.853 Y73.37 E34.73558
G1 X71.427 Y73.434 E34.75671
G1 X71.767 Y73.512 E34.76948
G1 X78.32 Y75.288 E35.01787
G1 X78.32 Y65.52 E35.37525
G1 X78.36 Y64.943 E35.39641
G1 X78.479 Y64.378 E35.41753
G1 X78.675 Y63.834 E35.43869
G1 X78.944 Y63.323 E35.45982
G1 X79.281 Y62.853 E35.48097
G1 X79.544 Y62.564 E35.49527
G1 X79.673 Y62.435 E35.50195
G1 X80.109 Y62.056 E35.52308
G1 X80.593 Y61.74 E35.54423
G1 X81.116 Y61.494 E35.56537
G1 X81.668 Y61.323 E35.58652
G1 X82.239 Y61.229 E35.60769
G1 X82.629 Y61.211 E35.62197
G1 X152.371 Y61.21 E38.17356
G1 X152.947 Y61.25 E38.19469
G1 X153.513 Y61.369 E38.21585
G1 X154.057 Y61.565 E38.237
G1 X154.568 Y61.834 E38.25813
G1 X155.038 Y62.171 E38.27929
G1 X155.327 Y62.434 E38.29359
G1 X155.456 Y62.563 E38.30026
G1 X155.835 Y62.999 E38.3214
G1 X156.151 Y63.483 E38.34254
G1 X156.397 Y64.006 E38.36369
G1 X156.568 Y64.558 E38.38483
G1 X156.662 Y65.129 E38.406
G1 X156.68 Y65.519 E38.42029
G1 X156.68 Y75.304 E38.77828
G1 X163.233 Y73.528 E39.02668
G1 X163.8 Y73.415 E39.04783
G1 X164.377 Y73.382 E39.06898
G1 X164.953 Y73.429 E39.09012
G1 X165.517 Y73.555 E39.11127
G1 X166.058 Y73.758 E39.13241
G1 X166.566 Y74.033 E39.15354
G1 X166.852 Y74.232 E39.16629
G1 X167.026 Y74.364 E39.17428
G1 X167.462 Y74.744 E39.19544
G1 X167.84 Y75.181 E39.21658
G1 X168.155 Y75.666 E39.23774
G1 X168.4 Y76.189 E39.25887
G1 X168.57 Y76.741 E39.28
G1 X168.662 Y77.312 E39.30116
G1 X168.68 Y77.694 E39.31515
G1 X168.68 Y103.838 E40.27166
G1 X168.64 Y104.415 E40.29282
G1 X168.521 Y104.98 E40.31394
G1 X168.325 Y105.524 E40.3351
G1 X168.056 Y106.035 E40.35623
G1 X167.719 Y106.505 E40.37739
G1 X167.32 Y106.923 E40.39853
G1 X167.026 Y107.168 E40.41253
G1 X166.852 Y107.3 E40.42052
G1 X166.369 Y107.617 E40.44166
G1 X165.846 Y107.864 E40.46282
G1 X165.295 Y108.036 E40.48394
G1 X164.725 Y108.131 E40.50508
G1 X164.147 Y108.146 E40.52623
G1 X163.573 Y108.082 E40.54736
G1 X163.233 Y108.004 E40.56012
G1 X156.68 Y106.228 E40.80852
G1 X156.68 Y128.804 E41.63449
G1 X163.233 Y127.028 E41.88289
G1 X163.8 Y126.915 E41.90404
G1 X164.377 Y126.882 E41.92519
G1 X164.953 Y126.929 E41.94633
G1 X165.517 Y127.055 E41.96747
G1 X166.058 Y127.258 E41.98861
G1 X166.566 Y127.533 E42.00975
G1 X166.852 Y127.732 E42.0225
G1 X167.026 Y127.864 E42.03049
G1 X167.462 Y128.244 E42.05165
G1 X167.84 Y128.681 E42.07279
G1 X168.155 Y129.166 E42.09394
G1 X168.4 Y129.689 E42.11507
G1 X168.57 Y130.241 E42.13621
G1 X168.662 Y130.812 E42.15737
G1 X168.68 Y131.194 E42.17136
G1 X168.68 Y157.338 E43.12787
G1 X168.64 Y157.915 E43.14903
G1 X168.521 Y158.48 E43.17015
G1 X168.325 Y159.024 E43.19131
G1 X168.056 Y159.535 E43.21243
G1 X167.719 Y160.005 E43.23359
G1 X167.32 Y160.423 E43.25473
G1 X167.026 Y160.668 E43.26874
G1 X166.852 Y160.8 E43.27673
G1 X166.369 Y161.117 E43.29786
G1 X165.846 Y161.364 E43.31903
G1 X165.295 Y161.536 E43.34014
G1 X164.725 Y161.631 E43.36129
G1 X164.147 Y161.646 E43.38244
G1 X163.573 Y161.582 E43.40357
G1 X163.233 Y161.504 E43.41633
G1 X156.68 Y159.728 E43.66473
G1 X156.68 Y169.48 E44.02152
G1 X156.64 Y170.057 E44.04268
G1 X156.521 Y170.622 E44.0638
G1 X156.325 Y171.166 E44.08496
G1 X156.056 Y171.677 E44.10609
G1 X155.719 Y172.147 E44.12725
G1 X155.456 Y172.436 E44.14154
G1 X155.327 Y172.565 E44.14822
G1 X154.891 Y172.944 E44.16935
G1 X154.407 Y173.26 E44.1905
G1 X153.884 Y173.506 E44.21165
G1 X153.332 Y173.677 E44.23279
G1 X152.761 Y173.771 E44.25396
G1 X152.371 Y173.789 E44.26824
G1 X82.629 Y173.79 E46.81984
G1 X82.053 Y173.75 E46.84096
