;FLAVOR:Marlin
;TIME:768
;Filament used: 0.306341m
;Layer height: 0.16
;Generated with Cura_SteamEngine 3.6.0
M140 S70
M105
M190 S70
M104 S215
M105
M109 S215
M82 ;absolute extrusion mode
G28 ; home all axes
M117 Purge extruder
G92 E0 ; reset extruder
G1 Z1.0 F3000 ; move z up little to prevent scratching of surface
G1 X0.1 Y20 Z0.3 F5000.0 ; move to start-line position G1 X0.1 Y200.0 Z0.3 F1500.0 E15 ; draw 1st line
G1 X0.4 Y200.0 Z0.3 F5000.0 ; move to side a little
G1 X0.4 Y20 Z0.3 F1500.0 E30 ; draw 2nd line
G92 E0 ; reset extruder
G1 Z1.0 F3000 ; move z up little to prevent scratching of surface
M117 All systems go!
G92 E0
G1 F6000 E-5
;LAYER_COUNT:31
;LAYER:0
M107
M204 S5000
M205 X30 Y30
G0 F7200 X95.159 Y95.321 Z0.16
M204 S500
M205 X20 Y20
;TYPE:SKIRT
G1 F6000 E0
G1 F900 X96.072 Y94.455 E0.03348
G1 X97.166 Y93.55 E0.07126
G1 X99.585 Y91.691 E0.15244
G1 X100.607 Y90.957 E0.18592
G1 X101.673 Y90.288 E0.21941
G1 X102.779 Y89.689 E0.25287
G1 X104.045 Y89.11 E0.28991
G1 X106.86 Y87.939 E0.37104
G1 X108.037 Y87.492 E0.40454
G1 X109.24 Y87.122 E0.43803
G1 X110.463 Y86.829 E0.47149
G1 X111.86 Y86.592 E0.50919
G1 X114.882 Y86.191 E0.59031
G1 X116.135 Y86.065 E0.62382
G1 X117.392 Y86.019 E0.65728
G1 X118.65 Y86.053 E0.69077
G1 X120.046 Y86.185 E0.72808
G1 X123.069 Y86.579 E0.8092
G1 X124.311 Y86.781 E0.84268
G1 X125.538 Y87.062 E0.87617
G1 X126.744 Y87.42 E0.90965
G1 X128.075 Y87.915 E0.94743
G1 X130.893 Y89.08 E1.02857
G1 X132.04 Y89.598 E1.06205
G1 X133.152 Y90.187 E1.09554
G1 X134.224 Y90.846 E1.12902
G1 X135.359 Y91.652 E1.16606
G1 X137.781 Y93.505 E1.2472
G1 X138.756 Y94.302 E1.28071
G1 X139.678 Y95.158 E1.31419
G1 X140.544 Y96.071 E1.34767
G1 X141.449 Y97.165 E1.38545
G1 X143.309 Y99.585 E1.46666
G1 X144.044 Y100.607 E1.50016
G1 X144.712 Y101.673 E1.53363
G1 X145.311 Y102.779 E1.5671
G1 X145.893 Y104.049 E1.60427
G1 X147.063 Y106.863 E1.68536
G1 X147.509 Y108.04 E1.71885
G1 X147.879 Y109.243 E1.75234
G1 X148.172 Y110.467 E1.78583
G1 X148.408 Y111.86 E1.82342
G1 X148.809 Y114.882 E1.90453
G1 X148.935 Y116.135 E1.93804
G1 X148.981 Y117.392 E1.97151
G1 X148.947 Y118.65 E2.005
G1 X148.815 Y120.046 E2.04231
G1 X148.421 Y123.069 E2.12342
G1 X148.219 Y124.311 E2.15691
G1 X147.938 Y125.538 E2.1904
G1 X147.58 Y126.744 E2.22387
G1 X147.086 Y128.071 E2.26155
G1 X145.922 Y130.888 E2.34265
G1 X145.405 Y132.036 E2.37615
G1 X144.816 Y133.148 E2.40963
G1 X144.157 Y134.22 E2.44312
G1 X143.348 Y135.359 E2.48029
G1 X141.494 Y137.782 E2.56147
G1 X140.698 Y138.757 E2.59496
G1 X139.841 Y139.679 E2.62845
G1 X138.928 Y140.545 E2.66194
G1 X137.834 Y141.45 E2.69972
G1 X135.415 Y143.309 E2.78089
G1 X134.393 Y144.043 E2.81437
G1 X133.327 Y144.712 E2.84786
G1 X132.221 Y145.311 E2.88133
G1 X130.955 Y145.89 E2.91837
G1 X128.14 Y147.061 E2.99949
G1 X126.963 Y147.508 E3.03299
G1 X125.76 Y147.878 E3.06648
G1 X124.537 Y148.171 E3.09994
G1 X123.14 Y148.408 E3.13765
G1 X120.118 Y148.809 E3.21876
G1 X118.865 Y148.935 E3.25227
G1 X117.608 Y148.981 E3.28574
G1 X116.35 Y148.947 E3.31922
G1 X114.954 Y148.815 E3.35653
G1 X111.931 Y148.421 E3.43765
G1 X110.689 Y148.219 E3.47113
G1 X109.462 Y147.938 E3.50463
G1 X108.256 Y147.58 E3.5381
G1 X106.925 Y147.085 E3.57588
G1 X104.107 Y145.92 E3.65702
G1 X102.96 Y145.402 E3.69051
G1 X101.848 Y144.813 E3.72399
G1 X100.776 Y144.154 E3.75747
G1 X99.641 Y143.348 E3.79451
G1 X97.219 Y141.495 E3.87566
G1 X96.244 Y140.698 E3.90916
G1 X95.322 Y139.842 E3.94264
G1 X94.456 Y138.929 E3.97612
G1 X93.551 Y137.835 E4.0139
G1 X91.691 Y135.415 E4.09511
G1 X90.956 Y134.393 E4.12861
G1 X90.288 Y133.327 E4.16208
G1 X89.689 Y132.221 E4.19555
G1 X89.107 Y130.951 E4.23272
G1 X87.937 Y128.137 E4.31381
G1 X87.491 Y126.96 E4.3473
G1 X87.121 Y125.757 E4.38079
G1 X86.828 Y124.533 E4.41428
G1 X86.592 Y123.14 E4.45187
G1 X86.191 Y120.118 E4.53299
G1 X86.065 Y118.865 E4.5665
G1 X86.019 Y117.608 E4.59997
G1 X86.053 Y116.35 E4.63345
G1 X86.185 Y114.954 E4.67076
G1 X86.579 Y111.931 E4.75188
G1 X86.781 Y110.689 E4.78536
G1 X87.062 Y109.462 E4.81885
G1 X87.42 Y108.256 E4.85233
G1 X87.914 Y106.929 E4.89
G1 X89.078 Y104.112 E4.9711
G1 X89.595 Y102.964 E5.0046
G1 X90.184 Y101.852 E5.03809
G1 X90.843 Y100.78 E5.07157
G1 X91.652 Y99.641 E5.10874
G1 X93.506 Y97.218 E5.18992
G1 X94.302 Y96.243 E5.22341
G1 X94.478 Y96.053 E5.23031
G0 F810 X95.159 Y95.321
M204 S5000
M205 X30 Y30
G0 F7200 X95.461 Y95.585
M204 S500
M205 X20 Y20
G1 F6000 E5.25691
G1 F900 X96.366 Y94.729 E5.29006
G1 X97.41 Y93.868 E5.32607
G1 X99.829 Y92.009 E5.40724
G1 X100.84 Y91.282 E5.44038
G1 X101.896 Y90.621 E5.47352
G1 X102.993 Y90.03 E5.50668
G1 X104.199 Y89.479 E5.54196
G1 X107.014 Y88.308 E5.62308
G1 X108.179 Y87.867 E5.65623
G1 X109.369 Y87.501 E5.68936
G1 X110.581 Y87.213 E5.7225
G1 X111.913 Y86.989 E5.75844
G1 X114.935 Y86.588 E5.83956
G1 X116.175 Y86.463 E5.87272
G1 X117.419 Y86.419 E5.90584
G1 X118.665 Y86.455 E5.93901
G1 X119.994 Y86.582 E5.97453
G1 X123.017 Y86.976 E6.05565
G1 X124.247 Y87.176 E6.08881
G1 X125.461 Y87.455 E6.12195
G1 X126.654 Y87.812 E6.15508
G1 X127.922 Y88.285 E6.19109
G1 X130.74 Y89.45 E6.27223
G1 X131.875 Y89.962 E6.30536
G1 X132.975 Y90.547 E6.33851
G1 X134.035 Y91.2 E6.37164
G1 X135.116 Y91.97 E6.40695
G1 X137.538 Y93.823 E6.4881
G1 X138.503 Y94.611 E6.52125
G1 X139.414 Y95.46 E6.55438
G1 X140.27 Y96.365 E6.58753
G1 X141.132 Y97.409 E6.62355
G1 X142.992 Y99.829 E6.70476
G1 X143.719 Y100.84 E6.7379
G1 X144.379 Y101.896 E6.77103
G1 X144.971 Y102.993 E6.8042
G1 X145.523 Y104.203 E6.83959
G1 X146.693 Y107.017 E6.92068
G1 X147.134 Y108.182 E6.95382
G1 X147.5 Y109.373 E6.98698
G1 X147.788 Y110.585 E7.02012
G1 X148.011 Y111.913 E7.05595
G1 X148.412 Y114.935 E7.13707
G1 X148.537 Y116.175 E7.17023
G1 X148.581 Y117.419 E7.20335
G1 X148.545 Y118.665 E7.23652
G1 X148.418 Y119.994 E7.27204
G1 X148.024 Y123.017 E7.35316
G1 X147.824 Y124.247 E7.38632
G1 X147.545 Y125.461 E7.41946
G1 X147.188 Y126.654 E7.45259
G1 X146.717 Y127.919 E7.48851
G1 X145.553 Y130.736 E7.56961
G1 X145.04 Y131.871 E7.60275
G1 X144.456 Y132.971 E7.63589
G1 X143.802 Y134.031 E7.66903
G1 X143.03 Y135.116 E7.70446
G1 X141.176 Y137.539 E7.78564
G1 X140.388 Y138.503 E7.81877
G1 X139.539 Y139.415 E7.85193
G1 X138.634 Y140.271 E7.88507
G1 X137.59 Y141.132 E7.92108
G1 X135.171 Y142.991 E8.00226
G1 X134.16 Y143.718 E8.03539
G1 X133.104 Y144.379 E8.06854
G1 X132.007 Y144.97 E8.1017
G1 X130.801 Y145.521 E8.13698
G1 X127.986 Y146.692 E8.2181
G1 X126.821 Y147.133 E8.25124
G1 X125.631 Y147.499 E8.28437
G1 X124.419 Y147.787 E8.31752
G1 X123.087 Y148.011 E8.35346
G1 X120.065 Y148.412 E8.43457
G1 X118.825 Y148.537 E8.46773
G1 X117.581 Y148.581 E8.50086
G1 X116.335 Y148.545 E8.53402
G1 X115.006 Y148.418 E8.56955
G1 X111.983 Y148.024 E8.65066
G1 X110.753 Y147.824 E8.68382
G1 X109.539 Y147.545 E8.71696
G1 X108.346 Y147.188 E8.7501
G1 X107.078 Y146.715 E8.78611
G1 X104.26 Y145.55 E8.86725
G1 X103.125 Y145.038 E8.90038
G1 X102.025 Y144.453 E8.93353
G1 X100.965 Y143.8 E8.96665
G1 X99.884 Y143.03 E9.00197
G1 X97.462 Y141.177 E9.08311
G1 X96.497 Y140.389 E9.11626
G1 X95.586 Y139.54 E9.1494
G1 X94.73 Y138.635 E9.18254
G1 X93.868 Y137.591 E9.21857
G1 X92.008 Y135.171 E9.29978
G1 X91.281 Y134.16 E9.33291
G1 X90.621 Y133.104 E9.36605
G1 X90.029 Y132.007 E9.39922
G1 X89.477 Y130.797 E9.4346
G1 X88.307 Y127.983 E9.51569
G1 X87.866 Y126.818 E9.54884
G1 X87.5 Y125.627 E9.58199
G1 X87.212 Y124.415 E9.61514
G1 X86.989 Y123.087 E9.65097
G1 X86.588 Y120.065 E9.73208
G1 X86.463 Y118.825 E9.76524
G1 X86.419 Y117.581 E9.79836
G1 X86.455 Y116.335 E9.83153
G1 X86.582 Y115.006 E9.86706
G1 X86.976 Y111.983 E9.94817
G1 X87.176 Y110.753 E9.98133
G1 X87.455 Y109.539 E10.01447
G1 X87.812 Y108.346 E10.04761
G1 X88.283 Y107.081 E10.08353
G1 X89.447 Y104.264 E10.16463
G1 X89.96 Y103.129 E10.19777
G1 X90.544 Y102.029 E10.23091
G1 X91.198 Y100.969 E10.26405
G1 X91.97 Y99.884 E10.29948
G1 X93.824 Y97.461 E10.38066
G1 X94.612 Y96.497 E10.41379
G1 X94.78 Y96.316 E10.42036
G0 F810 X95.461 Y95.585
M204 S5000
M205 X30 Y30
G0 F7200 X95.763 Y95.848
M204 S500
M205 X20 Y20
G1 F6000 E10.44697
G1 F900 X96.66 Y95.003 E10.47976
G1 X97.653 Y94.185 E10.51399
G1 X100.072 Y92.326 E10.59517
G1 X101.074 Y91.607 E10.62798
G1 X102.12 Y90.954 E10.66079
G1 X103.205 Y90.371 E10.69357
G1 X104.352 Y89.848 E10.72711
G1 X107.167 Y88.677 E10.80823
G1 X108.32 Y88.241 E10.84103
G1 X109.499 Y87.88 E10.87384
G1 X110.699 Y87.597 E10.90665
G1 X111.966 Y87.385 E10.94083
G1 X114.988 Y86.984 E11.02194
G1 X116.214 Y86.862 E11.05472
G1 X117.446 Y86.819 E11.08752
G1 X118.678 Y86.856 E11.12032
G1 X119.943 Y86.978 E11.15414
G1 X122.966 Y87.372 E11.23525
G1 X124.182 Y87.571 E11.26804
G1 X125.383 Y87.849 E11.30084
G1 X126.564 Y88.203 E11.33365
G1 X127.769 Y88.654 E11.36788
G1 X130.587 Y89.819 E11.44902
G1 X131.71 Y90.327 E11.48181
G1 X132.798 Y90.906 E11.51461
G1 X133.847 Y91.555 E11.54743
G1 X134.873 Y92.288 E11.58098
G1 X137.295 Y94.141 E11.66212
G1 X138.249 Y94.921 E11.69491
G1 X139.151 Y95.762 E11.72773
G1 X139.996 Y96.659 E11.76052
G1 X140.814 Y97.653 E11.79477
G1 X142.674 Y100.073 E11.87598
G1 X143.394 Y101.074 E11.90879
G1 X144.046 Y102.12 E11.94159
G1 X144.63 Y103.205 E11.97437
G1 X145.154 Y104.357 E12.00805
G1 X146.324 Y107.171 E12.08914
G1 X146.76 Y108.324 E12.12194
G1 X147.12 Y109.502 E12.15471
G1 X147.404 Y110.702 E12.18752
G1 X147.615 Y111.966 E12.22162
G1 X148.016 Y114.988 E12.30274
G1 X148.138 Y116.214 E12.33552
G1 X148.181 Y117.446 E12.36832
G1 X148.144 Y118.678 E12.40112
G1 X148.022 Y119.943 E12.43493
G1 X147.628 Y122.966 E12.51605
G1 X147.429 Y124.182 E12.54883
G1 X147.151 Y125.383 E12.58163
G1 X146.797 Y126.564 E12.61444
G1 X146.347 Y127.766 E12.64859
G1 X145.183 Y130.583 E12.72969
G1 X144.675 Y131.706 E12.76249
G1 X144.096 Y132.794 E12.79528
G1 X143.448 Y133.843 E12.82809
G1 X142.712 Y134.873 E12.86177
G1 X140.858 Y137.296 E12.94295
G1 X140.078 Y138.25 E12.97574
G1 X139.237 Y139.152 E13.00856
G1 X138.34 Y139.997 E13.04135
G1 X137.347 Y140.815 E13.07558
G1 X134.928 Y142.674 E13.15676
G1 X133.926 Y143.393 E13.18957
G1 X132.88 Y144.046 E13.22238
G1 X131.795 Y144.629 E13.25515
G1 X130.648 Y145.152 E13.2887
G1 X127.833 Y146.323 E13.36982
G1 X126.68 Y146.759 E13.40262
G1 X125.501 Y147.12 E13.43543
G1 X124.301 Y147.403 E13.46823
G1 X123.034 Y147.615 E13.50242
G1 X120.012 Y148.016 E13.58353
G1 X118.786 Y148.138 E13.61631
G1 X117.554 Y148.181 E13.64911
G1 X116.322 Y148.144 E13.68191
G1 X115.057 Y148.022 E13.71573
G1 X112.034 Y147.628 E13.79684
G1 X110.818 Y147.429 E13.82963
G1 X109.617 Y147.151 E13.86243
G1 X108.436 Y146.797 E13.89524
G1 X107.231 Y146.346 E13.92947
G1 X104.413 Y145.181 E14.01061
G1 X103.29 Y144.673 E14.0434
G1 X102.202 Y144.094 E14.0762
G1 X101.153 Y143.445 E14.10902
G1 X100.127 Y142.712 E14.14257
G1 X97.705 Y140.859 E14.22371
G1 X96.751 Y140.079 E14.2565
G1 X95.849 Y139.238 E14.28931
G1 X95.004 Y138.341 E14.3221
G1 X94.186 Y137.347 E14.35636
G1 X92.326 Y134.927 E14.43757
G1 X91.606 Y133.926 E14.47038
G1 X90.954 Y132.88 E14.50318
G1 X90.37 Y131.795 E14.53596
G1 X89.846 Y130.643 E14.56964
G1 X88.676 Y127.829 E14.65073
G1 X88.24 Y126.676 E14.68353
G1 X87.88 Y125.498 E14.7163
G1 X87.596 Y124.298 E14.74911
G1 X87.385 Y123.034 E14.78321
G1 X86.984 Y120.012 E14.86433
G1 X86.862 Y118.786 E14.89711
G1 X86.819 Y117.554 E14.92991
G1 X86.856 Y116.322 E14.96271
G1 X86.978 Y115.057 E14.99652
G1 X87.372 Y112.034 E15.07764
G1 X87.571 Y110.818 E15.11042
G1 X87.849 Y109.617 E15.14322
G1 X88.203 Y108.436 E15.17603
G1 X88.653 Y107.234 E15.21018
G1 X89.817 Y104.417 E15.29128
G1 X90.325 Y103.294 E15.32408
G1 X90.904 Y102.206 E15.35687
G1 X91.552 Y101.157 E15.38968
G1 X92.288 Y100.127 E15.42336
G1 X94.142 Y97.704 E15.50454
G1 X94.922 Y96.75 E15.53733
G1 X95.081 Y96.579 E15.54355
G0 F810 X95.763 Y95.848
M204 S5000
M205 X30 Y30
G0 F7200 X96.064 Y96.112
M204 S500
M205 X20 Y20
G1 F6000 E15.57015
G1 F900 X96.954 Y95.277 E15.60263
G1 X97.897 Y94.502 E15.6351
G1 X100.316 Y92.643 E15.71628
G1 X101.307 Y91.932 E15.74873
G1 X102.342 Y91.287 E15.78118
G1 X103.418 Y90.712 E15.81364
G1 X104.506 Y90.218 E15.84544
G1 X107.321 Y89.047 E15.92656
G1 X108.462 Y88.615 E15.95903
G1 X109.629 Y88.26 E15.99148
G1 X110.816 Y87.981 E16.02393
G1 X112.018 Y87.782 E16.05634
G1 X115.04 Y87.381 E16.13746
G1 X116.254 Y87.26 E16.16992
G1 X117.473 Y87.219 E16.20238
G1 X118.692 Y87.258 E16.23483
G1 X119.891 Y87.375 E16.26688
G1 X122.914 Y87.769 E16.348
G1 X124.118 Y87.966 E16.38046
G1 X125.306 Y88.242 E16.41291
G1 X126.473 Y88.595 E16.44535
G1 X127.616 Y89.024 E16.47784
G1 X130.434 Y90.189 E16.55898
G1 X131.545 Y90.692 E16.59143
G1 X132.621 Y91.266 E16.62388
G1 X133.657 Y91.91 E16.65633
G1 X134.63 Y92.606 E16.68816
G1 X137.052 Y94.459 E16.76931
G1 X137.996 Y95.231 E16.80175
G1 X138.887 Y96.064 E16.83421
G1 X139.722 Y96.953 E16.86666
G1 X140.497 Y97.896 E16.89914
G1 X142.357 Y100.316 E16.98035
G1 X143.068 Y101.307 E17.01281
G1 X143.713 Y102.343 E17.04528
G1 X144.289 Y103.418 E17.07773
G1 X144.785 Y104.51 E17.10964
G1 X145.955 Y107.324 E17.19073
G1 X146.386 Y108.465 E17.22319
G1 X146.741 Y109.632 E17.25564
G1 X147.019 Y110.819 E17.28808
G1 X147.218 Y112.018 E17.32042
G1 X147.619 Y115.04 E17.40153
G1 X147.74 Y116.254 E17.434
G1 X147.781 Y117.473 E17.46645
G1 X147.742 Y118.692 E17.4989
G1 X147.625 Y119.891 E17.53096
G1 X147.231 Y122.914 E17.61207
G1 X147.034 Y124.118 E17.64454
G1 X146.758 Y125.306 E17.67699
G1 X146.405 Y126.473 E17.70943
G1 X145.977 Y127.613 E17.74183
G1 X144.813 Y130.43 E17.82293
G1 X144.311 Y131.541 E17.85537
G1 X143.737 Y132.618 E17.88784
G1 X143.093 Y133.654 E17.9203
G1 X142.395 Y134.63 E17.95223
G1 X140.541 Y137.053 E18.03341
G1 X139.768 Y137.997 E18.06587
G1 X138.936 Y138.888 E18.09831
G1 X138.046 Y139.723 E18.13078
G1 X137.103 Y140.498 E18.16326
G1 X134.684 Y142.357 E18.24444
G1 X133.693 Y143.068 E18.27689
G1 X132.658 Y143.713 E18.30934
G1 X131.582 Y144.288 E18.3418
G1 X130.494 Y144.782 E18.3736
G1 X127.679 Y145.953 E18.45472
G1 X126.538 Y146.385 E18.48718
G1 X125.371 Y146.74 E18.51964
G1 X124.184 Y147.019 E18.55208
G1 X122.982 Y147.218 E18.5845
G1 X119.96 Y147.619 E18.66562
G1 X118.746 Y147.74 E18.69808
G1 X117.527 Y147.781 E18.73053
G1 X116.308 Y147.742 E18.76298
G1 X115.109 Y147.625 E18.79504
G1 X112.086 Y147.231 E18.87616
G1 X110.882 Y147.034 E18.90862
G1 X109.694 Y146.758 E18.94107
G1 X108.527 Y146.405 E18.97351
G1 X107.384 Y145.976 E19.006
G1 X104.566 Y144.811 E19.08713
G1 X103.455 Y144.308 E19.11958
G1 X102.379 Y143.734 E19.15203
G1 X101.343 Y143.09 E19.18449
G1 X100.37 Y142.394 E19.21632
G1 X97.948 Y140.541 E19.29746
G1 X97.004 Y139.769 E19.32991
G1 X96.113 Y138.936 E19.36237
G1 X95.278 Y138.047 E19.39482
G1 X94.503 Y137.104 E19.4273
G1 X92.643 Y134.684 E19.50851
G1 X91.932 Y133.693 E19.54096
G1 X91.287 Y132.657 E19.57344
G1 X90.711 Y131.582 E19.60589
G1 X90.215 Y130.49 E19.6378
G1 X89.045 Y127.676 E19.71889
G1 X88.614 Y126.535 E19.75134
G1 X88.259 Y125.368 E19.7838
G1 X87.981 Y124.181 E19.81624
G1 X87.782 Y122.982 E19.84858
G1 X87.381 Y119.96 E19.92969
G1 X87.26 Y118.746 E19.96215
G1 X87.219 Y117.527 E19.99461
G1 X87.258 Y116.308 E20.02706
G1 X87.375 Y115.109 E20.05911
G1 X87.769 Y112.086 E20.14023
G1 X87.966 Y110.882 E20.17269
G1 X88.242 Y109.694 E20.20515
G1 X88.595 Y108.527 E20.23759
G1 X89.023 Y107.387 E20.26999
G1 X90.187 Y104.57 E20.35109
G1 X90.689 Y103.459 E20.38353
G1 X91.263 Y102.382 E20.416
G1 X91.907 Y101.346 E20.44846
G1 X92.605 Y100.37 E20.48039
G1 X94.459 Y97.947 E20.56157
G1 X95.232 Y97.003 E20.59403
G1 X95.382 Y96.842 E20.59989
G0 F810 X96.064 Y96.112
M204 S5000
M205 X30 Y30
G0 F7200 X96.366 Y96.376
M204 S500
M205 X20 Y20
G1 F6000 E20.62649
G1 F900 X97.247 Y95.552 E20.65859
G1 X98.141 Y94.819 E20.68935
G1 X100.56 Y92.96 E20.77053
G1 X101.54 Y92.257 E20.80262
G1 X102.565 Y91.621 E20.83472
G1 X103.63 Y91.053 E20.86683
G1 X104.66 Y90.587 E20.89691
G1 X107.475 Y89.416 E20.97804
G1 X108.603 Y88.99 E21.01012
G1 X109.758 Y88.639 E21.04224
G1 X110.933 Y88.366 E21.07434
G1 X112.071 Y88.178 E21.10503
G1 X115.093 Y87.777 E21.18614
G1 X116.294 Y87.658 E21.21826
G1 X117.499 Y87.619 E21.25034
G1 X118.705 Y87.66 E21.28244
G1 X119.839 Y87.772 E21.31276
