;FLAVOR:Marlin
;TIME:5417
;Filament used: 3.20734m
;Layer height: 0.2
;Generated with Cura_SteamEngine 3.6.0
M140 S70
M105
M190 S70
M104 S215
M105
M109 S215
M82 ;absolute extrusion mode
G28 ; home all axes
M117 Purge extruder
G92 E0 ; reset extruder
G1 Z1.0 F3000 ; move z up little to prevent scratching of surface
G1 X0.1 Y20 Z0.3 F5000.0 ; move to start-line position G1 X0.1 Y200.0 Z0.3 F1500.0 E15 ; draw 1st line
G1 X0.4 Y200.0 Z0.3 F5000.0 ; move to side a little
G1 X0.4 Y20 Z0.3 F1500.0 E30 ; draw 2nd line
G92 E0 ; reset extruder
G1 Z1.0 F3000 ; move z up little to prevent scratching of surface
M117 All systems go!
G92 E0
G1 F6000 E-5
;LAYER_COUNT:486
;LAYER:0
M107
M204 S5000
M205 X30 Y30
G0 F7200 X94.204 Y94.337 Z0.2
M204 S500
M205 X20 Y20
;TYPE:SKIRT
G1 F6000 E0
G1 F900 X95.122 Y93.467 E0.04627
G1 X96.269 Y92.521 E0.10067
G1 X98.929 Y90.486 E0.2232
G1 X99.957 Y89.749 E0.26948
G1 X101.031 Y89.079 E0.31579
G1 X102.144 Y88.477 E0.36209
G1 X103.476 Y87.872 E0.41561
G1 X106.58 Y86.595 E0.53841
G1 X107.765 Y86.15 E0.58472
G1 X108.975 Y85.782 E0.63099
G1 X110.207 Y85.491 E0.67731
G1 X111.591 Y85.259 E0.72865
G1 X114.904 Y84.824 E0.8509
G1 X116.163 Y84.699 E0.89719
G1 X117.427 Y84.654 E0.94346
G1 X118.692 Y84.689 E0.98976
G1 X120.161 Y84.83 E1.04375
G1 X123.514 Y85.278 E1.16751
G1 X124.763 Y85.485 E1.21383
G1 X125.995 Y85.771 E1.26011
G1 X127.208 Y86.134 E1.30643
G1 X128.568 Y86.644 E1.35957
G1 X131.628 Y87.92 E1.48087
G1 X132.78 Y88.444 E1.52717
G1 X133.897 Y89.039 E1.57347
G1 X134.973 Y89.704 E1.61975
G1 X136.099 Y90.506 E1.67033
G1 X138.755 Y92.541 E1.79275
G1 X139.735 Y93.342 E1.83905
G1 X140.662 Y94.204 E1.88537
G1 X141.533 Y95.122 E1.93166
G1 X142.479 Y96.269 E1.98606
G1 X144.514 Y98.929 E2.10859
G1 X145.251 Y99.957 E2.15487
G1 X145.921 Y101.031 E2.20118
G1 X146.523 Y102.144 E2.24748
G1 X147.128 Y103.474 E2.30093
G1 X148.405 Y106.577 E2.4237
G1 X148.849 Y107.762 E2.47
G1 X149.217 Y108.972 E2.51627
G1 X149.509 Y110.204 E2.56259
G1 X149.741 Y111.59 E2.61401
G1 X150.176 Y114.904 E2.73629
G1 X150.301 Y116.164 E2.78262
G1 X150.346 Y117.428 E2.82889
G1 X150.311 Y118.693 E2.87519
G1 X150.17 Y120.161 E2.92915
G1 X149.722 Y123.514 E3.05291
G1 X149.515 Y124.763 E3.09923
G1 X149.229 Y125.995 E3.1455
G1 X148.866 Y127.208 E3.19182
G1 X148.357 Y128.565 E3.24485
G1 X147.082 Y131.624 E3.3661
G1 X146.559 Y132.776 E3.41239
G1 X145.963 Y133.893 E3.45871
G1 X145.299 Y134.97 E3.505
G1 X144.494 Y136.099 E3.55573
G1 X142.458 Y138.756 E3.67819
G1 X141.657 Y139.735 E3.72447
G1 X140.796 Y140.663 E3.77079
G1 X139.878 Y141.533 E3.81706
G1 X138.731 Y142.479 E3.87146
G1 X136.071 Y144.514 E3.99399
G1 X135.043 Y145.251 E4.04027
G1 X133.969 Y145.921 E4.08658
G1 X132.856 Y146.523 E4.13287
G1 X131.524 Y147.128 E4.1864
G1 X128.42 Y148.405 E4.3092
G1 X127.235 Y148.85 E4.35551
G1 X126.025 Y149.218 E4.40178
G1 X124.793 Y149.509 E4.44809
G1 X123.422 Y149.739 E4.49895
G1 X120.125 Y150.174 E4.62062
G1 X118.866 Y150.3 E4.66692
G1 X117.601 Y150.346 E4.71323
G1 X116.336 Y150.312 E4.75953
G1 X114.913 Y150.177 E4.81182
G1 X111.629 Y149.748 E4.93299
G1 X110.38 Y149.545 E4.97929
G1 X109.146 Y149.263 E5.0256
G1 X107.933 Y148.904 E5.07188
G1 X106.641 Y148.426 E5.12228
G1 X103.532 Y147.154 E5.24518
G1 X102.377 Y146.638 E5.29146
G1 X101.256 Y146.05 E5.33777
G1 X100.175 Y145.393 E5.38406
G1 X98.954 Y144.53 E5.43876
G1 X96.262 Y142.472 E5.56273
G1 X95.282 Y141.672 E5.60902
G1 X94.354 Y140.812 E5.65531
G1 X93.482 Y139.894 E5.70163
G1 X92.521 Y138.731 E5.75683
G1 X90.486 Y136.071 E5.87936
G1 X89.749 Y135.043 E5.92564
G1 X89.079 Y133.969 E5.97195
G1 X88.477 Y132.856 E6.01824
G1 X87.872 Y131.524 E6.07177
G1 X86.595 Y128.42 E6.19457
G1 X86.15 Y127.235 E6.24088
G1 X85.782 Y126.025 E6.28715
G1 X85.491 Y124.793 E6.33346
G1 X85.26 Y123.411 E6.38473
G1 X84.825 Y120.1 E6.5069
G1 X84.699 Y118.841 E6.5532
G1 X84.654 Y117.576 E6.59951
G1 X84.689 Y116.311 E6.64581
G1 X84.831 Y114.838 E6.69995
G1 X85.28 Y111.481 E6.82386
G1 X85.487 Y110.233 E6.87014
G1 X85.773 Y109 E6.91645
G1 X86.136 Y107.788 E6.96274
G1 X86.644 Y106.434 E7.01565
G1 X87.918 Y103.377 E7.13682
G1 X88.441 Y102.225 E7.18311
G1 X89.036 Y101.108 E7.22941
G1 X89.701 Y100.031 E7.27572
G1 X90.506 Y98.901 E7.32648
G1 X92.542 Y96.244 E7.44895
G1 X93.343 Y95.265 E7.49522
G1 X93.71 Y94.87 E7.51495
G0 F810 X94.204 Y94.337
M204 S5000
M205 X30 Y30
G0 F7200 X94.537 Y94.627
M204 S500
M205 X20 Y20
G1 F6000 E7.54155
G1 F900 X95.446 Y93.768 E7.58731
G1 X96.536 Y92.87 E7.63898
G1 X99.196 Y90.835 E7.76151
G1 X100.214 Y90.107 E7.8073
G1 X101.276 Y89.445 E7.85308
G1 X102.378 Y88.852 E7.89887
G1 X103.643 Y88.279 E7.94967
G1 X106.747 Y87.002 E8.07247
G1 X107.919 Y86.563 E8.11826
G1 X109.117 Y86.199 E8.16407
G1 X110.335 Y85.914 E8.20984
G1 X111.648 Y85.696 E8.25853
G1 X114.961 Y85.261 E8.38078
G1 X116.206 Y85.137 E8.42656
G1 X117.457 Y85.094 E8.47235
G1 X118.708 Y85.131 E8.51814
G1 X120.103 Y85.266 E8.56942
G1 X123.456 Y85.714 E8.69318
G1 X124.691 Y85.92 E8.73899
G1 X125.909 Y86.203 E8.78474
G1 X127.108 Y86.564 E8.83055
G1 X128.399 Y87.05 E8.88102
G1 X131.459 Y88.326 E9.00232
G1 X132.598 Y88.845 E9.04811
G1 X133.701 Y89.435 E9.09388
G1 X134.765 Y90.094 E9.13966
G1 X135.831 Y90.856 E9.18761
G1 X138.487 Y92.891 E9.31002
G1 X139.456 Y93.683 E9.35581
G1 X140.372 Y94.536 E9.4016
G1 X141.231 Y95.445 E9.44736
G1 X142.13 Y96.536 E9.49908
G1 X144.165 Y99.196 E9.62161
G1 X144.893 Y100.214 E9.6674
G1 X145.555 Y101.276 E9.71319
G1 X146.148 Y102.378 E9.75897
G1 X146.721 Y103.641 E9.80971
G1 X147.998 Y106.744 E9.93248
G1 X148.437 Y107.916 E9.97827
G1 X148.8 Y109.114 E10.02406
G1 X149.086 Y110.332 E10.06984
G1 X149.304 Y111.648 E10.11864
G1 X149.739 Y114.962 E10.24093
G1 X149.863 Y116.207 E10.2867
G1 X149.906 Y117.458 E10.3325
G1 X149.869 Y118.709 E10.37829
G1 X149.734 Y120.103 E10.42953
G1 X149.286 Y123.456 E10.55329
G1 X149.08 Y124.691 E10.5991
G1 X148.797 Y125.909 E10.64485
G1 X148.436 Y127.108 E10.69066
G1 X147.951 Y128.396 E10.74101
G1 X146.676 Y131.455 E10.86226
G1 X146.158 Y132.594 E10.90804
G1 X145.568 Y133.698 E10.95384
G1 X144.909 Y134.761 E10.9996
G1 X144.145 Y135.831 E11.0477
G1 X142.109 Y138.488 E11.17017
G1 X141.316 Y139.457 E11.21598
G1 X140.463 Y140.373 E11.26177
G1 X139.554 Y141.232 E11.30753
G1 X138.464 Y142.13 E11.3592
G1 X135.804 Y144.165 E11.48173
G1 X134.786 Y144.893 E11.52752
G1 X133.724 Y145.555 E11.5733
G1 X132.622 Y146.148 E11.61909
G1 X131.357 Y146.721 E11.6699
G1 X128.253 Y147.998 E11.79269
G1 X127.081 Y148.437 E11.83848
G1 X125.883 Y148.801 E11.88429
G1 X124.665 Y149.086 E11.93006
G1 X123.364 Y149.303 E11.97831
G1 X120.067 Y149.738 E12.09998
G1 X118.822 Y149.862 E12.14576
G1 X117.571 Y149.906 E12.19156
G1 X116.32 Y149.87 E12.23734
G1 X114.97 Y149.741 E12.28696
G1 X111.686 Y149.312 E12.40813
G1 X110.451 Y149.11 E12.45391
G1 X109.231 Y148.83 E12.49971
G1 X108.032 Y148.473 E12.54548
G1 X106.808 Y148.019 E12.59324
G1 X103.699 Y146.747 E12.71614
G1 X102.556 Y146.236 E12.76195
G1 X101.449 Y145.654 E12.80771
G1 X100.381 Y145.002 E12.85349
G1 X99.221 Y144.18 E12.9055
G1 X96.529 Y142.122 E13.02947
G1 X95.56 Y141.331 E13.07524
G1 X94.643 Y140.479 E13.12103
G1 X93.783 Y139.571 E13.16679
G1 X92.87 Y138.464 E13.21929
G1 X90.835 Y135.804 E13.34182
G1 X90.107 Y134.786 E13.38761
G1 X89.445 Y133.724 E13.43339
G1 X88.852 Y132.622 E13.47918
G1 X88.279 Y131.357 E13.52999
G1 X87.002 Y128.253 E13.65278
G1 X86.563 Y127.081 E13.69857
G1 X86.199 Y125.883 E13.74438
G1 X85.914 Y124.665 E13.79015
G1 X85.696 Y123.354 E13.83877
G1 X85.261 Y120.043 E13.96095
G1 X85.138 Y118.797 E14.00676
G1 X85.094 Y117.547 E14.05252
G1 X85.131 Y116.296 E14.09831
G1 X85.267 Y114.896 E14.14977
G1 X85.716 Y111.539 E14.27368
G1 X85.921 Y110.305 E14.31945
G1 X86.205 Y109.086 E14.36524
G1 X86.566 Y107.888 E14.41102
G1 X87.05 Y106.603 E14.46125
G1 X88.324 Y103.546 E14.58242
G1 X88.842 Y102.407 E14.6282
G1 X89.431 Y101.303 E14.67398
G1 X90.091 Y100.239 E14.71979
G1 X90.855 Y99.169 E14.76789
G1 X92.891 Y96.512 E14.89036
G1 X93.684 Y95.543 E14.93617
G1 X94.042 Y95.159 E14.95538
G0 F810 X94.537 Y94.627
M204 S5000
M205 X30 Y30
G0 F7200 X94.869 Y94.918
M204 S500
M205 X20 Y20
G1 F6000 E14.98198
G1 F900 X95.769 Y94.069 E15.02724
G1 X96.803 Y93.219 E15.07621
G1 X99.463 Y91.184 E15.19875
G1 X100.47 Y90.465 E15.24402
G1 X101.521 Y89.812 E15.28929
G1 X102.611 Y89.228 E15.33453
G1 X103.811 Y88.685 E15.38272
G1 X106.915 Y87.408 E15.50551
G1 X108.074 Y86.975 E15.55078
G1 X109.258 Y86.617 E15.59604
G1 X110.463 Y86.337 E15.6413
G1 X111.705 Y86.132 E15.68735
G1 X115.018 Y85.697 E15.8096
G1 X116.25 Y85.576 E15.85489
G1 X117.486 Y85.534 E15.90014
G1 X118.723 Y85.572 E15.94542
G1 X120.045 Y85.703 E15.99402
G1 X123.398 Y86.151 E16.11778
G1 X124.618 Y86.354 E16.16303
G1 X125.823 Y86.636 E16.20831
G1 X127.007 Y86.995 E16.25358
G1 X128.229 Y87.456 E16.30136
G1 X131.289 Y88.732 E16.42266
G1 X132.415 Y89.245 E16.46793
G1 X133.506 Y89.83 E16.51322
G1 X134.556 Y90.483 E16.55846
G1 X135.564 Y91.205 E16.60382
G1 X138.22 Y93.24 E16.72624
G1 X139.177 Y94.024 E16.7715
G1 X140.082 Y94.868 E16.81677
G1 X140.93 Y95.769 E16.86204
G1 X141.781 Y96.803 E16.91104
G1 X143.816 Y99.463 E17.03357
G1 X144.535 Y100.47 E17.07884
G1 X145.188 Y101.521 E17.12411
G1 X145.772 Y102.611 E17.16935
G1 X146.314 Y103.809 E17.21746
G1 X147.591 Y106.912 E17.34022
G1 X148.024 Y108.071 E17.38549
G1 X148.382 Y109.255 E17.43074
G1 X148.663 Y110.46 E17.47601
G1 X148.868 Y111.705 E17.52218
G1 X149.303 Y115.019 E17.64446
G1 X149.425 Y116.25 E17.68972
G1 X149.466 Y117.487 E17.735
G1 X149.427 Y118.724 E17.78028
G1 X149.297 Y120.045 E17.82885
G1 X148.849 Y123.398 E17.95261
G1 X148.646 Y124.618 E17.99786
G1 X148.364 Y125.823 E18.04313
G1 X148.005 Y127.007 E18.0884
G1 X147.545 Y128.227 E18.1361
G1 X146.27 Y131.286 E18.25735
G1 X145.757 Y132.412 E18.30262
G1 X145.173 Y133.502 E18.34786
G1 X144.519 Y134.553 E18.39315
G1 X143.795 Y135.564 E18.43865
G1 X141.759 Y138.221 E18.56112
G1 X140.976 Y139.178 E18.60635
G1 X140.131 Y140.082 E18.65163
G1 X139.231 Y140.931 E18.69689
G1 X138.197 Y141.781 E18.74587
G1 X135.537 Y143.816 E18.8684
G1 X134.53 Y144.535 E18.91367
G1 X133.479 Y145.188 E18.95894
G1 X132.389 Y145.772 E19.00418
G1 X131.189 Y146.315 E19.05237
G1 X128.085 Y147.592 E19.17517
G1 X126.926 Y148.025 E19.22043
G1 X125.742 Y148.383 E19.26569
G1 X124.537 Y148.663 E19.31095
G1 X123.307 Y148.867 E19.35656
G1 X120.01 Y149.302 E19.47823
G1 X118.778 Y149.424 E19.52353
G1 X117.542 Y149.466 E19.56878
G1 X116.305 Y149.428 E19.61405
G1 X115.027 Y149.305 E19.66103
G1 X111.743 Y148.876 E19.7822
G1 X110.522 Y148.676 E19.82746
G1 X109.316 Y148.398 E19.87274
G1 X108.131 Y148.042 E19.91801
G1 X106.974 Y147.612 E19.96317
G1 X103.865 Y146.34 E20.08607
G1 X102.736 Y145.834 E20.13133
G1 X101.642 Y145.257 E20.17659
G1 X100.587 Y144.611 E20.22184
G1 X99.489 Y143.831 E20.27112
G1 X96.797 Y141.773 E20.39509
G1 X95.838 Y140.99 E20.44039
G1 X94.933 Y140.147 E20.48564
G1 X94.084 Y139.247 E20.53091
G1 X93.219 Y138.197 E20.58068
G1 X91.184 Y135.537 E20.70321
G1 X90.465 Y134.53 E20.74848
G1 X89.812 Y133.479 E20.79375
G1 X89.228 Y132.389 E20.83899
G1 X88.685 Y131.189 E20.88718
G1 X87.408 Y128.085 E21.00998
G1 X86.975 Y126.926 E21.05525
G1 X86.617 Y125.742 E21.1005
G1 X86.337 Y124.537 E21.14576
G1 X86.132 Y123.296 E21.19178
G1 X85.697 Y119.985 E21.31396
G1 X85.576 Y118.754 E21.35921
G1 X85.534 Y117.517 E21.4045
G1 X85.572 Y116.281 E21.44974
G1 X85.703 Y114.955 E21.49849
G1 X86.152 Y111.598 E21.6224
G1 X86.356 Y110.377 E21.66769
G1 X86.638 Y109.173 E21.71293
G1 X86.997 Y107.989 E21.7582
G1 X87.456 Y106.772 E21.80579
G1 X88.73 Y103.715 E21.92695
G1 X89.242 Y102.589 E21.97221
G1 X89.827 Y101.499 E22.01747
G1 X90.48 Y100.448 E22.06274
G1 X91.205 Y99.436 E22.10828
G1 X93.241 Y96.779 E22.23075
G1 X94.024 Y95.822 E22.27599
G1 X94.373 Y95.449 E22.29468
G0 F810 X94.869 Y94.918
M204 S5000
M205 X30 Y30
G0 F7200 X95.2 Y95.208
M204 S500
M205 X20 Y20
G1 F6000 E22.32128
G1 F900 X96.092 Y94.371 E22.36603
G1 X97.071 Y93.569 E22.41233
G1 X99.731 Y91.534 E22.53486
G1 X100.726 Y90.823 E22.57961
G1 X101.765 Y90.179 E22.62433
G1 X102.844 Y89.604 E22.66906
G1 X103.978 Y89.092 E22.71458
G1 X107.082 Y87.815 E22.83738
G1 X108.228 Y87.387 E22.88214
G1 X109.399 Y87.035 E22.92687
G1 X110.591 Y86.76 E22.97163
G1 X111.763 Y86.568 E23.01508
G1 X115.076 Y86.133 E23.13733
G1 X116.293 Y86.014 E23.18207
G1 X117.515 Y85.974 E23.2268
G1 X118.737 Y86.014 E23.27153
G1 X119.987 Y86.139 E23.31749
G1 X123.34 Y86.587 E23.44126
G1 X124.546 Y86.788 E23.48599
G1 X125.736 Y87.068 E23.53071
G1 X126.906 Y87.425 E23.57547
G1 X128.06 Y87.862 E23.62061
G1 X131.12 Y89.138 E23.74191
G1 X132.233 Y89.646 E23.78667
G1 X133.31 Y90.225 E23.83141
G1 X134.347 Y90.873 E23.87615
G1 X135.296 Y91.554 E23.91888
G1 X137.952 Y93.589 E24.0413
G1 X138.898 Y94.364 E24.08604
G1 X139.791 Y95.2 E24.13079
G1 X140.628 Y96.091 E24.17552
G1 X141.431 Y97.071 E24.22187
G1 X143.466 Y99.731 E24.34441
G1 X144.177 Y100.726 E24.38915
G1 X144.821 Y101.765 E24.43387
G1 X145.396 Y102.844 E24.4786
G1 X145.907 Y103.976 E24.52404
G1 X147.184 Y107.079 E24.64681
G1 X147.612 Y108.225 E24.69156
G1 X147.964 Y109.396 E24.7363
G1 X148.24 Y110.588 E24.78106
G1 X148.432 Y111.762 E24.82459
G1 X148.867 Y115.076 E24.94687
G1 X148.986 Y116.293 E24.99161
G1 X149.026 Y117.516 E25.03638
G1 X148.986 Y118.738 E25.08111
G1 X148.861 Y119.987 E25.12704
G1 X148.413 Y123.34 E25.2508
G1 X148.212 Y124.546 E25.29553
G1 X147.932 Y125.736 E25.34026
G1 X147.575 Y126.906 E25.38501
G1 X147.139 Y128.057 E25.43004
G1 X145.864 Y131.116 E25.55129
G1 X145.357 Y132.229 E25.59604
G1 X144.778 Y133.306 E25.64078
G1 X144.13 Y134.344 E25.68554
G1 X143.446 Y135.296 E25.72843
G1 X141.41 Y137.953 E25.8509
G1 X140.635 Y138.899 E25.89564
G1 X139.8 Y139.792 E25.94037
G1 X138.908 Y140.629 E25.98512
G1 X137.929 Y141.431 E26.03143
G1 X135.269 Y143.466 E26.15396
G1 X134.274 Y144.177 E26.1987
G1 X133.235 Y144.821 E26.24342
G1 X132.156 Y145.396 E26.28815
G1 X131.022 Y145.908 E26.33368
G1 X127.918 Y147.185 E26.45647
G1 X126.772 Y147.613 E26.50123
G1 X125.601 Y147.965 E26.54597
G1 X124.409 Y148.24 E26.59072
G1 X123.249 Y148.43 E26.63373
G1 X119.952 Y148.865 E26.7554
G1 X118.735 Y148.986 E26.80014
G1 X117.513 Y149.026 E26.84488
G1 X116.29 Y148.986 E26.88964
G1 X115.084 Y148.868 E26.93398
G1 X111.8 Y148.439 E27.05515
G1 X110.593 Y148.241 E27.0999
G1 X109.402 Y147.965 E27.14463
G1 X108.231 Y147.611 E27.18938
G1 X107.141 Y147.204 E27.23195
G1 X104.032 Y145.932 E27.35485
G1 X102.916 Y145.433 E27.39958
G1 X101.835 Y144.861 E27.44432
G1 X100.793 Y144.22 E27.48908
G1 X99.756 Y143.481 E27.53567
G1 X97.064 Y141.423 E27.65964
G1 X96.117 Y140.649 E27.70439
G1 X95.223 Y139.815 E27.74912
G1 X94.385 Y138.924 E27.79387
G1 X93.569 Y137.929 E27.84095
G1 X91.534 Y135.269 E27.96348
G1 X90.823 Y134.274 E28.00822
G1 X90.179 Y133.235 E28.05295
G1 X89.604 Y132.156 E28.09768
G1 X89.092 Y131.022 E28.1432
G1 X87.815 Y127.918 E28.266
G1 X87.387 Y126.772 E28.31076
G1 X87.035 Y125.601 E28.35549
G1 X86.76 Y124.409 E28.40025
G1 X86.568 Y123.239 E28.44363
G1 X86.133 Y119.928 E28.5658
G1 X86.014 Y118.711 E28.61054
G1 X85.974 Y117.488 E28.65531
G1 X86.014 Y116.266 E28.70004
G1 X86.139 Y115.013 E28.74611
G1 X86.588 Y111.656 E28.87003
G1 X86.79 Y110.45 E28.91476
G1 X87.07 Y109.259 E28.95953
G1 X87.427 Y108.09 E29.00424
G1 X87.862 Y106.941 E29.04919
G1 X89.136 Y103.884 E29.17036
G1 X89.643 Y102.772 E29.21507
G1 X90.222 Y101.694 E29.25984
G1 X90.87 Y100.657 E29.30458
G1 X91.554 Y99.704 E29.3475
G1 X93.59 Y97.047 E29.46997
G1 X94.365 Y96.101 E29.51471
G1 X94.704 Y95.739 E29.53285
G0 F810 X95.2 Y95.208
M204 S5000
M205 X30 Y30
G0 F7200 X95.532 Y95.499
M204 S500
M205 X20 Y20
G1 F6000 E29.55945
G1 F900 X96.415 Y94.674 E29.60366
G1 X97.338 Y93.918 E29.64731
G1 X99.998 Y91.883 E29.76985
G1 X100.982 Y91.181 E29.81407
G1 X102.009 Y90.546 E29.85825
G1 X103.077 Y89.98 E29.90247
G1 X104.146 Y89.499 E29.94536
G1 X107.25 Y88.222 E30.06815
G1 X108.382 Y87.8 E30.11235
G1 X109.54 Y87.453 E30.15658
G1 X110.718 Y87.184 E30.20079
G1 X111.82 Y87.004 E30.24164
G1 X115.133 Y86.569 E30.36389
G1 X116.336 Y86.452 E30.40811
G1 X117.543 Y86.414 E30.45229
