;FLAVOR:Marlin
;TIME:5321
;Filament used: 2.76008m
;Layer height: 0.2
;Generated with Cura_SteamEngine 3.6.0
M140 S70
M105
M190 S70
M104 S215
M105
M109 S215
M82 ;absolute extrusion mode
G28 ; home all axes
M117 Purge extruder
G92 E0 ; reset extruder
G1 Z1.0 F3000 ; move z up little to prevent scratching of surface
G1 X0.1 Y20 Z0.3 F5000.0 ; move to start-line position G1 X0.1 Y200.0 Z0.3 F1500.0 E15 ; draw 1st line
G1 X0.4 Y200.0 Z0.3 F5000.0 ; move to side a little
G1 X0.4 Y20 Z0.3 F1500.0 E30 ; draw 2nd line
G92 E0 ; reset extruder
G1 Z1.0 F3000 ; move z up little to prevent scratching of surface
M117 All systems go!
G92 E0
G1 F6000 E-5
;LAYER_COUNT:486
;LAYER:0
M107
M204 S5000
M205 X30 Y30
G0 F7200 X94.879 Y95.021 Z0.2
M204 S500
M205 X20 Y20
;TYPE:SKIRT
G1 F6000 E0
G1 F900 X95.797 Y94.15 E0.0463
G1 X96.927 Y93.216 E0.09993
G1 X99.393 Y91.325 E0.21363
G1 X100.421 Y90.587 E0.25993
G1 X101.493 Y89.916 E0.3062
G1 X102.606 Y89.314 E0.35249
G1 X103.96 Y88.697 E0.40693
G1 X106.817 Y87.522 E0.51995
G1 X108.002 Y87.078 E0.56625
G1 X109.213 Y86.709 E0.61257
G1 X110.444 Y86.418 E0.65885
G1 X111.81 Y86.189 E0.70952
G1 X114.883 Y85.783 E0.82293
G1 X116.142 Y85.657 E0.86922
G1 X117.406 Y85.611 E0.91549
G1 X118.671 Y85.645 E0.96179
G1 X120.153 Y85.787 E1.01626
G1 X123.241 Y86.199 E1.13024
G1 X124.489 Y86.406 E1.17652
G1 X125.722 Y86.691 E1.22282
G1 X126.934 Y87.054 E1.26911
G1 X128.257 Y87.548 E1.32078
G1 X131.095 Y88.724 E1.43317
G1 X132.248 Y89.245 E1.47946
G1 X133.366 Y89.838 E1.52576
G1 X134.444 Y90.5 E1.57205
G1 X135.617 Y91.335 E1.62473
G1 X138.083 Y93.227 E1.73844
G1 X139.063 Y94.029 E1.78477
G1 X139.989 Y94.891 E1.83106
G1 X140.859 Y95.809 E1.87733
G1 X141.776 Y96.919 E1.93001
G1 X143.664 Y99.378 E2.04343
G1 X144.403 Y100.405 E2.08972
G1 X145.075 Y101.478 E2.13604
G1 X145.678 Y102.59 E2.18232
G1 X146.285 Y103.919 E2.23578
G1 X147.46 Y106.76 E2.34826
G1 X147.907 Y107.944 E2.39456
G1 X148.277 Y109.153 E2.44082
G1 X148.571 Y110.384 E2.48712
G1 X148.806 Y111.776 E2.53877
G1 X149.217 Y114.872 E2.65304
G1 X149.344 Y116.131 E2.69933
G1 X149.391 Y117.396 E2.74564
G1 X149.358 Y118.661 E2.79194
G1 X149.215 Y120.155 E2.84685
G1 X148.802 Y123.25 E2.96109
G1 X148.595 Y124.498 E3.00737
G1 X148.31 Y125.731 E3.05367
G1 X147.947 Y126.943 E3.09996
G1 X147.434 Y128.312 E3.15345
G1 X146.243 Y131.166 E3.26659
G1 X145.719 Y132.318 E3.3129
G1 X145.123 Y133.434 E3.35918
G1 X144.458 Y134.511 E3.40549
G1 X143.64 Y135.656 E3.45698
G1 X141.76 Y138.102 E3.56984
G1 X140.958 Y139.081 E3.61615
G1 X140.095 Y140.006 E3.66243
G1 X139.176 Y140.876 E3.70873
G1 X138.062 Y141.795 E3.76157
G1 X135.6 Y143.681 E3.87503
G1 X134.571 Y144.418 E3.92134
G1 X133.498 Y145.089 E3.96764
G1 X132.385 Y145.691 E4.01394
G1 X131.011 Y146.315 E4.06915
G1 X128.107 Y147.504 E4.18395
G1 X126.921 Y147.946 E4.23026
G1 X125.71 Y148.313 E4.27656
G1 X124.478 Y148.602 E4.32285
G1 X123.093 Y148.831 E4.37421
G1 X120.052 Y149.225 E4.4864
G1 X118.793 Y149.348 E4.53268
G1 X117.528 Y149.391 E4.57899
G1 X116.263 Y149.354 E4.62529
G1 X114.818 Y149.213 E4.67841
G1 X111.739 Y148.8 E4.79207
G1 X110.491 Y148.593 E4.83835
G1 X109.259 Y148.306 E4.88463
G1 X108.047 Y147.943 E4.93092
G1 X106.728 Y147.449 E4.98245
G1 X103.901 Y146.276 E5.09443
G1 X102.749 Y145.755 E5.14069
G1 X101.631 Y145.161 E5.18701
G1 X100.553 Y144.498 E5.23331
G1 X99.38 Y143.663 E5.28599
G1 X96.893 Y141.753 E5.40071
G1 X95.914 Y140.951 E5.44701
G1 X94.988 Y140.088 E5.49333
G1 X94.118 Y139.169 E5.53962
G1 X93.163 Y138.009 E5.5946
G1 X91.28 Y135.538 E5.70826
G1 X90.546 Y134.508 E5.75453
G1 X89.877 Y133.434 E5.80083
G1 X89.278 Y132.319 E5.84713
G1 X88.695 Y131.033 E5.89879
G1 X87.522 Y128.187 E6.01141
G1 X87.077 Y127.002 E6.05772
G1 X86.707 Y125.792 E6.10402
G1 X86.415 Y124.561 E6.1503
G1 X86.182 Y123.167 E6.20201
G1 X85.78 Y120.108 E6.31489
G1 X85.655 Y118.848 E6.36122
G1 X85.609 Y117.584 E6.40749
G1 X85.644 Y116.319 E6.45379
G1 X85.784 Y114.855 E6.5076
G1 X86.195 Y111.77 E6.62146
G1 X86.402 Y110.522 E6.66775
G1 X86.687 Y109.289 E6.71405
G1 X87.05 Y108.077 E6.76034
G1 X87.543 Y106.755 E6.81196
G1 X88.719 Y103.915 E6.92442
G1 X89.24 Y102.761 E6.97074
G1 X89.833 Y101.643 E7.01704
G1 X90.495 Y100.565 E7.06332
G1 X91.324 Y99.399 E7.11567
G1 X93.217 Y96.928 E7.22955
G1 X94.017 Y95.948 E7.27583
G1 X94.384 Y95.553 E7.29556
G0 F810 X94.879 Y95.021
M204 S5000
M205 X30 Y30
G0 F7200 X95.211 Y95.311
M204 S500
M205 X20 Y20
G1 F6000 E7.32216
G1 F900 X96.12 Y94.451 E7.36794
G1 X97.194 Y93.565 E7.41888
G1 X99.66 Y91.674 E7.53257
G1 X100.677 Y90.945 E7.57835
G1 X101.739 Y90.282 E7.62416
G1 X102.84 Y89.688 E7.66993
G1 X104.128 Y89.104 E7.72167
G1 X106.985 Y87.929 E7.83469
G1 X108.157 Y87.49 E7.88048
G1 X109.354 Y87.127 E7.92624
G1 X110.572 Y86.841 E7.97202
G1 X111.867 Y86.626 E8.02004
G1 X114.94 Y86.22 E8.13345
G1 X116.186 Y86.096 E8.17926
G1 X117.436 Y86.051 E8.22502
G1 X118.687 Y86.087 E8.27081
G1 X120.094 Y86.223 E8.32253
G1 X123.182 Y86.635 E8.43651
G1 X124.417 Y86.84 E8.48231
G1 X125.636 Y87.124 E8.5281
G1 X126.834 Y87.484 E8.57387
G1 X128.088 Y87.954 E8.62286
G1 X130.926 Y89.13 E8.73526
G1 X132.067 Y89.646 E8.78107
G1 X133.172 Y90.234 E8.82687
G1 X134.237 Y90.891 E8.87265
G1 X135.35 Y91.684 E8.92265
G1 X137.816 Y93.576 E9.03637
G1 X138.784 Y94.37 E9.08217
G1 X139.699 Y95.223 E9.12794
G1 X140.558 Y96.133 E9.17372
G1 X141.427 Y97.187 E9.2237
G1 X143.315 Y99.646 E9.33712
G1 X144.045 Y100.662 E9.38289
G1 X144.709 Y101.723 E9.42869
G1 X145.303 Y102.825 E9.47449
G1 X145.879 Y104.087 E9.52524
G1 X147.054 Y106.928 E9.63772
G1 X147.495 Y108.099 E9.6835
G1 X147.86 Y109.296 E9.72929
G1 X148.148 Y110.513 E9.77504
G1 X148.37 Y111.834 E9.82405
G1 X148.781 Y114.93 E9.93832
G1 X148.906 Y116.175 E9.98409
G1 X148.951 Y117.426 E10.02989
G1 X148.916 Y118.677 E10.07568
G1 X148.779 Y120.097 E10.12787
G1 X148.366 Y123.192 E10.24211
G1 X148.161 Y124.426 E10.28788
G1 X147.877 Y125.645 E10.33367
G1 X147.517 Y126.843 E10.37944
G1 X147.028 Y128.143 E10.43025
G1 X145.837 Y130.997 E10.5434
G1 X145.318 Y132.136 E10.58919
G1 X144.728 Y133.239 E10.63496
G1 X144.068 Y134.302 E10.68073
G1 X143.291 Y135.388 E10.72959
G1 X141.411 Y137.834 E10.84246
G1 X140.617 Y138.801 E10.88823
G1 X139.763 Y139.716 E10.93403
G1 X138.853 Y140.574 E10.97978
G1 X137.794 Y141.445 E11.02995
G1 X135.332 Y143.331 E11.14342
G1 X134.315 Y144.06 E11.1892
G1 X133.253 Y144.723 E11.235
G1 X132.151 Y145.316 E11.28079
G1 X130.844 Y145.908 E11.33328
G1 X127.94 Y147.097 E11.44809
G1 X126.767 Y147.534 E11.49388
G1 X125.569 Y147.895 E11.53966
G1 X124.35 Y148.179 E11.58545
G1 X123.037 Y148.395 E11.63414
G1 X119.996 Y148.789 E11.74633
G1 X118.75 Y148.91 E11.79213
G1 X117.5 Y148.951 E11.83788
G1 X116.249 Y148.912 E11.88368
G1 X114.877 Y148.777 E11.93411
G1 X111.798 Y148.364 E12.04777
G1 X110.564 Y148.158 E12.09354
G1 X109.345 Y147.874 E12.13934
G1 X108.147 Y147.512 E12.18512
G1 X106.897 Y147.043 E12.23397
G1 X104.07 Y145.87 E12.34595
G1 X102.93 Y145.354 E12.39173
G1 X101.825 Y144.766 E12.43753
G1 X100.761 Y144.108 E12.4833
G1 X99.648 Y143.314 E12.53332
G1 X97.161 Y141.404 E12.64804
G1 X96.193 Y140.61 E12.69385
G1 X95.278 Y139.757 E12.73962
G1 X94.42 Y138.846 E12.7854
G1 X93.513 Y137.743 E12.83765
G1 X91.63 Y135.272 E12.95131
G1 X90.904 Y134.253 E12.99708
G1 X90.244 Y133.189 E13.04289
G1 X89.654 Y132.086 E13.08866
G1 X89.101 Y130.865 E13.1377
G1 X87.928 Y128.019 E13.25032
G1 X87.489 Y126.848 E13.29607
G1 X87.125 Y125.65 E13.34188
G1 X86.838 Y124.432 E13.38766
G1 X86.618 Y123.109 E13.43673
G1 X86.216 Y120.05 E13.54961
G1 X86.093 Y118.805 E13.59538
G1 X86.049 Y117.554 E13.64118
G1 X86.086 Y116.303 E13.68697
G1 X86.22 Y114.913 E13.73806
G1 X86.631 Y111.828 E13.85193
G1 X86.836 Y110.594 E13.89769
G1 X87.12 Y109.375 E13.94348
G1 X87.48 Y108.177 E13.98925
G1 X87.95 Y106.923 E14.03825
G1 X89.126 Y104.083 E14.15071
G1 X89.641 Y102.943 E14.19647
G1 X90.228 Y101.838 E14.24225
G1 X90.885 Y100.772 E14.28806
G1 X91.673 Y99.667 E14.33772
G1 X93.566 Y97.196 E14.4516
G1 X94.358 Y96.227 E14.49739
G1 X94.716 Y95.843 E14.5166
G0 F810 X95.211 Y95.311
M204 S5000
M205 X30 Y30
G0 F7200 X95.543 Y95.601
M204 S500
M205 X20 Y20
G1 F6000 E14.5432
G1 F900 X96.444 Y94.753 E14.58846
G1 X97.462 Y93.915 E14.6367
G1 X99.928 Y92.024 E14.7504
G1 X100.934 Y91.303 E14.79568
G1 X101.984 Y90.649 E14.84094
G1 X103.074 Y90.063 E14.88622
G1 X104.295 Y89.511 E14.93524
G1 X107.152 Y88.336 E15.04826
G1 X108.311 Y87.902 E15.09354
G1 X109.495 Y87.545 E15.13878
G1 X110.7 Y87.264 E15.18405
G1 X111.925 Y87.062 E15.22948
G1 X114.998 Y86.656 E15.34288
G1 X116.229 Y86.534 E15.38814
G1 X117.466 Y86.491 E15.43343
G1 X118.702 Y86.528 E15.47867
G1 X120.036 Y86.659 E15.52771
G1 X123.124 Y87.071 E15.64169
G1 X124.345 Y87.274 E15.68697
G1 X125.549 Y87.556 E15.73221
G1 X126.734 Y87.915 E15.77751
G1 X127.92 Y88.361 E15.82387
G1 X130.758 Y89.537 E15.93626
G1 X131.885 Y90.047 E15.98152
G1 X132.977 Y90.629 E16.02679
G1 X134.029 Y91.281 E16.07208
G1 X135.082 Y92.034 E16.11944
G1 X137.548 Y93.926 E16.23315
G1 X138.505 Y94.71 E16.27842
G1 X139.409 Y95.555 E16.32369
G1 X140.256 Y96.456 E16.36893
G1 X141.078 Y97.455 E16.41626
G1 X142.966 Y99.914 E16.52969
G1 X143.688 Y100.919 E16.57496
G1 X144.343 Y101.969 E16.62024
G1 X144.928 Y103.059 E16.6655
G1 X145.472 Y104.255 E16.71357
G1 X146.647 Y107.096 E16.82605
G1 X147.083 Y108.254 E16.87132
G1 X147.443 Y109.438 E16.9166
G1 X147.725 Y110.642 E16.96184
G1 X147.934 Y111.892 E17.00821
G1 X148.345 Y114.988 E17.12247
G1 X148.468 Y116.219 E17.16773
G1 X148.511 Y117.456 E17.21302
G1 X148.474 Y118.693 E17.25829
G1 X148.343 Y120.039 E17.30777
G1 X147.93 Y123.134 E17.42201
G1 X147.727 Y124.354 E17.46726
G1 X147.445 Y125.559 E17.51254
G1 X147.086 Y126.743 E17.5578
G1 X146.622 Y127.973 E17.6059
G1 X145.431 Y130.827 E17.71904
G1 X144.918 Y131.953 E17.76431
G1 X144.333 Y133.043 E17.80957
G1 X143.679 Y134.094 E17.85486
G1 X142.942 Y135.12 E17.90108
G1 X141.062 Y137.566 E18.01395
G1 X140.277 Y138.522 E18.0592
G1 X139.432 Y139.425 E18.10445
G1 X138.53 Y140.272 E18.14972
G1 X137.526 Y141.096 E18.19724
G1 X135.064 Y142.982 E18.31071
G1 X134.058 Y143.702 E18.35597
G1 X133.008 Y144.356 E18.40122
G1 X131.918 Y144.941 E18.44648
G1 X130.677 Y145.501 E18.4963
G1 X127.773 Y146.69 E18.6111
G1 X126.614 Y147.121 E18.65634
G1 X125.429 Y147.477 E18.70161
G1 X124.223 Y147.756 E18.7469
G1 X122.98 Y147.958 E18.79297
G1 X119.939 Y148.352 E18.90516
G1 X118.708 Y148.472 E18.95041
G1 X117.471 Y148.511 E18.99569
G1 X116.235 Y148.47 E19.04094
G1 X114.935 Y148.341 E19.08873
G1 X111.856 Y147.928 E19.20239
G1 X110.636 Y147.724 E19.24765
G1 X109.432 Y147.442 E19.29289
G1 X108.248 Y147.082 E19.33816
G1 X107.066 Y146.637 E19.38437
G1 X104.239 Y145.464 E19.49635
G1 X103.112 Y144.953 E19.54162
G1 X102.02 Y144.37 E19.58691
G1 X100.969 Y143.718 E19.63216
G1 X99.916 Y142.965 E19.67953
G1 X97.429 Y141.055 E19.79425
G1 X96.473 Y140.27 E19.83951
G1 X95.569 Y139.425 E19.88478
G1 X94.722 Y138.523 E19.93005
G1 X93.863 Y137.476 E19.9796
G1 X91.98 Y135.005 E20.09326
G1 X91.263 Y133.997 E20.13852
G1 X90.612 Y132.945 E20.18378
G1 X90.03 Y131.853 E20.22905
G1 X89.508 Y130.697 E20.27546
G1 X88.335 Y127.851 E20.38808
G1 X87.901 Y126.693 E20.43332
G1 X87.542 Y125.509 E20.47859
G1 X87.261 Y124.304 E20.52386
G1 X87.054 Y123.052 E20.57029
G1 X86.652 Y119.993 E20.68317
G1 X86.531 Y118.762 E20.72842
G1 X86.489 Y117.525 E20.7737
G1 X86.527 Y116.288 E20.81898
G1 X86.657 Y114.971 E20.8674
G1 X87.068 Y111.886 E20.98127
G1 X87.271 Y110.666 E21.02651
G1 X87.552 Y109.461 E21.07178
G1 X87.911 Y108.277 E21.11705
G1 X88.356 Y107.091 E21.16339
G1 X89.532 Y104.251 E21.27585
G1 X90.042 Y103.124 E21.32111
G1 X90.624 Y102.032 E21.36638
G1 X91.275 Y100.98 E21.41165
G1 X92.022 Y99.934 E21.45867
G1 X93.915 Y97.463 E21.57256
G1 X94.699 Y96.506 E21.61782
G1 X95.047 Y96.132 E21.63651
G0 F810 X95.543 Y95.601
M204 S5000
M205 X30 Y30
G0 F7200 X95.875 Y95.891
M204 S500
M205 X20 Y20
G1 F6000 E21.66311
G1 F900 X96.767 Y95.055 E21.70783
G1 X97.73 Y94.264 E21.75343
G1 X100.196 Y92.373 E21.86712
G1 X101.19 Y91.661 E21.91186
G1 X102.229 Y91.015 E21.95662
G1 X103.307 Y90.439 E22.00133
G1 X104.462 Y89.918 E22.04769
G1 X107.319 Y88.743 E22.16071
G1 X108.465 Y88.315 E22.20547
G1 X109.636 Y87.962 E22.25022
G1 X110.828 Y87.688 E22.29496
G1 X111.983 Y87.498 E22.33779
G1 X115.056 Y87.092 E22.4512
G1 X116.273 Y86.972 E22.49594
G1 X117.495 Y86.931 E22.54067
G1 X118.717 Y86.97 E22.5854
G1 X119.978 Y87.095 E22.63176
G1 X123.066 Y87.507 E22.74574
G1 X124.272 Y87.709 E22.79048
G1 X125.463 Y87.988 E22.83523
G1 X126.633 Y88.345 E22.87999
G1 X127.752 Y88.767 E22.92374
G1 X130.59 Y89.943 E23.03613
G1 X131.703 Y90.448 E23.08085
G1 X132.782 Y91.025 E23.12562
G1 X133.82 Y91.671 E23.17035
G1 X134.814 Y92.383 E23.21508
G1 X137.28 Y94.275 E23.3288
G1 X138.225 Y95.05 E23.37351
G1 X139.118 Y95.886 E23.41827
G1 X139.954 Y96.779 E23.46302
G1 X140.729 Y97.723 E23.5077
G1 X142.617 Y100.182 E23.62113
G1 X143.33 Y101.176 E23.66588
G1 X143.976 Y102.214 E23.71061
G1 X144.553 Y103.292 E23.75535
G1 X145.065 Y104.423 E23.80077
G1 X146.24 Y107.264 E23.91325
G1 X146.671 Y108.409 E23.95801
G1 X147.025 Y109.579 E24.00273
G1 X147.302 Y110.77 E24.04747
G1 X147.497 Y111.95 E24.09123
G1 X147.908 Y115.046 E24.20549
G1 X148.03 Y116.263 E24.25024
G1 X148.071 Y117.485 E24.29497
G1 X148.032 Y118.708 E24.33974
G1 X147.907 Y119.98 E24.3865
G1 X147.494 Y123.075 E24.50074
G1 X147.292 Y124.282 E24.54551
G1 X147.013 Y125.472 E24.59023
G1 X146.656 Y126.642 E24.63499
G1 X146.216 Y127.804 E24.68045
G1 X145.025 Y130.658 E24.79359
G1 X144.517 Y131.77 E24.83832
G1 X143.938 Y132.847 E24.88305
G1 X143.289 Y133.884 E24.92781
G1 X142.594 Y134.852 E24.97141
G1 X140.714 Y137.298 E25.08428
G1 X139.937 Y138.242 E25.12901
G1 X139.1 Y139.134 E25.17376
G1 X138.207 Y139.97 E25.21852
G1 X137.259 Y140.747 E25.26336
G1 X134.797 Y142.633 E25.37683
G1 X133.802 Y143.344 E25.42157
G1 X132.763 Y143.989 E25.46631
G1 X131.684 Y144.565 E25.51106
G1 X130.511 Y145.094 E25.55814
G1 X127.607 Y146.283 E25.67295
G1 X126.46 Y146.709 E25.71771
G1 X125.289 Y147.059 E25.76243
G1 X124.096 Y147.332 E25.8072
G1 X122.924 Y147.522 E25.85064
G1 X119.883 Y147.916 E25.96283
G1 X118.665 Y148.033 E26.0076
G1 X117.443 Y148.071 E26.05233
G1 X116.221 Y148.029 E26.09706
G1 X114.994 Y147.905 E26.14218
G1 X111.915 Y147.492 E26.25584
G1 X110.709 Y147.29 E26.30058
G1 X109.518 Y147.009 E26.34535
G1 X108.349 Y146.652 E26.39007
G1 X107.234 Y146.23 E26.43368
G1 X104.407 Y145.057 E26.54566
G1 X103.294 Y144.552 E26.59038
G1 X102.215 Y143.975 E26.63515
G1 X101.177 Y143.328 E26.67989
G1 X100.184 Y142.616 E26.7246
G1 X97.697 Y140.706 E26.83933
G1 X96.752 Y139.93 E26.88406
G1 X95.86 Y139.093 E26.92882
G1 X95.024 Y138.201 E26.97354
G1 X94.213 Y137.209 E27.02042
G1 X92.33 Y134.738 E27.13408
G1 X91.621 Y133.742 E27.17881
G1 X90.979 Y132.701 E27.22356
G1 X90.406 Y131.621 E27.26829
G1 X89.915 Y130.53 E27.31206
G1 X88.742 Y127.684 E27.42468
G1 X88.313 Y126.539 E27.46942
G1 X87.96 Y125.368 E27.51416
G1 X87.684 Y124.176 E27.55893
G1 X87.49 Y122.995 E27.60272
G1 X87.088 Y119.936 E27.71559
G1 X86.969 Y118.718 E27.76037
G1 X86.929 Y117.496 E27.8051
G1 X86.969 Y116.274 E27.84983
G1 X87.093 Y115.03 E27.89557
G1 X87.504 Y111.945 E28.00944
G1 X87.705 Y110.738 E28.0542
G1 X87.984 Y109.548 E28.09892
G1 X88.341 Y108.378 E28.14368
G1 X88.763 Y107.26 E28.1874
G1 X89.939 Y104.42 E28.29986
G1 X90.443 Y103.306 E28.34459
G1 X91.02 Y102.227 E28.38936
G1 X91.665 Y101.188 E28.4341
G1 X92.371 Y100.202 E28.47847
G1 X94.264 Y97.731 E28.59235
G1 X95.039 Y96.785 E28.63709
G1 X95.379 Y96.422 E28.65529
G0 F810 X95.875 Y95.891
M204 S5000
M205 X30 Y30
G0 F7200 X96.206 Y96.182
M204 S500
M205 X20 Y20
G1 F6000 E28.68189
G1 F900 X97.089 Y95.357 E28.7261
G1 X97.998 Y94.613 E28.76908
G1 X100.464 Y92.722 E28.88277
G1 X101.446 Y92.019 E28.92696
G1 X102.473 Y91.382 E28.97117
G1 X103.54 Y90.815 E29.01538
G1 X104.63 Y90.324 E29.05912
G1 X107.487 Y89.149 E29.17214
G1 X108.619 Y88.727 E29.21634
G1 X109.777 Y88.38 E29.26057
G1 X110.955 Y88.111 E29.30477
G1 X112.04 Y87.934 E29.34499
G1 X115.113 Y87.528 E29.4584
G1 X116.316 Y87.41 E29.50262
G1 X117.524 Y87.371 E29.54684
