;FLAVOR:Marlin
;TIME:34
;Filament used: 0.0125276m
;Layer height: 0.2
;Generated with Cura_SteamEngine 3.6.0
M140 S70
M105
M190 S70
M104 S215
M105
M109 S215
M82 ;absolute extrusion mode
G28 ; home all axes
M117 Purge extruder
G92 E0 ; reset extruder
G1 Z1.0 F3000 ; move z up little to prevent scratching of surface
G1 X0.1 Y20 Z0.3 F5000.0 ; move to start-line position G1 X0.1 Y200.0 Z0.3 F1500.0 E15 ; draw 1st line
G1 X0.4 Y200.0 Z0.3 F5000.0 ; move to side a little
G1 X0.4 Y20 Z0.3 F1500.0 E30 ; draw 2nd line
G92 E0 ; reset extruder
G1 Z1.0 F3000 ; move z up little to prevent scratching of surface
M117 All systems go!
G92 E0
G1 F6000 E-5
;LAYER_COUNT:5
;LAYER:0
M107
M204 S5000
M205 X30 Y30
G0 F7200 X112.997 Y112.922 Z0.2
M204 S500
M205 X20 Y20
;TYPE:SKIRT
G1 F6000 E0
G1 F900 X113.461 Y112.486 E0.02329
G1 X113.975 Y112.113 E0.04653
G1 X114.3 Y111.923 E0.0603
G1 X114.648 Y111.737 E0.07474
G1 X115.226 Y111.474 E0.09797
G1 X116.003 Y111.246 E0.1276
G1 X116.383 Y111.167 E0.1418
G1 X117.013 Y111.077 E0.16508
G1 X117.648 Y111.066 E0.18832
G1 X118.131 Y111.112 E0.20607
G1 X118.696 Y111.193 E0.22695
G1 X119.319 Y111.323 E0.25024
G1 X119.92 Y111.53 E0.27349
G1 X120.497 Y111.814 E0.29702
G1 X120.882 Y112.035 E0.31326
G1 X121.413 Y112.385 E0.33653
G1 X122.11 Y113.023 E0.3711
G1 X122.404 Y113.347 E0.38711
G1 X122.801 Y113.844 E0.41038
G1 X123.133 Y114.386 E0.43363
G1 X123.288 Y114.709 E0.44674
G1 X123.464 Y115.109 E0.46273
G1 X123.684 Y115.706 E0.48601
G1 X123.826 Y116.326 E0.50928
G1 X123.878 Y116.757 E0.52516
G1 X123.915 Y117.236 E0.54274
G1 X123.924 Y117.872 E0.56601
G1 X123.791 Y118.806 E0.60052
G1 X123.697 Y119.198 E0.61527
G1 X123.51 Y119.806 E0.63855
G1 X123.117 Y120.618 E0.67155
G1 X122.905 Y120.972 E0.68665
G1 X122.545 Y121.496 E0.70991
G1 X122.121 Y121.97 E0.73317
G1 X121.598 Y122.422 E0.75846
G1 X121.076 Y122.813 E0.78233
G1 X120.544 Y123.161 E0.80558
G1 X119.972 Y123.44 E0.82887
G1 X119.37 Y123.646 E0.85215
G1 X118.949 Y123.741 E0.86794
G1 X118.345 Y123.851 E0.8904
G1 X117.713 Y123.926 E0.91368
G1 X117.077 Y123.92 E0.93695
G1 X116.17 Y123.771 E0.97058
G1 X115.61 Y123.626 E0.99174
G1 X115.005 Y123.429 E1.01502
G1 X114.43 Y123.157 E1.0383
G1 X113.894 Y122.815 E1.06156
G1 X113.595 Y122.579 E1.07549
G1 X113.107 Y122.163 E1.09895
G1 X112.65 Y121.721 E1.12222
G1 X112.252 Y121.225 E1.14548
G1 X111.92 Y120.683 E1.16874
G1 X111.744 Y120.317 E1.18359
G1 X111.498 Y119.747 E1.20631
G1 X111.283 Y119.148 E1.22959
G1 X111.145 Y118.528 E1.25283
G1 X111.086 Y117.895 E1.27609
G1 X111.093 Y117.432 E1.29303
G1 X111.133 Y116.78 E1.31693
G1 X111.212 Y116.149 E1.3402
G1 X111.37 Y115.533 E1.36346
G1 X111.603 Y114.941 E1.38674
G1 X111.763 Y114.6 E1.40052
G1 X112.069 Y114.042 E1.4238
G1 X112.442 Y113.527 E1.44707
G1 X112.505 Y113.456 E1.45054
G0 F810 X112.656 Y113.285
G0 X112.997 Y112.922
M204 S5000
M205 X30 Y30
G0 F7200 X113.318 Y113.223
M204 S500
M205 X20 Y20
G1 F6000 E1.47714
G1 F900 X113.762 Y112.808 E1.49937
G1 X114.507 Y112.311 E1.53214
G1 X114.855 Y112.125 E1.54658
G1 X115.409 Y111.875 E1.56881
G1 X116.093 Y111.677 E1.59486
G1 X116.473 Y111.598 E1.60906
G1 X117.074 Y111.513 E1.63127
G1 X117.682 Y111.509 E1.65352
G1 X118.069 Y111.548 E1.66775
G1 X118.634 Y111.629 E1.68863
G1 X119.228 Y111.754 E1.71084
G1 X119.801 Y111.957 E1.73308
G1 X120.278 Y112.195 E1.75258
G1 X120.663 Y112.416 E1.76882
G1 X121.169 Y112.753 E1.79107
G1 X121.784 Y113.318 E1.82162
G1 X122.078 Y113.642 E1.83763
G1 X122.456 Y114.118 E1.85987
G1 X122.886 Y114.886 E1.89207
G1 X123.062 Y115.286 E1.90806
G1 X123.269 Y115.857 E1.93028
G1 X123.4 Y116.451 E1.95253
G1 X123.439 Y116.791 E1.96505
G1 X123.476 Y117.27 E1.98263
G1 X123.483 Y117.878 E2.00488
G1 X123.363 Y118.703 E2.03538
G1 X123.269 Y119.095 E2.05012
G1 X123.088 Y119.676 E2.07239
G1 X122.74 Y120.392 E2.10151
G1 X122.528 Y120.746 E2.11661
G1 X122.182 Y121.245 E2.13883
G1 X121.773 Y121.695 E2.16107
G1 X121.334 Y122.07 E2.1822
G1 X120.812 Y122.461 E2.20606
G1 X120.303 Y122.792 E2.22827
G1 X119.754 Y123.054 E2.25053
G1 X119.176 Y123.242 E2.27277
G1 X118.87 Y123.308 E2.28422
G1 X118.266 Y123.418 E2.30668
G1 X117.662 Y123.488 E2.32893
G1 X117.055 Y123.477 E2.35114
G1 X116.28 Y123.346 E2.37989
G1 X115.72 Y123.201 E2.40106
G1 X115.143 Y123.01 E2.4233
G1 X114.596 Y122.745 E2.44553
G1 X113.881 Y122.244 E2.47747
G1 X113.393 Y121.828 E2.50094
G1 X112.957 Y121.404 E2.52319
G1 X112.581 Y120.927 E2.54541
G1 X112.148 Y120.143 E2.57818
G1 X111.902 Y119.573 E2.60089
G1 X111.699 Y119 E2.62313
G1 X111.572 Y118.406 E2.64535
G1 X111.524 Y117.8 E2.66759
G1 X111.533 Y117.459 E2.68007
G1 X111.573 Y116.807 E2.70397
G1 X111.65 Y116.204 E2.72621
G1 X111.805 Y115.617 E2.74843
G1 X112.002 Y115.128 E2.76771
G1 X112.162 Y114.787 E2.78149
G1 X112.455 Y114.255 E2.80371
G1 X112.837 Y113.766 E2.82642
G0 F810 X112.977 Y113.586
G0 X113.318 Y113.223
M204 S5000
M205 X30 Y30
G0 F7200 X113.638 Y113.524
M204 S500
M205 X20 Y20
G1 F6000 E2.85301
G1 F900 X114.062 Y113.131 E2.87417
G1 X114.715 Y112.7 E2.90279
G1 X115.063 Y112.514 E2.91723
G1 X115.59 Y112.277 E2.93837
G1 X116.182 Y112.108 E2.96089
G1 X116.562 Y112.029 E2.97509
G1 X117.135 Y111.95 E2.99626
G1 X117.713 Y111.952 E3.0174
G1 X118.006 Y111.983 E3.02818
G1 X118.571 Y112.064 E3.04906
G1 X119.136 Y112.186 E3.07021
G1 X119.679 Y112.384 E3.09136
G1 X120.059 Y112.577 E3.10695
G1 X120.444 Y112.798 E3.12319
G1 X120.924 Y113.119 E3.14432
G1 X121.459 Y113.614 E3.17099
G1 X121.753 Y113.938 E3.18699
G1 X122.11 Y114.392 E3.20812
G1 X122.483 Y115.064 E3.23624
G1 X122.659 Y115.464 E3.25223
G1 X122.855 Y116.007 E3.27335
G1 X123.001 Y116.825 E3.30375
G1 X123.038 Y117.304 E3.32133
G1 X123.042 Y117.882 E3.34248
G1 X122.935 Y118.601 E3.36907
G1 X122.841 Y118.993 E3.38382
G1 X122.667 Y119.544 E3.40496
G1 X122.362 Y120.166 E3.4303
G1 X122.15 Y120.52 E3.4454
G1 X121.82 Y120.994 E3.46653
G1 X121.427 Y121.418 E3.48768
G1 X121.07 Y121.718 E3.50474
G1 X120.548 Y122.109 E3.52861
G1 X120.063 Y122.422 E3.54972
G1 X119.539 Y122.666 E3.57087
G1 X118.791 Y122.875 E3.59929
G1 X118.187 Y122.985 E3.62175
G1 X117.613 Y123.049 E3.64288
G1 X117.035 Y123.034 E3.66403
G1 X116.39 Y122.92 E3.688
G1 X115.83 Y122.775 E3.70916
G1 X115.282 Y122.591 E3.73031
G1 X114.764 Y122.334 E3.75146
G1 X114.166 Y121.909 E3.77831
G1 X113.678 Y121.493 E3.80177
G1 X113.265 Y121.089 E3.8229
G1 X112.912 Y120.631 E3.84406
G1 X112.552 Y119.968 E3.87166
G1 X112.306 Y119.398 E3.89438
G1 X112.114 Y118.853 E3.91552
G1 X112 Y118.287 E3.93664
G1 X111.972 Y117.486 E3.96596
G1 X112.012 Y116.834 E3.98986
G1 X112.087 Y116.261 E4.011
G1 X112.241 Y115.704 E4.03215
G1 X112.4 Y115.314 E4.04756
G1 X112.56 Y114.973 E4.06134
G1 X112.841 Y114.468 E4.08248
G1 X113.156 Y114.067 E4.10114
G0 F810 X113.297 Y113.887
G0 X113.638 Y113.524
M204 S5000
M205 X30 Y30
G0 F7200 X113.959 Y113.825
M204 S500
M205 X20 Y20
G1 F6000 E4.12774
G1 F900 X114.361 Y113.455 E4.14772
G1 X114.922 Y113.088 E4.17225
G1 X115.27 Y112.902 E4.18669
G1 X115.77 Y112.68 E4.2067
G1 X116.272 Y112.538 E4.22579
G1 X116.652 Y112.459 E4.23999
G1 X117.194 Y112.387 E4.25999
G1 X117.944 Y112.419 E4.28746
G1 X118.509 Y112.5 E4.30834
G1 X119.043 Y112.617 E4.32834
G1 X119.554 Y112.81 E4.34833
G1 X119.84 Y112.958 E4.36011
G1 X120.225 Y113.179 E4.37635
G1 X120.678 Y113.485 E4.39635
G1 X121.133 Y113.91 E4.41913
G1 X121.427 Y114.234 E4.43513
G1 X121.763 Y114.664 E4.4551
G1 X122.08 Y115.241 E4.47919
G1 X122.256 Y115.641 E4.49517
G1 X122.439 Y116.156 E4.51517
G1 X122.562 Y116.859 E4.54128
G1 X122.599 Y117.338 E4.55886
G1 X122.601 Y117.885 E4.57887
G1 X122.507 Y118.498 E4.60156
G1 X122.413 Y118.89 E4.61631
G1 X122.247 Y119.411 E4.63631
G1 X121.985 Y119.94 E4.65791
G1 X121.773 Y120.294 E4.67301
G1 X121.458 Y120.741 E4.69302
G1 X121.082 Y121.137 E4.71299
G1 X120.806 Y121.365 E4.72609
G1 X120.284 Y121.756 E4.74995
G1 X119.824 Y122.051 E4.76995
G1 X119.326 Y122.276 E4.78994
G1 X118.712 Y122.442 E4.81321
G1 X118.108 Y122.552 E4.83567
G1 X117.565 Y122.611 E4.85565
G1 X117.018 Y122.589 E4.87568
G1 X116.501 Y122.494 E4.89492
G1 X115.941 Y122.349 E4.91608
G1 X115.423 Y122.173 E4.9361
G1 X114.936 Y121.924 E4.95611
G1 X114.452 Y121.574 E4.97796
G1 X113.964 Y121.158 E5.00142
G1 X113.575 Y120.774 E5.02142
G1 X113.246 Y120.337 E5.04143
G1 X112.956 Y119.794 E5.06395
G1 X112.71 Y119.224 E5.08667
G1 X112.531 Y118.708 E5.10665
G1 X112.429 Y118.171 E5.12665
G1 X112.411 Y117.513 E5.15073
G1 X112.451 Y116.861 E5.17463
G1 X112.524 Y116.319 E5.19464
G1 X112.676 Y115.794 E5.21463
G1 X112.798 Y115.501 E5.22624
G1 X112.958 Y115.16 E5.24003
G1 X113.226 Y114.684 E5.26001
G1 X113.476 Y114.367 E5.27478
G0 F810 X113.618 Y114.188
G0 X113.959 Y113.825
M204 S5000
M205 X30 Y30
G0 F7200 X114.28 Y114.127
M204 S500
M205 X20 Y20
G1 F6000 E5.30138
G1 F900 X114.659 Y113.781 E5.32016
G1 X115.129 Y113.476 E5.34065
G1 X115.477 Y113.29 E5.35509
G1 X115.948 Y113.084 E5.3739
G1 X116.361 Y112.969 E5.38958
G1 X116.741 Y112.89 E5.40378
G1 X117.251 Y112.825 E5.42259
G1 X117.881 Y112.854 E5.44567
G1 X118.446 Y112.935 E5.46655
G1 X118.947 Y113.048 E5.48534
G1 X119.621 Y113.34 E5.51221
G1 X120.006 Y113.561 E5.52846
G1 X120.43 Y113.85 E5.54723
G1 X120.807 Y114.205 E5.56617
G1 X121.101 Y114.529 E5.58218
G1 X121.415 Y114.935 E5.60096
G1 X121.678 Y115.418 E5.62108
G1 X121.854 Y115.818 E5.63707
G1 X122.023 Y116.303 E5.65586
G1 X122.123 Y116.893 E5.67775
G1 X122.16 Y117.372 E5.69533
G1 X122.16 Y117.885 E5.7141
G1 X122.079 Y118.396 E5.73303
G1 X121.985 Y118.788 E5.74778
G1 X121.827 Y119.276 E5.76654
G1 X121.607 Y119.713 E5.78444
G1 X121.395 Y120.067 E5.79954
G1 X121.098 Y120.486 E5.81833
G1 X120.542 Y121.013 E5.84636
G1 X120.02 Y121.404 E5.87022
G1 X119.587 Y121.679 E5.88898
G1 X119.116 Y121.883 E5.90776
G1 X118.633 Y122.01 E5.92604
G1 X118.029 Y122.12 E5.9485
G1 X117.519 Y122.172 E5.96725
G1 X117.006 Y122.145 E5.98605
G1 X116.611 Y122.068 E6.00077
G1 X116.051 Y121.923 E6.02193
G1 X115.565 Y121.756 E6.04074
G1 X115.112 Y121.515 E6.05951
G1 X114.737 Y121.239 E6.07654
G1 X114.249 Y120.823 E6.1
G1 X113.886 Y120.461 E6.11876
G1 X113.583 Y120.046 E6.13756
G1 X113.36 Y119.62 E6.15515
G1 X113.114 Y119.05 E6.17787
G1 X112.948 Y118.564 E6.19666
G1 X112.859 Y118.058 E6.21545
G1 X112.85 Y117.54 E6.23441
G1 X112.89 Y116.888 E6.25831
G1 X112.961 Y116.379 E6.27711
G1 X113.197 Y115.688 E6.30382
G1 X113.357 Y115.347 E6.3176
G1 X113.61 Y114.901 E6.33636
G1 X113.796 Y114.668 E6.34727
G0 F810 X113.939 Y114.49
G0 X114.28 Y114.127
M204 S5000
M205 X30 Y30
G0 F7200 X114.6 Y114.428
M204 S500
M205 X20 Y20
G1 F6000 E6.37387
G1 F900 X114.956 Y114.108 E6.39138
G1 X115.337 Y113.864 E6.40794
G1 X115.685 Y113.678 E6.42237
G1 X116.124 Y113.488 E6.43987
G1 X116.451 Y113.4 E6.45226
G1 X116.831 Y113.321 E6.46646
G1 X117.305 Y113.263 E6.48393
G1 X117.819 Y113.29 E6.50276
G1 X118.384 Y113.371 E6.52365
G1 X118.85 Y113.478 E6.54114
G1 X119.402 Y113.722 E6.56322
G1 X119.787 Y113.943 E6.57946
G1 X120.18 Y114.214 E6.59693
G1 X120.481 Y114.501 E6.61214
G1 X120.775 Y114.825 E6.62815
G1 X121.065 Y115.205 E6.64564
G1 X121.275 Y115.595 E6.66184
G1 X121.451 Y115.995 E6.67783
G1 X121.606 Y116.447 E6.69532
G1 X121.685 Y116.927 E6.71311
G1 X121.722 Y117.406 E6.73069
G1 X121.718 Y117.884 E6.74818
G1 X121.651 Y118.293 E6.76334
G1 X121.557 Y118.685 E6.77809
G1 X121.407 Y119.139 E6.79558
G1 X121.23 Y119.487 E6.80987
G1 X121.018 Y119.841 E6.82496
G1 X120.739 Y120.229 E6.84245
G1 X120.279 Y120.661 E6.86554
G1 X119.757 Y121.052 E6.8894
G1 X119.351 Y121.306 E6.90692
G1 X118.91 Y121.488 E6.92437
G1 X118.554 Y121.577 E6.9378
G1 X117.95 Y121.687 E6.96026
G1 X117.475 Y121.733 E6.97772
G1 X116.998 Y121.699 E6.99522
G1 X116.721 Y121.642 E7.00556
G1 X116.161 Y121.497 E7.02673
G1 X115.71 Y121.339 E7.04421
G1 X115.292 Y121.108 E7.06168
G1 X115.023 Y120.905 E7.07401
G1 X114.535 Y120.489 E7.09747
G1 X114.198 Y120.149 E7.11499
G1 X113.923 Y119.759 E7.13245
G1 X113.764 Y119.445 E7.14532
G1 X113.518 Y118.875 E7.16804
G1 X113.366 Y118.422 E7.18552
G1 X113.292 Y117.95 E7.203
G1 X113.289 Y117.567 E7.21701
G1 X113.329 Y116.915 E7.24091
G1 X113.398 Y116.442 E7.2584
G1 X113.595 Y115.875 E7.28036
G1 X113.755 Y115.534 E7.29414
G1 X113.993 Y115.12 E7.31161
G1 X114.115 Y114.969 E7.31871
G0 F810 X114.259 Y114.791
G0 X114.6 Y114.428
M204 S5000
M205 X30 Y30
G0 F7200 X114.921 Y114.729
M204 S500
M205 X20 Y20
G1 F6000 E7.34531
G1 F900 X115.25 Y114.437 E7.36141
G1 X115.544 Y114.252 E7.37411
G1 X115.892 Y114.066 E7.38855
G1 X116.297 Y113.895 E7.40464
G1 X116.54 Y113.831 E7.41383
G1 X116.92 Y113.752 E7.42803
G1 X117.357 Y113.702 E7.44412
G1 X117.756 Y113.725 E7.45874
G1 X118.321 Y113.806 E7.47963
G1 X118.749 Y113.908 E7.49572
G1 X119.183 Y114.103 E7.51313
G1 X119.568 Y114.324 E7.52937
G1 X119.928 Y114.577 E7.54547
G1 X120.155 Y114.797 E7.55704
G1 X120.449 Y115.121 E7.57304
G1 X120.714 Y115.472 E7.58913
G1 X120.872 Y115.772 E7.60154
G1 X121.048 Y116.172 E7.61753
G1 X121.188 Y116.589 E7.63362
G1 X121.246 Y116.961 E7.64739
G1 X121.283 Y117.44 E7.66497
G1 X121.277 Y117.879 E7.68103
G1 X121.223 Y118.19 E7.69258
G1 X121.129 Y118.582 E7.70733
G1 X120.988 Y118.999 E7.72344
G1 X120.852 Y119.261 E7.73424
G1 X120.64 Y119.615 E7.74933
G1 X120.381 Y119.97 E7.76541
G1 X120.015 Y120.309 E7.78366
G1 X119.493 Y120.7 E7.80752
G1 X119.119 Y120.93 E7.82359
G1 X118.709 Y121.089 E7.83968
G1 X118.476 Y121.144 E7.84843
G1 X117.872 Y121.254 E7.8709
G1 X117.434 Y121.293 E7.88698
G1 X116.831 Y121.216 E7.90923
G1 X116.271 Y121.071 E7.93039
G1 X115.858 Y120.922 E7.94645
G1 X115.308 Y120.57 E7.97034
G1 X114.82 Y120.154 E7.9938
G1 X114.513 Y119.839 E8.0099
G1 X114.268 Y119.475 E8.02595
G1 X114.168 Y119.271 E8.03426
G1 X113.922 Y118.701 E8.05697
G1 X113.785 Y118.283 E8.07307
G1 X113.726 Y117.848 E8.08913
G1 X113.729 Y117.594 E8.09842
G1 X113.769 Y116.942 E8.12232
G1 X113.835 Y116.507 E8.13842
G1 X113.993 Y116.062 E8.1557
G1 X114.153 Y115.721 E8.16948
G1 X114.375 Y115.342 E8.18555
G1 X114.435 Y115.269 E8.189
G0 F810 X114.58 Y115.092
G0 X114.921 Y114.729
M204 S5000
M205 X30 Y30
G0 F7200 X115.242 Y115.03
M204 S500
M205 X20 Y20
G1 F6000 E8.2156
G1 F900 X115.542 Y114.769 E8.23015
G1 X115.752 Y114.64 E8.23917
G1 X116.1 Y114.454 E8.2536
G1 X116.63 Y114.261 E8.27424
G1 X117.01 Y114.182 E8.28844
G1 X117.405 Y114.141 E8.30297
G1 X117.694 Y114.161 E8.31357
G1 X118.259 Y114.242 E8.33445
G1 X118.645 Y114.338 E8.349
G1 X118.964 Y114.485 E8.36185
G1 X119.349 Y114.706 E8.37809
G1 X119.672 Y114.937 E8.39262
G1 X119.829 Y115.092 E8.40069
G1 X120.123 Y115.416 E8.4167
G1 X120.36 Y115.736 E8.43127
G1 X120.469 Y115.95 E8.44006
G1 X120.645 Y116.35 E8.45604
G1 X120.768 Y116.728 E8.47059
G1 X120.807 Y116.995 E8.48046
G1 X120.844 Y117.474 E8.49804
G1 X120.835 Y117.871 E8.51257
G1 X120.795 Y118.088 E8.52064
G1 X120.701 Y118.48 E8.53539
G1 X120.57 Y118.855 E8.54992
G1 X120.475 Y119.035 E8.55737
G1 X120.263 Y119.389 E8.57246
G1 X120.025 Y119.708 E8.58702
G1 X119.751 Y119.957 E8.60057
G1 X119.229 Y120.348 E8.62443
G1 X118.889 Y120.553 E8.63896
G1 X118.397 Y120.711 E8.65786
G1 X117.793 Y120.821 E8.68032
G1 X117.397 Y120.853 E8.69486
G1 X116.942 Y120.79 E8.71166
G1 X116.382 Y120.645 E8.73283
G1 X116.009 Y120.507 E8.74738
G1 X115.594 Y120.235 E8.76553
G1 X115.106 Y119.819 E8.78899
G1 X114.83 Y119.532 E8.80356
G1 X114.572 Y119.097 E8.82207
G1 X114.326 Y118.527 E8.84478
G1 X114.206 Y118.148 E8.85932
G1 X114.168 Y117.621 E8.87865
G1 X114.208 Y116.969 E8.90255
G1 X114.272 Y116.576 E8.91712
G1 X114.392 Y116.249 E8.92986
G1 X114.552 Y115.908 E8.94365
G1 X114.755 Y115.569 E8.9581
G0 F810 X114.756 Y115.567
G0 X114.901 Y115.393
G0 X115.242 Y115.03
M204 S5000
M205 X30 Y30
G0 F7200 X115.563 Y115.332
M204 S500
M205 X20 Y20
G1 F6000 E8.9847
G1 F900 X115.959 Y115.028 E9.00297
G1 X116.307 Y114.842 E9.0174
G1 X116.72 Y114.692 E9.03348
G1 X117.1 Y114.613 E9.04768
G1 X117.449 Y114.581 E9.0605
G1 X117.632 Y114.597 E9.06722
G1 X118.197 Y114.678 E9.0881
G1 X118.536 Y114.766 E9.10092
G1 X118.745 Y114.866 E9.10939
G1 X119.13 Y115.087 E9.12563
G1 X119.503 Y115.388 E9.14317
G1 X119.797 Y115.712 E9.15918
G1 X120.067 Y116.127 E9.17729
G1 X120.243 Y116.527 E9.19328
G1 X120.368 Y117.028 E9.21217
G1 X120.405 Y117.507 E9.22975
G1 X120.368 Y117.985 E9.24729
