;FLAVOR:Marlin
;TIME:1714
;Filament used: 1.92752m
;Layer height: 0.2
;Generated with Cura_SteamEngine 3.6.0
M140 S70
M105
M190 S70
M104 S215
M105
M109 S215
M82 ;absolute extrusion mode
G28 ; home all axes
M117 Purge extruder
G92 E0 ; reset extruder
G1 Z1.0 F3000 ; move z up little to prevent scratching of surface
G1 X0.1 Y20 Z0.3 F5000.0 ; move to start-line position G1 X0.1 Y200.0 Z0.3 F1500.0 E15 ; draw 1st line
G1 X0.4 Y200.0 Z0.3 F5000.0 ; move to side a little
G1 X0.4 Y20 Z0.3 F1500.0 E30 ; draw 2nd line
G92 E0 ; reset extruder
G1 Z1.0 F3000 ; move z up little to prevent scratching of surface
M117 All systems go!
G92 E0
G1 F6000 E-5
;LAYER_COUNT:56
;LAYER:0
M107
M204 S5000
M205 X30 Y30
G0 F7200 X95.4 Y95.258 Z0.2
M204 S500
M205 X20 Y20
;TYPE:SKIRT
G1 F6000 E0
G1 F900 X95.652 Y95.01 E0.01294
G1 X96.99 Y93.784 E0.07933
G1 X97.253 Y93.559 E0.09199
G1 X98.674 Y92.426 E0.15848
G1 X98.957 Y92.216 E0.17138
G1 X100.457 Y91.182 E0.23803
G1 X100.748 Y90.996 E0.25067
G1 X102.303 Y90.074 E0.31681
G1 X102.611 Y89.905 E0.32966
G1 X104.24 Y89.086 E0.39637
G1 X104.56 Y88.939 E0.40925
G1 X106.228 Y88.241 E0.47541
G1 X106.552 Y88.118 E0.48809
G1 X108.27 Y87.534 E0.55447
G1 X108.689 Y87.412 E0.57044
G1 X111.333 Y86.761 E0.67006
G1 X111.76 Y86.675 E0.686
G1 X113.553 Y86.394 E0.7524
G1 X113.906 Y86.351 E0.76541
G1 X115.723 Y86.196 E0.83213
G1 X116.063 Y86.179 E0.84458
G1 X117.869 Y86.147 E0.91067
G1 X118.222 Y86.153 E0.92358
G1 X120.031 Y86.247 E0.98986
G1 X120.378 Y86.277 E1.0026
G1 X122.181 Y86.496 E1.06905
G1 X122.526 Y86.55 E1.08182
G1 X124.31 Y86.893 E1.14829
G1 X124.655 Y86.972 E1.16124
G1 X126.416 Y87.44 E1.2279
G1 X126.745 Y87.54 E1.24048
G1 X128.456 Y88.122 E1.30661
G1 X128.786 Y88.247 E1.31952
G1 X130.465 Y88.952 E1.38614
G1 X130.78 Y89.097 E1.39883
G1 X132.404 Y89.914 E1.46534
G1 X132.711 Y90.082 E1.47814
G1 X134.266 Y91.004 E1.54428
G1 X134.561 Y91.193 E1.5571
G1 X136.061 Y92.229 E1.6238
G1 X136.342 Y92.438 E1.63661
G1 X137.755 Y93.566 E1.70276
G1 X138.02 Y93.793 E1.71552
G1 X139.363 Y95.026 E1.78223
G1 X139.611 Y95.27 E1.79495
G1 X140.86 Y96.586 E1.86133
G1 X141.092 Y96.847 E1.87411
G1 X142.243 Y98.241 E1.94025
G1 X142.457 Y98.52 E1.95311
G1 X143.513 Y99.997 E2.01954
G1 X143.704 Y100.285 E2.03219
G1 X144.657 Y101.831 E2.09863
G1 X144.869 Y102.21 E2.11452
G1 X146.093 Y104.641 E2.2141
G1 X146.306 Y105.125 E2.23344
G1 X147.27 Y107.671 E2.33305
G1 X147.406 Y108.081 E2.34885
G1 X147.904 Y109.835 E2.41556
G1 X148.005 Y110.263 E2.43165
G1 X148.517 Y112.929 E2.53097
G1 X148.581 Y113.364 E2.54705
G1 X148.767 Y115.169 E2.61344
G1 X148.791 Y115.512 E2.62602
G1 X148.854 Y117.326 E2.69243
G1 X148.854 Y117.677 E2.70527
G1 X148.791 Y119.498 E2.77193
G1 X148.767 Y119.846 E2.7847
G1 X148.58 Y121.646 E2.85091
G1 X148.516 Y122.08 E2.86696
G1 X148.001 Y124.753 E2.96655
G1 X147.876 Y125.259 E2.98562
G1 X147.089 Y127.865 E3.08522
G1 X146.944 Y128.279 E3.10126
G1 X146.271 Y129.964 E3.16765
G1 X146.13 Y130.284 E3.18044
G1 X145.342 Y131.919 E3.24684
G1 X145.182 Y132.225 E3.25948
G1 X144.284 Y133.803 E3.3259
G1 X144.098 Y134.104 E3.33885
G1 X143.091 Y135.617 E3.40534
G1 X142.89 Y135.898 E3.41798
G1 X141.784 Y137.336 E3.48436
G1 X141.501 Y137.672 E3.50043
G1 X139.661 Y139.677 E3.59999
G1 X139.35 Y139.988 E3.61608
G1 X138.01 Y141.215 E3.68256
G1 X137.752 Y141.436 E3.69498
G1 X136.334 Y142.569 E3.76139
G1 X136.047 Y142.782 E3.77447
G1 X134.547 Y143.816 E3.84112
G1 X134.254 Y144.004 E3.85386
G1 X132.699 Y144.925 E3.91998
G1 X132.395 Y145.091 E3.93265
G1 X130.766 Y145.911 E3.99938
G1 X130.364 Y146.092 E4.01551
G1 X127.834 Y147.1 E4.11514
G1 X127.341 Y147.267 E4.13419
G1 X124.723 Y148.009 E4.23374
G1 X124.209 Y148.126 E4.25303
G1 X121.533 Y148.591 E4.3524
G1 X121.1 Y148.647 E4.36838
G1 X119.284 Y148.803 E4.43506
G1 X118.94 Y148.821 E4.44766
G1 X117.129 Y148.853 E4.51393
G1 X116.778 Y148.847 E4.52677
G1 X114.965 Y148.753 E4.59319
G1 X114.614 Y148.723 E4.60608
G1 X112.812 Y148.503 E4.6725
G1 X112.38 Y148.431 E4.68852
G1 X109.708 Y147.867 E4.78844
G1 X109.291 Y147.76 E4.80419
G1 X107.561 Y147.238 E4.8703
G1 X107.226 Y147.124 E4.88325
G1 X105.523 Y146.477 E4.9499
G1 X105.203 Y146.343 E4.96259
G1 X103.56 Y145.586 E5.02877
G1 X103.245 Y145.427 E5.04168
G1 X101.645 Y144.55 E5.10844
G1 X101.348 Y144.374 E5.12107
G1 X99.821 Y143.396 E5.18741
G1 X99.531 Y143.195 E5.20032
G1 X98.08 Y142.116 E5.26648
G1 X97.808 Y141.899 E5.27921
G1 X96.429 Y140.718 E5.34563
G1 X96.111 Y140.421 E5.36155
G1 X94.198 Y138.474 E5.46142
G1 X93.905 Y138.15 E5.4774
G1 X92.754 Y136.756 E5.54354
G1 X92.539 Y136.476 E5.55645
G1 X91.479 Y134.993 E5.62315
G1 X91.288 Y134.706 E5.63576
G1 X90.339 Y133.166 E5.70194
G1 X90.165 Y132.859 E5.71485
G1 X89.32 Y131.246 E5.78147
G1 X89.17 Y130.934 E5.79414
G1 X88.439 Y129.271 E5.8606
G1 X88.308 Y128.942 E5.87355
G1 X87.698 Y127.24 E5.9397
G1 X87.571 Y126.832 E5.95534
G1 X86.87 Y124.193 E6.05524
G1 X86.76 Y123.673 E6.07468
G1 X86.341 Y120.984 E6.17425
G1 X86.293 Y120.548 E6.1903
G1 X86.17 Y118.738 E6.25667
G1 X86.158 Y118.395 E6.26923
G1 X86.158 Y116.586 E6.33541
G1 X86.17 Y116.238 E6.34815
G1 X86.295 Y114.427 E6.41457
G1 X86.344 Y113.989 E6.43069
G1 X86.768 Y111.292 E6.53058
G1 X86.855 Y110.863 E6.54659
G1 X87.289 Y109.109 E6.6127
G1 X87.384 Y108.774 E6.62544
G1 X87.94 Y107.046 E6.69185
G1 X88.057 Y106.721 E6.70449
G1 X88.73 Y105.034 E6.77094
G1 X88.911 Y104.633 E6.78703
G1 X90.138 Y102.196 E6.88686
G1 X90.35 Y101.817 E6.90275
G1 X91.3 Y100.276 E6.96898
G1 X91.495 Y99.982 E6.98189
G1 X92.557 Y98.501 E7.04856
G1 X92.769 Y98.226 E7.06126
G1 X93.92 Y96.834 E7.12735
G1 X94.15 Y96.575 E7.14002
G1 X94.9 Y95.785 E7.17987
G0 F810 X95.4 Y95.258
M204 S5000
M205 X30 Y30
G0 F7200 X95.719 Y95.561
M204 S500
M205 X20 Y20
G1 F6000 E7.20647
G1 F900 X95.949 Y95.335 E7.21827
G1 X97.287 Y94.109 E7.28466
G1 X97.528 Y93.903 E7.29626
G1 X98.949 Y92.77 E7.36276
G1 X99.207 Y92.578 E7.37452
G1 X100.707 Y91.544 E7.44118
G1 X100.973 Y91.374 E7.45273
G1 X102.528 Y90.452 E7.51887
G1 X102.809 Y90.298 E7.53059
G1 X104.438 Y89.479 E7.5973
G1 X104.73 Y89.345 E7.60905
G1 X106.398 Y88.647 E7.6752
G1 X106.694 Y88.535 E7.68678
G1 X108.412 Y87.951 E7.75317
G1 X108.794 Y87.839 E7.76774
G1 X111.438 Y87.188 E7.86736
G1 X111.828 Y87.11 E7.88191
G1 X113.621 Y86.829 E7.94831
G1 X113.943 Y86.79 E7.96018
G1 X115.76 Y86.635 E8.02689
G1 X116.071 Y86.619 E8.03829
G1 X117.877 Y86.587 E8.10437
G1 X118.199 Y86.592 E8.11615
G1 X120.008 Y86.686 E8.18243
G1 X120.325 Y86.714 E8.19407
G1 X122.128 Y86.933 E8.26052
G1 X122.443 Y86.982 E8.27218
G1 X124.227 Y87.325 E8.33865
G1 X124.542 Y87.397 E8.35047
G1 X126.303 Y87.865 E8.41714
G1 X126.604 Y87.956 E8.42864
G1 X128.315 Y88.538 E8.49476
G1 X128.616 Y88.652 E8.50654
G1 X130.295 Y89.357 E8.57316
G1 X130.582 Y89.49 E8.58473
G1 X132.206 Y90.307 E8.65124
G1 X132.486 Y90.46 E8.66292
G1 X134.041 Y91.382 E8.72906
G1 X134.311 Y91.555 E8.74079
G1 X135.811 Y92.591 E8.80749
G1 X136.067 Y92.781 E8.81915
G1 X137.48 Y93.909 E8.8853
G1 X137.722 Y94.117 E8.89697
G1 X139.065 Y95.35 E8.96368
G1 X139.292 Y95.573 E8.97532
G1 X140.541 Y96.889 E9.0417
G1 X140.753 Y97.127 E9.05336
G1 X141.904 Y98.521 E9.1195
G1 X142.099 Y98.776 E9.13124
G1 X143.155 Y100.253 E9.19767
G1 X143.33 Y100.516 E9.20923
G1 X144.283 Y102.062 E9.27568
G1 X144.476 Y102.408 E9.29017
G1 X145.7 Y104.839 E9.38975
G1 X145.895 Y105.281 E9.40742
G1 X146.859 Y107.827 E9.50703
G1 X146.982 Y108.201 E9.52143
G1 X147.48 Y109.955 E9.58814
G1 X147.573 Y110.346 E9.60284
G1 X148.085 Y113.012 E9.70216
G1 X148.144 Y113.409 E9.71685
G1 X148.33 Y115.214 E9.78324
G1 X148.351 Y115.528 E9.79475
G1 X148.414 Y117.342 E9.86116
G1 X148.414 Y117.662 E9.87286
G1 X148.351 Y119.483 E9.93953
G1 X148.329 Y119.8 E9.95115
G1 X148.142 Y121.6 E10.01736
G1 X148.084 Y121.997 E10.03204
G1 X147.569 Y124.67 E10.13163
G1 X147.455 Y125.132 E10.14904
G1 X146.668 Y127.738 E10.24864
G1 X146.535 Y128.116 E10.2633
G1 X145.862 Y129.801 E10.32968
G1 X145.734 Y130.093 E10.34135
G1 X144.946 Y131.728 E10.40775
G1 X144.799 Y132.007 E10.41929
G1 X143.901 Y133.585 E10.48572
G1 X143.732 Y133.86 E10.49753
G1 X142.725 Y135.373 E10.56402
G1 X142.541 Y135.63 E10.57558
G1 X141.435 Y137.068 E10.64196
G1 X141.177 Y137.375 E10.65663
G1 X139.337 Y139.38 E10.75619
G1 X139.053 Y139.663 E10.77086
G1 X137.713 Y140.89 E10.83733
G1 X137.477 Y141.092 E10.8487
G1 X136.059 Y142.225 E10.9151
G1 X135.797 Y142.42 E10.92705
G1 X134.297 Y143.454 E10.99371
G1 X134.029 Y143.625 E11.00534
G1 X132.474 Y144.546 E11.07146
G1 X132.197 Y144.698 E11.08302
G1 X130.568 Y145.518 E11.14974
G1 X130.201 Y145.683 E11.16447
G1 X127.671 Y146.691 E11.2641
G1 X127.221 Y146.844 E11.28149
G1 X124.603 Y147.586 E11.38105
G1 X124.134 Y147.693 E11.39865
G1 X121.458 Y148.158 E11.49802
G1 X121.062 Y148.209 E11.51263
G1 X119.246 Y148.365 E11.57931
G1 X118.933 Y148.381 E11.59078
G1 X117.122 Y148.413 E11.65705
G1 X116.801 Y148.408 E11.66879
G1 X114.988 Y148.314 E11.73521
G1 X114.667 Y148.286 E11.747
G1 X112.865 Y148.066 E11.81342
G1 X112.471 Y148 E11.82804
G1 X109.799 Y147.436 E11.92795
G1 X109.418 Y147.339 E11.94233
G1 X107.688 Y146.817 E12.00844
G1 X107.382 Y146.713 E12.02027
G1 X105.679 Y146.066 E12.08692
G1 X105.387 Y145.943 E12.09851
G1 X103.744 Y145.186 E12.1647
G1 X103.456 Y145.041 E12.17649
G1 X101.856 Y144.164 E12.24325
G1 X101.585 Y144.003 E12.25478
G1 X100.058 Y143.025 E12.32112
G1 X99.793 Y142.842 E12.33291
G1 X98.342 Y141.763 E12.39906
G1 X98.094 Y141.565 E12.41067
G1 X96.715 Y140.384 E12.4771
G1 X96.425 Y140.113 E12.49162
G1 X94.512 Y138.166 E12.59148
G1 X94.244 Y137.87 E12.60609
G1 X93.093 Y136.476 E12.67223
G1 X92.897 Y136.221 E12.684
G1 X91.837 Y134.738 E12.75069
G1 X91.663 Y134.475 E12.76223
G1 X90.714 Y132.935 E12.82841
G1 X90.555 Y132.655 E12.84019
G1 X89.71 Y131.042 E12.90681
G1 X89.573 Y130.757 E12.91838
G1 X88.842 Y129.094 E12.98484
G1 X88.722 Y128.794 E12.99666
G1 X88.112 Y127.092 E13.06281
G1 X87.996 Y126.719 E13.0771
G1 X87.295 Y124.08 E13.177
G1 X87.195 Y123.605 E13.19476
G1 X86.776 Y120.916 E13.29433
G1 X86.732 Y120.518 E13.30898
G1 X86.609 Y118.708 E13.37535
G1 X86.598 Y118.395 E13.38681
G1 X86.598 Y116.586 E13.45299
G1 X86.609 Y116.268 E13.46464
G1 X86.734 Y114.457 E13.53105
G1 X86.779 Y114.057 E13.54578
G1 X87.203 Y111.36 E13.64566
G1 X87.282 Y110.968 E13.66029
G1 X87.716 Y109.214 E13.7264
G1 X87.803 Y108.909 E13.738
G1 X88.359 Y107.181 E13.80442
G1 X88.466 Y106.884 E13.81597
G1 X89.139 Y105.197 E13.88242
G1 X89.304 Y104.831 E13.89711
G1 X90.531 Y102.394 E13.99693
G1 X90.724 Y102.048 E14.01142
G1 X91.674 Y100.507 E14.07766
G1 X91.853 Y100.239 E14.08945
G1 X92.915 Y98.758 E14.15612
G1 X93.109 Y98.506 E14.16776
G1 X94.26 Y97.114 E14.23384
G1 X94.469 Y96.878 E14.24537
G1 X95.219 Y96.088 E14.28523
G0 F810 X95.719 Y95.561
M204 S5000
M205 X30 Y30
G0 F7200 X96.038 Y95.863
M204 S500
M205 X20 Y20
G1 F6000 E14.31183
G1 F900 X96.246 Y95.659 E14.32249
G1 X97.584 Y94.433 E14.38888
G1 X97.802 Y94.247 E14.39936
G1 X99.223 Y93.114 E14.46586
G1 X99.457 Y92.94 E14.47652
G1 X100.957 Y91.906 E14.54318
G1 X101.197 Y91.753 E14.55359
G1 X102.752 Y90.831 E14.61973
G1 X103.006 Y90.691 E14.63034
G1 X104.635 Y89.872 E14.69705
G1 X104.899 Y89.751 E14.70768
G1 X106.567 Y89.053 E14.77383
G1 X106.836 Y88.951 E14.78435
G1 X108.554 Y88.367 E14.85074
G1 X108.9 Y88.266 E14.86393
G1 X111.544 Y87.615 E14.96355
G1 X111.896 Y87.544 E14.97669
G1 X113.689 Y87.263 E15.04309
G1 X113.981 Y87.228 E15.05385
G1 X115.798 Y87.073 E15.12057
G1 X116.079 Y87.059 E15.13086
G1 X117.885 Y87.027 E15.19695
G1 X118.176 Y87.032 E15.20759
G1 X119.985 Y87.126 E15.27387
G1 X120.272 Y87.15 E15.2844
G1 X122.075 Y87.369 E15.35085
G1 X122.36 Y87.414 E15.36141
G1 X124.144 Y87.757 E15.42788
G1 X124.429 Y87.822 E15.43857
G1 X126.19 Y88.29 E15.50524
G1 X126.462 Y88.373 E15.51564
G1 X128.173 Y88.955 E15.58176
G1 X128.445 Y89.058 E15.5924
G1 X130.124 Y89.763 E15.65903
G1 X130.385 Y89.883 E15.66954
G1 X132.009 Y90.7 E15.73605
G1 X132.262 Y90.839 E15.74661
G1 X133.817 Y91.761 E15.81275
G1 X134.06 Y91.917 E15.82331
G1 X135.56 Y92.953 E15.89001
G1 X135.793 Y93.125 E15.9006
G1 X137.206 Y94.253 E15.96675
G1 X137.425 Y94.441 E15.97731
G1 X138.768 Y95.674 E16.04402
G1 X138.973 Y95.875 E16.05452
G1 X140.222 Y97.191 E16.1209
G1 X140.413 Y97.408 E16.13148
G1 X141.564 Y98.802 E16.19762
G1 X141.741 Y99.032 E16.20823
G1 X142.797 Y100.509 E16.27466
G1 X142.955 Y100.747 E16.28511
G1 X143.908 Y102.293 E16.35156
G1 X144.083 Y102.606 E16.36468
G1 X145.307 Y105.037 E16.46426
G1 X145.483 Y105.437 E16.48025
G1 X146.447 Y107.983 E16.57985
G1 X146.559 Y108.321 E16.59287
G1 X147.057 Y110.075 E16.65958
G1 X147.141 Y110.429 E16.67289
G1 X147.653 Y113.095 E16.77222
G1 X147.706 Y113.455 E16.78553
G1 X147.892 Y115.26 E16.85192
G1 X147.911 Y115.543 E16.86229
G1 X147.974 Y117.357 E16.9287
G1 X147.975 Y117.647 E16.93931
G1 X147.912 Y119.468 E17.00597
G1 X147.892 Y119.755 E17.0165
G1 X147.705 Y121.555 E17.08271
G1 X147.652 Y121.914 E17.09599
G1 X147.137 Y124.587 E17.19558
G1 X147.034 Y125.004 E17.21129
G1 X146.247 Y127.61 E17.31089
G1 X146.127 Y127.952 E17.32415
G1 X145.454 Y129.637 E17.39053
G1 X145.337 Y129.902 E17.40113
G1 X144.549 Y131.537 E17.46754
G1 X144.417 Y131.789 E17.47794
G1 X143.519 Y133.367 E17.54437
G1 X143.366 Y133.616 E17.55506
G1 X142.359 Y135.129 E17.62156
G1 X142.192 Y135.361 E17.63201
G1 X141.086 Y136.799 E17.69839
G1 X140.853 Y137.077 E17.71166
G1 X139.013 Y139.082 E17.81122
G1 X138.756 Y139.339 E17.82452
G1 X137.416 Y140.566 E17.89099
G1 X137.202 Y140.749 E17.90129
G1 X135.784 Y141.882 E17.9677
G1 X135.547 Y142.058 E17.9785
G1 X134.047 Y143.092 E18.04515
G1 X133.805 Y143.247 E18.05567
G1 X132.25 Y144.168 E18.12179
G1 X131.999 Y144.305 E18.13225
G1 X130.37 Y145.125 E18.19898
G1 X130.038 Y145.274 E18.21229
G1 X127.508 Y146.282 E18.31193
G1 X127.101 Y146.421 E18.32766
G1 X124.483 Y147.163 E18.42722
G1 X124.059 Y147.259 E18.44312
G1 X121.383 Y147.724 E18.5425
G1 X121.025 Y147.771 E18.55571
G1 X119.209 Y147.927 E18.62239
G1 X118.925 Y147.941 E18.63279
G1 X117.114 Y147.973 E18.69906
G1 X116.824 Y147.968 E18.70967
G1 X115.011 Y147.874 E18.77609
G1 X114.72 Y147.849 E18.78678
G1 X112.918 Y147.629 E18.8532
G1 X112.562 Y147.57 E18.8664
G1 X109.89 Y147.006 E18.96631
G1 X109.546 Y146.918 E18.9793
G1 X107.816 Y146.396 E19.04541
G1 X107.538 Y146.302 E19.05615
G1 X105.835 Y145.655 E19.1228
G1 X105.571 Y145.543 E19.13329
G1 X103.928 Y144.786 E19.19948
G1 X103.668 Y144.655 E19.21013
G1 X102.068 Y143.778 E19.27689
G1 X101.823 Y143.633 E19.2873
G1 X100.296 Y142.655 E19.35364
G1 X100.056 Y142.489 E19.36432
G1 X98.605 Y141.41 E19.43048
G1 X98.38 Y141.231 E19.441
G1 X97.001 Y140.05 E19.50742
G1 X96.738 Y139.805 E19.52057
G1 X94.825 Y137.858 E19.62043
G1 X94.584 Y137.589 E19.63365
G1 X93.433 Y136.195 E19.69979
G1 X93.255 Y135.965 E19.71043
G1 X92.195 Y134.482 E19.77712
G1 X92.037 Y134.244 E19.78757
G1 X91.088 Y132.704 E19.85375
G1 X90.944 Y132.451 E19.8644
G1 X90.099 Y130.838 E19.93103
G1 X89.975 Y130.58 E19.9415
G1 X89.244 Y128.917 E20.00796
G1 X89.136 Y128.645 E20.01867
G1 X88.526 Y126.943 E20.08481
G1 X88.421 Y126.606 E20.09773
G1 X87.72 Y123.967 E20.19763
G1 X87.63 Y123.538 E20.21367
G1 X87.211 Y120.849 E20.31323
G1 X87.171 Y120.488 E20.32652
G1 X87.048 Y118.678 E20.39289
G1 X87.038 Y118.395 E20.40325
G1 X87.038 Y116.586 E20.46944
G1 X87.048 Y116.298 E20.47998
G1 X87.173 Y114.487 E20.5464
G1 X87.214 Y114.126 E20.55969
G1 X87.638 Y111.429 E20.65957
G1 X87.709 Y111.074 E20.67282
G1 X88.143 Y109.32 E20.73893
G1 X88.222 Y109.044 E20.74943
G1 X88.778 Y107.316 E20.81584
G1 X88.875 Y107.047 E20.82631
G1 X89.548 Y105.36 E20.89276
G1 X89.697 Y105.029 E20.90604
G1 X90.924 Y102.592 E21.00586
G1 X91.099 Y102.278 E21.01901
G1 X92.049 Y100.737 E21.08524
G1 X92.21 Y100.495 E21.09588
G1 X93.272 Y99.014 E21.16255
G1 X93.448 Y98.786 E21.17309
G1 X94.599 Y97.394 E21.23917
G1 X94.788 Y97.18 E21.24962
G1 X95.538 Y96.39 E21.28947
G0 F810 X96.038 Y95.863
M204 S5000
M205 X30 Y30
G0 F7200 X96.357 Y96.166
M204 S500
M205 X20 Y20
G1 F6000 E21.31607
G1 F900 X96.543 Y95.984 E21.32559
G1 X97.881 Y94.758 E21.39199
G1 X98.076 Y94.591 E21.40138
G1 X99.497 Y93.458 E21.46787
G1 X99.706 Y93.303 E21.47739
