;FLAVOR:Marlin
;TIME:930
;Filament used: 0.917764m
;Layer height: 0.2
;Generated with Cura_SteamEngine 3.6.0
M140 S70
M105
M190 S70
M104 S215
M105
M109 S215
M82 ;absolute extrusion mode
G28 ; home all axes
M117 Purge extruder
G92 E0 ; reset extruder
G1 Z1.0 F3000 ; move z up little to prevent scratching of surface
G1 X0.1 Y20 Z0.3 F5000.0 ; move to start-line position G1 X0.1 Y200.0 Z0.3 F1500.0 E15 ; draw 1st line
G1 X0.4 Y200.0 Z0.3 F5000.0 ; move to side a little
G1 X0.4 Y20 Z0.3 F1500.0 E30 ; draw 2nd line
G92 E0 ; reset extruder
G1 Z1.0 F3000 ; move z up little to prevent scratching of surface
M117 All systems go!
G92 E0
G1 F6000 E-5
;LAYER_COUNT:61
;LAYER:0
M107
M204 S5000
M205 X30 Y30
G0 F7200 X104.39 Y105.904 Z0.2
M204 S500
M205 X20 Y20
;TYPE:SKIRT
G1 F6000 E0
G1 F900 X105.96 Y104.343 E0.081
G1 X106.471 Y103.899 E0.10577
G1 X107.406 Y103.19 E0.1487
G1 X107.937 Y102.838 E0.17201
G1 X109.615 Y101.871 E0.24286
G1 X110.363 Y101.518 E0.27312
G1 X112.329 Y100.78 E0.34995
G1 X113.094 Y100.559 E0.37909
G1 X114.935 Y100.183 E0.44783
G1 X115.732 Y100.086 E0.4772
G1 X117.766 Y99.999 E0.55169
G1 X118.595 Y100.031 E0.58204
G1 X120.611 Y100.277 E0.65635
G1 X121.17 Y100.378 E0.67713
G1 X122.031 Y100.583 E0.70951
G1 X122.624 Y100.763 E0.73218
G1 X124.574 Y101.489 E0.80831
G1 X125.337 Y101.848 E0.83916
G1 X127.114 Y102.873 E0.91422
G1 X127.795 Y103.344 E0.94451
G1 X129.365 Y104.632 E1.01881
G1 X129.934 Y105.178 E1.04766
G1 X131.182 Y106.579 E1.1163
G1 X131.67 Y107.224 E1.14589
G1 X132.779 Y108.963 E1.22135
G1 X133.174 Y109.714 E1.2524
G1 X134.014 Y111.701 E1.33132
G1 X134.235 Y112.339 E1.35603
G1 X134.516 Y113.369 E1.39509
G1 X134.632 Y113.911 E1.41537
G1 X134.91 Y115.669 E1.48048
G1 X134.972 Y116.469 E1.50984
G1 X134.968 Y118.588 E1.58737
G1 X134.919 Y119.284 E1.61289
G1 X134.725 Y120.661 E1.66377
G1 X134.605 Y121.252 E1.68583
G1 X134.223 Y122.692 E1.74034
G1 X134.024 Y123.289 E1.76336
G1 X133.406 Y124.82 E1.82377
G1 X133.1 Y125.45 E1.84939
G1 X132.22 Y126.979 E1.91394
G1 X131.833 Y127.555 E1.93932
G1 X130.809 Y128.876 E2.00047
G1 X130.314 Y129.426 E2.02755
G1 X128.889 Y130.794 E2.09982
G1 X128.272 Y131.3 E2.12901
G1 X126.693 Y132.397 E2.19935
G1 X126.008 Y132.797 E2.22838
G1 X124.179 Y133.681 E2.3027
G1 X123.574 Y133.926 E2.32658
G1 X122.477 Y134.291 E2.36888
G1 X122.037 Y134.416 E2.38561
G1 X120.977 Y134.665 E2.42545
G1 X120.405 Y134.765 E2.44669
G1 X118.653 Y134.969 E2.51123
G1 X117.899 Y135 E2.53883
G1 X115.894 Y134.933 E2.61223
G1 X115.055 Y134.835 E2.64314
G1 X113.052 Y134.428 E2.71792
G1 X112.29 Y134.209 E2.74692
G1 X110.49 Y133.537 E2.81722
G1 X109.778 Y133.206 E2.84594
G1 X108.037 Y132.226 E2.91904
G1 X107.349 Y131.761 E2.94942
G1 X105.738 Y130.466 E3.02504
G1 X105.122 Y129.879 E3.05617
G1 X103.769 Y128.353 E3.13079
G1 X103.407 Y127.894 E3.15217
G1 X102.855 Y127.104 E3.18743
G1 X102.533 Y126.578 E3.21
G1 X101.596 Y124.812 E3.28314
G1 X101.264 Y124.035 E3.31405
G1 X100.579 Y121.973 E3.39355
G1 X100.417 Y121.357 E3.41685
G1 X100.244 Y120.48 E3.44956
G1 X100.164 Y119.898 E3.47105
G1 X100 Y117.813 E3.54757
G1 X100.001 Y117.001 E3.57728
G1 X100.156 Y115.119 E3.64636
G1 X100.239 Y114.534 E3.66798
G1 X100.426 Y113.606 E3.70262
G1 X100.577 Y113.032 E3.72433
G1 X101.219 Y111.07 E3.79986
G1 X101.545 Y110.296 E3.83058
G1 X102.495 Y108.482 E3.9055
G1 X102.896 Y107.84 E3.9332
G1 X103.876 Y106.502 E3.99387
G1 X103.916 Y106.455 E3.99613
G0 F810 X104.39 Y105.904
M204 S5000
M205 X30 Y30
G0 F7200 X104.701 Y106.216
M204 S500
M205 X20 Y20
G1 F6000 E4.02273
G1 F900 X106.271 Y104.655 E4.10373
G1 X106.737 Y104.25 E4.12632
G1 X107.672 Y103.541 E4.16925
G1 X108.156 Y103.219 E4.19052
G1 X109.834 Y102.252 E4.26137
G1 X110.517 Y101.93 E4.289
G1 X112.483 Y101.192 E4.36583
G1 X113.183 Y100.99 E4.39249
G1 X115.024 Y100.614 E4.46123
G1 X115.751 Y100.525 E4.48803
G1 X117.785 Y100.438 E4.56251
G1 X118.542 Y100.468 E4.59023
G1 X120.558 Y100.714 E4.66453
G1 X121.068 Y100.806 E4.68349
G1 X121.929 Y101.011 E4.71588
G1 X122.471 Y101.175 E4.73659
G1 X124.421 Y101.901 E4.81272
G1 X125.117 Y102.229 E4.84087
G1 X126.894 Y103.254 E4.91592
G1 X127.516 Y103.684 E4.94359
G1 X129.086 Y104.972 E5.01789
G1 X129.606 Y105.471 E5.04425
G1 X130.854 Y106.872 E5.1129
G1 X131.299 Y107.461 E5.13991
G1 X132.408 Y109.2 E5.21537
G1 X132.768 Y109.885 E5.24368
G1 X133.608 Y111.872 E5.3226
G1 X133.81 Y112.455 E5.34518
G1 X134.091 Y113.485 E5.38424
G1 X134.197 Y113.979 E5.40272
G1 X134.475 Y115.737 E5.46784
G1 X134.532 Y116.468 E5.49467
G1 X134.528 Y118.587 E5.57219
G1 X134.483 Y119.223 E5.59552
G1 X134.289 Y120.6 E5.6464
G1 X134.18 Y121.14 E5.66655
G1 X133.798 Y122.58 E5.72106
G1 X133.616 Y123.124 E5.74204
G1 X132.998 Y124.655 E5.80245
G1 X132.718 Y125.231 E5.82588
G1 X131.838 Y126.76 E5.89042
G1 X131.485 Y127.285 E5.91357
G1 X130.461 Y128.606 E5.97472
G1 X130.009 Y129.109 E5.99946
G1 X128.584 Y130.477 E6.07173
G1 X128.021 Y130.938 E6.09835
G1 X126.442 Y132.035 E6.1687
G1 X125.816 Y132.401 E6.19523
G1 X123.987 Y133.285 E6.26955
G1 X123.436 Y133.509 E6.29131
G1 X122.339 Y133.874 E6.33361
G1 X121.937 Y133.988 E6.3489
G1 X120.877 Y134.237 E6.38873
G1 X120.354 Y134.328 E6.40816
G1 X118.602 Y134.532 E6.47269
G1 X117.914 Y134.56 E6.49788
G1 X115.909 Y134.493 E6.57128
G1 X115.143 Y134.403 E6.59949
G1 X113.14 Y133.996 E6.67427
G1 X112.444 Y133.797 E6.70076
G1 X110.644 Y133.125 E6.77105
G1 X109.994 Y132.823 E6.79728
G1 X108.253 Y131.843 E6.87037
G1 X107.624 Y131.418 E6.89814
G1 X106.013 Y130.123 E6.97377
G1 X105.451 Y129.587 E7.00218
G1 X104.098 Y128.061 E7.07679
G1 X103.768 Y127.642 E7.09631
G1 X103.216 Y126.852 E7.13157
G1 X102.922 Y126.371 E7.15219
G1 X101.985 Y124.605 E7.22533
G1 X101.682 Y123.897 E7.25351
G1 X100.997 Y121.835 E7.333
G1 X100.848 Y121.272 E7.35431
G1 X100.675 Y120.395 E7.38702
G1 X100.602 Y119.863 E7.40666
G1 X100.438 Y117.778 E7.48318
G1 X100.44 Y117.037 E7.51029
G1 X100.595 Y115.155 E7.57938
G1 X100.67 Y114.621 E7.59911
G1 X100.857 Y113.693 E7.63374
G1 X100.995 Y113.169 E7.65357
G1 X101.637 Y111.207 E7.72909
G1 X101.935 Y110.501 E7.75713
G1 X102.885 Y108.687 E7.83205
G1 X103.251 Y108.1 E7.85736
G1 X104.227 Y106.767 E7.9178
G0 F810 X104.231 Y106.762
G0 X104.701 Y106.216
M204 S5000
M205 X30 Y30
G0 F7200 X105.011 Y106.528
M204 S500
M205 X20 Y20
G1 F6000 E7.9444
G1 F900 X106.581 Y104.967 E8.0254
G1 X107.002 Y104.6 E8.04583
G1 X107.937 Y103.891 E8.08876
G1 X108.376 Y103.6 E8.10803
G1 X110.054 Y102.633 E8.17889
G1 X110.672 Y102.342 E8.20388
G1 X112.638 Y101.604 E8.28071
G1 X113.271 Y101.422 E8.30481
G1 X115.112 Y101.046 E8.37355
G1 X115.769 Y100.965 E8.39777
G1 X117.803 Y100.878 E8.47226
G1 X118.488 Y100.905 E8.49734
G1 X120.504 Y101.151 E8.57164
G1 X120.966 Y101.234 E8.58881
G1 X121.827 Y101.439 E8.6212
G1 X122.317 Y101.588 E8.63993
G1 X124.267 Y102.314 E8.71606
G1 X124.898 Y102.61 E8.74156
G1 X126.675 Y103.635 E8.81661
G1 X127.237 Y104.024 E8.84162
G1 X128.807 Y105.312 E8.91592
G1 X129.277 Y105.764 E8.93977
G1 X130.525 Y107.165 E9.00842
G1 X130.928 Y107.697 E9.03284
G1 X132.037 Y109.436 E9.1083
G1 X132.363 Y110.056 E9.13392
G1 X133.203 Y112.043 E9.21285
G1 X133.386 Y112.571 E9.2333
G1 X133.667 Y113.601 E9.27236
G1 X133.763 Y114.048 E9.28908
G1 X134.041 Y115.806 E9.3542
G1 X134.092 Y116.467 E9.37846
G1 X134.088 Y118.586 E9.45598
G1 X134.047 Y119.161 E9.47707
G1 X133.853 Y120.538 E9.52795
G1 X133.754 Y121.027 E9.5462
G1 X133.372 Y122.467 E9.60071
G1 X133.208 Y122.96 E9.61972
G1 X132.59 Y124.491 E9.68012
G1 X132.337 Y125.011 E9.70128
G1 X131.457 Y126.54 E9.76582
G1 X131.138 Y127.016 E9.78679
G1 X130.114 Y128.337 E9.84794
G1 X129.705 Y128.791 E9.87029
G1 X128.28 Y130.159 E9.94257
G1 X127.77 Y130.577 E9.96669
G1 X126.191 Y131.674 E10.03703
G1 X125.625 Y132.004 E10.061
G1 X123.796 Y132.888 E10.13533
G1 X123.297 Y133.091 E10.15504
G1 X122.2 Y133.456 E10.19733
G1 X121.836 Y133.559 E10.21117
G1 X120.776 Y133.808 E10.25101
G1 X120.303 Y133.891 E10.26858
G1 X118.551 Y134.095 E10.33311
G1 X117.928 Y134.121 E10.35593
G1 X115.923 Y134.054 E10.42932
G1 X115.231 Y133.972 E10.45482
G1 X113.228 Y133.565 E10.5296
G1 X112.598 Y133.385 E10.55357
G1 X110.798 Y132.713 E10.62386
G1 X110.21 Y132.44 E10.64758
G1 X108.469 Y131.46 E10.72067
G1 X107.9 Y131.075 E10.74581
G1 X106.289 Y129.78 E10.82143
G1 X105.78 Y129.295 E10.84715
G1 X104.427 Y127.769 E10.92177
G1 X104.129 Y127.39 E10.93941
G1 X103.577 Y126.6 E10.97467
G1 X103.311 Y126.165 E10.99332
G1 X102.374 Y124.399 E11.06647
G1 X102.099 Y123.758 E11.09198
G1 X101.414 Y121.696 E11.17148
G1 X101.28 Y121.187 E11.19074
G1 X101.107 Y120.31 E11.22344
G1 X101.041 Y119.829 E11.2412
G1 X100.877 Y117.744 E11.31772
G1 X100.878 Y117.073 E11.34227
G1 X101.033 Y115.191 E11.41136
G1 X101.101 Y114.708 E11.4292
G1 X101.288 Y113.78 E11.46384
G1 X101.413 Y113.306 E11.48177
G1 X102.055 Y111.344 E11.5573
G1 X102.325 Y110.705 E11.58268
G1 X103.275 Y108.891 E11.6576
G1 X103.606 Y108.36 E11.68049
G1 X104.542 Y107.083 E11.73842
G0 F810 X104.586 Y107.022
G0 X105.011 Y106.528
M204 S5000
M205 X30 Y30
G0 F7200 X105.321 Y106.84
M204 S500
M205 X20 Y20
G1 F6000 E11.76501
G1 F900 X106.891 Y105.279 E11.84602
G1 X107.268 Y104.951 E11.8643
G1 X108.203 Y104.242 E11.90723
G1 X108.596 Y103.982 E11.92447
G1 X110.274 Y103.015 E11.99532
G1 X110.827 Y102.754 E12.0177
G1 X112.793 Y102.016 E12.09453
G1 X113.359 Y101.853 E12.11608
G1 X115.2 Y101.477 E12.18482
G1 X115.788 Y101.404 E12.2065
G1 X117.822 Y101.317 E12.28098
G1 X118.435 Y101.342 E12.30343
G1 X120.451 Y101.588 E12.37773
G1 X120.864 Y101.662 E12.39308
G1 X121.725 Y101.867 E12.42547
G1 X122.164 Y102 E12.44225
G1 X124.114 Y102.726 E12.51838
G1 X124.678 Y102.991 E12.54117
G1 X126.455 Y104.016 E12.61623
G1 X126.958 Y104.365 E12.63863
G1 X128.528 Y105.653 E12.71292
G1 X128.949 Y106.056 E12.73425
G1 X130.197 Y107.457 E12.80289
G1 X130.557 Y107.934 E12.82475
G1 X131.666 Y109.673 E12.90021
G1 X131.958 Y110.228 E12.92316
G1 X132.798 Y112.215 E13.00208
G1 X132.961 Y112.687 E13.02035
G1 X133.242 Y113.717 E13.05941
G1 X133.328 Y114.117 E13.07438
G1 X133.606 Y115.875 E13.1395
G1 X133.652 Y116.466 E13.16119
G1 X133.648 Y118.585 E13.23871
G1 X133.611 Y119.1 E13.25761
G1 X133.417 Y120.477 E13.30848
G1 X133.329 Y120.914 E13.32479
G1 X132.947 Y122.354 E13.3793
G1 X132.8 Y122.795 E13.3963
G1 X132.182 Y124.326 E13.45671
G1 X131.955 Y124.792 E13.47567
G1 X131.075 Y126.321 E13.54022
G1 X130.79 Y126.746 E13.55894
G1 X129.766 Y128.067 E13.62009
G1 X129.4 Y128.474 E13.64011
G1 X127.975 Y129.842 E13.71239
G1 X127.519 Y130.215 E13.73394
G1 X125.94 Y131.312 E13.80428
G1 X125.434 Y131.608 E13.82573
G1 X123.605 Y132.492 E13.90005
G1 X123.158 Y132.674 E13.91771
G1 X122.061 Y133.039 E13.96001
G1 X121.735 Y133.131 E13.9724
G1 X120.675 Y133.38 E14.01224
G1 X120.253 Y133.454 E14.02791
G1 X118.501 Y133.658 E14.09244
G1 X117.943 Y133.681 E14.11288
G1 X115.938 Y133.614 E14.18627
G1 X115.318 Y133.541 E14.20911
G1 X113.315 Y133.134 E14.28389
G1 X112.752 Y132.973 E14.30532
G1 X110.952 Y132.301 E14.37561
G1 X110.425 Y132.056 E14.39687
G1 X108.684 Y131.076 E14.46997
G1 X108.176 Y130.732 E14.49241
G1 X106.565 Y129.437 E14.56804
G1 X106.11 Y129.003 E14.59104
G1 X104.757 Y127.477 E14.66566
G1 X104.489 Y127.138 E14.68147
G1 X103.937 Y126.348 E14.71673
G1 X103.699 Y125.959 E14.73341
G1 X102.762 Y124.193 E14.80655
G1 X102.517 Y123.619 E14.82939
G1 X101.832 Y121.557 E14.90888
G1 X101.712 Y121.102 E14.9261
G1 X101.539 Y120.225 E14.9588
G1 X101.48 Y119.794 E14.97472
G1 X101.316 Y117.709 E15.05124
G1 X101.317 Y117.109 E15.07319
G1 X101.472 Y115.227 E15.14228
G1 X101.533 Y114.795 E15.15824
G1 X101.72 Y113.867 E15.19287
G1 X101.831 Y113.443 E15.20891
G1 X102.473 Y111.481 E15.28443
G1 X102.715 Y110.909 E15.30716
G1 X103.665 Y109.095 E15.38208
G1 X103.961 Y108.62 E15.40255
G1 X104.856 Y107.399 E15.45794
G0 F810 X104.941 Y107.282
G0 X105.321 Y106.84
M204 S5000
M205 X30 Y30
G0 F7200 X105.631 Y107.152
M204 S500
M205 X20 Y20
G1 F6000 E15.48454
G1 F900 X107.201 Y105.591 E15.56554
G1 X107.534 Y105.301 E15.58169
G1 X108.469 Y104.592 E15.62462
G1 X108.815 Y104.363 E15.6398
G1 X110.493 Y103.396 E15.71066
G1 X110.981 Y103.166 E15.7304
G1 X112.947 Y102.428 E15.80723
G1 X113.447 Y102.284 E15.82626
G1 X115.288 Y101.908 E15.89501
G1 X115.807 Y101.844 E15.91414
G1 X117.841 Y101.757 E15.98863
G1 X118.382 Y101.778 E16.00843
G1 X120.398 Y102.024 E16.08274
G1 X120.762 Y102.09 E16.09627
G1 X121.623 Y102.295 E16.12865
G1 X122.01 Y102.412 E16.14345
G1 X123.96 Y103.138 E16.21957
G1 X124.458 Y103.372 E16.2397
G1 X126.235 Y104.397 E16.31476
G1 X126.679 Y104.705 E16.33453
G1 X128.249 Y105.993 E16.40882
G1 X128.62 Y106.349 E16.42764
G1 X129.868 Y107.75 E16.49628
G1 X130.186 Y108.171 E16.51558
G1 X131.295 Y109.91 E16.59104
G1 X131.553 Y110.399 E16.61127
G1 X132.393 Y112.386 E16.6902
G1 X132.537 Y112.802 E16.7063
G1 X132.818 Y113.832 E16.74536
G1 X132.893 Y114.186 E16.7586
G1 X133.171 Y115.944 E16.82372
G1 X133.212 Y116.465 E16.84284
G1 X133.208 Y118.584 E16.92037
G1 X133.176 Y119.038 E16.93702
G1 X132.982 Y120.415 E16.9879
G1 X132.904 Y120.801 E17.0023
G1 X132.522 Y122.241 E17.05681
G1 X132.392 Y122.63 E17.07181
G1 X131.774 Y124.161 E17.13222
G1 X131.574 Y124.572 E17.14894
G1 X130.694 Y126.101 E17.21349
G1 X130.442 Y126.477 E17.23005
G1 X129.418 Y127.798 E17.2912
G1 X129.095 Y128.157 E17.30886
G1 X127.67 Y129.525 E17.38114
G1 X127.268 Y129.854 E17.40014
G1 X125.689 Y130.951 E17.47048
G1 X125.242 Y131.212 E17.48942
G1 X123.413 Y132.096 E17.56374
G1 X123.019 Y132.256 E17.5793
G1 X121.922 Y132.621 E17.6216
G1 X121.635 Y132.703 E17.63252
G1 X120.575 Y132.952 E17.67236
G1 X120.202 Y133.017 E17.68621
G1 X118.45 Y133.221 E17.75074
G1 X117.958 Y133.241 E17.76876
G1 X115.953 Y133.174 E17.84215
G1 X115.406 Y133.11 E17.8623
G1 X113.403 Y132.703 E17.93708
G1 X112.906 Y132.561 E17.95599
G1 X111.106 Y131.889 E18.02629
G1 X110.641 Y131.673 E18.04505
G1 X108.9 Y130.693 E18.11814
G1 X108.451 Y130.389 E18.13798
G1 X106.84 Y129.094 E18.2136
G1 X106.439 Y128.711 E18.23389
G1 X105.086 Y127.185 E18.3085
G1 X104.85 Y126.886 E18.32244
G1 X104.298 Y126.096 E18.3577
G1 X104.088 Y125.753 E18.37241
G1 X103.151 Y123.987 E18.44556
G1 X102.934 Y123.48 E18.46573
G1 X102.249 Y121.418 E18.54523
G1 X102.143 Y121.017 E18.5604
G1 X101.97 Y120.14 E18.59311
G1 X101.918 Y119.76 E18.60714
G1 X101.754 Y117.675 E18.68366
G1 X101.755 Y117.145 E18.70305
G1 X101.91 Y115.263 E18.77214
G1 X101.964 Y114.882 E18.78621
G1 X102.151 Y113.954 E18.82085
G1 X102.25 Y113.58 E18.835
G1 X102.892 Y111.618 E18.91053
G1 X103.105 Y111.113 E18.93058
G1 X104.055 Y109.299 E19.0055
G1 X104.316 Y108.88 E19.02356
G1 X105.171 Y107.713 E19.07649
G0 F810 X105.296 Y107.542
G0 X105.631 Y107.152
M204 S5000
M205 X30 Y30
G0 F7200 X105.941 Y107.464
M204 S500
M205 X20 Y20
G1 F6000 E19.10309
G1 F900 X107.511 Y105.903 E19.18409
G1 X107.8 Y105.652 E19.19809
G1 X108.735 Y104.943 E19.24102
G1 X109.035 Y104.744 E19.25419
G1 X110.713 Y103.777 E19.32505
G1 X111.136 Y103.577 E19.34217
G1 X113.102 Y102.839 E19.419
G1 X113.535 Y102.715 E19.43548
G1 X115.376 Y102.339 E19.50422
G1 X115.826 Y102.284 E19.52081
G1 X117.86 Y102.197 E19.59529
G1 X118.328 Y102.215 E19.61243
G1 X120.344 Y102.461 E19.68673
G1 X120.66 Y102.518 E19.69848
G1 X121.521 Y102.723 E19.73086
G1 X121.857 Y102.825 E19.74371
G1 X123.807 Y103.551 E19.81984
G1 X124.238 Y103.754 E19.83727
G1 X126.015 Y104.779 E19.91232
G1 X126.4 Y105.045 E19.92944
G1 X127.97 Y106.333 E20.00374
G1 X128.292 Y106.642 E20.02006
G1 X129.54 Y108.043 E20.08871
G1 X129.815 Y108.407 E20.1054
G1 X130.924 Y110.146 E20.18086
G1 X131.147 Y110.57 E20.19839
G1 X131.987 Y112.557 E20.27731
G1 X132.112 Y112.918 E20.29129
G1 X132.393 Y113.948 E20.33035
G1 X132.459 Y114.254 E20.3418
G1 X132.737 Y116.012 E20.40692
G1 X132.772 Y116.464 E20.42351
G1 X132.768 Y118.583 E20.50103
G1 X132.74 Y118.977 E20.51548
G1 X132.546 Y120.354 E20.56636
G1 X132.478 Y120.688 E20.57883
G1 X132.096 Y122.128 E20.63334
G1 X131.984 Y122.466 E20.64637
G1 X131.366 Y123.997 E20.70677
G1 X131.193 Y124.353 E20.72125
G1 X130.313 Y125.882 E20.78579
G1 X130.094 Y126.207 E20.80013
G1 X129.07 Y127.528 E20.86128
G1 X128.791 Y127.839 E20.87657
G1 X127.366 Y129.207 E20.94884
