;FLAVOR:Marlin
;TIME:139
;Filament used: 0.0505149m
;Layer height: 0.2
;Generated with Cura_SteamEngine 3.6.0
M140 S70
M105
M190 S70
M104 S215
M105
M109 S215
M82 ;absolute extrusion mode
G28 ; home all axes
M117 Purge extruder
G92 E0 ; reset extruder
G1 Z1.0 F3000 ; move z up little to prevent scratching of surface
G1 X0.1 Y20 Z0.3 F5000.0 ; move to start-line position G1 X0.1 Y200.0 Z0.3 F1500.0 E15 ; draw 1st line
G1 X0.4 Y200.0 Z0.3 F5000.0 ; move to side a little
G1 X0.4 Y20 Z0.3 F1500.0 E30 ; draw 2nd line
G92 E0 ; reset extruder
G1 Z1.0 F3000 ; move z up little to prevent scratching of surface
M117 All systems go!
G92 E0
G1 F6000 E-5
;LAYER_COUNT:39
;LAYER:0
M107
M204 S5000
M205 X30 Y30
G0 F7200 X113.505 Y110.025 Z0.2
M204 S500
M205 X20 Y20
;TYPE:SKIRT
G1 F6000 E0
G1 F900 X113.989 Y109.612 E0.02328
G1 X114.352 Y109.364 E0.03936
G1 X114.705 Y109.145 E0.05456
G1 X115.266 Y108.845 E0.07784
G1 X115.859 Y108.617 E0.10108
G1 X116.59 Y108.446 E0.12855
G1 X116.941 Y108.391 E0.14155
G1 X117.574 Y108.332 E0.1648
G1 X118.209 Y108.353 E0.18805
G1 X118.837 Y108.454 E0.21132
G1 X119.164 Y108.539 E0.22368
G1 X119.511 Y108.642 E0.23692
G1 X120.108 Y108.861 E0.26019
G1 X120.673 Y109.153 E0.28346
G1 X121.223 Y109.534 E0.30794
G1 X121.537 Y109.784 E0.32262
G1 X122.008 Y110.211 E0.34588
G1 X122.485 Y110.777 E0.37296
G1 X122.77 Y111.171 E0.39075
G1 X123.109 Y111.709 E0.41402
G1 X123.259 Y112.005 E0.42616
G1 X123.502 Y112.528 E0.44726
G1 X123.806 Y113.37 E0.48001
G1 X124.067 Y114.36 E0.51747
G1 X124.208 Y115.136 E0.54632
G1 X124.324 Y116.271 E0.58806
G1 X124.343 Y117.048 E0.6165
G1 X124.259 Y118.662 E0.67563
G1 X124.18 Y119.326 E0.7001
G1 X124.039 Y120.083 E0.72827
G1 X123.846 Y120.813 E0.75589
G1 X123.386 Y122.14 E0.80728
G1 X123.14 Y122.727 E0.83056
G1 X122.824 Y123.277 E0.85377
G1 X122.367 Y123.967 E0.88405
G1 X121.983 Y124.474 E0.90732
G1 X121.539 Y124.929 E0.93058
G1 X121.139 Y125.255 E0.94946
G1 X120.619 Y125.636 E0.97304
G1 X120.083 Y125.979 E0.99632
G1 X119.509 Y126.252 E1.01958
G1 X118.905 Y126.45 E1.04283
G1 X118.405 Y126.554 E1.06152
G1 X118.051 Y126.609 E1.07462
G1 X117.418 Y126.667 E1.09788
G1 X116.782 Y126.645 E1.12116
G1 X116.154 Y126.544 E1.14443
G1 X115.838 Y126.461 E1.15639
G1 X115.5 Y126.361 E1.16928
G1 X114.903 Y126.143 E1.19254
G1 X114.338 Y125.851 E1.2158
G1 X113.798 Y125.478 E1.23982
G1 X113.478 Y125.225 E1.25474
G1 X113.005 Y124.8 E1.27801
G1 X112.589 Y124.319 E1.30127
G1 X112.233 Y123.784 E1.32478
G1 X111.703 Y122.865 E1.3636
G1 X111.42 Y122.295 E1.38688
G1 X111.191 Y121.618 E1.41303
G1 X110.932 Y120.628 E1.45047
G1 X110.793 Y119.862 E1.47895
G1 X110.677 Y118.729 E1.52062
G1 X110.658 Y117.951 E1.54909
G1 X110.742 Y116.337 E1.60822
G1 X110.821 Y115.672 E1.63272
G1 X110.962 Y114.916 E1.66086
G1 X111.069 Y114.461 E1.67796
G1 X111.269 Y113.757 E1.70473
G1 X111.533 Y113.039 E1.73272
G1 X111.93 Y112.169 E1.76771
G1 X112.229 Y111.609 E1.79094
G1 X112.589 Y111.1 E1.81374
G1 X113.019 Y110.565 E1.83886
G0 F810 X113.076 Y110.494
G0 X113.505 Y110.025
M204 S5000
M205 X30 Y30
G0 F7200 X113.83 Y110.322
M204 S500
M205 X20 Y20
G1 F6000 E1.86546
G1 F900 X114.296 Y109.933 E1.88766
G1 X114.584 Y109.738 E1.90039
G1 X114.937 Y109.519 E1.91559
G1 X115.474 Y109.233 E1.93785
G1 X116.043 Y109.021 E1.96006
G1 X116.658 Y108.881 E1.98314
G1 X117.009 Y108.826 E1.99614
G1 X117.614 Y108.771 E2.01836
G1 X118.221 Y108.797 E2.04059
G1 X119.039 Y108.961 E2.07111
G1 X119.386 Y109.064 E2.08436
G1 X119.956 Y109.275 E2.10659
G1 X120.493 Y109.559 E2.12882
G1 X120.949 Y109.879 E2.1492
G1 X121.263 Y110.129 E2.16388
G1 X121.712 Y110.538 E2.18611
G1 X122.128 Y111.035 E2.20982
G1 X122.413 Y111.429 E2.22761
G1 X122.86 Y112.19 E2.2599
G1 X123.103 Y112.713 E2.281
G1 X123.38 Y113.482 E2.3109
G1 X123.641 Y114.472 E2.34836
G1 X123.77 Y115.18 E2.37469
G1 X123.886 Y116.315 E2.41643
G1 X123.904 Y117.025 E2.44242
G1 X123.82 Y118.639 E2.50155
G1 X123.748 Y119.245 E2.52387
G1 X123.607 Y120.002 E2.55204
G1 X123.43 Y120.669 E2.57729
G1 X122.97 Y121.996 E2.62868
G1 X122.734 Y122.556 E2.65091
G1 X122.457 Y123.034 E2.67112
G1 X122 Y123.724 E2.7014
G1 X121.632 Y124.208 E2.72365
G1 X121.203 Y124.638 E2.74587
G1 X120.879 Y124.9 E2.76111
G1 X120.359 Y125.281 E2.7847
G1 X119.846 Y125.607 E2.80694
G1 X119.295 Y125.863 E2.82916
G1 X118.715 Y126.044 E2.85139
G1 X118.337 Y126.119 E2.86549
G1 X117.983 Y126.174 E2.8786
G1 X117.378 Y126.228 E2.90082
G1 X116.771 Y126.202 E2.92305
G1 X115.963 Y126.039 E2.95321
G1 X115.625 Y125.939 E2.9661
G1 X115.055 Y125.729 E2.98833
G1 X114.518 Y125.446 E3.01054
G1 X114.071 Y125.133 E3.0305
G1 X113.751 Y124.88 E3.04543
G1 X113.3 Y124.473 E3.06765
G1 X112.906 Y124.01 E3.08989
G1 X112.614 Y123.564 E3.1094
G1 X112.084 Y122.645 E3.14821
G1 X111.816 Y122.1 E3.17043
G1 X111.616 Y121.506 E3.19336
G1 X111.357 Y120.516 E3.2308
G1 X111.231 Y119.818 E3.25675
G1 X111.115 Y118.685 E3.29842
G1 X111.097 Y117.974 E3.32444
G1 X111.181 Y116.36 E3.38357
G1 X111.253 Y115.753 E3.40593
G1 X111.394 Y114.997 E3.43407
G1 X111.492 Y114.581 E3.44971
G1 X111.692 Y113.877 E3.47648
G1 X111.933 Y113.222 E3.50202
G1 X112.33 Y112.352 E3.537
G1 X112.618 Y111.817 E3.55923
G1 X112.932 Y111.376 E3.57904
G1 X113.344 Y110.863 E3.60311
G0 F810 X113.419 Y110.77
G0 X113.83 Y110.322
M204 S5000
M205 X30 Y30
G0 F7200 X114.154 Y110.621
M204 S500
M205 X20 Y20
G1 F6000 E3.62971
G1 F900 X114.816 Y110.112 E3.66026
G1 X115.169 Y109.893 E3.67546
G1 X115.68 Y109.623 E3.69661
G1 X116.224 Y109.426 E3.71777
G1 X116.726 Y109.315 E3.73658
G1 X117.077 Y109.26 E3.74958
G1 X117.653 Y109.211 E3.77073
G1 X118.23 Y109.241 E3.79187
G1 X118.913 Y109.383 E3.81739
G1 X119.26 Y109.486 E3.83064
G1 X119.802 Y109.688 E3.8518
G1 X120.31 Y109.963 E3.87293
G1 X120.675 Y110.223 E3.88933
G1 X120.989 Y110.473 E3.90401
G1 X121.415 Y110.863 E3.92514
G1 X121.772 Y111.293 E3.94559
G1 X122.057 Y111.687 E3.96338
G1 X122.461 Y112.376 E3.9926
G1 X122.704 Y112.899 E4.0137
G1 X122.955 Y113.594 E4.04074
G1 X123.216 Y114.584 E4.07819
G1 X123.332 Y115.225 E4.10203
G1 X123.448 Y116.36 E4.14377
G1 X123.464 Y117.002 E4.16726
G1 X123.38 Y118.616 E4.22639
G1 X123.315 Y119.164 E4.24658
G1 X123.174 Y119.921 E4.27476
G1 X123.014 Y120.525 E4.29762
G1 X122.554 Y121.852 E4.349
G1 X122.328 Y122.384 E4.37015
G1 X122.09 Y122.791 E4.3874
G1 X121.633 Y123.481 E4.41768
G1 X121.281 Y123.94 E4.43884
G1 X120.87 Y124.345 E4.45995
G1 X120.618 Y124.545 E4.47172
G1 X120.098 Y124.926 E4.49531
G1 X119.61 Y125.234 E4.51642
G1 X119.083 Y125.473 E4.53759
G1 X118.27 Y125.684 E4.56832
G1 X117.916 Y125.739 E4.58143
G1 X117.34 Y125.788 E4.60258
G1 X116.763 Y125.758 E4.62371
G1 X116.088 Y125.617 E4.64894
G1 X115.75 Y125.517 E4.66184
G1 X115.209 Y125.315 E4.68297
G1 X114.7 Y125.041 E4.70412
G1 X114.344 Y124.788 E4.72009
G1 X114.024 Y124.535 E4.73502
G1 X113.596 Y124.146 E4.75618
G1 X113.226 Y123.702 E4.77732
G1 X112.995 Y123.344 E4.79291
G1 X112.465 Y122.425 E4.83173
G1 X112.212 Y121.906 E4.85285
G1 X112.042 Y121.395 E4.87255
G1 X111.783 Y120.405 E4.90999
G1 X111.669 Y119.773 E4.93349
G1 X111.553 Y118.64 E4.97516
G1 X111.537 Y117.997 E4.99869
G1 X111.621 Y116.383 E5.05782
G1 X111.686 Y115.834 E5.07805
G1 X111.827 Y115.078 E5.10618
G1 X111.915 Y114.702 E5.12031
G1 X112.115 Y113.998 E5.14709
G1 X112.333 Y113.405 E5.1702
G1 X112.73 Y112.535 E5.20519
G1 X113.006 Y112.027 E5.22634
G1 X113.275 Y111.652 E5.24322
G1 X113.669 Y111.162 E5.26623
G0 F810 X113.762 Y111.046
G0 X114.154 Y110.621
M204 S5000
M205 X30 Y30
G0 F7200 X114.477 Y110.921
M204 S500
M205 X20 Y20
G1 F6000 E5.29283
G1 F900 X115.048 Y110.486 E5.31909
G1 X115.401 Y110.267 E5.33429
G1 X115.886 Y110.013 E5.35432
G1 X116.402 Y109.833 E5.37431
G1 X116.794 Y109.75 E5.38897
G1 X117.145 Y109.695 E5.40197
G1 X117.69 Y109.65 E5.42198
G1 X118.235 Y109.685 E5.44196
G1 X118.788 Y109.805 E5.46266
G1 X119.135 Y109.908 E5.4759
G1 X119.647 Y110.101 E5.49592
G1 X120.124 Y110.367 E5.5159
G1 X120.401 Y110.567 E5.5284
G1 X120.715 Y110.817 E5.54309
G1 X121.116 Y111.188 E5.56308
G1 X121.415 Y111.551 E5.58028
G1 X121.7 Y111.945 E5.59807
G1 X122.062 Y112.561 E5.62421
G1 X122.305 Y113.084 E5.64531
G1 X122.529 Y113.707 E5.66953
G1 X122.79 Y114.697 E5.70699
G1 X122.895 Y115.27 E5.7283
G1 X123.011 Y116.405 E5.77005
G1 X123.025 Y116.979 E5.79105
G1 X122.941 Y118.593 E5.85018
G1 X122.883 Y119.084 E5.86827
G1 X122.742 Y119.841 E5.89644
G1 X122.599 Y120.381 E5.91688
G1 X122.139 Y121.708 E5.96826
G1 X121.922 Y122.21 E5.98827
G1 X121.723 Y122.548 E6.00262
G1 X121.266 Y123.238 E6.0329
G1 X120.932 Y123.671 E6.05291
G1 X120.358 Y124.19 E6.08122
G1 X119.838 Y124.571 E6.10481
G1 X119.375 Y124.861 E6.12479
G1 X118.874 Y125.08 E6.1448
G1 X118.202 Y125.25 E6.17016
G1 X117.848 Y125.305 E6.18327
G1 X117.303 Y125.349 E6.20327
G1 X116.758 Y125.313 E6.22325
G1 X116.213 Y125.195 E6.24366
G1 X115.875 Y125.095 E6.25655
G1 X115.364 Y124.902 E6.27654
G1 X114.886 Y124.637 E6.29653
G1 X114.616 Y124.443 E6.3087
G1 X114.296 Y124.19 E6.32362
G1 X113.894 Y123.82 E6.34361
G1 X113.549 Y123.396 E6.36361
G1 X113.376 Y123.124 E6.3754
G1 X112.846 Y122.205 E6.41422
G1 X112.608 Y121.713 E6.43421
G1 X112.468 Y121.284 E6.45072
G1 X112.209 Y120.294 E6.48816
G1 X112.106 Y119.728 E6.50921
G1 X111.99 Y118.595 E6.55088
G1 X111.976 Y118.02 E6.57192
G1 X112.06 Y116.406 E6.63105
G1 X112.118 Y115.914 E6.64918
G1 X112.259 Y115.158 E6.67731
G1 X112.338 Y114.822 E6.68994
G1 X112.538 Y114.118 E6.71672
G1 X112.734 Y113.587 E6.73742
G1 X113.131 Y112.717 E6.77241
G1 X113.393 Y112.238 E6.79239
G1 X113.618 Y111.927 E6.80643
G1 X113.992 Y111.462 E6.82826
G0 F810 X114.105 Y111.321
G0 X114.477 Y110.921
M204 S5000
M205 X30 Y30
G0 F7200 X114.799 Y111.223
M204 S500
M205 X20 Y20
G1 F6000 E6.85486
G1 F900 X115.28 Y110.86 E6.87691
G1 X115.633 Y110.641 E6.89211
G1 X116.089 Y110.405 E6.91089
G1 X116.576 Y110.243 E6.92967
G1 X116.862 Y110.185 E6.94035
G1 X117.213 Y110.13 E6.95334
G1 X117.725 Y110.09 E6.97213
G1 X118.237 Y110.13 E6.99092
G1 X118.663 Y110.226 E7.0069
G1 X119.01 Y110.329 E7.02014
G1 X119.489 Y110.513 E7.03891
G1 X120.126 Y110.911 E7.0664
G1 X120.44 Y111.161 E7.08108
G1 X120.816 Y111.511 E7.09987
G1 X121.059 Y111.809 E7.11394
G1 X121.344 Y112.203 E7.13173
G1 X121.663 Y112.746 E7.15477
G1 X121.906 Y113.269 E7.17587
G1 X122.104 Y113.819 E7.19726
G1 X122.365 Y114.809 E7.23472
G1 X122.457 Y115.314 E7.2535
G1 X122.573 Y116.449 E7.29524
G1 X122.586 Y116.957 E7.31383
G1 X122.502 Y118.571 E7.37296
G1 X122.45 Y119.003 E7.38888
G1 X122.309 Y119.76 E7.41705
G1 X122.183 Y120.237 E7.4351
G1 X121.723 Y121.564 E7.48649
G1 X121.518 Y122.034 E7.50525
G1 X121.356 Y122.305 E7.5168
G1 X120.899 Y122.995 E7.54708
G1 X120.583 Y123.4 E7.56587
G1 X120.098 Y123.835 E7.58971
G1 X119.578 Y124.216 E7.61329
G1 X119.142 Y124.486 E7.63205
G1 X118.669 Y124.686 E7.65084
G1 X118.135 Y124.815 E7.67094
G1 X117.781 Y124.87 E7.68405
G1 X117.269 Y124.909 E7.70283
G1 X116.757 Y124.868 E7.72163
G1 X116.338 Y124.773 E7.73735
G1 X116 Y124.673 E7.75024
G1 X115.52 Y124.49 E7.76904
G1 X114.889 Y124.098 E7.79621
G1 X114.569 Y123.845 E7.81114
G1 X114.193 Y123.496 E7.82991
G1 X113.757 Y122.905 E7.85678
G1 X113.227 Y121.986 E7.89559
G1 X113.006 Y121.522 E7.91439
G1 X112.893 Y121.172 E7.92785
G1 X112.634 Y120.182 E7.96529
G1 X112.544 Y119.683 E7.98384
G1 X112.428 Y118.55 E8.02551
G1 X112.415 Y118.042 E8.0441
G1 X112.499 Y116.428 E8.10323
G1 X112.551 Y115.995 E8.11919
G1 X112.692 Y115.239 E8.14732
G1 X112.762 Y114.942 E8.15849
G1 X112.962 Y114.238 E8.18526
G1 X113.134 Y113.77 E8.2035
G1 X113.531 Y112.9 E8.23849
G1 X113.78 Y112.451 E8.25728
G1 X113.961 Y112.203 E8.26851
G1 X114.314 Y111.764 E8.28912
G0 F810 X114.448 Y111.597
G0 X114.799 Y111.223
M204 S5000
M205 X30 Y30
G0 F7200 X115.12 Y111.526
M204 S500
M205 X20 Y20
G1 F6000 E8.31572
G1 F900 X115.512 Y111.234 E8.3336
G1 X115.865 Y111.015 E8.3488
G1 X116.291 Y110.798 E8.36629
G1 X116.93 Y110.619 E8.39057
G1 X117.281 Y110.564 E8.40357
G1 X117.758 Y110.53 E8.42106
G1 X118.234 Y110.576 E8.43856
G1 X118.538 Y110.648 E8.44999
G1 X118.885 Y110.751 E8.46323
G1 X119.33 Y110.925 E8.48071
G1 X119.852 Y111.256 E8.50333
G1 X120.166 Y111.506 E8.51801
G1 X120.514 Y111.833 E8.53548
G1 X120.702 Y112.067 E8.54646
G1 X120.987 Y112.461 E8.56425
G1 X121.264 Y112.932 E8.58425
G1 X121.507 Y113.455 E8.60534
G1 X121.679 Y113.931 E8.62386
G1 X121.94 Y114.921 E8.66132
G1 X122.019 Y115.359 E8.6776
G1 X122.135 Y116.494 E8.71934
G1 X122.146 Y116.934 E8.73545
G1 X122.062 Y118.548 E8.79458
G1 X122.018 Y118.923 E8.80839
G1 X121.877 Y119.68 E8.83656
G1 X121.767 Y120.093 E8.8522
G1 X121.307 Y121.42 E8.90358
G1 X121.114 Y121.857 E8.92106
G1 X120.989 Y122.062 E8.92985
G1 X120.532 Y122.752 E8.96013
G1 X120.236 Y123.127 E8.9776
G1 X119.838 Y123.48 E8.99707
G1 X119.318 Y123.861 E9.02065
G1 X118.911 Y124.11 E9.03811
G1 X118.467 Y124.288 E9.05561
G1 X118.067 Y124.38 E9.07063
G1 X117.713 Y124.435 E9.08373
G1 X117.236 Y124.469 E9.10123
G1 X116.761 Y124.423 E9.11869
G1 X116.463 Y124.351 E9.12991
G1 X116.125 Y124.251 E9.1428
G1 X115.679 Y124.078 E9.1603
G1 X115.162 Y123.753 E9.18265
G1 X114.842 Y123.5 E9.19757
G1 X114.493 Y123.173 E9.21507
G1 X114.138 Y122.685 E9.23715
G1 X113.608 Y121.766 E9.27596
G1 X113.405 Y121.333 E9.29346
G1 X113.319 Y121.061 E9.30389
G1 X113.06 Y120.071 E9.34133
G1 X112.982 Y119.638 E9.35743
G1 X112.866 Y118.505 E9.3991
G1 X112.855 Y118.065 E9.4152
G1 X112.939 Y116.451 E9.47433
G1 X112.983 Y116.076 E9.48814
G1 X113.124 Y115.32 E9.51628
G1 X113.185 Y115.062 E9.52598
G1 X113.385 Y114.358 E9.55276
G1 X113.534 Y113.953 E9.56854
G1 X113.931 Y113.083 E9.60353
G1 X114.304 Y112.478 E9.62954
G1 X114.635 Y112.066 E9.64887
G0 F810 X114.791 Y111.872
G0 X115.12 Y111.526
M204 S5000
M205 X30 Y30
G0 F7200 X115.439 Y111.832
M204 S500
M205 X20 Y20
G1 F6000 E9.67547
G1 F900 X115.744 Y111.608 E9.68931
G1 X116.097 Y111.389 E9.70451
G1 X116.49 Y111.192 E9.7206
G1 X116.998 Y111.054 E9.73986
G1 X117.349 Y110.999 E9.75285
G1 X117.788 Y110.971 E9.76895
G1 X118.413 Y111.07 E9.7921
G1 X118.76 Y111.173 E9.80534
G1 X119.168 Y111.336 E9.82142
G1 X119.578 Y111.6 E9.83926
G1 X119.892 Y111.85 E9.85394
G1 X120.346 Y112.325 E9.87798
G1 X120.631 Y112.719 E9.89577
G1 X120.865 Y113.117 E9.91266
G1 X121.108 Y113.64 E9.93376
G1 X121.253 Y114.043 E9.94943
G1 X121.514 Y115.033 E9.98689
G1 X121.581 Y115.404 E10.00068
G1 X121.697 Y116.539 E10.04242
G1 X121.707 Y116.911 E10.05604
G1 X121.623 Y118.525 E10.11517
G1 X121.585 Y118.842 E10.12685
G1 X121.444 Y119.599 E10.15502
G1 X121.352 Y119.949 E10.16826
G1 X120.892 Y121.276 E10.21965
G1 X120.623 Y121.819 E10.24182
G1 X120.166 Y122.509 E10.2721
G1 X119.891 Y122.852 E10.28818
G1 X119.578 Y123.125 E10.30338
G1 X119.058 Y123.506 E10.32696
G1 X118.682 Y123.733 E10.34303
G1 X118.27 Y123.887 E10.35912
G1 X118 Y123.945 E10.36923
G1 X117.646 Y124 E10.38233
G1 X117.207 Y124.028 E10.39843
G1 X116.587 Y123.93 E10.42139
G1 X116.249 Y123.83 E10.43429
G1 X115.841 Y123.667 E10.45036
G1 X115.435 Y123.407 E10.468
G1 X115.115 Y123.154 E10.48293
G1 X114.796 Y122.852 E10.499
G1 X114.52 Y122.465 E10.51639
G1 X113.99 Y121.546 E10.5552
G1 X113.745 Y120.949 E10.57881
G1 X113.486 Y119.959 E10.61625
G1 X113.42 Y119.593 E10.62986
G1 X113.304 Y118.46 E10.67153
G1 X113.294 Y118.088 E10.68514
G1 X113.378 Y116.474 E10.74427
G1 X113.416 Y116.156 E10.75599
G1 X113.557 Y115.4 E10.78412
G1 X113.608 Y115.183 E10.79228
G1 X113.808 Y114.479 E10.81905
G1 X113.934 Y114.135 E10.83246
G1 X114.331 Y113.265 E10.86745
G1 X114.647 Y112.754 E10.88943
G1 X114.954 Y112.372 E10.90736
G0 F810 X115.134 Y112.148
G0 X115.439 Y111.832
M204 S5000
M205 X30 Y30
G0 F7200 X115.755 Y112.14
M204 S500
M205 X20 Y20
G1 F6000 E10.93396
G1 F900 X115.976 Y111.981 E10.94392
G1 X116.329 Y111.762 E10.95911
G1 X116.686 Y111.588 E10.97364
G1 X117.066 Y111.489 E10.98801
G1 X117.417 Y111.434 E11.00101
G1 X117.814 Y111.412 E11.01556
G1 X118.287 Y111.492 E11.03311
G1 X118.634 Y111.595 E11.04635
G1 X119.002 Y111.746 E11.0609
G1 X119.304 Y111.944 E11.07412
G1 X119.618 Y112.194 E11.0888
G1 X119.989 Y112.583 E11.10847
G1 X120.274 Y112.977 E11.12626
G1 X120.466 Y113.303 E11.1401
G1 X120.709 Y113.826 E11.1612
G1 X120.828 Y114.155 E11.174
G1 X121.089 Y115.145 E11.21146
