;FLAVOR:Marlin
;TIME:4716
;Filament used: 3.46059m
;Layer height: 0.2
;Generated with Cura_SteamEngine 3.6.0
M140 S70
M105
M190 S70
M104 S215
M105
M109 S215
M82 ;absolute extrusion mode
G28 ; home all axes
M117 Purge extruder
G92 E0 ; reset extruder
G1 Z1.0 F3000 ; move z up little to prevent scratching of surface
G1 X0.1 Y20 Z0.3 F5000.0 ; move to start-line position G1 X0.1 Y200.0 Z0.3 F1500.0 E15 ; draw 1st line
G1 X0.4 Y200.0 Z0.3 F5000.0 ; move to side a little
G1 X0.4 Y20 Z0.3 F1500.0 E30 ; draw 2nd line
G92 E0 ; reset extruder
G1 Z1.0 F3000 ; move z up little to prevent scratching of surface
M117 All systems go!
G92 E0
G1 F6000 E-5
;LAYER_COUNT:21
;LAYER:0
M107
M204 S5000
M205 X30 Y30
G0 F7200 X72.809 Y54.104 Z0.2
M204 S500
M205 X20 Y20
;TYPE:SKIRT
G1 F6000 E0
G1 F900 X73.225 Y53.622 E0.02329
G1 X73.698 Y53.197 E0.04656
G1 X74.026 Y52.958 E0.06141
G1 X76.628 Y51.218 E0.17593
G1 X76.968 Y51.01 E0.19051
G1 X81.975 Y48.205 E0.40048
G1 X82.37 Y48.005 E0.41668
G1 X83.509 Y47.492 E0.46239
G1 X84.104 Y47.268 E0.48565
G1 X84.723 Y47.12 E0.50893
G1 X85.588 Y47.046 E0.54069
G1 X149.462 Y47.056 E2.8776
G1 X150.096 Y47.096 E2.90084
G1 X150.721 Y47.215 E2.92412
G1 X151.578 Y47.52 E2.9574
G1 X152.681 Y48.028 E3.00183
G1 X153.038 Y48.21 E3.01649
G1 X158.022 Y51.003 E3.22551
G1 X158.375 Y51.22 E3.24067
G1 X161.021 Y53.002 E3.35739
G1 X161.525 Y53.39 E3.38066
G1 X161.976 Y53.838 E3.40391
G1 X162.368 Y54.338 E3.42716
G1 X162.577 Y54.67 E3.44151
G1 X194.502 Y109.988 E5.77824
G1 X194.784 Y110.557 E5.80148
G1 X194.993 Y111.158 E5.82476
G1 X195.125 Y111.78 E5.84802
G1 X195.175 Y112.318 E5.86779
G1 X195.371 Y117.304 E6.05035
G1 X195.371 Y117.714 E6.06535
G1 X195.161 Y122.744 E6.24954
G1 X195.094 Y123.377 E6.27283
G1 X194.949 Y123.996 E6.29609
G1 X194.727 Y124.592 E6.31936
G1 X194.487 Y125.064 E6.33873
G1 X162.543 Y180.367 E8.67533
G1 X162.191 Y180.896 E8.69858
G1 X161.775 Y181.378 E8.72187
G1 X161.302 Y181.803 E8.74514
G1 X160.973 Y182.043 E8.76004
G1 X158.352 Y183.795 E8.87538
G1 X158.011 Y184.003 E8.88999
G1 X153.001 Y186.807 E9.10005
G1 X152.607 Y187.006 E9.11619
G1 X151.492 Y187.508 E9.16093
G1 X150.897 Y187.732 E9.18419
G1 X150.279 Y187.88 E9.20744
G1 X149.414 Y187.954 E9.2392
G1 X85.538 Y187.944 E11.57618
G1 X84.904 Y187.904 E11.59942
G1 X84.279 Y187.785 E11.6227
G1 X83.422 Y187.48 E11.65598
G1 X82.317 Y186.971 E11.70049
G1 X81.96 Y186.789 E11.71515
G1 X76.978 Y183.997 E11.9241
G1 X76.625 Y183.78 E11.93926
G1 X73.979 Y181.998 E12.05597
G1 X73.475 Y181.61 E12.07924
G1 X73.024 Y181.162 E12.1025
G1 X72.632 Y180.662 E12.12574
G1 X72.423 Y180.33 E12.1401
G1 X40.498 Y125.011 E14.47686
G1 X40.216 Y124.442 E14.50009
G1 X40.007 Y123.841 E14.52337
G1 X39.875 Y123.219 E14.54664
G1 X39.825 Y122.681 E14.5664
G1 X39.629 Y117.696 E14.74893
G1 X39.629 Y117.286 E14.76393
G1 X39.839 Y112.256 E14.94812
G1 X39.906 Y111.623 E14.97141
G1 X40.051 Y111.004 E14.99466
G1 X40.273 Y110.408 E15.01793
G1 X40.513 Y109.936 E15.03731
G1 X72.411 Y54.712 E17.37057
G0 F810 X72.457 Y54.633
G0 X72.809 Y54.104
M204 S5000
M205 X30 Y30
G0 F7200 X73.176 Y54.348
M204 S500
M205 X20 Y20
G1 F6000 E17.39716
G1 F900 X73.577 Y53.892 E17.41938
G1 X74.271 Y53.324 E17.45219
G1 X76.873 Y51.584 E17.56671
G1 X77.183 Y51.393 E17.58003
G1 X82.19 Y48.588 E17.79001
G1 X82.551 Y48.407 E17.80478
G1 X83.69 Y47.894 E17.85049
G1 X84.259 Y47.681 E17.87271
G1 X84.851 Y47.545 E17.89494
G1 X85.588 Y47.486 E17.92199
G1 X149.462 Y47.496 E20.25889
G1 X150.068 Y47.536 E20.28111
G1 X150.664 Y47.655 E20.30335
G1 X151.394 Y47.92 E20.33176
G1 X152.497 Y48.428 E20.37619
G1 X152.823 Y48.594 E20.38957
G1 X157.807 Y51.387 E20.5986
G1 X158.129 Y51.585 E20.61243
G1 X160.775 Y53.367 E20.72914
G1 X161.255 Y53.739 E20.75136
G1 X161.683 Y54.17 E20.77358
G1 X162.195 Y54.89 E20.80591
G1 X194.12 Y110.208 E23.14264
G1 X194.389 Y110.753 E23.16487
G1 X194.583 Y111.328 E23.18708
G1 X194.701 Y111.925 E23.20934
G1 X194.735 Y112.336 E23.22443
G1 X194.931 Y117.322 E23.40699
G1 X194.931 Y117.696 E23.42067
G1 X194.721 Y122.726 E23.60486
G1 X194.656 Y123.33 E23.62709
G1 X194.512 Y123.92 E23.6493
G1 X194.292 Y124.486 E23.67152
G1 X194.106 Y124.844 E23.68628
G1 X162.162 Y180.147 E26.02289
G1 X161.824 Y180.652 E26.04512
G1 X161.423 Y181.108 E26.06733
G1 X160.728 Y181.677 E26.1002
G1 X158.107 Y183.429 E26.21554
G1 X157.796 Y183.62 E26.22889
G1 X152.786 Y186.424 E26.43894
G1 X152.427 Y186.605 E26.45365
G1 X151.312 Y187.107 E26.49839
G1 X150.742 Y187.319 E26.52064
G1 X150.15 Y187.455 E26.54286
G1 X149.414 Y187.514 E26.56988
G1 X85.538 Y187.504 E28.90686
G1 X84.932 Y187.464 E28.92907
G1 X84.336 Y187.345 E28.95131
G1 X83.606 Y187.08 E28.97972
G1 X82.501 Y186.571 E29.02423
G1 X82.175 Y186.405 E29.03762
G1 X77.193 Y183.613 E29.24656
G1 X76.871 Y183.415 E29.26039
G1 X74.225 Y181.633 E29.37711
G1 X73.745 Y181.261 E29.39932
G1 X73.317 Y180.83 E29.42155
G1 X72.805 Y180.11 E29.45387
G1 X40.88 Y124.791 E31.79063
G1 X40.611 Y124.246 E31.81287
G1 X40.417 Y123.671 E31.83507
G1 X40.299 Y123.074 E31.85734
G1 X40.265 Y122.664 E31.87239
G1 X40.069 Y117.679 E32.05491
G1 X40.069 Y117.304 E32.06863
G1 X40.279 Y112.274 E32.25282
G1 X40.344 Y111.67 E32.27504
G1 X40.488 Y111.08 E32.29726
G1 X40.708 Y110.514 E32.31948
G1 X40.894 Y110.156 E32.33424
G1 X72.778 Y54.956 E34.66648
G0 F810 X72.838 Y54.853
G0 X73.176 Y54.348
M204 S5000
M205 X30 Y30
G0 F7200 X73.542 Y54.594
M204 S500
M205 X20 Y20
G1 F6000 E34.69308
G1 F900 X73.928 Y54.164 E34.71422
G1 X74.515 Y53.689 E34.74185
G1 X77.117 Y51.949 E34.85637
G1 X77.398 Y51.777 E34.86842
G1 X82.405 Y48.972 E35.0784
G1 X82.731 Y48.808 E35.09175
G1 X83.87 Y48.295 E35.13745
G1 X84.413 Y48.094 E35.15864
G1 X84.977 Y47.971 E35.17976
G1 X85.588 Y47.926 E35.20217
G1 X149.462 Y47.936 E37.53907
G1 X150.038 Y47.976 E37.5602
G1 X150.604 Y48.095 E37.58136
G1 X151.21 Y48.319 E37.605
G1 X152.313 Y48.827 E37.64943
G1 X152.607 Y48.978 E37.66152
G1 X157.591 Y51.771 E37.87054
G1 X157.883 Y51.95 E37.88307
G1 X160.529 Y53.732 E37.99979
G1 X160.985 Y54.087 E38.02093
G1 X161.387 Y54.502 E38.04207
G1 X161.814 Y55.11 E38.06925
G1 X193.739 Y110.428 E40.40598
G1 X193.993 Y110.947 E40.42712
G1 X194.172 Y111.496 E40.44825
G1 X194.296 Y112.353 E40.47993
G1 X194.492 Y117.339 E40.66249
G1 X194.491 Y117.677 E40.67486
G1 X194.281 Y122.707 E40.85904
G1 X194.217 Y123.282 E40.88021
G1 X194.075 Y123.842 E40.90135
G1 X193.725 Y124.624 E40.93269
G1 X161.781 Y179.927 E43.2693
G1 X161.458 Y180.406 E43.29043
G1 X161.072 Y180.836 E43.31158
G1 X160.484 Y181.311 E43.33923
G1 X157.863 Y183.063 E43.45457
G1 X157.581 Y183.236 E43.46668
G1 X152.571 Y186.04 E43.67673
G1 X152.246 Y186.204 E43.69005
G1 X151.131 Y186.706 E43.73479
G1 X150.589 Y186.906 E43.75592
G1 X150.024 Y187.029 E43.77708
G1 X149.414 Y187.074 E43.79946
G1 X85.538 Y187.064 E46.13643
G1 X84.962 Y187.024 E46.15756
G1 X84.396 Y186.905 E46.17872
G1 X83.79 Y186.681 E46.20235
G1 X82.685 Y186.172 E46.24687
G1 X82.39 Y186.021 E46.25899
G1 X77.408 Y183.229 E46.46793
G1 X77.117 Y183.05 E46.48043
G1 X74.471 Y181.268 E46.59715
G1 X74.015 Y180.913 E46.61829
G1 X73.613 Y180.498 E46.63943
G1 X73.186 Y179.89 E46.66661
G1 X41.261 Y124.571 E49.00337
G1 X41.007 Y124.052 E49.02451
G1 X40.828 Y123.503 E49.04564
G1 X40.704 Y122.646 E49.07732
G1 X40.508 Y117.661 E49.25984
G1 X40.509 Y117.323 E49.27221
G1 X40.719 Y112.293 E49.4564
G1 X40.783 Y111.718 E49.47757
G1 X40.925 Y111.158 E49.4987
G1 X41.275 Y110.376 E49.53005
G1 X73.144 Y55.202 E51.86119
G0 F810 X73.219 Y55.073
G0 X73.542 Y54.594
M204 S5000
M205 X30 Y30
G0 F7200 X73.908 Y54.841
M204 S500
M205 X20 Y20
G1 F6000 E51.88779
G1 F900 X74.278 Y54.439 E51.90778
G1 X74.76 Y54.055 E51.93033
G1 X77.362 Y52.315 E52.04485
G1 X77.613 Y52.161 E52.05562
G1 X82.62 Y49.356 E52.2656
G1 X82.912 Y49.209 E52.27756
G1 X84.051 Y48.696 E52.32326
G1 X84.565 Y48.508 E52.34328
G1 X85.1 Y48.398 E52.36327
G1 X85.588 Y48.366 E52.38116
G1 X149.462 Y48.376 E54.71806
G1 X150.007 Y48.416 E54.73806
G1 X150.54 Y48.535 E54.75804
G1 X151.026 Y48.719 E54.77705
G1 X152.129 Y49.227 E54.82148
G1 X152.392 Y49.361 E54.83228
G1 X157.376 Y52.154 E55.0413
G1 X157.637 Y52.315 E55.05252
G1 X160.283 Y54.097 E55.16924
G1 X160.713 Y54.435 E55.18925
G1 X161.089 Y54.831 E55.20922
G1 X161.433 Y55.33 E55.2314
G1 X193.358 Y110.648 E57.56813
G1 X193.596 Y111.14 E57.58813
G1 X193.76 Y111.661 E57.60811
G1 X193.856 Y112.37 E57.63429
G1 X194.052 Y117.356 E57.81685
G1 X194.052 Y117.659 E57.82793
G1 X193.842 Y122.689 E58.01212
G1 X193.779 Y123.232 E58.03212
G1 X193.638 Y123.76 E58.05211
G1 X193.344 Y124.404 E58.07801
G1 X161.4 Y179.707 E60.41462
G1 X161.092 Y180.159 E60.43463
G1 X160.722 Y180.561 E60.45462
G1 X160.239 Y180.945 E60.47719
G1 X157.618 Y182.697 E60.59254
G1 X157.367 Y182.852 E60.60333
G1 X152.357 Y185.656 E60.81338
G1 X152.065 Y185.802 E60.82533
G1 X150.95 Y186.304 E60.87006
G1 X150.437 Y186.492 E60.89005
G1 X149.902 Y186.602 E60.91004
G1 X149.414 Y186.634 E60.92793
G1 X85.538 Y186.624 E63.2649
G1 X84.993 Y186.584 E63.2849
G1 X84.46 Y186.465 E63.30488
G1 X83.974 Y186.281 E63.32389
G1 X82.869 Y185.772 E63.3684
G1 X82.606 Y185.638 E63.3792
G1 X77.624 Y182.846 E63.58814
G1 X77.363 Y182.685 E63.59936
G1 X74.717 Y180.903 E63.71608
G1 X74.287 Y180.565 E63.73609
G1 X73.911 Y180.169 E63.75607
G1 X73.567 Y179.67 E63.77824
G1 X41.642 Y124.351 E66.115
G1 X41.404 Y123.859 E66.135
G1 X41.24 Y123.338 E66.15498
G1 X41.144 Y122.629 E66.18116
G1 X40.948 Y117.644 E66.36368
G1 X40.948 Y117.341 E66.37477
G1 X41.158 Y112.311 E66.55896
G1 X41.221 Y111.768 E66.57896
G1 X41.362 Y111.24 E66.59895
G1 X41.656 Y110.596 E66.62485
G1 X73.51 Y55.449 E68.95487
G0 F810 X73.6 Y55.293
G0 X73.908 Y54.841
M204 S5000
M205 X30 Y30
G0 F7200 X74.272 Y55.09
M204 S500
M205 X20 Y20
G1 F6000 E68.98146
G1 F900 X74.625 Y54.717 E69.00025
G1 X75.005 Y54.421 E69.01788
G1 X77.607 Y52.681 E69.1324
G1 X77.828 Y52.545 E69.14189
G1 X82.835 Y49.74 E69.35187
G1 X83.093 Y49.61 E69.36243
G1 X84.232 Y49.097 E69.40814
G1 X84.715 Y48.923 E69.42692
G1 X85.219 Y48.827 E69.44569
G1 X85.588 Y48.806 E69.45921
G1 X149.462 Y48.816 E71.79612
G1 X149.973 Y48.856 E71.81487
G1 X150.473 Y48.975 E71.83367
G1 X150.841 Y49.119 E71.84813
G1 X151.944 Y49.627 E71.89256
G1 X152.177 Y49.745 E71.90212
G1 X157.161 Y52.538 E72.11114
G1 X157.391 Y52.68 E72.12103
G1 X160.037 Y54.462 E72.23775
G1 X160.44 Y54.781 E72.25655
G1 X160.788 Y55.158 E72.27532
G1 X161.052 Y55.549 E72.29258
G1 X192.977 Y110.867 E74.62931
G1 X193.198 Y111.331 E74.64812
G1 X193.345 Y111.823 E74.6669
G1 X193.416 Y112.387 E74.6877
G1 X193.612 Y117.373 E74.87026
G1 X193.612 Y117.641 E74.88006
G1 X193.402 Y122.671 E75.06425
G1 X193.341 Y123.18 E75.08301
G1 X193.201 Y123.674 E75.10179
G1 X192.963 Y124.184 E75.12238
G1 X161.019 Y179.487 E77.45899
G1 X160.728 Y179.91 E77.47777
G1 X160.375 Y180.283 E77.49656
G1 X159.995 Y180.58 E77.51421
G1 X157.374 Y182.332 E77.62955
G1 X157.152 Y182.468 E77.63908
G1 X152.142 Y185.272 E77.84913
G1 X151.885 Y185.401 E77.85965
G1 X150.77 Y185.903 E77.90439
G1 X150.287 Y186.077 E77.92317
G1 X149.782 Y186.173 E77.94198
G1 X149.414 Y186.194 E77.95546
G1 X85.538 Y186.184 E80.29244
G1 X85.027 Y186.144 E80.31119
G1 X84.527 Y186.025 E80.32999
G1 X84.158 Y185.881 E80.34449
G1 X83.053 Y185.372 E80.389
G1 X82.821 Y185.254 E80.39852
G1 X77.839 Y182.462 E80.60746
G1 X77.609 Y182.32 E80.61735
G1 X74.963 Y180.538 E80.73407
G1 X74.56 Y180.219 E80.75287
G1 X74.212 Y179.842 E80.77164
G1 X73.948 Y179.45 E80.78893
G1 X42.023 Y124.131 E83.1257
G1 X41.802 Y123.668 E83.14447
G1 X41.655 Y123.176 E83.16325
G1 X41.584 Y122.612 E83.18405
G1 X41.388 Y117.627 E83.36657
G1 X41.388 Y117.359 E83.37638
G1 X41.598 Y112.329 E83.56057
G1 X41.659 Y111.82 E83.57932
G1 X41.799 Y111.326 E83.59811
G1 X42.037 Y110.816 E83.6187
G1 X73.874 Y55.698 E85.94748
G0 F810 X73.981 Y55.513
G0 X74.272 Y55.09
M204 S5000
M205 X30 Y30
G0 F7200 X74.635 Y55.341
M204 S500
M205 X20 Y20
G1 F6000 E85.97408
G1 F900 X74.97 Y55 E85.99157
G1 X75.249 Y54.787 E86.00441
G1 X77.851 Y53.047 E86.11893
G1 X78.043 Y52.929 E86.12718
G1 X83.05 Y50.124 E86.33715
G1 X83.274 Y50.011 E86.34633
G1 X84.413 Y49.498 E86.39204
G1 X84.863 Y49.339 E86.4095
G1 X85.334 Y49.257 E86.42699
G1 X85.587 Y49.246 E86.43625
G1 X149.461 Y49.256 E88.77316
G1 X149.938 Y49.296 E88.79067
G1 X150.401 Y49.415 E88.80816
G1 X150.657 Y49.518 E88.81826
G1 X151.76 Y50.026 E88.86268
G1 X151.962 Y50.129 E88.87098
G1 X156.946 Y52.922 E89.08001
G1 X157.146 Y53.045 E89.0886
G1 X159.792 Y54.827 E89.20531
G1 X160.164 Y55.126 E89.22277
G1 X160.482 Y55.483 E89.24026
G1 X160.671 Y55.769 E89.2528
G1 X192.596 Y111.087 E91.58954
G1 X192.8 Y111.52 E91.60705
G1 X192.928 Y111.98 E91.62452
G1 X192.977 Y112.405 E91.64017
G1 X193.173 Y117.391 E91.82273
G1 X193.173 Y117.622 E91.83118
G1 X192.963 Y122.652 E92.01537
G1 X192.903 Y123.126 E92.03285
G1 X192.765 Y123.584 E92.05035
G1 X192.582 Y123.963 E92.06575
G1 X160.638 Y179.266 E94.40235
G1 X160.365 Y179.659 E94.41986
G1 X160.03 Y180 E94.43735
G1 X159.75 Y180.214 E94.45024
G1 X157.129 Y181.966 E94.56558
G1 X156.937 Y182.084 E94.57383
G1 X151.927 Y184.888 E94.78388
G1 X151.704 Y185 E94.79301
G1 X150.589 Y185.502 E94.83775
G1 X150.138 Y185.661 E94.85524
G1 X149.668 Y185.743 E94.8727
G1 X149.415 Y185.754 E94.88196
G1 X85.539 Y185.744 E97.21894
G1 X85.062 Y185.704 E97.23645
G1 X84.599 Y185.585 E97.25394
G1 X84.342 Y185.482 E97.26407
G1 X83.237 Y184.973 E97.30858
G1 X83.036 Y184.87 E97.31685
G1 X78.054 Y182.078 E97.52579
G1 X77.854 Y181.955 E97.53438
G1 X75.208 Y180.173 E97.6511
G1 X74.836 Y179.874 E97.66856
G1 X74.518 Y179.517 E97.68605
G1 X74.329 Y179.231 E97.69859
G1 X42.404 Y123.912 E100.03535
G1 X42.2 Y123.479 E100.05287
G1 X42.072 Y123.019 E100.07033
G1 X42.023 Y122.594 E100.08599
G1 X41.827 Y117.609 E100.26851
G1 X41.827 Y117.378 E100.27696
G1 X42.037 Y112.348 E100.46115
G1 X42.097 Y111.874 E100.47863
G1 X42.235 Y111.416 E100.49613
G1 X42.418 Y111.037 E100.51153
G1 X74.238 Y55.949 E102.83905
G0 F810 X74.362 Y55.734
G0 X74.635 Y55.341
M204 S5000
M205 X30 Y30
G0 F7200 X74.997 Y55.595
M204 S500
M205 X20 Y20
G1 F6000 E102.86565
G1 F900 X75.311 Y55.287 E102.88174
G1 X75.494 Y55.152 E102.89006
G1 X78.096 Y53.412 E103.00458
G1 X78.258 Y53.313 E103.01153
G1 X83.265 Y50.508 E103.2215
G1 X83.454 Y50.412 E103.22926
G1 X84.593 Y49.899 E103.27496
G1 X85.009 Y49.756 E103.29106
G1 X85.587 Y49.686 E103.31236
G1 X149.461 Y49.696 E105.64926
G1 X149.899 Y49.736 E105.66535
G1 X150.473 Y49.918 E105.68738
G1 X151.576 Y50.426 E105.73181
G1 X151.747 Y50.513 E105.73883
G1 X156.731 Y53.306 E105.94786
G1 X156.9 Y53.41 E105.95512
G1 X159.546 Y55.192 E106.07183
G1 X159.887 Y55.469 E106.0879
G1 X160.29 Y55.989 E106.11197
G1 X192.215 Y111.307 E108.4487
G1 X192.399 Y111.706 E108.46478
G1 X192.508 Y112.132 E108.48087
G1 X192.537 Y112.422 E108.49153
G1 X192.733 Y117.408 E108.67409
G1 X192.733 Y117.604 E108.68126
G1 X192.523 Y122.634 E108.86545
G1 X192.465 Y123.07 E108.88154
G1 X192.329 Y123.488 E108.89762
G1 X192.201 Y123.743 E108.90806
G1 X160.257 Y179.046 E111.24467
G1 X160.003 Y179.405 E111.26076
G1 X159.689 Y179.713 E111.27685
G1 X159.506 Y179.848 E111.28517
G1 X156.885 Y181.6 E111.40051
G1 X156.722 Y181.7 E111.40751
G1 X151.712 Y184.504 E111.61756
G1 X151.523 Y184.599 E111.6253
G1 X150.408 Y185.101 E111.67004
G1 X149.993 Y185.244 E111.6861
G1 X149.415 Y185.314 E111.7074
G1 X85.539 Y185.304 E114.04437
G1 X85.101 Y185.264 E114.06047
G1 X84.527 Y185.082 E114.0825
G1 X83.422 Y184.573 E114.12701
G1 X83.251 Y184.486 E114.13403
G1 X78.269 Y181.694 E114.34297
G1 X78.1 Y181.59 E114.35023
G1 X75.454 Y179.808 E114.46694
G1 X75.113 Y179.531 E114.48302
G1 X74.71 Y179.011 E114.50709
G1 X42.785 Y123.692 E116.84385
G1 X42.601 Y123.293 E116.85992
G1 X42.492 Y122.867 E116.87601
G1 X42.463 Y122.577 E116.88668
G1 X42.267 Y117.592 E117.0692
G1 X42.267 Y117.396 E117.07637
G1 X42.477 Y112.366 E117.26056
G1 X42.535 Y111.93 E117.27665
G1 X42.671 Y111.512 E117.29273
G1 X42.799 Y111.257 E117.30317
G1 X74.599 Y56.203 E119.62925
G0 F810 X74.743 Y55.954
G0 X74.997 Y55.595
M204 S5000
M205 X30 Y30
G0 F7200 X75.357 Y55.851
M204 S500
M205 X20 Y20
G1 F6000 E119.65585
G1 F900 X75.738 Y55.518 E119.67436
