;FLAVOR:Marlin
;TIME:12331
;Filament used: 13.0734m
;Layer height: 0.2
;Generated with Cura_SteamEngine 3.6.0
M140 S70
M105
M190 S70
M104 S215
M105
M109 S215
M82 ;absolute extrusion mode
G28 ; home all axes
M117 Purge extruder
G92 E0 ; reset extruder
G1 Z1.0 F3000 ; move z up little to prevent scratching of surface
G1 X0.1 Y20 Z0.3 F5000.0 ; move to start-line position G1 X0.1 Y200.0 Z0.3 F1500.0 E15 ; draw 1st line
G1 X0.4 Y200.0 Z0.3 F5000.0 ; move to side a little
G1 X0.4 Y20 Z0.3 F1500.0 E30 ; draw 2nd line
G92 E0 ; reset extruder
G1 Z1.0 F3000 ; move z up little to prevent scratching of surface
M117 All systems go!
G92 E0
G1 F6000 E-5
;LAYER_COUNT:41
;LAYER:0
M107
M204 S5000
M205 X30 Y30
G0 F7200 X58.91 Y88.56 Z0.2
M204 S500
M205 X20 Y20
;TYPE:SKIRT
G1 F6000 E0
G1 F900 X58.91 Y97.371 E0.32236
G1 X58.87 Y98.006 E0.34564
G1 X58.751 Y98.63 E0.36888
G1 X58.554 Y99.235 E0.39216
G1 X58.283 Y99.81 E0.41541
G1 X57.942 Y100.347 E0.43869
G1 X57.863 Y100.44 E0.44315
G1 X177.13 Y100.44 E4.80667
G1 X176.794 Y99.946 E4.82853
G1 X176.506 Y99.379 E4.8518
G1 X176.29 Y98.781 E4.87506
G1 X176.152 Y98.16 E4.89833
G1 X176.09 Y97.371 E4.92729
G1 X176.09 Y88.56 E5.24965
G1 X59.637 Y88.56 E9.51022
G0 F810 X58.91 Y88.56
M204 S5000
M205 X30 Y30
G0 F7200 X58.47 Y88.12
M204 S500
M205 X20 Y20
G1 F6000 E9.53681
G1 F900 X58.47 Y97.371 E9.87527
G1 X58.43 Y97.977 E9.89749
G1 X58.311 Y98.573 E9.91973
G1 X58.115 Y99.148 E9.94195
G1 X57.844 Y99.692 E9.96419
G1 X57.505 Y100.197 E9.98644
G1 X57.117 Y100.638 E10.00793
G1 X56.988 Y100.767 E10.01461
G1 X56.859 Y100.88 E10.02088
G1 X178.14 Y100.88 E14.45809
G1 X178.012 Y100.767 E14.46433
G1 X177.883 Y100.638 E14.47101
G1 X177.483 Y100.181 E14.49323
G1 X177.146 Y99.675 E14.51547
G1 X176.878 Y99.13 E14.53769
G1 X176.684 Y98.554 E14.55993
G1 X176.567 Y97.958 E14.58215
G1 X176.53 Y97.371 E14.60367
G1 X176.53 Y88.12 E14.94213
G1 X59.197 Y88.12 E19.23489
G0 F810 X58.47 Y88.12
M204 S5000
M205 X30 Y30
G0 F7200 X58.03 Y87.68
M204 S500
M205 X20 Y20
G1 F6000 E19.26149
G1 F900 X58.03 Y97.371 E19.61604
G1 X57.99 Y97.948 E19.6372
G1 X57.871 Y98.513 E19.65833
G1 X57.675 Y99.057 E19.67948
G1 X57.406 Y99.568 E19.70061
G1 X57.069 Y100.038 E19.72177
G1 X56.806 Y100.327 E19.73607
G1 X56.677 Y100.456 E19.74274
G1 X56.241 Y100.835 E19.76388
G1 X55.757 Y101.151 E19.78502
G1 X55.398 Y101.32 E19.79954
G1 X179.584 Y101.32 E24.34303
G1 X179.082 Y101.056 E24.36378
G1 X178.612 Y100.719 E24.38494
G1 X178.323 Y100.456 E24.39924
G1 X178.194 Y100.327 E24.40591
G1 X177.815 Y99.891 E24.42705
G1 X177.499 Y99.407 E24.44819
G1 X177.253 Y98.884 E24.46934
G1 X177.082 Y98.332 E24.49048
G1 X176.988 Y97.761 E24.51165
G1 X176.97 Y97.371 E24.52594
G1 X176.97 Y87.68 E24.88049
G1 X58.757 Y87.68 E29.20545
G0 F810 X58.03 Y87.68
M204 S5000
M205 X30 Y30
G0 F7200 X57.59 Y87.24
M204 S500
M205 X20 Y20
G1 F6000 E29.23205
G1 F900 X57.59 Y97.371 E29.6027
G1 X57.55 Y97.916 E29.6227
G1 X57.431 Y98.45 E29.64271
G1 X57.236 Y98.96 E29.66269
G1 X56.968 Y99.437 E29.68271
G1 X56.495 Y100.016 E29.71006
G1 X56.366 Y100.145 E29.71674
G1 X55.952 Y100.502 E29.73674
G1 X55.49 Y100.795 E29.75675
G1 X54.991 Y101.018 E29.77675
G1 X54.465 Y101.165 E29.79673
G1 X53.721 Y101.24 E29.82409
G1 X50.479 Y101.24 E29.9427
G1 X49.934 Y101.2 E29.96269
G1 X49.4 Y101.081 E29.98271
G1 X48.89 Y100.886 E30.00269
G1 X48.413 Y100.618 E30.0227
G1 X47.834 Y100.145 E30.05006
G1 X47.705 Y100.016 E30.05673
G1 X47.348 Y99.602 E30.07673
G1 X47.055 Y99.14 E30.09675
G1 X46.832 Y98.641 E30.11674
G1 X46.685 Y98.115 E30.13672
G1 X46.61 Y97.371 E30.16408
G1 X46.61 Y79.544 E30.8163
G1 X46.65 Y78.999 E30.8363
G1 X46.769 Y78.465 E30.85631
G1 X46.843 Y78.271 E30.86391
G1 X46.832 Y78.246 E30.86491
G1 X46.685 Y77.72 E30.88489
G1 X46.61 Y76.976 E30.91225
G1 X46.61 Y73.629 E31.0347
G1 X46.65 Y73.084 E31.0547
G1 X46.769 Y72.55 E31.07471
G1 X46.964 Y72.04 E31.09469
G1 X47.232 Y71.563 E31.11471
G1 X47.705 Y70.984 E31.14206
G1 X47.834 Y70.855 E31.14873
G1 X48.248 Y70.498 E31.16873
G1 X48.71 Y70.205 E31.18875
G1 X49.209 Y69.982 E31.20875
G1 X49.735 Y69.835 E31.22873
G1 X50.479 Y69.76 E31.25609
G1 X184.521 Y69.76 E36.16017
G1 X185.066 Y69.8 E36.18016
G1 X185.6 Y69.919 E36.20018
G1 X186.11 Y70.114 E36.22015
G1 X186.587 Y70.382 E36.24017
G1 X187.166 Y70.855 E36.26752
G1 X187.295 Y70.984 E36.2742
G1 X187.652 Y71.398 E36.2942
G1 X187.945 Y71.86 E36.31421
G1 X188.168 Y72.359 E36.33421
G1 X188.315 Y72.885 E36.35419
G1 X188.39 Y73.629 E36.38155
G1 X188.39 Y76.975 E36.50397
G1 X188.35 Y77.52 E36.52396
G1 X188.231 Y78.054 E36.54398
G1 X188.157 Y78.248 E36.55157
G1 X188.168 Y78.273 E36.55257
G1 X188.315 Y78.799 E36.57255
G1 X188.39 Y79.543 E36.59991
G1 X188.39 Y97.371 E37.25217
G1 X188.35 Y97.916 E37.27216
G1 X188.231 Y98.45 E37.29218
G1 X188.036 Y98.96 E37.31216
G1 X187.768 Y99.437 E37.33217
G1 X187.295 Y100.016 E37.35953
G1 X187.166 Y100.145 E37.3662
G1 X186.752 Y100.502 E37.3862
G1 X186.29 Y100.795 E37.40622
G1 X185.791 Y101.018 E37.42621
G1 X185.265 Y101.165 E37.4462
G1 X184.521 Y101.24 E37.47355
G1 X181.279 Y101.24 E37.59217
G1 X180.734 Y101.2 E37.61216
G1 X180.2 Y101.081 E37.63217
G1 X179.69 Y100.886 E37.65215
G1 X179.213 Y100.618 E37.67217
G1 X178.634 Y100.145 E37.69952
G1 X178.505 Y100.016 E37.7062
G1 X178.148 Y99.602 E37.7262
G1 X177.855 Y99.14 E37.74621
G1 X177.632 Y98.641 E37.76621
G1 X177.485 Y98.115 E37.78619
G1 X177.41 Y97.371 E37.81355
G1 X177.41 Y87.24 E38.1842
G1 X58.317 Y87.24 E42.54136
G0 F810 X57.59 Y87.24
M204 S5000
M205 X30 Y30
G0 F7200 X57.15 Y86.8
M204 S500
M205 X20 Y20
G1 F6000 E42.56796
G1 F900 X57.15 Y97.371 E42.95471
G1 X57.11 Y97.883 E42.9735
G1 X56.991 Y98.382 E42.99226
G1 X56.796 Y98.857 E43.01105
G1 X56.53 Y99.296 E43.02983
G1 X56.183 Y99.704 E43.04943
G1 X56.054 Y99.833 E43.0561
G1 X55.664 Y100.167 E43.07489
G1 X55.227 Y100.436 E43.09366
G1 X54.753 Y100.634 E43.11246
G1 X54.255 Y100.757 E43.13122
G1 X53.721 Y100.8 E43.15082
G1 X50.479 Y100.8 E43.26944
G1 X49.967 Y100.76 E43.28822
G1 X49.468 Y100.641 E43.30699
G1 X48.993 Y100.446 E43.32578
G1 X48.554 Y100.18 E43.34456
G1 X48.146 Y99.833 E43.36415
G1 X48.017 Y99.704 E43.37083
G1 X47.683 Y99.314 E43.38961
G1 X47.414 Y98.877 E43.40839
G1 X47.216 Y98.403 E43.42718
G1 X47.093 Y97.905 E43.44595
G1 X47.05 Y97.371 E43.46555
G1 X47.05 Y79.544 E44.11777
G1 X47.09 Y79.032 E44.13656
G1 X47.209 Y78.533 E44.15533
G1 X47.321 Y78.26 E44.16613
G1 X47.216 Y78.008 E44.17611
G1 X47.093 Y77.51 E44.19488
G1 X47.05 Y76.976 E44.21448
G1 X47.05 Y73.629 E44.33694
G1 X47.09 Y73.117 E44.35572
G1 X47.209 Y72.618 E44.37449
G1 X47.404 Y72.143 E44.39328
G1 X47.67 Y71.704 E44.41206
G1 X48.017 Y71.296 E44.43165
G1 X48.146 Y71.167 E44.43833
G1 X48.536 Y70.833 E44.45711
G1 X48.973 Y70.564 E44.47589
G1 X49.447 Y70.366 E44.49468
G1 X49.945 Y70.243 E44.51345
G1 X50.479 Y70.2 E44.53305
G1 X184.521 Y70.2 E49.43713
G1 X185.033 Y70.24 E49.45592
G1 X185.532 Y70.359 E49.47469
G1 X186.007 Y70.554 E49.49347
G1 X186.446 Y70.82 E49.51225
G1 X186.854 Y71.167 E49.53185
G1 X186.983 Y71.296 E49.53852
G1 X187.317 Y71.686 E49.55731
G1 X187.586 Y72.123 E49.57609
G1 X187.784 Y72.597 E49.59488
G1 X187.907 Y73.095 E49.61365
G1 X187.95 Y73.629 E49.63325
G1 X187.95 Y76.975 E49.75566
G1 X187.91 Y77.487 E49.77445
G1 X187.791 Y77.986 E49.79322
G1 X187.679 Y78.259 E49.80402
G1 X187.784 Y78.511 E49.81401
G1 X187.907 Y79.009 E49.83277
G1 X187.95 Y79.543 E49.85237
G1 X187.95 Y97.371 E50.50463
G1 X187.91 Y97.883 E50.52342
G1 X187.791 Y98.382 E50.54219
G1 X187.596 Y98.857 E50.56097
G1 X187.33 Y99.296 E50.57975
G1 X186.983 Y99.704 E50.59935
G1 X186.854 Y99.833 E50.60602
G1 X186.464 Y100.167 E50.62481
G1 X186.027 Y100.436 E50.64359
G1 X185.553 Y100.634 E50.66238
G1 X185.055 Y100.757 E50.68115
G1 X184.521 Y100.8 E50.70075
G1 X181.279 Y100.8 E50.81936
G1 X180.767 Y100.76 E50.83815
G1 X180.268 Y100.641 E50.85692
G1 X179.793 Y100.446 E50.8757
G1 X179.354 Y100.18 E50.89448
G1 X178.946 Y99.833 E50.91408
G1 X178.817 Y99.704 E50.92075
G1 X178.483 Y99.314 E50.93954
G1 X178.214 Y98.877 E50.95831
G1 X178.016 Y98.403 E50.97711
G1 X177.893 Y97.905 E50.99587
G1 X177.85 Y97.371 E51.01547
G1 X177.85 Y86.8 E51.40223
G1 X57.877 Y86.8 E55.79158
G0 F810 X57.15 Y86.8
M204 S5000
M205 X30 Y30
G0 F7200 X56.71 Y86.36
M204 S500
M205 X20 Y20
G1 F6000 E55.81817
G1 F900 X56.71 Y97.371 E56.22102
G1 X56.67 Y97.847 E56.2385
G1 X56.551 Y98.31 E56.25599
G1 X56.357 Y98.747 E56.27348
G1 X56.093 Y99.145 E56.29096
G1 X55.872 Y99.393 E56.30311
G1 X55.743 Y99.522 E56.30979
G1 X55.378 Y99.831 E56.32728
G1 X54.967 Y100.074 E56.34475
G1 X54.521 Y100.246 E56.36224
G1 X54.053 Y100.341 E56.37971
G1 X53.721 Y100.36 E56.39188
G1 X50.479 Y100.36 E56.51049
G1 X50.003 Y100.32 E56.52797
G1 X49.54 Y100.201 E56.54546
G1 X49.103 Y100.007 E56.56295
G1 X48.705 Y99.743 E56.58042
G1 X48.457 Y99.522 E56.59258
G1 X48.328 Y99.393 E56.59925
G1 X48.019 Y99.028 E56.61675
G1 X47.776 Y98.617 E56.63422
G1 X47.604 Y98.171 E56.6517
G1 X47.509 Y97.703 E56.66918
G1 X47.49 Y97.371 E56.68134
G1 X47.49 Y79.544 E57.33356
G1 X47.53 Y79.068 E57.35104
G1 X47.649 Y78.605 E57.36853
G1 X47.801 Y78.264 E57.38219
G1 X47.776 Y78.222 E57.38398
G1 X47.604 Y77.776 E57.40147
G1 X47.509 Y77.308 E57.41894
G1 X47.49 Y76.976 E57.4311
G1 X47.49 Y73.629 E57.55356
G1 X47.53 Y73.153 E57.57103
G1 X47.649 Y72.69 E57.58852
G1 X47.843 Y72.253 E57.60602
G1 X48.107 Y71.855 E57.62349
G1 X48.328 Y71.607 E57.63564
G1 X48.457 Y71.478 E57.64232
G1 X48.822 Y71.169 E57.65981
G1 X49.233 Y70.926 E57.67728
G1 X49.679 Y70.754 E57.69477
G1 X50.147 Y70.659 E57.71224
G1 X50.479 Y70.64 E57.72441
G1 X184.521 Y70.64 E62.62849
G1 X184.997 Y70.68 E62.64597
G1 X185.46 Y70.799 E62.66346
G1 X185.897 Y70.993 E62.68095
G1 X186.295 Y71.257 E62.69842
G1 X186.543 Y71.478 E62.71058
G1 X186.672 Y71.607 E62.71725
G1 X186.981 Y71.972 E62.73475
G1 X187.224 Y72.383 E62.75222
G1 X187.396 Y72.829 E62.7697
G1 X187.491 Y73.297 E62.78718
G1 X187.51 Y73.629 E62.79934
G1 X187.51 Y76.975 E62.92176
G1 X187.47 Y77.451 E62.93924
G1 X187.351 Y77.914 E62.95673
G1 X187.199 Y78.255 E62.97039
G1 X187.224 Y78.297 E62.97217
G1 X187.396 Y78.743 E62.98966
G1 X187.491 Y79.211 E63.00713
G1 X187.51 Y79.543 E63.0193
G1 X187.51 Y97.371 E63.67156
G1 X187.47 Y97.847 E63.68904
G1 X187.351 Y98.31 E63.70652
G1 X187.157 Y98.747 E63.72402
G1 X186.893 Y99.145 E63.74149
G1 X186.672 Y99.393 E63.75364
G1 X186.543 Y99.522 E63.76032
G1 X186.178 Y99.831 E63.77782
G1 X185.767 Y100.074 E63.79528
G1 X185.321 Y100.246 E63.81277
G1 X184.853 Y100.341 E63.83024
G1 X184.521 Y100.36 E63.84241
G1 X181.279 Y100.36 E63.96102
G1 X180.803 Y100.32 E63.9785
G1 X180.34 Y100.201 E63.99599
G1 X179.903 Y100.007 E64.01348
G1 X179.505 Y99.743 E64.03096
G1 X179.257 Y99.522 E64.04311
G1 X179.128 Y99.393 E64.04978
G1 X178.819 Y99.028 E64.06728
G1 X178.576 Y98.617 E64.08475
G1 X178.404 Y98.171 E64.10224
G1 X178.309 Y97.703 E64.11971
G1 X178.29 Y97.371 E64.13188
G1 X178.29 Y86.36 E64.53473
G1 X57.437 Y86.36 E68.95627
G0 F810 X56.71 Y86.36
M204 S5000
M205 X30 Y30
G0 F7200 X56.27 Y85.92
M204 S500
M205 X20 Y20
G1 F6000 E68.98287
G1 F900 X56.27 Y97.371 E69.40182
G1 X56.23 Y97.809 E69.41791
G1 X56.112 Y98.232 E69.43398
G1 X55.919 Y98.627 E69.45006
G1 X55.561 Y99.082 E69.47124
G1 X55.432 Y99.211 E69.47792
G1 X55.094 Y99.492 E69.494
G1 X54.711 Y99.708 E69.51009
G1 X54.296 Y99.851 E69.52614
G1 X53.721 Y99.92 E69.54733
G1 X50.479 Y99.92 E69.66594
G1 X50.041 Y99.88 E69.68204
G1 X49.618 Y99.762 E69.6981
G1 X49.223 Y99.569 E69.71419
G1 X48.768 Y99.211 E69.73537
G1 X48.639 Y99.082 E69.74204
G1 X48.358 Y98.744 E69.75813
G1 X48.142 Y98.361 E69.77421
G1 X47.999 Y97.946 E69.79027
G1 X47.93 Y97.371 E69.81146
G1 X47.93 Y79.544 E70.46368
G1 X47.97 Y79.106 E70.47977
G1 X48.088 Y78.683 E70.49584
G1 X48.281 Y78.288 E70.51192
G1 X48.306 Y78.256 E70.51341
G1 X48.142 Y77.966 E70.5256
G1 X47.999 Y77.551 E70.54166
G1 X47.93 Y76.976 E70.56285
G1 X47.93 Y73.629 E70.6853
G1 X47.97 Y73.191 E70.70139
G1 X48.088 Y72.768 E70.71746
G1 X48.281 Y72.373 E70.73354
G1 X48.639 Y71.918 E70.75472
G1 X48.768 Y71.789 E70.7614
G1 X49.106 Y71.508 E70.77748
G1 X49.489 Y71.292 E70.79357
G1 X49.904 Y71.149 E70.80963
G1 X50.479 Y71.08 E70.83081
G1 X184.521 Y71.08 E75.7349
G1 X184.959 Y71.12 E75.75099
G1 X185.382 Y71.238 E75.76705
G1 X185.777 Y71.431 E75.78314
G1 X186.232 Y71.789 E75.80432
G1 X186.361 Y71.918 E75.81099
G1 X186.642 Y72.256 E75.82708
G1 X186.858 Y72.639 E75.84316
G1 X187.001 Y73.054 E75.85922
G1 X187.07 Y73.629 E75.88041
G1 X187.07 Y76.975 E76.00283
G1 X187.03 Y77.413 E76.01892
G1 X186.912 Y77.836 E76.03499
G1 X186.719 Y78.231 E76.05107
G1 X186.694 Y78.263 E76.05256
G1 X186.858 Y78.553 E76.06474
G1 X187.001 Y78.968 E76.0808
G1 X187.07 Y79.543 E76.10199
G1 X187.07 Y97.371 E76.75425
G1 X187.03 Y97.809 E76.77034
G1 X186.912 Y98.232 E76.78641
G1 X186.719 Y98.627 E76.80249
G1 X186.361 Y99.082 E76.82367
G1 X186.232 Y99.211 E76.83035
G1 X185.894 Y99.492 E76.84643
G1 X185.511 Y99.708 E76.86252
G1 X185.096 Y99.851 E76.87858
G1 X184.521 Y99.92 E76.89976
G1 X181.279 Y99.92 E77.01838
G1 X180.841 Y99.88 E77.03447
G1 X180.418 Y99.762 E77.05054
G1 X180.023 Y99.569 E77.06662
G1 X179.568 Y99.211 E77.0878
G1 X179.439 Y99.082 E77.09448
G1 X179.158 Y98.744 E77.11056
G1 X178.942 Y98.361 E77.12664
G1 X178.799 Y97.946 E77.1427
G1 X178.73 Y97.371 E77.16389
G1 X178.73 Y85.92 E77.58284
G1 X56.997 Y85.92 E82.03658
G0 F810 X56.27 Y85.92
M204 S5000
M205 X30 Y30
G0 F7200 X55.83 Y85.48
M204 S500
M205 X20 Y20
G1 F6000 E82.06318
G1 F900 X55.83 Y97.371 E82.49823
G1 X55.79 Y97.766 E82.51275
G1 X55.672 Y98.146 E82.52731
G1 X55.48 Y98.494 E82.54185
G1 X55.25 Y98.771 E82.55502
G1 X55.121 Y98.9 E82.5617
G1 X54.813 Y99.152 E82.57626
G1 X54.461 Y99.336 E82.59079
G1 X54.08 Y99.447 E82.60531
G1 X53.721 Y99.48 E82.6185
G1 X50.479 Y99.48 E82.73711
G1 X50.084 Y99.44 E82.75163
G1 X49.704 Y99.322 E82.76619
G1 X49.356 Y99.13 E82.78073
G1 X49.079 Y98.9 E82.79391
G1 X48.95 Y98.771 E82.80058
G1 X48.698 Y98.463 E82.81514
G1 X48.514 Y98.111 E82.82967
G1 X48.403 Y97.73 E82.84419
G1 X48.37 Y97.371 E82.85738
G1 X48.37 Y79.544 E83.5096
G1 X48.41 Y79.149 E83.52413
G1 X48.528 Y78.769 E83.53868
G1 X48.72 Y78.421 E83.55323
G1 X48.854 Y78.259 E83.56092
G1 X48.698 Y78.068 E83.56994
G1 X48.514 Y77.716 E83.58447
G1 X48.403 Y77.335 E83.59899
G1 X48.37 Y76.976 E83.61218
G1 X48.37 Y73.629 E83.73463
G1 X48.41 Y73.234 E83.74916
G1 X48.528 Y72.854 E83.76372
G1 X48.72 Y72.506 E83.77826
G1 X48.95 Y72.229 E83.79143
G1 X49.079 Y72.1 E83.79811
G1 X49.387 Y71.848 E83.81267
G1 X49.739 Y71.664 E83.8272
G1 X50.12 Y71.553 E83.84172
G1 X50.479 Y71.52 E83.85491
G1 X184.521 Y71.52 E88.75899
G1 X184.916 Y71.56 E88.77351
G1 X185.296 Y71.678 E88.78807
G1 X185.644 Y71.87 E88.80261
G1 X185.921 Y72.1 E88.81578
G1 X186.05 Y72.229 E88.82246
G1 X186.302 Y72.537 E88.83702
G1 X186.486 Y72.889 E88.85155
G1 X186.597 Y73.27 E88.86607
G1 X186.63 Y73.629 E88.87926
G1 X186.63 Y76.975 E89.00167
G1 X186.59 Y77.37 E89.0162
G1 X186.472 Y77.75 E89.03076
G1 X186.28 Y78.098 E89.0453
G1 X186.146 Y78.26 E89.05299
G1 X186.302 Y78.451 E89.06201
G1 X186.486 Y78.803 E89.07655
G1 X186.597 Y79.184 E89.09106
G1 X186.63 Y79.543 E89.10425
G1 X186.63 Y97.371 E89.75651
G1 X186.59 Y97.766 E89.77104
G1 X186.472 Y98.146 E89.78559
G1 X186.28 Y98.494 E89.80014
G1 X186.05 Y98.771 E89.81331
G1 X185.921 Y98.9 E89.81998
G1 X185.613 Y99.152 E89.83454
G1 X185.261 Y99.336 E89.84907
G1 X184.88 Y99.447 E89.86359
G1 X184.521 Y99.48 E89.87678
G1 X181.279 Y99.48 E89.9954
G1 X180.884 Y99.44 E90.00992
G1 X180.504 Y99.322 E90.02448
G1 X180.156 Y99.13 E90.03902
G1 X179.879 Y98.9 E90.05219
G1 X179.75 Y98.771 E90.05887
G1 X179.498 Y98.463 E90.07343
G1 X179.314 Y98.111 E90.08796
G1 X179.203 Y97.73 E90.10248
G1 X179.17 Y97.371 E90.11567
G1 X179.17 Y85.48 E90.55071
G1 X56.557 Y85.48 E95.03665
G0 F810 X55.83 Y85.48
M204 S5000
M205 X30 Y30
G0 F7200 X55.39 Y85.04
M204 S500
M205 X20 Y20
G1 F6000 E95.06325
G1 F900 X55.39 Y97.371 E95.51439
G1 X55.35 Y97.719 E95.52721
G1 X55.233 Y98.049 E95.54002
G1 X54.939 Y98.46 E95.55851
G1 X54.81 Y98.589 E95.56518
G1 X54.536 Y98.807 E95.57799
G1 X54.219 Y98.957 E95.59082
G1 X53.721 Y99.04 E95.60929
G1 X50.479 Y99.04 E95.7279
