;FLAVOR:Marlin
;TIME:2989
;Filament used: 2.64347m
;Layer height: 0.2
;Generated with Cura_SteamEngine 3.6.0
M140 S70
M105
M190 S70
M104 S215
M105
M109 S215
M82 ;absolute extrusion mode
G28 ; home all axes
M117 Purge extruder
G92 E0 ; reset extruder
G1 Z1.0 F3000 ; move z up little to prevent scratching of surface
G1 X0.1 Y20 Z0.3 F5000.0 ; move to start-line position G1 X0.1 Y200.0 Z0.3 F1500.0 E15 ; draw 1st line
G1 X0.4 Y200.0 Z0.3 F5000.0 ; move to side a little
G1 X0.4 Y20 Z0.3 F1500.0 E30 ; draw 2nd line
G92 E0 ; reset extruder
G1 Z1.0 F3000 ; move z up little to prevent scratching of surface
M117 All systems go!
G92 E0
G1 F6000 E-5
;LAYER_COUNT:51
;LAYER:0
M107
M204 S5000
M205 X30 Y30
G0 F7200 X71.768 Y25.025 Z0.2
M204 S500
M205 X20 Y20
;TYPE:SKIRT
G1 F6000 E0
G1 F900 X72.199 Y23.843 E0.04185
G1 X72.704 Y22.691 E0.08368
G1 X73.282 Y21.572 E0.12557
G1 X73.929 Y20.493 E0.16742
G1 X74.643 Y19.457 E0.20926
G1 X75.422 Y18.469 E0.25111
G1 X76.575 Y17.212 E0.30784
G1 X76.692 Y17.095 E0.31335
G1 X77.61 Y16.234 E0.35521
G1 X78.58 Y15.433 E0.39705
G1 X79.6 Y14.695 E0.43892
G1 X80.664 Y14.024 E0.48076
G1 X81.769 Y13.421 E0.52263
G1 X82.91 Y12.89 E0.56449
G1 X84.082 Y12.432 E0.60634
G1 X85.281 Y12.05 E0.64819
G1 X86.502 Y11.745 E0.69005
G1 X87.739 Y11.518 E0.73188
G1 X88.989 Y11.369 E0.77375
G1 X90.693 Y11.296 E0.83048
G1 X140.459 Y11.296 E2.4857
G1 X141.717 Y11.336 E2.52756
G1 X142.969 Y11.456 E2.5694
G1 X144.212 Y11.655 E2.61126
G1 X145.439 Y11.933 E2.65311
G1 X146.647 Y12.288 E2.69499
G1 X147.829 Y12.719 E2.73683
G1 X148.981 Y13.224 E2.77867
G1 X150.1 Y13.802 E2.82056
G1 X151.179 Y14.449 E2.8624
G1 X152.215 Y15.163 E2.90425
G1 X153.203 Y15.942 E2.9461
G1 X154.46 Y17.095 E3.00283
G1 X154.577 Y17.212 E3.00833
G1 X155.438 Y18.13 E3.05019
G1 X156.239 Y19.1 E3.09203
G1 X156.977 Y20.12 E3.13391
G1 X157.648 Y21.184 E3.17575
G1 X158.251 Y22.289 E3.21762
G1 X158.782 Y23.43 E3.25947
G1 X159.24 Y24.602 E3.30133
G1 X159.622 Y25.801 E3.34318
G1 X159.927 Y27.022 E3.38504
G1 X160.154 Y28.259 E3.42687
G1 X160.303 Y29.509 E3.46874
G1 X160.376 Y31.213 E3.52546
G1 X160.376 Y45.979 E4.01658
G1 X160.336 Y47.237 E4.05845
G1 X160.216 Y48.489 E4.10028
G1 X160.017 Y49.732 E4.14215
G1 X159.739 Y50.959 E4.18399
G1 X159.384 Y52.167 E4.22587
G1 X158.953 Y53.349 E4.26771
G1 X158.448 Y54.501 E4.30955
G1 X157.87 Y55.62 E4.35144
G1 X157.223 Y56.699 E4.39328
G1 X156.509 Y57.735 E4.43513
G1 X155.73 Y58.723 E4.47698
G1 X154.577 Y59.98 E4.53371
G1 X154.46 Y60.097 E4.53922
G1 X153.542 Y60.958 E4.58108
G1 X152.572 Y61.759 E4.62292
G1 X151.552 Y62.497 E4.66479
G1 X150.488 Y63.168 E4.70663
G1 X149.383 Y63.771 E4.7485
G1 X148.242 Y64.302 E4.79036
G1 X147.07 Y64.76 E4.83221
G1 X145.871 Y65.142 E4.87406
G1 X144.65 Y65.447 E4.91592
G1 X143.413 Y65.674 E4.95775
G1 X142.163 Y65.823 E4.99962
G1 X140.459 Y65.896 E5.05635
G1 X90.693 Y65.896 E6.71157
G1 X89.435 Y65.856 E6.75343
G1 X88.183 Y65.736 E6.79526
G1 X86.94 Y65.537 E6.83713
G1 X85.713 Y65.259 E6.87898
G1 X84.505 Y64.904 E6.92086
G1 X83.323 Y64.473 E6.9627
G1 X82.171 Y63.968 E7.00454
G1 X81.052 Y63.39 E7.04643
G1 X79.973 Y62.743 E7.08827
G1 X78.937 Y62.029 E7.13012
G1 X77.949 Y61.25 E7.17197
G1 X76.692 Y60.097 E7.2287
G1 X76.575 Y59.98 E7.2342
G1 X75.714 Y59.062 E7.27606
G1 X74.913 Y58.092 E7.3179
G1 X74.175 Y57.072 E7.35978
G1 X73.504 Y56.008 E7.40162
G1 X72.901 Y54.903 E7.44348
G1 X72.37 Y53.762 E7.48534
G1 X71.912 Y52.59 E7.52719
G1 X71.53 Y51.391 E7.56905
G1 X71.225 Y50.17 E7.61091
G1 X70.998 Y48.933 E7.65274
G1 X70.849 Y47.683 E7.69461
G1 X70.776 Y45.979 E7.75133
G1 X70.776 Y31.213 E8.24245
G1 X70.816 Y29.955 E8.28431
G1 X70.936 Y28.703 E8.32615
G1 X71.135 Y27.46 E8.36802
G1 X71.413 Y26.233 E8.40986
G1 X71.543 Y25.792 E8.42515
G0 F810 X71.768 Y25.025
M204 S5000
M205 X30 Y30
G0 F7200 X72.168 Y25.09
M204 S500
M205 X20 Y20
G1 F6000 E8.45176
G1 F900 X72.598 Y23.922 E8.49316
G1 X73.103 Y22.783 E8.5346
G1 X73.68 Y21.679 E8.57603
G1 X74.327 Y20.614 E8.61748
G1 X75.041 Y19.593 E8.65891
G1 X75.818 Y18.62 E8.70033
G1 X76.858 Y17.495 E8.75128
G1 X76.975 Y17.378 E8.75679
G1 X77.884 Y16.526 E8.79823
G1 X78.845 Y15.734 E8.83964
G1 X79.855 Y15.005 E8.88107
G1 X80.91 Y14.343 E8.9225
G1 X82.006 Y13.75 E8.96395
G1 X83.137 Y13.228 E9.00538
G1 X84.299 Y12.78 E9.0468
G1 X85.488 Y12.407 E9.08824
G1 X86.698 Y12.112 E9.12967
G1 X87.924 Y11.895 E9.17108
G1 X89.162 Y11.756 E9.21251
G1 X90.693 Y11.696 E9.26347
G1 X140.459 Y11.696 E10.9187
G1 X141.704 Y11.736 E10.96013
G1 X142.944 Y11.856 E11.00156
G1 X144.173 Y12.055 E11.04297
G1 X145.388 Y12.333 E11.08443
G1 X146.582 Y12.688 E11.12586
G1 X147.75 Y13.118 E11.16726
G1 X148.889 Y13.623 E11.2087
G1 X149.993 Y14.2 E11.25013
G1 X151.058 Y14.847 E11.29157
G1 X152.079 Y15.561 E11.33301
G1 X153.052 Y16.338 E11.37443
G1 X154.177 Y17.378 E11.42538
G1 X154.294 Y17.495 E11.43089
G1 X155.146 Y18.404 E11.47232
G1 X155.938 Y19.365 E11.51374
G1 X156.667 Y20.375 E11.55517
G1 X157.329 Y21.43 E11.5966
G1 X157.922 Y22.526 E11.63804
G1 X158.444 Y23.657 E11.67948
G1 X158.892 Y24.819 E11.7209
G1 X159.265 Y26.008 E11.76234
G1 X159.56 Y27.218 E11.80377
G1 X159.777 Y28.444 E11.84518
G1 X159.916 Y29.682 E11.88661
G1 X159.976 Y31.213 E11.93757
G1 X159.976 Y45.979 E12.42869
G1 X159.936 Y47.224 E12.47012
G1 X159.816 Y48.464 E12.51156
G1 X159.617 Y49.693 E12.55297
G1 X159.339 Y50.908 E12.59442
G1 X158.984 Y52.102 E12.63585
G1 X158.554 Y53.27 E12.67725
G1 X158.049 Y54.409 E12.71869
G1 X157.472 Y55.513 E12.76012
G1 X156.825 Y56.578 E12.80157
G1 X156.111 Y57.599 E12.84301
G1 X155.334 Y58.572 E12.88442
G1 X154.294 Y59.697 E12.93538
G1 X154.177 Y59.814 E12.94088
G1 X153.268 Y60.666 E12.98232
G1 X152.307 Y61.458 E13.02374
G1 X151.297 Y62.187 E13.06517
G1 X150.242 Y62.849 E13.10659
G1 X149.146 Y63.442 E13.14804
G1 X148.015 Y63.964 E13.18947
G1 X146.853 Y64.412 E13.23089
G1 X145.664 Y64.785 E13.27234
G1 X144.454 Y65.08 E13.31376
G1 X143.228 Y65.297 E13.35517
G1 X141.99 Y65.436 E13.39661
G1 X140.459 Y65.496 E13.44757
G1 X90.693 Y65.496 E15.10279
G1 X89.448 Y65.456 E15.14422
G1 X88.208 Y65.336 E15.18566
G1 X86.979 Y65.137 E15.22706
G1 X85.764 Y64.859 E15.26852
G1 X84.57 Y64.504 E15.30995
G1 X83.402 Y64.074 E15.35135
G1 X82.263 Y63.569 E15.39279
G1 X81.159 Y62.992 E15.43422
G1 X80.094 Y62.345 E15.47567
G1 X79.073 Y61.631 E15.5171
G1 X78.1 Y60.854 E15.55852
G1 X76.975 Y59.814 E15.60948
G1 X76.858 Y59.697 E15.61498
G1 X76.006 Y58.788 E15.65642
G1 X75.214 Y57.827 E15.69784
G1 X74.485 Y56.817 E15.73926
G1 X73.823 Y55.762 E15.78069
G1 X73.23 Y54.666 E15.82214
G1 X72.708 Y53.535 E15.86357
G1 X72.26 Y52.373 E15.90499
G1 X71.887 Y51.184 E15.94643
G1 X71.592 Y49.974 E15.98786
G1 X71.375 Y48.748 E16.02927
G1 X71.236 Y47.51 E16.0707
G1 X71.176 Y45.979 E16.12166
G1 X71.176 Y31.213 E16.61278
G1 X71.216 Y29.968 E16.65421
G1 X71.336 Y28.728 E16.69565
G1 X71.535 Y27.499 E16.73706
G1 X71.813 Y26.284 E16.77851
G1 X71.94 Y25.857 E16.79333
G0 F810 X72.168 Y25.09
M204 S5000
M205 X30 Y30
G0 F7200 X72.567 Y25.156
M204 S500
M205 X20 Y20
G1 F6000 E16.81994
G1 F900 X72.998 Y24.001 E16.86094
G1 X73.503 Y22.876 E16.90196
G1 X74.079 Y21.787 E16.94293
G1 X74.725 Y20.737 E16.98393
G1 X75.438 Y19.731 E17.02495
G1 X76.214 Y18.773 E17.06595
G1 X77.141 Y17.778 E17.11118
G1 X77.258 Y17.661 E17.11668
G1 X78.157 Y16.818 E17.15767
G1 X79.11 Y16.035 E17.1987
G1 X80.111 Y15.316 E17.23969
G1 X81.156 Y14.663 E17.28067
G1 X82.242 Y14.079 E17.32169
G1 X83.363 Y13.567 E17.36268
G1 X84.515 Y13.128 E17.40368
G1 X85.693 Y12.766 E17.44467
G1 X86.893 Y12.48 E17.4857
G1 X88.108 Y12.273 E17.52669
G1 X89.334 Y12.145 E17.56769
G1 X90.693 Y12.096 E17.61292
G1 X140.459 Y12.096 E19.26814
G1 X141.691 Y12.136 E19.30914
G1 X142.918 Y12.256 E19.35015
G1 X144.134 Y12.455 E19.39113
G1 X145.336 Y12.732 E19.43216
G1 X146.516 Y13.087 E19.47314
G1 X147.671 Y13.518 E19.51414
G1 X148.796 Y14.023 E19.55516
G1 X149.885 Y14.599 E19.59613
G1 X150.935 Y15.245 E19.63714
G1 X151.941 Y15.958 E19.67815
G1 X152.899 Y16.734 E19.71915
G1 X153.894 Y17.661 E19.76438
G1 X154.011 Y17.778 E19.76989
G1 X154.854 Y18.677 E19.81088
G1 X155.637 Y19.63 E19.8519
G1 X156.356 Y20.631 E19.89289
G1 X157.009 Y21.676 E19.93388
G1 X157.593 Y22.762 E19.97489
G1 X158.105 Y23.883 E20.01588
G1 X158.544 Y25.035 E20.05688
G1 X158.906 Y26.213 E20.09787
G1 X159.192 Y27.413 E20.1389
G1 X159.399 Y28.628 E20.17989
G1 X159.527 Y29.854 E20.22089
G1 X159.576 Y31.213 E20.26612
G1 X159.576 Y45.979 E20.75724
G1 X159.536 Y47.211 E20.79824
G1 X159.416 Y48.438 E20.83924
G1 X159.217 Y49.654 E20.88023
G1 X158.94 Y50.856 E20.92125
G1 X158.585 Y52.036 E20.96224
G1 X158.154 Y53.191 E21.00324
G1 X157.649 Y54.316 E21.04426
G1 X157.073 Y55.405 E21.08523
G1 X156.427 Y56.455 E21.12623
G1 X155.714 Y57.461 E21.16725
G1 X154.938 Y58.419 E21.20825
G1 X154.011 Y59.414 E21.25348
G1 X153.894 Y59.531 E21.25898
G1 X152.995 Y60.374 E21.29997
G1 X152.042 Y61.157 E21.341
G1 X151.041 Y61.876 E21.38199
G1 X149.996 Y62.529 E21.42297
G1 X148.91 Y63.113 E21.46399
G1 X147.789 Y63.625 E21.50498
G1 X146.637 Y64.064 E21.54598
G1 X145.459 Y64.426 E21.58697
G1 X144.259 Y64.712 E21.628
G1 X143.044 Y64.919 E21.66899
G1 X141.818 Y65.047 E21.70999
G1 X140.459 Y65.096 E21.75522
G1 X90.693 Y65.096 E23.41044
G1 X89.461 Y65.056 E23.45144
G1 X88.234 Y64.936 E23.49245
G1 X87.018 Y64.737 E23.53343
G1 X85.816 Y64.46 E23.57446
G1 X84.636 Y64.105 E23.61544
G1 X83.481 Y63.674 E23.65644
G1 X82.356 Y63.169 E23.69746
G1 X81.267 Y62.593 E23.73843
G1 X80.217 Y61.947 E23.77944
G1 X79.211 Y61.234 E23.82045
G1 X78.253 Y60.458 E23.86145
G1 X77.258 Y59.531 E23.90668
G1 X77.141 Y59.414 E23.91219
G1 X76.298 Y58.515 E23.95318
G1 X75.515 Y57.562 E23.9942
G1 X74.796 Y56.561 E24.03519
G1 X74.143 Y55.516 E24.07618
G1 X73.559 Y54.43 E24.11719
G1 X73.047 Y53.309 E24.15818
G1 X72.608 Y52.157 E24.19918
G1 X72.246 Y50.979 E24.24017
G1 X71.96 Y49.779 E24.2812
G1 X71.753 Y48.564 E24.32219
G1 X71.625 Y47.338 E24.36319
G1 X71.576 Y45.979 E24.40842
G1 X71.576 Y31.213 E24.89954
G1 X71.616 Y29.981 E24.94054
G1 X71.736 Y28.754 E24.98154
G1 X71.935 Y27.538 E25.02253
G1 X72.212 Y26.336 E25.06355
G1 X72.337 Y25.922 E25.07794
G0 F810 X72.567 Y25.156
M204 S5000
M205 X30 Y30
G0 F7200 X72.967 Y25.222
M204 S500
M205 X20 Y20
G1 F6000 E25.10454
G1 F900 X73.398 Y24.081 E25.14511
G1 X73.902 Y22.971 E25.18566
G1 X74.478 Y21.896 E25.22622
G1 X75.123 Y20.861 E25.26678
G1 X75.835 Y19.87 E25.30737
G1 X76.61 Y18.928 E25.34794
G1 X77.424 Y18.061 E25.3875
G1 X77.541 Y17.944 E25.393
G1 X78.431 Y17.11 E25.43357
G1 X79.374 Y16.337 E25.47412
G1 X80.366 Y15.626 E25.51471
G1 X81.402 Y14.983 E25.55527
G1 X82.478 Y14.409 E25.59583
G1 X83.589 Y13.906 E25.63639
G1 X84.731 Y13.477 E25.67697
G1 X85.898 Y13.125 E25.71751
G1 X87.087 Y12.849 E25.75811
G1 X88.29 Y12.652 E25.79865
G1 X89.504 Y12.534 E25.83922
G1 X90.693 Y12.496 E25.87879
G1 X140.459 Y12.496 E27.53401
G1 X141.678 Y12.536 E27.57458
G1 X142.892 Y12.656 E27.61515
G1 X144.095 Y12.855 E27.65571
G1 X145.283 Y13.132 E27.69628
G1 X146.45 Y13.487 E27.73685
G1 X147.591 Y13.918 E27.77742
G1 X148.701 Y14.422 E27.81796
G1 X149.776 Y14.998 E27.85853
G1 X150.811 Y15.643 E27.89909
G1 X151.802 Y16.355 E27.93968
G1 X152.744 Y17.13 E27.98025
G1 X153.611 Y17.944 E28.0198
G1 X153.728 Y18.061 E28.02531
G1 X154.562 Y18.951 E28.06587
G1 X155.335 Y19.894 E28.10643
G1 X156.046 Y20.886 E28.14702
G1 X156.689 Y21.922 E28.18758
G1 X157.263 Y22.998 E28.22814
G1 X157.766 Y24.109 E28.2687
G1 X158.195 Y25.251 E28.30928
G1 X158.547 Y26.418 E28.34982
G1 X158.823 Y27.607 E28.39041
G1 X159.02 Y28.81 E28.43096
G1 X159.138 Y30.024 E28.47153
G1 X159.176 Y31.213 E28.51109
G1 X159.176 Y45.979 E29.00221
G1 X159.136 Y47.198 E29.04278
G1 X159.016 Y48.412 E29.08335
G1 X158.817 Y49.615 E29.12391
G1 X158.54 Y50.803 E29.16448
G1 X158.185 Y51.97 E29.20505
G1 X157.754 Y53.111 E29.24562
G1 X157.25 Y54.221 E29.28617
G1 X156.674 Y55.296 E29.32673
G1 X156.029 Y56.331 E29.36729
G1 X155.317 Y57.322 E29.40788
G1 X154.542 Y58.264 E29.44845
G1 X153.728 Y59.131 E29.488
G1 X153.611 Y59.248 E29.49351
G1 X152.721 Y60.082 E29.53407
G1 X151.778 Y60.855 E29.57463
G1 X150.786 Y61.566 E29.61522
G1 X149.75 Y62.209 E29.65578
G1 X148.674 Y62.783 E29.69634
G1 X147.563 Y63.286 E29.7369
G1 X146.421 Y63.715 E29.77748
G1 X145.254 Y64.067 E29.81802
G1 X144.065 Y64.343 E29.85862
G1 X142.862 Y64.54 E29.89916
G1 X141.648 Y64.658 E29.93973
G1 X140.459 Y64.696 E29.9793
G1 X90.693 Y64.696 E31.63452
G1 X89.474 Y64.656 E31.67509
G1 X88.26 Y64.536 E31.71566
G1 X87.057 Y64.337 E31.75622
G1 X85.869 Y64.06 E31.79679
G1 X84.702 Y63.705 E31.83736
G1 X83.561 Y63.274 E31.87793
G1 X82.451 Y62.77 E31.91847
G1 X81.376 Y62.194 E31.95904
G1 X80.341 Y61.549 E31.9996
G1 X79.35 Y60.837 E32.04018
G1 X78.408 Y60.062 E32.08076
G1 X77.541 Y59.248 E32.12031
G1 X77.424 Y59.131 E32.12581
G1 X76.59 Y58.241 E32.16638
G1 X75.817 Y57.298 E32.20694
G1 X75.106 Y56.306 E32.24753
G1 X74.463 Y55.27 E32.28808
G1 X73.889 Y54.194 E32.32865
G1 X73.386 Y53.083 E32.36921
G1 X72.957 Y51.941 E32.40978
G1 X72.605 Y50.774 E32.45033
G1 X72.329 Y49.585 E32.49092
G1 X72.132 Y48.382 E32.53147
G1 X72.014 Y47.168 E32.57204
G1 X71.976 Y45.979 E32.6116
G1 X71.976 Y31.213 E33.10272
G1 X72.016 Y29.994 E33.14329
G1 X72.136 Y28.78 E33.18386
G1 X72.335 Y27.577 E33.22442
G1 X72.612 Y26.389 E33.26499
G1 X72.735 Y25.987 E33.27897
G0 F810 X72.967 Y25.222
M204 S5000
M205 X30 Y30
G0 F7200 X73.367 Y25.289
M204 S500
M205 X20 Y20
G1 F6000 E33.30558
G1 F900 X73.797 Y24.162 E33.3457
G1 X74.301 Y23.066 E33.38582
G1 X74.877 Y22.006 E33.42595
G1 X75.521 Y20.986 E33.46607
G1 X76.232 Y20.011 E33.50621
G1 X77.006 Y19.085 E33.54635
G1 X77.707 Y18.344 E33.58027
G1 X77.824 Y18.227 E33.58578
G1 X78.705 Y17.402 E33.62592
G1 X79.638 Y16.638 E33.66603
G1 X80.62 Y15.937 E33.70616
G1 X81.647 Y15.303 E33.7463
G1 X82.713 Y14.739 E33.78641
G1 X83.814 Y14.246 E33.82654
G1 X84.946 Y13.827 E33.86668
G1 X86.103 Y13.484 E33.90682
G1 X87.279 Y13.219 E33.94691
G1 X88.471 Y13.032 E33.98705
G1 X89.673 Y12.925 E34.02718
G1 X90.693 Y12.896 E34.06112
G1 X140.459 Y12.896 E35.71635
G1 X141.665 Y12.936 E35.75648
G1 X142.865 Y13.056 E35.79659
G1 X144.055 Y13.255 E35.83672
G1 X145.229 Y13.532 E35.87684
G1 X146.383 Y13.887 E35.917
G1 X147.51 Y14.317 E35.95712
G1 X148.606 Y14.821 E35.99724
G1 X149.666 Y15.397 E36.03736
G1 X150.686 Y16.041 E36.07749
G1 X151.661 Y16.752 E36.11762
G1 X152.587 Y17.526 E36.15776
G1 X153.328 Y18.227 E36.19169
G1 X153.445 Y18.344 E36.19719
G1 X154.27 Y19.225 E36.23734
G1 X155.034 Y20.158 E36.27744
G1 X155.735 Y21.14 E36.31757
G1 X156.369 Y22.167 E36.35772
G1 X156.933 Y23.233 E36.39783
G1 X157.426 Y24.334 E36.43795
G1 X157.845 Y25.466 E36.4781
G1 X158.188 Y26.623 E36.51824
G1 X158.453 Y27.799 E36.55833
G1 X158.64 Y28.991 E36.59846
G1 X158.747 Y30.193 E36.6386
G1 X158.776 Y31.213 E36.67254
G1 X158.776 Y45.979 E37.16366
G1 X158.736 Y47.185 E37.20379
G1 X158.616 Y48.385 E37.2439
G1 X158.417 Y49.575 E37.28403
G1 X158.14 Y50.749 E37.32415
G1 X157.785 Y51.903 E37.36431
G1 X157.355 Y53.03 E37.40443
G1 X156.851 Y54.126 E37.44455
G1 X156.275 Y55.186 E37.48467
G1 X155.631 Y56.206 E37.5248
G1 X154.92 Y57.181 E37.56493
G1 X154.146 Y58.107 E37.60507
G1 X153.445 Y58.848 E37.639
G1 X153.328 Y58.965 E37.6445
G1 X152.447 Y59.79 E37.68465
G1 X151.514 Y60.554 E37.72475
G1 X150.532 Y61.255 E37.76488
G1 X149.505 Y61.889 E37.80503
G1 X148.439 Y62.453 E37.84514
G1 X147.338 Y62.946 E37.88526
G1 X146.206 Y63.365 E37.92541
G1 X145.049 Y63.708 E37.96555
G1 X143.873 Y63.973 E38.00564
G1 X142.681 Y64.16 E38.04577
G1 X141.479 Y64.267 E38.08591
G1 X140.459 Y64.296 E38.11985
G1 X90.693 Y64.296 E39.77507
G1 X89.487 Y64.256 E39.8152
G1 X88.287 Y64.136 E39.85532
G1 X87.097 Y63.937 E39.89544
G1 X85.923 Y63.66 E39.93556
G1 X84.769 Y63.305 E39.97572
G1 X83.642 Y62.875 E40.01584
G1 X82.546 Y62.371 E40.05596
G1 X81.486 Y61.795 E40.09609
G1 X80.466 Y61.151 E40.13621
G1 X79.491 Y60.44 E40.17635
G1 X78.565 Y59.666 E40.21649
G1 X77.824 Y58.965 E40.25041
G1 X77.707 Y58.848 E40.25592
G1 X76.882 Y57.967 E40.29606
G1 X76.118 Y57.034 E40.33617
G1 X75.417 Y56.052 E40.3763
G1 X74.783 Y55.025 E40.41644
G1 X74.219 Y53.959 E40.45655
G1 X73.726 Y52.858 E40.49668
