;FLAVOR:Marlin
;TIME:3183
;Filament used: 2.86498m
;Layer height: 0.2
;Generated with Cura_SteamEngine 3.6.0
M140 S70
M105
M190 S70
M104 S215
M105
M109 S215
M82 ;absolute extrusion mode
G28 ; home all axes
M117 Purge extruder
G92 E0 ; reset extruder
G1 Z1.0 F3000 ; move z up little to prevent scratching of surface
G1 X0.1 Y20 Z0.3 F5000.0 ; move to start-line position G1 X0.1 Y200.0 Z0.3 F1500.0 E15 ; draw 1st line
G1 X0.4 Y200.0 Z0.3 F5000.0 ; move to side a little
G1 X0.4 Y20 Z0.3 F1500.0 E30 ; draw 2nd line
G92 E0 ; reset extruder
G1 Z1.0 F3000 ; move z up little to prevent scratching of surface
M117 All systems go!
G92 E0
G1 F6000 E-5
;LAYER_COUNT:51
;LAYER:0
M107
M204 S5000
M205 X30 Y30
G0 F7200 X75.29 Y25.727 Z0.2
M204 S500
M205 X20 Y20
;TYPE:SKIRT
G1 F6000 E0
G1 F900 X75.721 Y24.545 E0.04185
G1 X76.226 Y23.393 E0.08368
G1 X76.804 Y22.274 E0.12557
G1 X77.451 Y21.195 E0.16742
G1 X78.165 Y20.159 E0.20926
G1 X78.944 Y19.171 E0.25111
G1 X80.097 Y17.914 E0.30784
G1 X80.214 Y17.797 E0.31335
G1 X81.132 Y16.936 E0.35521
G1 X82.102 Y16.135 E0.39705
G1 X83.122 Y15.397 E0.43892
G1 X84.186 Y14.726 E0.48076
G1 X85.291 Y14.123 E0.52263
G1 X86.432 Y13.592 E0.56449
G1 X87.604 Y13.134 E0.60634
G1 X88.803 Y12.752 E0.64819
G1 X90.024 Y12.447 E0.69005
G1 X91.261 Y12.22 E0.73188
G1 X92.511 Y12.071 E0.77375
G1 X94.215 Y11.998 E0.83048
G1 X143.981 Y11.998 E2.4857
G1 X145.239 Y12.038 E2.52756
G1 X146.491 Y12.158 E2.5694
G1 X147.734 Y12.357 E2.61126
G1 X148.961 Y12.635 E2.65311
G1 X150.169 Y12.99 E2.69499
G1 X151.351 Y13.421 E2.73683
G1 X152.503 Y13.926 E2.77867
G1 X153.622 Y14.504 E2.82056
G1 X154.701 Y15.151 E2.8624
G1 X155.737 Y15.865 E2.90425
G1 X156.725 Y16.644 E2.9461
G1 X157.982 Y17.797 E3.00283
G1 X158.099 Y17.914 E3.00833
G1 X158.96 Y18.832 E3.05019
G1 X159.761 Y19.802 E3.09203
G1 X160.499 Y20.822 E3.13391
G1 X161.17 Y21.886 E3.17575
G1 X161.773 Y22.991 E3.21762
G1 X162.304 Y24.132 E3.25947
G1 X162.762 Y25.304 E3.30133
G1 X163.144 Y26.503 E3.34318
G1 X163.449 Y27.724 E3.38504
G1 X163.676 Y28.961 E3.42687
G1 X163.825 Y30.211 E3.46874
G1 X163.898 Y31.915 E3.52546
G1 X163.898 Y51.681 E4.18288
G1 X163.858 Y52.939 E4.22475
G1 X163.738 Y54.191 E4.26658
G1 X163.539 Y55.434 E4.30845
G1 X163.261 Y56.661 E4.35029
G1 X162.906 Y57.869 E4.39217
G1 X162.475 Y59.051 E4.43401
G1 X161.97 Y60.203 E4.47585
G1 X161.392 Y61.322 E4.51774
G1 X160.745 Y62.401 E4.55959
G1 X160.031 Y63.437 E4.60143
G1 X159.252 Y64.425 E4.64328
G1 X158.099 Y65.682 E4.70001
G1 X157.982 Y65.799 E4.70552
G1 X157.064 Y66.66 E4.74738
G1 X156.094 Y67.461 E4.78922
G1 X155.074 Y68.199 E4.83109
G1 X154.01 Y68.87 E4.87293
G1 X152.905 Y69.473 E4.9148
G1 X151.764 Y70.004 E4.95666
G1 X150.592 Y70.462 E4.99851
G1 X149.393 Y70.844 E5.04036
G1 X148.172 Y71.149 E5.08222
G1 X146.935 Y71.376 E5.12405
G1 X145.685 Y71.525 E5.16592
G1 X143.981 Y71.598 E5.22265
G1 X94.215 Y71.598 E6.87787
G1 X92.957 Y71.558 E6.91973
G1 X91.705 Y71.438 E6.96157
G1 X90.462 Y71.239 E7.00343
G1 X89.235 Y70.961 E7.04528
G1 X88.027 Y70.606 E7.08716
G1 X86.845 Y70.175 E7.129
G1 X85.693 Y69.67 E7.17084
G1 X84.574 Y69.092 E7.21273
G1 X83.495 Y68.445 E7.25457
G1 X82.459 Y67.731 E7.29642
G1 X81.471 Y66.952 E7.33827
G1 X80.214 Y65.799 E7.395
G1 X80.097 Y65.682 E7.4005
G1 X79.236 Y64.764 E7.44236
G1 X78.435 Y63.794 E7.4842
G1 X77.697 Y62.774 E7.52608
G1 X77.026 Y61.71 E7.56792
G1 X76.423 Y60.605 E7.60978
G1 X75.892 Y59.464 E7.65164
G1 X75.434 Y58.292 E7.69349
G1 X75.052 Y57.093 E7.73535
G1 X74.747 Y55.872 E7.77721
G1 X74.52 Y54.635 E7.81904
G1 X74.371 Y53.385 E7.86091
G1 X74.298 Y51.681 E7.91763
G1 X74.298 Y31.915 E8.57505
G1 X74.338 Y30.657 E8.61692
G1 X74.458 Y29.405 E8.65875
G1 X74.657 Y28.162 E8.70062
G1 X74.935 Y26.935 E8.74246
G1 X75.065 Y26.494 E8.75775
G0 F810 X75.29 Y25.727
M204 S5000
M205 X30 Y30
G0 F7200 X75.69 Y25.792
M204 S500
M205 X20 Y20
G1 F6000 E8.78436
G1 F900 X76.12 Y24.624 E8.82576
G1 X76.625 Y23.485 E8.8672
G1 X77.202 Y22.381 E8.90863
G1 X77.849 Y21.316 E8.95008
G1 X78.563 Y20.295 E8.99151
G1 X79.34 Y19.322 E9.03293
G1 X80.38 Y18.197 E9.08389
G1 X80.497 Y18.08 E9.08939
G1 X81.406 Y17.228 E9.13083
G1 X82.367 Y16.436 E9.17225
G1 X83.377 Y15.707 E9.21368
G1 X84.432 Y15.045 E9.2551
G1 X85.528 Y14.452 E9.29655
G1 X86.659 Y13.93 E9.33798
G1 X87.821 Y13.482 E9.3794
G1 X89.01 Y13.109 E9.42085
G1 X90.22 Y12.814 E9.46227
G1 X91.446 Y12.597 E9.50368
G1 X92.684 Y12.458 E9.54512
G1 X94.215 Y12.398 E9.59608
G1 X143.981 Y12.398 E11.2513
G1 X145.226 Y12.438 E11.29273
G1 X146.466 Y12.558 E11.33416
G1 X147.695 Y12.757 E11.37557
G1 X148.91 Y13.035 E11.41703
G1 X150.104 Y13.39 E11.45846
G1 X151.272 Y13.82 E11.49986
G1 X152.411 Y14.325 E11.5413
G1 X153.515 Y14.902 E11.58273
G1 X154.58 Y15.549 E11.62417
G1 X155.601 Y16.263 E11.66561
G1 X156.574 Y17.04 E11.70703
G1 X157.699 Y18.08 E11.75798
G1 X157.816 Y18.197 E11.76349
G1 X158.668 Y19.106 E11.80493
G1 X159.46 Y20.067 E11.84634
G1 X160.189 Y21.077 E11.88777
G1 X160.851 Y22.132 E11.9292
G1 X161.444 Y23.228 E11.97065
G1 X161.966 Y24.359 E12.01208
G1 X162.414 Y25.521 E12.0535
G1 X162.787 Y26.71 E12.09494
G1 X163.082 Y27.92 E12.13637
G1 X163.299 Y29.146 E12.17778
G1 X163.438 Y30.384 E12.21921
G1 X163.498 Y31.915 E12.27017
G1 X163.498 Y51.681 E12.92759
G1 X163.458 Y52.926 E12.96902
G1 X163.338 Y54.166 E13.01046
G1 X163.139 Y55.395 E13.05187
G1 X162.861 Y56.61 E13.09332
G1 X162.506 Y57.804 E13.13475
G1 X162.076 Y58.972 E13.17615
G1 X161.571 Y60.111 E13.21759
G1 X160.994 Y61.215 E13.25902
G1 X160.347 Y62.28 E13.30047
G1 X159.633 Y63.301 E13.34191
G1 X158.856 Y64.274 E13.38332
G1 X157.816 Y65.399 E13.43428
G1 X157.699 Y65.516 E13.43978
G1 X156.79 Y66.368 E13.48122
G1 X155.829 Y67.16 E13.52264
G1 X154.819 Y67.889 E13.56407
G1 X153.764 Y68.551 E13.60549
G1 X152.668 Y69.144 E13.64694
G1 X151.537 Y69.666 E13.68837
G1 X150.375 Y70.114 E13.72979
G1 X149.186 Y70.487 E13.77124
G1 X147.976 Y70.782 E13.81266
G1 X146.75 Y70.999 E13.85407
G1 X145.512 Y71.138 E13.89551
G1 X143.981 Y71.198 E13.94647
G1 X94.215 Y71.198 E15.60169
G1 X92.97 Y71.158 E15.64312
G1 X91.73 Y71.038 E15.68456
G1 X90.501 Y70.839 E15.72597
G1 X89.286 Y70.561 E15.76742
G1 X88.092 Y70.206 E15.80885
G1 X86.924 Y69.776 E15.85025
G1 X85.785 Y69.271 E15.89169
G1 X84.681 Y68.694 E15.93312
G1 X83.616 Y68.047 E15.97457
G1 X82.595 Y67.333 E16.01601
G1 X81.622 Y66.556 E16.05742
G1 X80.497 Y65.516 E16.10838
G1 X80.38 Y65.399 E16.11388
G1 X79.528 Y64.49 E16.15532
G1 X78.736 Y63.529 E16.19674
G1 X78.007 Y62.519 E16.23817
G1 X77.345 Y61.464 E16.27959
G1 X76.752 Y60.368 E16.32104
G1 X76.23 Y59.237 E16.36247
G1 X75.782 Y58.075 E16.40389
G1 X75.409 Y56.886 E16.44534
G1 X75.114 Y55.676 E16.48676
G1 X74.897 Y54.45 E16.52817
G1 X74.758 Y53.212 E16.56961
G1 X74.698 Y51.681 E16.62057
G1 X74.698 Y31.915 E17.27799
G1 X74.738 Y30.67 E17.31942
G1 X74.858 Y29.43 E17.36085
G1 X75.057 Y28.201 E17.40226
G1 X75.335 Y26.986 E17.44372
G1 X75.462 Y26.559 E17.45853
G0 F810 X75.69 Y25.792
M204 S5000
M205 X30 Y30
G0 F7200 X76.089 Y25.858
M204 S500
M205 X20 Y20
G1 F6000 E17.48514
G1 F900 X76.52 Y24.703 E17.52614
G1 X77.025 Y23.578 E17.56716
G1 X77.601 Y22.489 E17.60813
G1 X78.247 Y21.439 E17.64914
G1 X78.96 Y20.433 E17.69015
G1 X79.736 Y19.475 E17.73115
G1 X80.663 Y18.48 E17.77638
G1 X80.78 Y18.363 E17.78189
G1 X81.679 Y17.52 E17.82288
G1 X82.632 Y16.737 E17.8639
G1 X83.633 Y16.018 E17.90489
G1 X84.678 Y15.365 E17.94588
G1 X85.764 Y14.781 E17.98689
G1 X86.885 Y14.269 E18.02788
G1 X88.037 Y13.83 E18.06888
G1 X89.215 Y13.468 E18.10987
G1 X90.415 Y13.182 E18.1509
G1 X91.63 Y12.975 E18.19189
G1 X92.856 Y12.847 E18.23289
G1 X94.215 Y12.798 E18.27812
G1 X143.981 Y12.798 E19.93335
G1 X145.213 Y12.838 E19.97435
G1 X146.44 Y12.958 E20.01535
G1 X147.656 Y13.157 E20.05633
G1 X148.858 Y13.434 E20.09736
G1 X150.038 Y13.789 E20.13834
G1 X151.193 Y14.22 E20.17935
G1 X152.318 Y14.725 E20.22036
G1 X153.407 Y15.301 E20.26134
G1 X154.457 Y15.947 E20.30234
G1 X155.463 Y16.66 E20.34335
G1 X156.421 Y17.436 E20.38436
G1 X157.416 Y18.363 E20.42959
G1 X157.533 Y18.48 E20.43509
G1 X158.376 Y19.379 E20.47608
G1 X159.159 Y20.332 E20.5171
G1 X159.878 Y21.333 E20.5581
G1 X160.531 Y22.378 E20.59908
G1 X161.115 Y23.464 E20.64009
G1 X161.627 Y24.585 E20.68108
G1 X162.066 Y25.737 E20.72208
G1 X162.428 Y26.915 E20.76307
G1 X162.714 Y28.115 E20.8041
G1 X162.921 Y29.33 E20.8451
G1 X163.049 Y30.556 E20.8861
G1 X163.098 Y31.915 E20.93133
G1 X163.098 Y51.681 E21.58875
G1 X163.058 Y52.913 E21.62974
G1 X162.938 Y54.14 E21.67075
G1 X162.739 Y55.356 E21.71173
G1 X162.462 Y56.558 E21.75276
G1 X162.107 Y57.738 E21.79374
G1 X161.676 Y58.893 E21.83474
G1 X161.171 Y60.018 E21.87576
G1 X160.595 Y61.107 E21.91673
G1 X159.949 Y62.157 E21.95774
G1 X159.236 Y63.163 E21.99875
G1 X158.46 Y64.121 E22.03975
G1 X157.533 Y65.116 E22.08498
G1 X157.416 Y65.233 E22.09049
G1 X156.517 Y66.076 E22.13148
G1 X155.564 Y66.859 E22.1725
G1 X154.563 Y67.578 E22.21349
G1 X153.518 Y68.231 E22.25448
G1 X152.432 Y68.815 E22.29549
G1 X151.311 Y69.327 E22.33648
G1 X150.159 Y69.766 E22.37748
G1 X148.981 Y70.128 E22.41847
G1 X147.781 Y70.414 E22.4595
G1 X146.566 Y70.621 E22.50049
G1 X145.34 Y70.749 E22.54149
G1 X143.981 Y70.798 E22.58672
G1 X94.215 Y70.798 E24.24195
G1 X92.983 Y70.758 E24.28295
G1 X91.756 Y70.638 E24.32395
G1 X90.54 Y70.439 E24.36493
G1 X89.338 Y70.162 E24.40596
G1 X88.158 Y69.807 E24.44694
G1 X87.003 Y69.376 E24.48795
G1 X85.878 Y68.871 E24.52896
G1 X84.789 Y68.295 E24.56994
G1 X83.739 Y67.649 E24.61094
G1 X82.733 Y66.936 E24.65195
G1 X81.775 Y66.16 E24.69296
G1 X80.78 Y65.233 E24.73819
G1 X80.663 Y65.116 E24.74369
G1 X79.82 Y64.217 E24.78468
G1 X79.037 Y63.264 E24.8257
G1 X78.318 Y62.263 E24.8667
G1 X77.665 Y61.218 E24.90768
G1 X77.081 Y60.132 E24.94869
G1 X76.569 Y59.011 E24.98968
G1 X76.13 Y57.859 E25.03068
G1 X75.768 Y56.681 E25.07167
G1 X75.482 Y55.481 E25.1127
G1 X75.275 Y54.266 E25.1537
G1 X75.147 Y53.04 E25.1947
G1 X75.098 Y51.681 E25.23993
G1 X75.098 Y31.915 E25.89735
G1 X75.138 Y30.683 E25.93834
G1 X75.258 Y29.456 E25.97935
G1 X75.457 Y28.24 E26.02033
G1 X75.734 Y27.038 E26.06136
G1 X75.859 Y26.624 E26.07574
G0 F810 X76.089 Y25.858
M204 S5000
M205 X30 Y30
G0 F7200 X76.489 Y25.924
M204 S500
M205 X20 Y20
G1 F6000 E26.10235
G1 F900 X76.92 Y24.783 E26.14292
G1 X77.424 Y23.673 E26.18346
G1 X78 Y22.598 E26.22403
G1 X78.645 Y21.563 E26.26459
G1 X79.357 Y20.572 E26.30517
G1 X80.132 Y19.63 E26.34575
G1 X80.946 Y18.763 E26.3853
G1 X81.063 Y18.646 E26.3908
G1 X81.953 Y17.812 E26.43137
G1 X82.896 Y17.039 E26.47193
G1 X83.888 Y16.328 E26.51252
G1 X84.924 Y15.685 E26.55307
G1 X86 Y15.111 E26.59364
G1 X87.111 Y14.608 E26.6342
G1 X88.253 Y14.179 E26.67477
G1 X89.42 Y13.827 E26.71531
G1 X90.609 Y13.551 E26.75591
G1 X91.812 Y13.354 E26.79646
G1 X93.026 Y13.236 E26.83703
G1 X94.215 Y13.198 E26.87659
G1 X143.981 Y13.198 E28.53182
G1 X145.2 Y13.238 E28.57238
G1 X146.414 Y13.358 E28.61296
G1 X147.617 Y13.557 E28.65351
G1 X148.805 Y13.834 E28.69408
G1 X149.972 Y14.189 E28.73466
G1 X151.113 Y14.62 E28.77522
G1 X152.223 Y15.124 E28.81577
G1 X153.298 Y15.7 E28.85633
G1 X154.333 Y16.345 E28.89689
G1 X155.324 Y17.057 E28.93748
G1 X156.266 Y17.832 E28.97805
G1 X157.133 Y18.646 E29.01761
G1 X157.25 Y18.763 E29.02311
G1 X158.084 Y19.653 E29.06368
G1 X158.857 Y20.596 E29.10423
G1 X159.568 Y21.588 E29.14483
G1 X160.211 Y22.624 E29.18538
G1 X160.785 Y23.7 E29.22594
G1 X161.288 Y24.811 E29.2665
G1 X161.717 Y25.953 E29.30708
G1 X162.069 Y27.12 E29.34762
G1 X162.345 Y28.309 E29.38822
G1 X162.542 Y29.512 E29.42876
G1 X162.66 Y30.726 E29.46933
G1 X162.698 Y31.915 E29.5089
G1 X162.698 Y51.681 E30.16632
G1 X162.658 Y52.9 E30.20688
G1 X162.538 Y54.114 E30.24746
G1 X162.339 Y55.317 E30.28801
G1 X162.062 Y56.505 E30.32859
G1 X161.707 Y57.672 E30.36916
G1 X161.276 Y58.813 E30.40973
G1 X160.772 Y59.923 E30.45027
G1 X160.196 Y60.998 E30.49084
G1 X159.551 Y62.033 E30.5314
G1 X158.839 Y63.024 E30.57198
G1 X158.064 Y63.966 E30.61255
G1 X157.25 Y64.833 E30.65211
G1 X157.133 Y64.95 E30.65761
G1 X156.243 Y65.784 E30.69818
G1 X155.3 Y66.557 E30.73873
G1 X154.308 Y67.268 E30.77933
G1 X153.272 Y67.911 E30.81988
G1 X152.196 Y68.485 E30.86044
G1 X151.085 Y68.988 E30.90101
G1 X149.943 Y69.417 E30.94158
G1 X148.776 Y69.769 E30.98212
G1 X147.587 Y70.045 E31.02272
G1 X146.384 Y70.242 E31.06327
G1 X145.17 Y70.36 E31.10383
G1 X143.981 Y70.398 E31.1434
G1 X94.215 Y70.398 E32.79862
G1 X92.996 Y70.358 E32.83919
G1 X91.782 Y70.238 E32.87977
G1 X90.579 Y70.039 E32.92032
G1 X89.391 Y69.762 E32.96089
G1 X88.224 Y69.407 E33.00146
G1 X87.083 Y68.976 E33.04203
G1 X85.973 Y68.472 E33.08258
G1 X84.898 Y67.896 E33.12314
G1 X83.863 Y67.251 E33.1637
G1 X82.872 Y66.539 E33.20429
G1 X81.93 Y65.764 E33.24486
G1 X81.063 Y64.95 E33.28442
G1 X80.946 Y64.833 E33.28992
G1 X80.112 Y63.943 E33.33049
G1 X79.339 Y63 E33.37104
G1 X78.628 Y62.008 E33.41163
G1 X77.985 Y60.972 E33.45219
G1 X77.411 Y59.896 E33.49275
G1 X76.908 Y58.785 E33.53331
G1 X76.479 Y57.643 E33.57389
G1 X76.127 Y56.476 E33.61443
G1 X75.851 Y55.287 E33.65503
G1 X75.654 Y54.084 E33.69557
G1 X75.536 Y52.87 E33.73614
G1 X75.498 Y51.681 E33.77571
G1 X75.498 Y31.915 E34.43313
G1 X75.538 Y30.696 E34.47369
G1 X75.658 Y29.482 E34.51427
G1 X75.857 Y28.279 E34.55482
G1 X76.134 Y27.091 E34.5954
G1 X76.257 Y26.689 E34.60938
G0 F810 X76.489 Y25.924
M204 S5000
M205 X30 Y30
G0 F7200 X76.889 Y25.991
M204 S500
M205 X20 Y20
G1 F6000 E34.63599
G1 F900 X77.319 Y24.864 E34.67611
G1 X77.823 Y23.768 E34.71623
G1 X78.399 Y22.708 E34.75635
G1 X79.043 Y21.688 E34.79648
G1 X79.754 Y20.713 E34.83661
G1 X80.528 Y19.787 E34.87675
G1 X81.229 Y19.046 E34.91068
G1 X81.346 Y18.929 E34.91618
G1 X82.227 Y18.104 E34.95633
G1 X83.16 Y17.34 E34.99643
G1 X84.142 Y16.639 E35.03656
G1 X85.169 Y16.005 E35.07671
G1 X86.235 Y15.441 E35.11682
G1 X87.336 Y14.948 E35.15694
G1 X88.468 Y14.529 E35.19709
G1 X89.625 Y14.186 E35.23723
G1 X90.801 Y13.921 E35.27732
G1 X91.993 Y13.734 E35.31745
G1 X93.195 Y13.627 E35.35759
G1 X94.215 Y13.598 E35.39153
G1 X143.981 Y13.598 E37.04675
G1 X145.187 Y13.638 E37.08688
G1 X146.387 Y13.758 E37.127
G1 X147.577 Y13.957 E37.16713
G1 X148.751 Y14.234 E37.20724
G1 X149.905 Y14.589 E37.2474
G1 X151.032 Y15.019 E37.28752
G1 X152.128 Y15.523 E37.32764
G1 X153.188 Y16.099 E37.36777
G1 X154.208 Y16.743 E37.40789
G1 X155.183 Y17.454 E37.44803
G1 X156.109 Y18.228 E37.48817
G1 X156.85 Y18.929 E37.52209
G1 X156.967 Y19.046 E37.5276
G1 X157.792 Y19.927 E37.56774
G1 X158.556 Y20.86 E37.60785
G1 X159.257 Y21.842 E37.64798
G1 X159.891 Y22.869 E37.68812
G1 X160.455 Y23.935 E37.72823
G1 X160.948 Y25.036 E37.76836
G1 X161.367 Y26.168 E37.8085
G1 X161.71 Y27.325 E37.84864
G1 X161.975 Y28.501 E37.88874
G1 X162.162 Y29.693 E37.92887
G1 X162.269 Y30.895 E37.969
G1 X162.298 Y31.915 E38.00294
G1 X162.298 Y51.681 E38.66036
G1 X162.258 Y52.887 E38.7005
G1 X162.138 Y54.087 E38.74061
G1 X161.939 Y55.277 E38.78074
G1 X161.662 Y56.451 E38.82086
G1 X161.307 Y57.605 E38.86101
G1 X160.877 Y58.732 E38.90113
G1 X160.373 Y59.828 E38.94126
G1 X159.797 Y60.888 E38.98138
G1 X159.153 Y61.908 E39.0215
G1 X158.442 Y62.883 E39.06164
G1 X157.668 Y63.809 E39.10178
G1 X156.967 Y64.55 E39.1357
G1 X156.85 Y64.667 E39.14121
G1 X155.969 Y65.492 E39.18135
G1 X155.036 Y66.256 E39.22146
G1 X154.054 Y66.957 E39.26159
G1 X153.027 Y67.591 E39.30173
G1 X151.961 Y68.155 E39.34184
G1 X150.86 Y68.648 E39.38197
G1 X149.728 Y69.067 E39.42211
G1 X148.571 Y69.41 E39.46225
G1 X147.395 Y69.675 E39.50235
G1 X146.203 Y69.862 E39.54248
G1 X145.001 Y69.969 E39.58261
G1 X143.981 Y69.998 E39.61655
G1 X94.215 Y69.998 E41.27178
G1 X93.009 Y69.958 E41.31191
G1 X91.809 Y69.838 E41.35202
G1 X90.619 Y69.639 E41.39215
G1 X89.445 Y69.362 E41.43227
G1 X88.291 Y69.007 E41.47243
G1 X87.164 Y68.577 E41.51255
G1 X86.068 Y68.073 E41.55267
G1 X85.008 Y67.497 E41.5928
G1 X83.988 Y66.853 E41.63292
G1 X83.013 Y66.142 E41.67305
G1 X82.087 Y65.368 E41.71319
G1 X81.346 Y64.667 E41.74712
G1 X81.229 Y64.55 E41.75262
G1 X80.404 Y63.669 E41.79277
G1 X79.64 Y62.736 E41.83287
G1 X78.939 Y61.754 E41.873
G1 X78.305 Y60.727 E41.91315
G1 X77.741 Y59.661 E41.95326
G1 X77.248 Y58.56 E41.99338
G1 X76.829 Y57.428 E42.03353
