;FLAVOR:Marlin
;TIME:159
;Filament used: 0.0684647m
;Layer height: 0.16
;Generated with Cura_SteamEngine 3.6.0
M140 S70
M105
M190 S70
M104 S215
M105
M109 S215
M82 ;absolute extrusion mode
G28 ; home all axes
M117 Purge extruder
G92 E0 ; reset extruder
G1 Z1.0 F3000 ; move z up little to prevent scratching of surface
G1 X0.1 Y20 Z0.3 F5000.0 ; move to start-line position G1 X0.1 Y200.0 Z0.3 F1500.0 E15 ; draw 1st line
G1 X0.4 Y200.0 Z0.3 F5000.0 ; move to side a little
G1 X0.4 Y20 Z0.3 F1500.0 E30 ; draw 2nd line
G92 E0 ; reset extruder
G1 Z1.0 F3000 ; move z up little to prevent scratching of surface
M117 All systems go!
G92 E0
G1 F6000 E-5
;LAYER_COUNT:7
;LAYER:0
M107
M204 S5000
M205 X30 Y30
G0 F7200 X108.922 Y109.051 Z0.2
M204 S500
M205 X20 Y20
;TYPE:SKIRT
G1 F6000 E0
G1 F900 X109.051 Y108.922 E0.00667
G1 X109.528 Y108.502 E0.02993
G1 X110.054 Y108.144 E0.05321
G1 X110.621 Y107.856 E0.07647
G1 X111.219 Y107.64 E0.09973
G1 X111.84 Y107.502 E0.12301
G1 X112.629 Y107.44 E0.15196
G1 X122.371 Y107.44 E0.50839
G1 X123.006 Y107.48 E0.53166
G1 X123.63 Y107.599 E0.55491
G1 X124.235 Y107.796 E0.57818
G1 X124.81 Y108.067 E0.60144
G1 X125.347 Y108.408 E0.62471
G1 X125.949 Y108.922 E0.65368
G1 X126.078 Y109.051 E0.66035
G1 X126.498 Y109.528 E0.6836
G1 X126.856 Y110.054 E0.70688
G1 X127.144 Y110.621 E0.73015
G1 X127.36 Y111.219 E0.75341
G1 X127.498 Y111.84 E0.77668
G1 X127.56 Y112.629 E0.80564
G1 X127.56 Y122.371 E1.16206
G1 X127.52 Y123.006 E1.18534
G1 X127.401 Y123.63 E1.20858
G1 X127.204 Y124.235 E1.23186
G1 X126.933 Y124.81 E1.25512
G1 X126.592 Y125.347 E1.27839
G1 X126.078 Y125.949 E1.30735
G1 X125.949 Y126.078 E1.31402
G1 X125.472 Y126.498 E1.33728
G1 X124.946 Y126.856 E1.36056
G1 X124.379 Y127.144 E1.38382
G1 X123.781 Y127.36 E1.40708
G1 X123.16 Y127.498 E1.43036
G1 X122.371 Y127.56 E1.45931
G1 X112.629 Y127.56 E1.81574
G1 X111.994 Y127.52 E1.83902
G1 X111.37 Y127.401 E1.86226
G1 X110.765 Y127.204 E1.88553
G1 X110.19 Y126.933 E1.90879
G1 X109.653 Y126.592 E1.93206
G1 X109.051 Y126.078 E1.96103
G1 X108.922 Y125.949 E1.9677
G1 X108.502 Y125.472 E1.99095
G1 X108.144 Y124.946 E2.01423
G1 X107.856 Y124.379 E2.0375
G1 X107.64 Y123.781 E2.06076
G1 X107.502 Y123.16 E2.08403
G1 X107.44 Y122.371 E2.11299
G1 X107.44 Y112.629 E2.46941
G1 X107.48 Y111.994 E2.49269
G1 X107.599 Y111.37 E2.51593
G1 X107.796 Y110.765 E2.53921
G1 X108.067 Y110.19 E2.56247
G1 X108.408 Y109.653 E2.58574
G1 X108.45 Y109.604 E2.5881
G0 F810 X108.922 Y109.051
M204 S5000
M205 X30 Y30
G0 F7200 X109.233 Y109.362
M204 S500
M205 X20 Y20
G1 F6000 E2.6147
G1 F900 X109.362 Y109.233 E2.62137
G1 X109.819 Y108.833 E2.64359
G1 X110.325 Y108.496 E2.66584
G1 X110.87 Y108.228 E2.68806
G1 X111.446 Y108.034 E2.71029
G1 X112.042 Y107.917 E2.73251
G1 X112.629 Y107.88 E2.75403
G1 X122.371 Y107.88 E3.11045
G1 X122.977 Y107.92 E3.13267
G1 X123.573 Y108.039 E3.15491
G1 X124.148 Y108.235 E3.17714
G1 X124.692 Y108.506 E3.19937
G1 X125.197 Y108.845 E3.22162
G1 X125.638 Y109.233 E3.24311
G1 X125.767 Y109.362 E3.24979
G1 X126.167 Y109.819 E3.27201
G1 X126.504 Y110.325 E3.29425
G1 X126.772 Y110.87 E3.31647
G1 X126.966 Y111.446 E3.33871
G1 X127.083 Y112.042 E3.36093
G1 X127.12 Y112.629 E3.38245
G1 X127.12 Y122.371 E3.73887
G1 X127.08 Y122.977 E3.76109
G1 X126.961 Y123.573 E3.78333
G1 X126.765 Y124.148 E3.80555
G1 X126.494 Y124.692 E3.82779
G1 X126.155 Y125.197 E3.85004
G1 X125.767 Y125.638 E3.87153
G1 X125.638 Y125.767 E3.8782
G1 X125.181 Y126.167 E3.90042
G1 X124.675 Y126.504 E3.92267
G1 X124.13 Y126.772 E3.94489
G1 X123.554 Y126.966 E3.96712
G1 X122.958 Y127.083 E3.98935
G1 X122.371 Y127.12 E4.01086
G1 X112.629 Y127.12 E4.36729
G1 X112.023 Y127.08 E4.38951
G1 X111.427 Y126.961 E4.41174
G1 X110.852 Y126.765 E4.43397
G1 X110.308 Y126.494 E4.4562
G1 X109.803 Y126.155 E4.47846
G1 X109.362 Y125.767 E4.49995
G1 X109.233 Y125.638 E4.50662
G1 X108.833 Y125.181 E4.52884
G1 X108.496 Y124.675 E4.55108
G1 X108.228 Y124.13 E4.5733
G1 X108.034 Y123.554 E4.59554
G1 X107.917 Y122.958 E4.61776
G1 X107.88 Y122.371 E4.63928
G1 X107.88 Y112.629 E4.9957
G1 X107.92 Y112.023 E5.01792
G1 X108.039 Y111.427 E5.04016
G1 X108.235 Y110.852 E5.06238
G1 X108.506 Y110.308 E5.08462
G1 X108.767 Y109.919 E5.10176
G0 F810 X108.845 Y109.803
G0 X109.233 Y109.362
M204 S5000
M205 X30 Y30
G0 F7200 X109.544 Y109.673
M204 S500
M205 X20 Y20
G1 F6000 E5.12836
G1 F900 X109.673 Y109.544 E5.13503
G1 X110.109 Y109.165 E5.15617
G1 X110.593 Y108.849 E5.17731
G1 X111.116 Y108.603 E5.19846
G1 X111.668 Y108.432 E5.2196
G1 X112.239 Y108.338 E5.24077
G1 X112.629 Y108.32 E5.25506
G1 X122.371 Y108.32 E5.61148
G1 X122.948 Y108.36 E5.63264
G1 X123.513 Y108.479 E5.65377
G1 X124.057 Y108.675 E5.67492
G1 X124.568 Y108.944 E5.69605
G1 X125.038 Y109.281 E5.71721
G1 X125.327 Y109.544 E5.7315
G1 X125.456 Y109.673 E5.73818
G1 X125.835 Y110.109 E5.75931
G1 X126.151 Y110.593 E5.78046
G1 X126.397 Y111.116 E5.80161
G1 X126.568 Y111.668 E5.82275
G1 X126.662 Y112.239 E5.84392
G1 X126.68 Y112.629 E5.85821
G1 X126.68 Y122.371 E6.21463
G1 X126.64 Y122.948 E6.23579
G1 X126.521 Y123.513 E6.25691
G1 X126.325 Y124.057 E6.27807
G1 X126.056 Y124.568 E6.2992
G1 X125.719 Y125.038 E6.32035
G1 X125.456 Y125.327 E6.33465
G1 X125.327 Y125.456 E6.34133
G1 X124.891 Y125.835 E6.36246
G1 X124.407 Y126.151 E6.38361
G1 X123.884 Y126.397 E6.40475
G1 X123.332 Y126.568 E6.4259
G1 X122.761 Y126.662 E6.44707
G1 X122.371 Y126.68 E6.46135
G1 X112.629 Y126.68 E6.81777
G1 X112.052 Y126.64 E6.83894
G1 X111.487 Y126.521 E6.86006
G1 X110.943 Y126.325 E6.88122
G1 X110.432 Y126.056 E6.90234
G1 X109.962 Y125.719 E6.9235
G1 X109.673 Y125.456 E6.9378
G1 X109.544 Y125.327 E6.94447
G1 X109.165 Y124.891 E6.96561
G1 X108.849 Y124.407 E6.98676
G1 X108.603 Y123.884 E7.0079
G1 X108.432 Y123.332 E7.02904
G1 X108.338 Y122.761 E7.05022
G1 X108.32 Y122.371 E7.0645
G1 X108.32 Y112.629 E7.42092
G1 X108.36 Y112.052 E7.44208
G1 X108.479 Y111.487 E7.46321
G1 X108.675 Y110.943 E7.48436
G1 X108.944 Y110.432 E7.50549
G1 X109.085 Y110.236 E7.51432
G0 F810 X109.281 Y109.962
G0 X109.544 Y109.673
M204 S5000
M205 X30 Y30
G0 F7200 X109.855 Y109.984
M204 S500
M205 X20 Y20
G1 F6000 E7.54092
G1 F900 X109.984 Y109.855 E7.5476
G1 X110.398 Y109.498 E7.5676
G1 X110.86 Y109.205 E7.58761
G1 X111.359 Y108.982 E7.60761
G1 X111.885 Y108.835 E7.62759
G1 X112.629 Y108.76 E7.65495
G1 X122.371 Y108.76 E8.01137
G1 X122.916 Y108.8 E8.03137
G1 X123.45 Y108.919 E8.05138
G1 X123.96 Y109.114 E8.07136
G1 X124.437 Y109.382 E8.09138
G1 X125.016 Y109.855 E8.11873
G1 X125.145 Y109.984 E8.1254
G1 X125.502 Y110.398 E8.1454
G1 X125.795 Y110.86 E8.16542
G1 X126.018 Y111.359 E8.18542
G1 X126.165 Y111.885 E8.2054
G1 X126.24 Y112.629 E8.23276
G1 X126.24 Y122.371 E8.58918
G1 X126.2 Y122.916 E8.60917
G1 X126.081 Y123.45 E8.62919
G1 X125.886 Y123.96 E8.64916
G1 X125.618 Y124.437 E8.66918
G1 X125.145 Y125.016 E8.69653
G1 X125.016 Y125.145 E8.70321
G1 X124.602 Y125.502 E8.72321
G1 X124.14 Y125.795 E8.74322
G1 X123.641 Y126.018 E8.76322
G1 X123.115 Y126.165 E8.7832
G1 X122.371 Y126.24 E8.81056
G1 X112.629 Y126.24 E9.16698
G1 X112.084 Y126.2 E9.18698
G1 X111.55 Y126.081 E9.20699
G1 X111.04 Y125.886 E9.22697
G1 X110.563 Y125.618 E9.24699
G1 X109.984 Y125.145 E9.27434
G1 X109.855 Y125.016 E9.28101
G1 X109.498 Y124.602 E9.30101
G1 X109.205 Y124.14 E9.32103
G1 X108.982 Y123.641 E9.34103
G1 X108.835 Y123.115 E9.36101
G1 X108.76 Y122.371 E9.38837
G1 X108.76 Y112.629 E9.74479
G1 X108.8 Y112.084 E9.76478
G1 X108.919 Y111.55 E9.7848
G1 X109.114 Y111.04 E9.80477
G1 X109.382 Y110.563 E9.82479
G1 X109.395 Y110.547 E9.82555
G0 F810 X109.855 Y109.984
M204 S5000
M205 X30 Y30
G0 F7200 X110.167 Y110.296
M204 S500
M205 X20 Y20
G1 F6000 E9.85214
G1 F900 X110.296 Y110.167 E9.85882
G1 X110.686 Y109.833 E9.8776
G1 X111.123 Y109.564 E9.89638
G1 X111.597 Y109.366 E9.91517
G1 X112.095 Y109.243 E9.93394
G1 X112.629 Y109.2 E9.95354
G1 X122.371 Y109.2 E10.30996
G1 X122.883 Y109.24 E10.32875
G1 X123.382 Y109.359 E10.34752
G1 X123.857 Y109.554 E10.36631
G1 X124.296 Y109.82 E10.38509
G1 X124.704 Y110.167 E10.40468
G1 X124.833 Y110.296 E10.41136
G1 X125.167 Y110.686 E10.43014
G1 X125.436 Y111.123 E10.44892
G1 X125.634 Y111.597 E10.46771
G1 X125.757 Y112.095 E10.48648
G1 X125.8 Y112.629 E10.50608
G1 X125.8 Y122.371 E10.8625
G1 X125.76 Y122.883 E10.88129
G1 X125.641 Y123.382 E10.90006
G1 X125.446 Y123.857 E10.91884
G1 X125.18 Y124.296 E10.93762
G1 X124.833 Y124.704 E10.95722
G1 X124.704 Y124.833 E10.96389
G1 X124.314 Y125.167 E10.98268
G1 X123.877 Y125.436 E11.00145
G1 X123.403 Y125.634 E11.02025
G1 X122.905 Y125.757 E11.03902
G1 X122.371 Y125.8 E11.05862
G1 X112.629 Y125.8 E11.41504
G1 X112.117 Y125.76 E11.43383
G1 X111.618 Y125.641 E11.4526
G1 X111.143 Y125.446 E11.47138
G1 X110.704 Y125.18 E11.49016
G1 X110.296 Y124.833 E11.50976
G1 X110.167 Y124.704 E11.51643
G1 X109.833 Y124.314 E11.53522
G1 X109.564 Y123.877 E11.55399
G1 X109.366 Y123.403 E11.57279
G1 X109.243 Y122.905 E11.59155
G1 X109.2 Y122.371 E11.61115
G1 X109.2 Y112.629 E11.96758
G1 X109.24 Y112.117 E11.98637
G1 X109.359 Y111.618 E12.00513
G1 X109.554 Y111.143 E12.02392
G1 X109.721 Y110.868 E12.03569
G0 F810 X109.82 Y110.704
G0 X110.167 Y110.296
M204 S5000
M205 X30 Y30
G0 F7200 X110.478 Y110.607
M204 S500
M205 X20 Y20
G1 F6000 E12.06229
G1 F900 X110.607 Y110.478 E12.06896
G1 X110.972 Y110.169 E12.08646
G1 X111.383 Y109.926 E12.10393
G1 X111.829 Y109.754 E12.12142
G1 X112.297 Y109.659 E12.13889
G1 X112.629 Y109.64 E12.15106
G1 X122.371 Y109.64 E12.50748
G1 X122.847 Y109.68 E12.52495
G1 X123.31 Y109.799 E12.54244
G1 X123.747 Y109.993 E12.55994
G1 X124.145 Y110.257 E12.57741
G1 X124.393 Y110.478 E12.58956
G1 X124.522 Y110.607 E12.59624
G1 X124.831 Y110.972 E12.61374
G1 X125.074 Y111.383 E12.6312
G1 X125.246 Y111.829 E12.64869
G1 X125.341 Y112.297 E12.66616
G1 X125.36 Y112.629 E12.67833
G1 X125.36 Y122.371 E13.03475
G1 X125.32 Y122.847 E13.05223
G1 X125.201 Y123.31 E13.06972
G1 X125.007 Y123.747 E13.08721
G1 X124.743 Y124.145 E13.10469
G1 X124.522 Y124.393 E13.11684
G1 X124.393 Y124.522 E13.12351
G1 X124.028 Y124.831 E13.14101
G1 X123.617 Y125.074 E13.15848
G1 X123.171 Y125.246 E13.17597
G1 X122.703 Y125.341 E13.19344
G1 X122.371 Y125.36 E13.2056
G1 X112.629 Y125.36 E13.56203
G1 X112.153 Y125.32 E13.5795
G1 X111.69 Y125.201 E13.59699
G1 X111.253 Y125.007 E13.61449
G1 X110.855 Y124.743 E13.63196
G1 X110.607 Y124.522 E13.64411
G1 X110.478 Y124.393 E13.65079
G1 X110.169 Y124.028 E13.66828
G1 X109.926 Y123.617 E13.68575
G1 X109.754 Y123.171 E13.70324
G1 X109.659 Y122.703 E13.72071
G1 X109.64 Y122.371 E13.73288
G1 X109.64 Y112.629 E14.0893
G1 X109.68 Y112.153 E14.10678
G1 X109.799 Y111.69 E14.12427
G1 X109.993 Y111.253 E14.14176
G1 X110.039 Y111.184 E14.14479
G0 F810 X110.257 Y110.855
G0 X110.478 Y110.607
M204 S5000
M205 X30 Y30
G0 F7200 X110.789 Y110.918
M204 S500
M205 X20 Y20
G1 F6000 E14.17139
G1 F900 X110.918 Y110.789 E14.17807
G1 X111.256 Y110.508 E14.19415
G1 X111.639 Y110.292 E14.21024
G1 X112.054 Y110.149 E14.2263
G1 X112.629 Y110.08 E14.24748
G1 X122.371 Y110.08 E14.60391
G1 X122.809 Y110.12 E14.62
G1 X123.232 Y110.238 E14.63606
G1 X123.627 Y110.431 E14.65215
G1 X124.082 Y110.789 E14.67333
G1 X124.211 Y110.918 E14.68
G1 X124.492 Y111.256 E14.69609
G1 X124.708 Y111.639 E14.71217
G1 X124.851 Y112.054 E14.72823
G1 X124.92 Y112.629 E14.74942
G1 X124.92 Y122.371 E15.10584
G1 X124.88 Y122.809 E15.12193
G1 X124.762 Y123.232 E15.138
G1 X124.569 Y123.627 E15.15409
G1 X124.211 Y124.082 E15.17527
G1 X124.082 Y124.211 E15.18194
G1 X123.744 Y124.492 E15.19802
G1 X123.361 Y124.708 E15.21411
G1 X122.946 Y124.851 E15.23017
G1 X122.371 Y124.92 E15.25136
G1 X112.629 Y124.92 E15.60778
G1 X112.191 Y124.88 E15.62387
G1 X111.768 Y124.762 E15.63994
G1 X111.373 Y124.569 E15.65602
G1 X110.918 Y124.211 E15.6772
G1 X110.789 Y124.082 E15.68388
G1 X110.508 Y123.744 E15.69996
G1 X110.292 Y123.361 E15.71605
G1 X110.149 Y122.946 E15.73211
G1 X110.08 Y122.371 E15.7533
G1 X110.08 Y112.629 E16.10972
G1 X110.12 Y112.191 E16.12581
G1 X110.238 Y111.768 E16.14188
G1 X110.366 Y111.507 E16.15251
G0 F810 X110.431 Y111.373
G0 X110.789 Y110.918
M204 S5000
M205 X30 Y30
G0 F7200 X111.1 Y111.229
M204 S500
M205 X20 Y20
G1 F6000 E16.17911
G1 F900 X111.229 Y111.1 E16.18578
G1 X111.537 Y110.848 E16.20034
G1 X111.889 Y110.664 E16.21488
G1 X112.27 Y110.553 E16.22939
G1 X112.629 Y110.52 E16.24258
G1 X122.371 Y110.52 E16.59901
G1 X122.766 Y110.56 E16.61353
G1 X123.146 Y110.678 E16.62809
G1 X123.494 Y110.87 E16.64263
G1 X123.771 Y111.1 E16.6558
G1 X123.9 Y111.229 E16.66248
G1 X124.152 Y111.537 E16.67704
G1 X124.336 Y111.889 E16.69157
G1 X124.447 Y112.27 E16.70609
G1 X124.48 Y112.629 E16.71928
G1 X124.48 Y122.371 E17.0757
G1 X124.44 Y122.766 E17.09023
G1 X124.322 Y123.146 E17.10478
G1 X124.13 Y123.494 E17.11932
G1 X123.9 Y123.771 E17.1325
G1 X123.771 Y123.9 E17.13917
G1 X123.463 Y124.152 E17.15373
G1 X123.111 Y124.336 E17.16826
G1 X122.73 Y124.447 E17.18278
G1 X122.371 Y124.48 E17.19597
G1 X112.629 Y124.48 E17.55239
G1 X112.234 Y124.44 E17.56692
G1 X111.854 Y124.322 E17.58148
G1 X111.506 Y124.13 E17.59602
G1 X111.229 Y123.9 E17.60919
G1 X111.1 Y123.771 E17.61586
G1 X110.848 Y123.463 E17.63042
G1 X110.664 Y123.111 E17.64496
G1 X110.553 Y122.73 E17.65947
G1 X110.52 Y122.371 E17.67266
G1 X110.52 Y112.629 E18.02909
G1 X110.56 Y112.234 E18.04361
G1 X110.678 Y111.854 E18.05817
G1 X110.693 Y111.827 E18.0593
G0 F810 X110.87 Y111.506
G0 X111.1 Y111.229
M204 S5000
M205 X30 Y30
G0 F7200 X111.411 Y111.54
M204 S500
M205 X20 Y20
G1 F6000 E18.0859
G1 F900 X111.54 Y111.411 E18.09257
G1 X111.814 Y111.193 E18.10538
G1 X112.131 Y111.043 E18.11821
G1 X112.629 Y110.96 E18.13668
G1 X122.371 Y110.96 E18.49311
G1 X122.719 Y111 E18.50592
G1 X123.049 Y111.117 E18.51873
G1 X123.46 Y111.411 E18.53722
G1 X123.589 Y111.54 E18.5439
G1 X123.807 Y111.814 E18.55671
G1 X123.957 Y112.131 E18.56954
G1 X124.04 Y112.629 E18.58801
G1 X124.04 Y122.371 E18.94443
G1 X124 Y122.719 E18.95725
G1 X123.883 Y123.049 E18.97006
G1 X123.589 Y123.46 E18.98854
G1 X123.46 Y123.589 E18.99522
G1 X123.186 Y123.807 E19.00803
G1 X122.869 Y123.957 E19.02086
G1 X122.371 Y124.04 E19.03933
G1 X112.629 Y124.04 E19.39575
G1 X112.281 Y124 E19.40857
G1 X111.951 Y123.883 E19.42138
G1 X111.54 Y123.589 E19.43987
G1 X111.411 Y123.46 E19.44654
G1 X111.193 Y123.186 E19.45935
G1 X111.043 Y122.869 E19.47218
G1 X110.96 Y122.371 E19.49065
G1 X110.96 Y112.629 E19.84708
G1 X111 Y112.281 E19.85989
G1 X111.043 Y112.16 E19.86459
G0 F810 X111.117 Y111.951
G0 X111.411 Y111.54
M204 S5000
M205 X30 Y30
G0 F7200 X111.722 Y111.851
M204 S500
M205 X20 Y20
G1 F6000 E19.89119
G1 F900 X111.851 Y111.722 E19.89786
G1 X112.087 Y111.543 E19.9087
G1 X112.362 Y111.433 E19.91954
G1 X112.629 Y111.4 E19.92938
G1 X122.371 Y111.4 E20.2858
G1 X122.664 Y111.44 E20.29662
G1 X122.936 Y111.556 E20.30744
G1 X123.149 Y111.722 E20.31732
G1 X123.278 Y111.851 E20.32399
G1 X123.457 Y112.087 E20.33483
G1 X123.567 Y112.362 E20.34567
G1 X123.6 Y112.629 E20.35551
G1 X123.6 Y122.371 E20.71193
G1 X123.56 Y122.664 E20.72275
G1 X123.444 Y122.936 E20.73357
G1 X123.278 Y123.149 E20.74345
G1 X123.149 Y123.278 E20.75012
G1 X122.913 Y123.457 E20.76096
G1 X122.638 Y123.567 E20.7718
G1 X122.371 Y123.6 E20.78164
G1 X112.629 Y123.6 E21.13806
G1 X112.336 Y123.56 E21.14888
G1 X112.064 Y123.444 E21.1597
G1 X111.851 Y123.278 E21.16958
G1 X111.722 Y123.149 E21.17625
G1 X111.543 Y122.913 E21.18709
G1 X111.433 Y122.638 E21.19793
G1 X111.4 Y122.371 E21.20777
G1 X111.4 Y112.629 E21.56419
G1 X111.419 Y112.496 E21.56911
G0 F810 X111.44 Y112.336
G0 X111.556 Y112.064
G0 X111.722 Y111.851
M204 S5000
M205 X30 Y30
G0 F7200 X112.033 Y112.162
M204 S500
M205 X20 Y20
G1 F6000 E21.59571
G1 F900 X112.162 Y112.033 E21.60238
G1 X112.35 Y111.902 E21.61076
G1 X112.629 Y111.84 E21.62122
G1 X122.371 Y111.84 E21.97764
G1 X122.596 Y111.88 E21.986
G1 X122.838 Y112.033 E21.99648
G1 X122.967 Y112.162 E22.00315
G1 X123.098 Y112.35 E22.01154
G1 X123.16 Y112.629 E22.02199
G1 X123.16 Y122.371 E22.37841
G1 X123.12 Y122.596 E22.38678
G1 X122.967 Y122.838 E22.39725
G1 X122.838 Y122.967 E22.40393
G1 X122.65 Y123.098 E22.41231
