;FLAVOR:Marlin
;TIME:5922
;Filament used: 6.32508m
;Layer height: 0.2
;Generated with Cura_SteamEngine 3.6.0
M140 S70
M105
M190 S70
M104 S215
M105
M109 S215
M82 ;absolute extrusion mode
G28 ; home all axes
M117 Purge extruder
G92 E0 ; reset extruder
G1 Z1.0 F3000 ; move z up little to prevent scratching of surface
G1 X0.1 Y20 Z0.3 F5000.0 ; move to start-line position G1 X0.1 Y200.0 Z0.3 F1500.0 E15 ; draw 1st line
G1 X0.4 Y200.0 Z0.3 F5000.0 ; move to side a little
G1 X0.4 Y20 Z0.3 F1500.0 E30 ; draw 2nd line
G92 E0 ; reset extruder
G1 Z1.0 F3000 ; move z up little to prevent scratching of surface
M117 All systems go!
G92 E0
G1 F6000 E-5
;LAYER_COUNT:79
;LAYER:0
M107
M204 S5000
M205 X30 Y30
G0 F7200 X98.947 Y99.778 Z0.2
M204 S500
M205 X20 Y20
;TYPE:SKIRT
G1 F6000 E0
G1 F900 X100.778 Y98.045 E0.09224
G1 X101.249 Y97.651 E0.1147
G1 X103.28 Y96.15 E0.2071
G1 X103.804 Y95.81 E0.22995
G1 X106.004 Y94.571 E0.32233
G1 X106.558 Y94.302 E0.34486
G1 X108.894 Y93.339 E0.4373
G1 X109.481 Y93.138 E0.46
G1 X111.914 Y92.469 E0.55232
G1 X112.521 Y92.342 E0.57501
G1 X115.02 Y91.975 E0.66742
G1 X115.633 Y91.922 E0.68993
G1 X118.157 Y91.861 E0.7823
G1 X118.778 Y91.885 E0.80504
G1 X121.289 Y92.134 E0.89736
G1 X121.762 Y92.203 E0.91485
G1 X123.06 Y92.457 E0.96323
G1 X123.356 Y92.524 E0.97434
G1 X124.523 Y92.826 E1.01844
G1 X124.963 Y92.962 E1.03529
G1 X127.342 Y93.815 E1.12775
G1 X127.779 Y93.995 E1.14505
G1 X128.971 Y94.553 E1.1932
G1 X129.385 Y94.771 E1.21032
G1 X131.563 Y96.048 E1.30269
G1 X132.077 Y96.393 E1.32534
G1 X134.082 Y97.926 E1.41768
G1 X134.438 Y98.225 E1.43469
G1 X135.329 Y99.046 E1.47901
G1 X135.545 Y99.257 E1.49006
G1 X136.457 Y100.204 E1.53816
G1 X136.769 Y100.56 E1.55548
G1 X138.341 Y102.532 E1.64775
G1 X138.696 Y103.038 E1.67036
G1 X140.018 Y105.191 E1.76279
G1 X140.309 Y105.739 E1.7855
G1 X141.357 Y108.036 E1.87787
G1 X141.579 Y108.613 E1.90049
G1 X142.339 Y111.021 E1.99287
G1 X142.463 Y111.488 E2.01055
G1 X142.734 Y112.758 E2.05806
G1 X142.808 Y113.206 E2.07467
G1 X143.111 Y115.711 E2.16699
G1 X143.116 Y115.778 E2.16944
G1 X143.193 Y115.972 E2.17708
G1 X143.35 Y116.588 E2.20034
G1 X143.429 Y117.219 E2.2236
G1 X143.424 Y117.914 E2.24903
G1 X143.264 Y120.021 E2.32634
G1 X143.203 Y120.513 E2.34448
G1 X142.863 Y122.449 E2.41639
G1 X142.761 Y122.903 E2.43342
G1 X142.291 Y124.63 E2.4989
G1 X142.141 Y125.092 E2.51667
G1 X141.314 Y127.277 E2.60215
G1 X141.069 Y127.825 E2.62411
G1 X140.147 Y129.594 E2.69709
G1 X139.983 Y129.884 E2.70928
G1 X138.656 Y132.066 E2.80272
G1 X138.292 Y132.588 E2.826
G1 X136.837 Y134.416 E2.91148
G1 X136.45 Y134.849 E2.93273
G1 X134.74 Y136.553 E3.02105
G1 X134.291 Y136.951 E3.043
G1 X132.363 Y138.463 E3.13264
G1 X131.868 Y138.805 E3.15465
G1 X129.754 Y140.09 E3.24516
G1 X129.216 Y140.374 E3.26742
G1 X126.951 Y141.401 E3.35841
G1 X126.379 Y141.62 E3.38082
G1 X124 Y142.368 E3.47206
G1 X123.408 Y142.516 E3.49438
G1 X120.948 Y142.974 E3.58593
G1 X120.333 Y143.049 E3.6086
G1 X117.83 Y143.203 E3.70035
G1 X117.218 Y143.204 E3.72274
G1 X114.715 Y143.055 E3.81448
G1 X114.1 Y142.98 E3.83714
G1 X111.627 Y142.525 E3.92914
G1 X111.208 Y142.43 E3.94486
G1 X110.159 Y142.143 E3.98465
G1 X109.725 Y142.003 E4.00133
G1 X107.358 Y141.12 E4.09376
G1 X106.792 Y140.868 E4.11643
G1 X104.55 Y139.702 E4.20888
G1 X104.02 Y139.384 E4.2315
G1 X101.937 Y137.953 E4.32396
G1 X101.447 Y137.57 E4.34671
G1 X99.555 Y135.894 E4.43918
G1 X99.12 Y135.458 E4.46172
G1 X97.446 Y133.565 E4.55417
G1 X97.062 Y133.073 E4.577
G1 X95.634 Y130.989 E4.66943
G1 X95.314 Y130.455 E4.69221
G1 X94.153 Y128.212 E4.78461
G1 X93.96 Y127.793 E4.80149
G1 X93.442 Y126.52 E4.85177
G1 X93.279 Y126.056 E4.86977
G1 X92.56 Y123.64 E4.96199
G1 X92.449 Y123.191 E4.97891
G1 X92.221 Y122.053 E5.02137
G1 X92.153 Y121.618 E5.03748
G1 X91.874 Y119.109 E5.12984
G1 X91.843 Y118.494 E5.15237
G1 X91.871 Y115.966 E5.24487
G1 X91.917 Y115.343 E5.26772
G1 X92.256 Y112.838 E5.36021
G1 X92.343 Y112.367 E5.37773
G1 X92.65 Y111.052 E5.42713
G1 X92.778 Y110.599 E5.44436
G1 X93.578 Y108.204 E5.53674
G1 X93.809 Y107.63 E5.55938
G1 X94.895 Y105.352 E5.65171
G1 X95.196 Y104.809 E5.67442
G1 X96.553 Y102.68 E5.76679
G1 X96.916 Y102.181 E5.78937
G1 X98.456 Y100.313 E5.87794
G0 F810 X98.521 Y100.234
G0 X98.947 Y99.778
M204 S5000
M205 X30 Y30
G0 F7200 X99.249 Y100.098
M204 S500
M205 X20 Y20
G1 F6000 E5.90454
G1 F900 X101.08 Y98.365 E5.99677
G1 X101.51 Y98.005 E6.01729
G1 X103.541 Y96.504 E6.10969
G1 X104.02 Y96.193 E6.13058
G1 X106.22 Y94.954 E6.22296
G1 X106.726 Y94.709 E6.24353
G1 X109.062 Y93.746 E6.33597
G1 X109.598 Y93.562 E6.3567
G1 X112.031 Y92.893 E6.44902
G1 X112.585 Y92.777 E6.46973
G1 X115.084 Y92.41 E6.56214
G1 X115.643 Y92.362 E6.58267
G1 X118.167 Y92.301 E6.67504
G1 X118.735 Y92.323 E6.69583
G1 X121.246 Y92.572 E6.78815
G1 X121.677 Y92.635 E6.80409
G1 X122.975 Y92.889 E6.85248
G1 X123.245 Y92.95 E6.8626
G1 X124.412 Y93.252 E6.90671
G1 X124.814 Y93.376 E6.9221
G1 X127.193 Y94.229 E7.01456
G1 X127.593 Y94.394 E7.03039
G1 X128.785 Y94.952 E7.07855
G1 X129.163 Y95.151 E7.09418
G1 X131.341 Y96.428 E7.18655
G1 X131.81 Y96.743 E7.20722
G1 X133.815 Y98.276 E7.29956
G1 X134.14 Y98.548 E7.31506
G1 X135.031 Y99.369 E7.35939
G1 X135.228 Y99.562 E7.36948
G1 X136.14 Y100.509 E7.41758
G1 X136.425 Y100.834 E7.43339
G1 X137.997 Y102.806 E7.52566
G1 X138.321 Y103.269 E7.54634
G1 X139.643 Y105.422 E7.63877
G1 X139.909 Y105.921 E7.65946
G1 X140.957 Y108.218 E7.75183
G1 X141.16 Y108.745 E7.77249
G1 X141.92 Y111.153 E7.86488
G1 X142.032 Y111.58 E7.88103
G1 X142.303 Y112.85 E7.92854
G1 X142.372 Y113.259 E7.94371
G1 X142.675 Y115.764 E8.03603
G1 X142.682 Y115.86 E8.03955
G1 X142.85 Y116.367 E8.05909
G1 X142.964 Y116.964 E8.08133
G1 X142.999 Y117.571 E8.10357
G1 X142.986 Y117.881 E8.11492
G1 X142.826 Y119.988 E8.19223
G1 X142.769 Y120.437 E8.20879
G1 X142.429 Y122.373 E8.28071
G1 X142.337 Y122.787 E8.29622
G1 X141.867 Y124.514 E8.36171
G1 X141.73 Y124.936 E8.37794
G1 X140.903 Y127.121 E8.46341
G1 X140.679 Y127.621 E8.48346
G1 X139.757 Y129.39 E8.55644
G1 X139.607 Y129.656 E8.56761
G1 X138.28 Y131.838 E8.66105
G1 X137.948 Y132.314 E8.68228
G1 X136.493 Y134.142 E8.76776
G1 X136.139 Y134.538 E8.78719
G1 X134.429 Y136.242 E8.87552
G1 X134.019 Y136.604 E8.89553
G1 X132.091 Y138.116 E8.98517
G1 X131.64 Y138.429 E9.00525
G1 X129.526 Y139.714 E9.09576
G1 X129.034 Y139.974 E9.11612
G1 X126.769 Y141.001 E9.20711
G1 X126.247 Y141.2 E9.22755
G1 X123.868 Y141.948 E9.31879
G1 X123.328 Y142.083 E9.33915
G1 X120.868 Y142.541 E9.4307
G1 X120.306 Y142.61 E9.45142
G1 X117.803 Y142.764 E9.54317
G1 X117.244 Y142.765 E9.56362
G1 X114.741 Y142.616 E9.65536
G1 X114.18 Y142.548 E9.67603
G1 X111.707 Y142.093 E9.76803
G1 X111.324 Y142.005 E9.7824
G1 X110.275 Y141.718 E9.82219
G1 X109.879 Y141.591 E9.83741
G1 X107.512 Y140.708 E9.92984
G1 X106.995 Y140.478 E9.95054
G1 X104.753 Y139.312 E10.043
G1 X104.269 Y139.021 E10.06366
G1 X102.186 Y137.59 E10.15612
G1 X101.739 Y137.24 E10.17689
G1 X99.847 Y135.564 E10.26936
G1 X99.449 Y135.166 E10.28996
G1 X97.775 Y133.273 E10.38241
G1 X97.425 Y132.824 E10.40324
G1 X95.997 Y130.74 E10.49566
G1 X95.705 Y130.253 E10.51644
G1 X94.544 Y128.01 E10.60884
G1 X94.368 Y127.627 E10.62426
G1 X93.85 Y126.354 E10.67455
G1 X93.701 Y125.931 E10.69096
G1 X92.982 Y123.515 E10.78318
G1 X92.88 Y123.105 E10.79864
G1 X92.652 Y121.967 E10.8411
G1 X92.59 Y121.57 E10.8558
G1 X92.311 Y119.061 E10.94816
G1 X92.283 Y118.499 E10.96875
G1 X92.311 Y115.971 E11.06124
G1 X92.353 Y115.402 E11.08212
G1 X92.692 Y112.897 E11.1746
G1 X92.771 Y112.467 E11.1906
G1 X93.078 Y111.152 E11.24
G1 X93.195 Y110.738 E11.25574
G1 X93.995 Y108.343 E11.34812
G1 X94.207 Y107.819 E11.3688
G1 X95.293 Y105.541 E11.46113
G1 X95.567 Y105.046 E11.48183
G1 X96.924 Y102.917 E11.5742
G1 X97.255 Y102.461 E11.59482
G1 X98.76 Y100.635 E11.68139
G0 F810 X98.86 Y100.514
G0 X99.249 Y100.098
M204 S5000
M205 X30 Y30
G0 F7200 X99.552 Y100.417
M204 S500
M205 X20 Y20
G1 F6000 E11.70799
G1 F900 X101.383 Y98.684 E11.80022
G1 X101.772 Y98.358 E11.81879
G1 X103.803 Y96.857 E11.91119
G1 X104.236 Y96.577 E11.93006
G1 X106.436 Y95.338 E12.02243
G1 X106.894 Y95.115 E12.04107
G1 X109.23 Y94.152 E12.13351
G1 X109.715 Y93.987 E12.15226
G1 X112.148 Y93.318 E12.24457
G1 X112.649 Y93.212 E12.26331
G1 X115.148 Y92.845 E12.35572
G1 X115.654 Y92.802 E12.3743
G1 X118.178 Y92.741 E12.46667
G1 X118.691 Y92.76 E12.48545
G1 X121.202 Y93.009 E12.57777
G1 X121.593 Y93.067 E12.59223
G1 X122.891 Y93.321 E12.64062
G1 X123.135 Y93.376 E12.64977
G1 X124.302 Y93.678 E12.69387
G1 X124.666 Y93.79 E12.70781
G1 X127.045 Y94.643 E12.80027
G1 X127.406 Y94.792 E12.81456
G1 X128.598 Y95.35 E12.86271
G1 X128.94 Y95.53 E12.87685
G1 X131.118 Y96.807 E12.96922
G1 X131.543 Y97.092 E12.98794
G1 X133.548 Y98.625 E13.08028
G1 X133.841 Y98.872 E13.0943
G1 X134.732 Y99.693 E13.13863
G1 X134.911 Y99.867 E13.14776
G1 X135.823 Y100.814 E13.19587
G1 X136.081 Y101.108 E13.21018
G1 X137.653 Y103.08 E13.30244
G1 X137.946 Y103.499 E13.32115
G1 X139.268 Y105.652 E13.41358
G1 X139.509 Y106.104 E13.43232
G1 X140.557 Y108.401 E13.5247
G1 X140.74 Y108.878 E13.54339
G1 X141.5 Y111.286 E13.63577
G1 X141.602 Y111.672 E13.65038
G1 X141.873 Y112.942 E13.69789
G1 X141.935 Y113.312 E13.71161
G1 X142.238 Y115.817 E13.80393
G1 X142.25 Y115.979 E13.80987
G1 X142.34 Y116.194 E13.8184
G1 X142.486 Y116.754 E13.83957
G1 X142.554 Y117.327 E13.86068
G1 X142.547 Y117.848 E13.87975
G1 X142.387 Y119.955 E13.95706
G1 X142.336 Y120.361 E13.97203
G1 X141.996 Y122.297 E14.04394
G1 X141.912 Y122.672 E14.058
G1 X141.442 Y124.399 E14.12348
G1 X141.318 Y124.781 E14.13818
G1 X140.491 Y126.966 E14.22365
G1 X140.289 Y127.418 E14.24177
G1 X139.367 Y129.187 E14.31475
G1 X139.231 Y129.427 E14.32484
G1 X137.904 Y131.609 E14.41828
G1 X137.603 Y132.04 E14.43751
G1 X136.148 Y133.868 E14.52299
G1 X135.829 Y134.226 E14.54053
G1 X134.119 Y135.93 E14.62885
G1 X133.747 Y136.258 E14.647
G1 X131.819 Y137.77 E14.73664
G1 X131.411 Y138.053 E14.75481
G1 X129.297 Y139.338 E14.84532
G1 X128.852 Y139.573 E14.86373
G1 X126.587 Y140.6 E14.95472
G1 X126.115 Y140.781 E14.97321
G1 X123.736 Y141.529 E15.06445
G1 X123.247 Y141.65 E15.08288
G1 X120.787 Y142.108 E15.17443
G1 X120.279 Y142.171 E15.19316
G1 X117.776 Y142.325 E15.28491
G1 X117.271 Y142.326 E15.30338
G1 X114.768 Y142.177 E15.39512
G1 X114.26 Y142.115 E15.41385
G1 X111.787 Y141.66 E15.50584
G1 X111.44 Y141.581 E15.51886
G1 X110.391 Y141.294 E15.55865
G1 X110.033 Y141.178 E15.57242
G1 X107.666 Y140.295 E15.66485
G1 X107.198 Y140.087 E15.68359
G1 X104.956 Y138.921 E15.77604
G1 X104.518 Y138.658 E15.79473
G1 X102.435 Y137.227 E15.88719
G1 X102.03 Y136.911 E15.90599
G1 X100.138 Y135.235 E15.99846
G1 X99.779 Y134.875 E16.01706
G1 X98.105 Y132.982 E16.10952
G1 X97.788 Y132.576 E16.12836
G1 X96.36 Y130.492 E16.22079
G1 X96.096 Y130.05 E16.23962
G1 X94.935 Y127.807 E16.33203
G1 X94.775 Y127.461 E16.34598
G1 X94.257 Y126.188 E16.39626
G1 X94.123 Y125.805 E16.4111
G1 X93.404 Y123.389 E16.50333
G1 X93.311 Y123.018 E16.51732
G1 X93.083 Y121.88 E16.55978
G1 X93.028 Y121.521 E16.57307
G1 X92.749 Y119.012 E16.66543
G1 X92.723 Y118.504 E16.68404
G1 X92.751 Y115.976 E16.77654
G1 X92.789 Y115.461 E16.79543
G1 X93.128 Y112.956 E16.88791
G1 X93.199 Y112.567 E16.90238
G1 X93.506 Y111.252 E16.95178
G1 X93.612 Y110.878 E16.96601
G1 X94.412 Y108.483 E17.05839
G1 X94.604 Y108.008 E17.07713
G1 X95.69 Y105.73 E17.16946
G1 X95.938 Y105.282 E17.1882
G1 X97.295 Y103.153 E17.28057
G1 X97.595 Y102.741 E17.29921
G1 X99.066 Y100.957 E17.38381
G0 F810 X99.2 Y100.794
G0 X99.552 Y100.417
M204 S5000
M205 X30 Y30
G0 F7200 X99.854 Y100.737
M204 S500
M205 X20 Y20
G1 F6000 E17.41041
G1 F900 X101.685 Y99.004 E17.50264
G1 X102.033 Y98.712 E17.51926
G1 X104.064 Y97.211 E17.61166
G1 X104.452 Y96.96 E17.62857
G1 X106.652 Y95.721 E17.72094
G1 X107.062 Y95.522 E17.73762
G1 X109.398 Y94.559 E17.83006
G1 X109.831 Y94.411 E17.8468
G1 X112.264 Y93.742 E17.93912
G1 X112.713 Y93.648 E17.9559
G1 X115.212 Y93.281 E18.04831
G1 X115.665 Y93.242 E18.06495
G1 X118.189 Y93.181 E18.15732
G1 X118.648 Y93.198 E18.17412
G1 X121.159 Y93.447 E18.26644
G1 X121.508 Y93.499 E18.27935
G1 X122.806 Y93.753 E18.32774
G1 X123.025 Y93.802 E18.33595
G1 X124.192 Y94.104 E18.38005
G1 X124.517 Y94.204 E18.39249
G1 X126.896 Y95.057 E18.48496
G1 X127.22 Y95.191 E18.49779
G1 X128.412 Y95.749 E18.54594
G1 X128.718 Y95.91 E18.55859
G1 X130.896 Y97.187 E18.65096
G1 X131.276 Y97.442 E18.6677
G1 X133.281 Y98.975 E18.76004
G1 X133.543 Y99.196 E18.77258
G1 X134.434 Y100.017 E18.81691
G1 X134.594 Y100.173 E18.82509
G1 X135.506 Y101.12 E18.87319
G1 X135.736 Y101.383 E18.88597
G1 X137.308 Y103.355 E18.97824
G1 X137.571 Y103.729 E18.99496
G1 X138.893 Y105.882 E19.0874
G1 X139.109 Y106.287 E19.10419
G1 X140.157 Y108.584 E19.19656
G1 X140.321 Y109.01 E19.21326
G1 X141.081 Y111.418 E19.30565
G1 X141.172 Y111.764 E19.31874
G1 X141.443 Y113.034 E19.36625
G1 X141.498 Y113.365 E19.37852
G1 X141.801 Y115.87 E19.47084
G1 X141.815 Y116.057 E19.4777
G1 X141.823 Y116.073 E19.47836
G1 X141.999 Y116.59 E19.49834
G1 X142.097 Y117.128 E19.51834
G1 X142.108 Y117.814 E19.54344
G1 X141.948 Y119.921 E19.62075
G1 X141.903 Y120.285 E19.63417
G1 X141.563 Y122.221 E19.70609
G1 X141.488 Y122.556 E19.71865
G1 X141.018 Y124.283 E19.78413
G1 X140.907 Y124.625 E19.79728
G1 X140.08 Y126.81 E19.88276
G1 X139.899 Y127.215 E19.89899
G1 X138.977 Y128.984 E19.97197
G1 X138.855 Y129.198 E19.98099
G1 X137.528 Y131.38 E20.07442
G1 X137.259 Y131.766 E20.09163
G1 X135.804 Y133.594 E20.17711
G1 X135.518 Y133.914 E20.19281
G1 X133.808 Y135.618 E20.28114
G1 X133.476 Y135.912 E20.29736
G1 X131.548 Y137.424 E20.387
G1 X131.183 Y137.677 E20.40325
G1 X129.069 Y138.962 E20.49376
G1 X128.67 Y139.172 E20.51026
G1 X126.405 Y140.199 E20.60125
G1 X125.983 Y140.361 E20.61778
G1 X123.604 Y141.109 E20.70902
G1 X123.167 Y141.218 E20.7255
G1 X120.707 Y141.676 E20.81705
G1 X120.252 Y141.732 E20.83382
G1 X117.749 Y141.886 E20.92557
G1 X117.297 Y141.886 E20.94211
G1 X114.794 Y141.737 E21.03384
G1 X114.339 Y141.682 E21.05061
G1 X111.866 Y141.227 E21.14261
G1 X111.556 Y141.156 E21.15424
G1 X110.507 Y140.869 E21.19403
G1 X110.187 Y140.766 E21.20633
G1 X107.82 Y139.883 E21.29876
G1 X107.401 Y139.697 E21.31553
G1 X105.159 Y138.531 E21.40799
G1 X104.767 Y138.296 E21.42471
G1 X102.684 Y136.865 E21.51717
G1 X102.322 Y136.582 E21.53398
G1 X100.43 Y134.906 E21.62646
G1 X100.108 Y134.584 E21.64312
G1 X98.434 Y132.691 E21.73557
G1 X98.151 Y132.327 E21.75244
G1 X96.723 Y130.243 E21.84487
G1 X96.487 Y129.848 E21.8617
G1 X95.326 Y127.605 E21.95411
G1 X95.183 Y127.296 E21.96656
G1 X94.665 Y126.023 E22.01685
G1 X94.544 Y125.68 E22.03015
G1 X93.825 Y123.264 E22.12238
G1 X93.743 Y122.932 E22.13489
G1 X93.515 Y121.794 E22.17735
G1 X93.465 Y121.472 E22.18927
G1 X93.186 Y118.963 E22.28163
G1 X93.163 Y118.509 E22.29826
G1 X93.191 Y115.981 E22.39076
G1 X93.225 Y115.52 E22.40767
G1 X93.564 Y113.015 E22.50015
G1 X93.628 Y112.667 E22.5131
G1 X93.935 Y111.352 E22.5625
G1 X94.03 Y111.017 E22.57524
G1 X94.83 Y108.622 E22.66763
G1 X95.001 Y108.198 E22.68435
G1 X96.087 Y105.92 E22.77668
G1 X96.309 Y105.519 E22.79345
G1 X97.666 Y103.39 E22.88582
G1 X97.934 Y103.021 E22.90251
G1 X99.37 Y101.279 E22.9851
G0 F810 X99.539 Y101.074
G0 X99.854 Y100.737
M204 S5000
M205 X30 Y30
G0 F7200 X100.157 Y101.056
M204 S500
M205 X20 Y20
G1 F6000 E23.0117
G1 F900 X101.988 Y99.323 E23.10394
G1 X102.295 Y99.066 E23.11859
G1 X104.326 Y97.565 E23.21098
G1 X104.668 Y97.344 E23.22588
G1 X106.868 Y96.105 E23.31826
G1 X107.229 Y95.929 E23.33295
G1 X109.565 Y94.966 E23.42539
G1 X109.948 Y94.835 E23.4402
G1 X112.381 Y94.166 E23.53252
G1 X112.777 Y94.083 E23.54732
G1 X115.276 Y93.716 E23.63973
G1 X115.675 Y93.682 E23.65438
G1 X118.199 Y93.621 E23.74675
G1 X118.605 Y93.636 E23.76162
G1 X121.116 Y93.885 E23.85394
G1 X121.424 Y93.93 E23.86532
G1 X122.722 Y94.184 E23.91371
G1 X122.915 Y94.228 E23.92096
G1 X124.082 Y94.53 E23.96506
G1 X124.369 Y94.619 E23.97605
G1 X126.748 Y95.472 E24.06852
G1 X127.033 Y95.589 E24.07979
G1 X128.225 Y96.147 E24.12794
G1 X128.495 Y96.289 E24.1391
G1 X130.673 Y97.566 E24.23147
