;FLAVOR:RepRap
;TIME:3518
;Generated with Cura_SteamEngine 2.3.1
M190 S70
M104 S215
M109 S215
G28 ; home all axes
M117 Purge extruder
G92 E0 ; reset extruder
G1 Z1.0 F3000 ; move z up little to prevent scratching of surface
G1 X0.1 Y20 Z0.3 F5000.0 ; move to start-line position G1 X0.1 Y200.0 Z0.3 F1500.0 E15 ; draw 1st line
G1 X0.4 Y200.0 Z0.3 F5000.0 ; move to side a little
G1 X0.4 Y20 Z0.3 F1500.0 E30 ; draw 2nd line
G92 E0 ; reset extruder
G1 Z1.0 F3000 ; move z up little to prevent scratching of surface

M117 All systems go!
;LAYER_COUNT:23
;LAYER:0
M117 INDICATOR-Layer0
M107
G1 F4200 E-5
G0 F1800 X89.794 Y89.496 Z.16
;TYPE:SKIRT
G1 F4200 E0
G1 F1200 X91.884 Y87.627 E0.08206
G1 X92.219 Y87.36 E0.0946
G1 X94.503 Y85.74 E0.17656
G1 X94.861 Y85.515 E0.18894
G1 X97.319 Y84.155 E0.27116
G1 X97.706 Y83.969 E0.28373
G1 X100.294 Y82.898 E0.3657
G1 X100.697 Y82.757 E0.3782
G1 X103.388 Y81.983 E0.46016
G1 X103.802 Y81.889 E0.47258
G1 X106.565 Y81.42 E0.55461
G1 X106.985 Y81.372 E0.56698
G1 X109.782 Y81.213 E0.64898
G1 X110.213 Y81.213 E0.66159
G1 X113.014 Y81.372 E0.74371
G1 X113.435 Y81.42 E0.75611
G1 X116.198 Y81.889 E0.83814
G1 X116.612 Y81.983 E0.85056
G1 X119.303 Y82.757 E0.93252
G1 X119.707 Y82.898 E0.94504
G1 X122.295 Y83.97 E1.02703
G1 X122.68 Y84.155 E1.03953
G1 X125.138 Y85.514 E1.12174
G1 X125.497 Y85.74 E1.13416
G1 X127.78 Y87.359 E1.21607
G1 X128.115 Y87.626 E1.22861
G1 X130.204 Y89.494 E1.31064
G1 X130.504 Y89.794 E1.32305
G1 X132.373 Y91.884 E1.40512
G1 X132.64 Y92.219 E1.41766
G1 X134.261 Y94.505 E1.49968
G1 X134.485 Y94.862 E1.51201
G1 X135.844 Y97.316 E1.59412
G1 X136.032 Y97.705 E1.60676
G1 X137.103 Y100.295 E1.6888
G1 X137.243 Y100.698 E1.70128
G1 X138.016 Y103.389 E1.78323
G1 X138.11 Y103.8 E1.79557
G1 X138.58 Y106.56 E1.87752
G1 X138.628 Y106.982 E1.88995
G1 X138.787 Y109.781 E1.972
G1 X138.787 Y110.212 E1.98462
G1 X138.628 Y113.015 E2.06679
G1 X138.58 Y113.437 E2.07922
G1 X138.111 Y116.196 E2.16113
G1 X138.017 Y116.608 E2.1735
G1 X137.244 Y119.3 E2.25548
G1 X137.104 Y119.703 E2.26796
G1 X136.033 Y122.293 E2.35
G1 X135.845 Y122.682 E2.36264
G1 X134.485 Y125.138 E2.44481
G1 X134.261 Y125.495 E2.45715
G1 X132.641 Y127.78 E2.53913
G1 X132.374 Y128.115 E2.55167
G1 X130.506 Y130.204 E2.63369
G1 X130.206 Y130.504 E2.64611
G1 X128.116 Y132.373 E2.72817
G1 X127.78 Y132.64 E2.74073
G1 X125.493 Y134.261 E2.82278
G1 X125.138 Y134.485 E2.83507
G1 X122.685 Y135.844 E2.91715
G1 X122.295 Y136.032 E2.92982
G1 X119.705 Y137.103 E3.01185
G1 X119.302 Y137.243 E3.02434
G1 X116.611 Y138.016 E3.10628
G1 X116.199 Y138.11 E3.11865
G1 X113.437 Y138.58 E3.20066
G1 X113.015 Y138.628 E3.21309
G1 X110.213 Y138.787 E3.29523
G1 X109.782 Y138.787 E3.30785
G1 X106.984 Y138.628 E3.38987
G1 X106.563 Y138.58 E3.40227
G1 X103.801 Y138.11 E3.48428
G1 X103.389 Y138.016 E3.49665
G1 X100.698 Y137.243 E3.57859
G1 X100.295 Y137.103 E3.59108
G1 X97.705 Y136.032 E3.67311
G1 X97.315 Y135.844 E3.68578
G1 X94.862 Y134.485 E3.76786
G1 X94.507 Y134.261 E3.78015
G1 X92.22 Y132.64 E3.8622
G1 X91.884 Y132.373 E3.87476
G1 X89.794 Y130.504 E3.95682
G1 X89.494 Y130.204 E3.96924
G1 X87.626 Y128.115 E4.05126
G1 X87.359 Y127.78 E4.0638
G1 X85.74 Y125.496 E4.14574
G1 X85.512 Y125.133 E4.15829
G1 X84.159 Y122.679 E4.24031
G1 X83.978 Y122.303 E4.25252
G1 X82.898 Y119.706 E4.33484
G1 X82.755 Y119.297 E4.34753
G1 X81.982 Y116.609 E4.42939
G1 X81.887 Y116.194 E4.44185
G1 X81.419 Y113.434 E4.52378
G1 X81.372 Y113.014 E4.53615
G1 X81.213 Y110.214 E4.61824
G1 X81.213 Y109.783 E4.63085
G1 X81.372 Y106.985 E4.71288
G1 X81.419 Y106.566 E4.72522
G1 X81.887 Y103.806 E4.80716
G1 X81.982 Y103.391 E4.81962
G1 X82.755 Y100.703 E4.90148
G1 X82.898 Y100.294 E4.91416
G1 X83.978 Y97.697 E4.99648
G1 X84.159 Y97.321 E5.0087
G1 X85.512 Y94.867 E5.09072
G1 X85.74 Y94.504 E5.10326
G1 X87.359 Y92.22 E5.18521
G1 X87.626 Y91.885 E5.19774
G1 X89.494 Y89.796 E5.27977
G1 X89.794 Y89.496 E5.29219
G0 F1800 X90.061 Y89.795
G1 F1200 X92.151 Y87.926 E5.37425
G1 X92.45 Y87.687 E5.38545
G1 X94.734 Y86.067 E5.46741
G1 X95.055 Y85.865 E5.47851
G1 X97.513 Y84.505 E5.56073
G1 X97.859 Y84.338 E5.57198
G1 X100.447 Y83.267 E5.65396
G1 X100.807 Y83.141 E5.66512
G1 X103.498 Y82.367 E5.74708
G1 X103.869 Y82.283 E5.75821
G1 X106.632 Y81.814 E5.84024
G1 X107.008 Y81.771 E5.85131
G1 X109.805 Y81.612 E5.93331
G1 X110.191 Y81.612 E5.94461
G1 X112.992 Y81.771 E6.02672
G1 X113.368 Y81.814 E6.0378
G1 X116.131 Y82.283 E6.11983
G1 X116.502 Y82.367 E6.13096
G1 X119.193 Y83.141 E6.21292
G1 X119.554 Y83.268 E6.22412
G1 X122.142 Y84.34 E6.30611
G1 X122.486 Y84.506 E6.31728
G1 X124.944 Y85.865 E6.39949
G1 X125.266 Y86.067 E6.41062
G1 X127.549 Y87.686 E6.49253
G1 X127.848 Y87.925 E6.50374
G1 X129.937 Y89.793 E6.58576
G1 X130.205 Y90.061 E6.59685
G1 X132.074 Y92.151 E6.67892
G1 X132.313 Y92.45 E6.69012
G1 X133.934 Y94.736 E6.77214
G1 X134.135 Y95.056 E6.78321
G1 X135.494 Y97.51 E6.86531
G1 X135.662 Y97.858 E6.87662
G1 X136.733 Y100.448 E6.95865
G1 X136.859 Y100.808 E6.96982
G1 X137.632 Y103.499 E7.05176
G1 X137.716 Y103.867 E7.06281
G1 X138.186 Y106.627 E7.14476
G1 X138.229 Y107.005 E7.15589
G1 X138.388 Y109.804 E7.23795
G1 X138.388 Y110.19 E7.24925
G1 X138.229 Y112.993 E7.33142
G1 X138.186 Y113.37 E7.34252
G1 X137.717 Y116.129 E7.42444
G1 X137.633 Y116.497 E7.43548
G1 X136.86 Y119.189 E7.51746
G1 X136.734 Y119.55 E7.52865
G1 X135.663 Y122.14 E7.61068
G1 X135.495 Y122.488 E7.62199
G1 X134.135 Y124.944 E7.70416
G1 X133.935 Y125.263 E7.71518
G1 X132.315 Y127.548 E7.79717
G1 X132.075 Y127.848 E7.80841
G1 X130.207 Y129.937 E7.89043
G1 X129.939 Y130.205 E7.90153
G1 X127.849 Y132.074 E7.98359
G1 X127.549 Y132.314 E7.99483
G1 X125.262 Y133.935 E8.07688
G1 X124.944 Y134.135 E8.08788
G1 X122.491 Y135.494 E8.16996
G1 X122.142 Y135.662 E8.18129
G1 X119.552 Y136.733 E8.26332
G1 X119.192 Y136.859 E8.27449
G1 X116.501 Y137.632 E8.35644
G1 X116.132 Y137.716 E8.36751
G1 X113.37 Y138.186 E8.44952
G1 X112.993 Y138.229 E8.46062
G1 X110.191 Y138.388 E8.54276
G1 X109.805 Y138.388 E8.55406
G1 X107.007 Y138.229 E8.63609
G1 X106.63 Y138.186 E8.64719
G1 X103.868 Y137.716 E8.7292
G1 X103.499 Y137.632 E8.74027
G1 X100.808 Y136.859 E8.82222
G1 X100.448 Y136.733 E8.83339
G1 X97.858 Y135.662 E8.91542
G1 X97.509 Y135.494 E8.92675
G1 X95.056 Y134.135 E9.00883
G1 X94.738 Y133.935 E9.01983
G1 X92.451 Y132.314 E9.10188
G1 X92.151 Y132.074 E9.11312
G1 X90.061 Y130.205 E9.19518
G1 X89.793 Y129.937 E9.20628
G1 X87.925 Y127.848 E9.2883
G1 X87.685 Y127.548 E9.29954
G1 X86.066 Y125.264 E9.38149
G1 X85.863 Y124.94 E9.39268
G1 X84.51 Y122.486 E9.4747
G1 X84.348 Y122.15 E9.48561
G1 X83.268 Y119.553 E9.56794
G1 X83.139 Y119.187 E9.57929
G1 X82.366 Y116.499 E9.66116
G1 X82.282 Y116.127 E9.67232
G1 X81.814 Y113.367 E9.75426
G1 X81.771 Y112.992 E9.7653
G1 X81.612 Y110.192 E9.84739
G1 X81.612 Y109.806 E9.85869
G1 X81.771 Y107.008 E9.94071
G1 X81.814 Y106.633 E9.95176
G1 X82.282 Y103.873 E10.0337
G1 X82.366 Y103.501 E10.04486
G1 X83.139 Y100.813 E10.12672
G1 X83.268 Y100.447 E10.13808
G1 X84.348 Y97.85 E10.2204
G1 X84.51 Y97.514 E10.23132
G1 X85.863 Y95.06 E10.31334
G1 X86.066 Y94.736 E10.32453
G1 X87.685 Y92.452 E10.40647
G1 X87.925 Y92.152 E10.41772
G1 X89.793 Y90.063 E10.49974
G1 X90.061 Y89.795 E10.51083
G0 F1800 X90.327 Y90.093
G1 F1200 X92.417 Y88.224 E10.5929
G1 X92.681 Y88.013 E10.60279
G1 X94.965 Y86.393 E10.68475
G1 X95.249 Y86.215 E10.69456
G1 X97.707 Y84.855 E10.77678
G1 X98.012 Y84.708 E10.78669
G1 X100.6 Y83.637 E10.86867
G1 X100.918 Y83.526 E10.87852
G1 X103.609 Y82.752 E10.96048
G1 X103.936 Y82.677 E10.9703
G1 X106.699 Y82.208 E11.05233
G1 X107.031 Y82.171 E11.0621
G1 X109.828 Y82.012 E11.1441
G1 X110.168 Y82.012 E11.15405
G1 X112.969 Y82.171 E11.23617
G1 X113.301 Y82.208 E11.24594
G1 X116.064 Y82.677 E11.32797
G1 X116.391 Y82.752 E11.33779
G1 X119.082 Y83.526 E11.41975
G1 X119.401 Y83.637 E11.42963
G1 X121.989 Y84.709 E11.51162
G1 X122.293 Y84.856 E11.5215
G1 X124.751 Y86.215 E11.60371
G1 X125.034 Y86.393 E11.6135
G1 X127.317 Y88.012 E11.69541
G1 X127.582 Y88.223 E11.70533
G1 X129.671 Y90.091 E11.78735
G1 X129.907 Y90.327 E11.79712
G1 X131.776 Y92.417 E11.87918
G1 X131.987 Y92.682 E11.8891
G1 X133.608 Y94.968 E11.97112
G1 X133.785 Y95.25 E11.98087
G1 X135.144 Y97.704 E12.06297
G1 X135.292 Y98.011 E12.07295
G1 X136.363 Y100.601 E12.15498
G1 X136.474 Y100.919 E12.16484
G1 X137.247 Y103.61 E12.24678
G1 X137.321 Y103.934 E12.25651
G1 X137.791 Y106.694 E12.33846
G1 X137.829 Y107.028 E12.3483
G1 X137.988 Y109.827 E12.43035
G1 X137.988 Y110.167 E12.4403
G1 X137.829 Y112.97 E12.52248
G1 X137.792 Y113.303 E12.53228
G1 X137.323 Y116.062 E12.61419
G1 X137.248 Y116.387 E12.62396
G1 X136.475 Y119.079 E12.70593
G1 X136.364 Y119.397 E12.71579
G1 X135.293 Y121.987 E12.79782
G1 X135.145 Y122.294 E12.8078
G1 X133.785 Y124.75 E12.88997
G1 X133.608 Y125.032 E12.89971
G1 X131.988 Y127.317 E12.98169
G1 X131.777 Y127.582 E12.99161
G1 X129.909 Y129.671 E13.07363
G1 X129.673 Y129.907 E13.0834
G1 X127.583 Y131.776 E13.16546
G1 X127.318 Y131.988 E13.1754
G1 X125.031 Y133.609 E13.25744
G1 X124.75 Y133.785 E13.26715
G1 X122.297 Y135.144 E13.34923
G1 X121.989 Y135.292 E13.35923
G1 X119.399 Y136.363 E13.44126
G1 X119.081 Y136.474 E13.45112
G1 X116.39 Y137.247 E13.53307
G1 X116.065 Y137.321 E13.54282
G1 X113.303 Y137.791 E13.62483
G1 X112.97 Y137.829 E13.63464
G1 X110.168 Y137.988 E13.71678
G1 X109.828 Y137.988 E13.72673
G1 X107.03 Y137.829 E13.80876
G1 X106.697 Y137.791 E13.81857
G1 X103.935 Y137.321 E13.90057
G1 X103.61 Y137.247 E13.91033
G1 X100.919 Y136.474 E13.99227
G1 X100.601 Y136.363 E14.00213
G1 X98.011 Y135.292 E14.08416
G1 X97.703 Y135.144 E14.09417
G1 X95.25 Y133.785 E14.17624
G1 X94.969 Y133.609 E14.18595
G1 X92.682 Y131.988 E14.268
G1 X92.417 Y131.776 E14.27793
G1 X90.327 Y129.907 E14.35999
G1 X90.091 Y129.671 E14.36976
G1 X88.223 Y127.582 E14.45178
G1 X88.012 Y127.317 E14.4617
G1 X86.393 Y125.033 E14.54364
G1 X86.213 Y124.746 E14.55356
G1 X84.86 Y122.292 E14.63558
G1 X84.717 Y121.996 E14.6452
G1 X83.637 Y119.399 E14.72752
G1 X83.524 Y119.076 E14.73754
G1 X82.751 Y116.388 E14.8194
G1 X82.676 Y116.061 E14.82922
G1 X82.208 Y113.301 E14.91115
G1 X82.171 Y112.969 E14.92093
G1 X82.012 Y110.169 E15.00302
G1 X82.012 Y109.829 E15.01297
G1 X82.171 Y107.031 E15.09499
G1 X82.208 Y106.699 E15.10477
G1 X82.676 Y103.939 E15.18671
G1 X82.751 Y103.612 E15.19653
G1 X83.524 Y100.924 E15.27839
G1 X83.637 Y100.601 E15.28841
G1 X84.717 Y98.004 E15.37073
G1 X84.86 Y97.708 E15.38035
G1 X86.213 Y95.254 E15.46237
G1 X86.393 Y94.967 E15.47228
G1 X88.012 Y92.683 E15.55423
G1 X88.223 Y92.418 E15.56414
G1 X90.091 Y90.329 E15.64616
G1 X90.327 Y90.093 E15.65593
G0 F1800 X90.594 Y90.391
G1 F1200 X92.684 Y88.522 E15.738
G1 X92.913 Y88.339 E15.74658
G1 X95.197 Y86.719 E15.82853
G1 X95.442 Y86.565 E15.837
G1 X97.9 Y85.205 E15.91922
G1 X98.165 Y85.078 E15.92783
G1 X100.753 Y84.007 E16.0098
G1 X101.028 Y83.91 E16.01834
G1 X103.719 Y83.136 E16.10029
G1 X104.003 Y83.072 E16.10882
G1 X106.766 Y82.603 E16.19084
G1 X107.053 Y82.57 E16.1993
G1 X109.85 Y82.411 E16.28129
G1 X110.145 Y82.411 E16.28993
G1 X112.946 Y82.57 E16.37204
G1 X113.234 Y82.603 E16.38053
G1 X115.997 Y83.072 E16.46255
G1 X116.281 Y83.136 E16.47108
G1 X118.972 Y83.91 E16.55303
G1 X119.248 Y84.007 E16.56159
G1 X121.836 Y85.079 E16.64358
G1 X122.099 Y85.206 E16.65213
G1 X124.557 Y86.565 E16.73434
G1 X124.803 Y86.719 E16.74283
G1 X127.086 Y88.338 E16.82475
G1 X127.315 Y88.521 E16.83333
G1 X129.404 Y90.389 E16.91535
G1 X129.609 Y90.594 E16.92384
G1 X131.478 Y92.684 E17.0059
G1 X131.661 Y92.913 E17.01448
G1 X133.282 Y95.199 E17.09651
G1 X133.436 Y95.443 E17.10495
G1 X134.795 Y97.897 E17.18706
G1 X134.923 Y98.163 E17.1957
G1 X135.994 Y100.753 E17.27773
G1 X136.09 Y101.029 E17.28628
G1 X136.863 Y103.72 E17.36823
G1 X136.927 Y104.002 E17.37669
G1 X137.397 Y106.762 E17.45864
G1 X137.43 Y107.051 E17.46715
G1 X137.589 Y109.85 E17.54921
G1 X137.589 Y110.144 E17.55781
G1 X137.43 Y112.947 E17.63998
G1 X137.397 Y113.236 E17.6485
G1 X136.928 Y115.995 E17.73041
G1 X136.864 Y116.277 E17.73887
G1 X136.091 Y118.969 E17.82085
G1 X135.995 Y119.245 E17.8294
G1 X134.924 Y121.835 E17.91143
G1 X134.796 Y122.101 E17.92007
G1 X133.436 Y124.557 E18.00224
G1 X133.282 Y124.801 E18.01069
G1 X131.662 Y127.086 E18.09267
G1 X131.479 Y127.315 E18.10125
G1 X129.611 Y129.404 E18.18327
G1 X129.406 Y129.609 E18.19176
G1 X127.316 Y131.478 E18.27382
G1 X127.086 Y131.661 E18.28243
G1 X124.799 Y133.282 E18.36447
G1 X124.556 Y133.435 E18.37288
G1 X122.103 Y134.794 E18.45496
G1 X121.837 Y134.923 E18.46361
G1 X119.247 Y135.994 E18.54564
G1 X118.971 Y136.09 E18.55419
G1 X116.28 Y136.863 E18.63614
G1 X115.998 Y136.927 E18.64461
G1 X113.236 Y137.397 E18.72661
G1 X112.947 Y137.43 E18.73512
G1 X110.145 Y137.589 E18.81727
G1 X109.85 Y137.589 E18.8259
G1 X107.052 Y137.43 E18.90793
G1 X106.764 Y137.397 E18.91641
G1 X104.002 Y136.927 E18.99841
G1 X103.72 Y136.863 E19.00688
G1 X101.029 Y136.09 E19.08883
G1 X100.753 Y135.994 E19.09738
G1 X98.163 Y134.923 E19.17941
G1 X97.897 Y134.794 E19.18806
G1 X95.444 Y133.435 E19.27014
G1 X95.201 Y133.282 E19.27855
G1 X92.914 Y131.661 E19.36059
G1 X92.684 Y131.478 E19.3692
G1 X90.594 Y129.609 E19.45126
G1 X90.389 Y129.404 E19.45975
G1 X88.521 Y127.315 E19.54177
G1 X88.338 Y127.086 E19.55035
G1 X86.719 Y124.802 E19.63229
G1 X86.563 Y124.553 E19.64089
G1 X85.21 Y122.099 E19.72291
G1 X85.086 Y121.842 E19.73126
G1 X84.006 Y119.245 E19.81358
G1 X83.908 Y118.966 E19.82224
G1 X83.135 Y116.278 E19.9041
G1 X83.071 Y115.994 E19.91262
G1 X82.603 Y113.234 E19.99456
G1 X82.57 Y112.946 E20.00304
G1 X82.411 Y110.146 E20.08513
G1 X82.411 Y109.851 E20.09376
G1 X82.57 Y107.053 E20.17579
G1 X82.603 Y106.766 E20.18424
G1 X83.071 Y104.006 E20.26618
G1 X83.135 Y103.722 E20.2747
G1 X83.908 Y101.034 E20.35656
G1 X84.006 Y100.755 E20.36522
G1 X85.086 Y98.158 E20.44754
G1 X85.21 Y97.901 E20.45589
G1 X86.563 Y95.447 E20.53791
G1 X86.719 Y95.198 E20.54651
G1 X88.338 Y92.914 E20.62845
G1 X88.521 Y92.685 E20.63703
G1 X90.389 Y90.596 E20.71906
G1 X90.594 Y90.391 E20.72754
G0 F1800 X90.86 Y90.689
G1 F1200 X92.95 Y88.82 E20.80961
G1 X93.144 Y88.666 E20.81686
G1 X95.428 Y87.046 E20.89881
G1 X95.636 Y86.915 E20.90601
G1 X98.094 Y85.555 E20.98823
G1 X98.318 Y85.447 E20.99551
G1 X100.906 Y84.376 E21.07749
G1 X101.139 Y84.295 E21.08471
G1 X103.83 Y83.521 E21.16666
G1 X104.07 Y83.466 E21.17387
G1 X106.833 Y82.997 E21.2559
G1 X107.076 Y82.97 E21.26305
G1 X109.873 Y82.811 E21.34505
G1 X110.123 Y82.811 E21.35237
G1 X112.924 Y82.97 E21.43448
G1 X113.167 Y82.997 E21.44164
G1 X115.93 Y83.466 E21.52366
G1 X116.17 Y83.521 E21.53087
G1 X118.861 Y84.295 E21.61283
G1 X119.095 Y84.376 E21.62007
G1 X121.683 Y85.448 E21.70206
G1 X121.905 Y85.556 E21.70929
G1 X124.363 Y86.915 E21.7915
G1 X124.572 Y87.045 E21.7987
G1 X126.855 Y88.664 E21.88062
G1 X127.048 Y88.819 E21.88786
G1 X129.137 Y90.687 E21.96989
G1 X129.311 Y90.86 E21.97707
G1 X131.18 Y92.95 E22.05913
G1 X131.335 Y93.144 E22.0664
G1 X132.956 Y95.43 E22.14842
G1 X133.086 Y95.637 E22.15558
G1 X134.445 Y98.091 E22.23768
G1 X134.553 Y98.316 E22.24499
G1 X135.624 Y100.906 E22.32702
G1 X135.705 Y101.14 E22.33427
G1 X136.478 Y103.831 E22.41621
G1 X136.533 Y104.069 E22.42336
G1 X137.003 Y106.829 E22.50531
G1 X137.03 Y107.073 E22.51249
G1 X137.189 Y109.872 E22.59455
G1 X137.189 Y110.122 E22.60187
G1 X137.03 Y112.925 E22.68404
G1 X137.003 Y113.169 E22.69122
G1 X136.534 Y115.928 E22.77314
G1 X136.48 Y116.166 E22.78028
G1 X135.707 Y118.858 E22.86225
G1 X135.625 Y119.092 E22.86951
G1 X134.554 Y121.682 E22.95154
G1 X134.446 Y121.907 E22.95885
G1 X133.086 Y124.363 E23.04102
G1 X132.956 Y124.569 E23.04815
G1 X131.336 Y126.854 E23.13013
G1 X131.181 Y127.048 E23.1374
G1 X129.313 Y129.137 E23.21942
G1 X129.14 Y129.311 E23.2266
G1 X127.05 Y131.18 E23.30867
G1 X126.855 Y131.335 E23.31596
G1 X124.568 Y132.956 E23.398
G1 X124.362 Y133.085 E23.40512
G1 X121.909 Y134.444 E23.4872
G1 X121.684 Y134.553 E23.49452
G1 X119.094 Y135.624 E23.57655
G1 X118.86 Y135.705 E23.58379
G1 X116.169 Y136.478 E23.66574
G1 X115.931 Y136.533 E23.67289
G1 X113.169 Y137.003 E23.7549
