;FLAVOR:RepRap
;TIME:6771
;Generated with Cura_SteamEngine 2.3.1
M190 S70
M104 S215
M109 S215
G28 ; home all axes
M117 Purge extruder
G92 E0 ; reset extruder
G1 Z1.0 F3000 ; move z up little to prevent scratching of surface
G1 X0.1 Y20 Z0.3 F5000.0 ; move to start-line position G1 X0.1 Y200.0 Z0.3 F1500.0 E15 ; draw 1st line
G1 X0.4 Y200.0 Z0.3 F5000.0 ; move to side a little
G1 X0.4 Y20 Z0.3 F1500.0 E30 ; draw 2nd line
G92 E0 ; reset extruder
G1 Z1.0 F3000 ; move z up little to prevent scratching of surface

M117 All systems go!
;LAYER_COUNT:54
;LAYER:0
M117 INDICATOR-Layer0
M107
G1 F4200 E-5
G0 F1800 X81.99 Y82.478 Z.16
;TYPE:SKIRT
G1 F4200 E0
G1 F1200 X82.385 Y82.094 E0.01612
G1 X82.831 Y81.77 E0.03226
G1 X83.319 Y81.515 E0.04837
G1 X83.839 Y81.332 E0.06451
G1 X84.38 Y81.227 E0.08064
G1 X84.833 Y81.2 E0.09392
G1 X134.832 Y81.2 E1.55734
G1 X135.382 Y81.24 E1.57348
G1 X135.92 Y81.359 E1.58961
G1 X136.435 Y81.555 E1.60573
G1 X136.916 Y81.823 E1.62185
G1 X137.354 Y82.157 E1.63797
G1 X137.738 Y82.552 E1.6541
G1 X138.062 Y82.998 E1.67023
G1 X138.317 Y83.486 E1.68635
G1 X138.5 Y84.006 E1.70248
G1 X138.605 Y84.547 E1.71861
G1 X138.632 Y85 E1.73189
G1 X138.632 Y135 E3.19534
G1 X138.592 Y135.55 E3.21148
G1 X138.473 Y136.088 E3.22761
G1 X138.277 Y136.603 E3.24374
G1 X138.009 Y137.084 E3.25985
G1 X137.675 Y137.522 E3.27597
G1 X137.28 Y137.906 E3.2921
G1 X136.834 Y138.23 E3.30823
G1 X136.346 Y138.485 E3.32435
G1 X135.826 Y138.668 E3.34048
G1 X135.285 Y138.773 E3.35661
G1 X134.832 Y138.8 E3.3699
G1 X84.833 Y138.8 E4.83331
G1 X84.283 Y138.76 E4.84945
G1 X83.745 Y138.641 E4.86558
G1 X83.23 Y138.445 E4.88171
G1 X82.749 Y138.177 E4.89782
G1 X82.311 Y137.843 E4.91395
G1 X81.927 Y137.448 E4.93007
G1 X81.603 Y137.002 E4.94621
G1 X81.348 Y136.514 E4.96232
G1 X81.165 Y135.994 E4.97846
G1 X81.06 Y135.453 E4.99459
G1 X81.033 Y135 E5.00787
G1 X81.033 Y85 E6.47131
G1 X81.073 Y84.45 E6.48745
G1 X81.192 Y83.912 E6.50358
G1 X81.388 Y83.397 E6.51971
G1 X81.656 Y82.916 E6.53583
G1 X81.99 Y82.478 E6.55195
G0 F1800 X82.385 Y82.64
G1 F1200 X82.775 Y82.294 E6.56721
G1 X83.213 Y82.011 E6.58247
G1 X83.688 Y81.798 E6.59771
G1 X84.191 Y81.661 E6.61297
G1 X84.833 Y81.6 E6.63184
G1 X134.832 Y81.6 E8.09526
G1 X135.352 Y81.64 E8.11052
G1 X135.859 Y81.759 E8.12576
G1 X136.342 Y81.954 E8.14101
G1 X136.79 Y82.22 E8.15626
G1 X137.192 Y82.552 E8.17152
G1 X137.538 Y82.942 E8.18678
G1 X137.821 Y83.38 E8.20204
G1 X138.034 Y83.855 E8.21728
G1 X138.171 Y84.358 E8.23254
G1 X138.232 Y85 E8.25141
G1 X138.232 Y135 E9.71486
G1 X138.192 Y135.52 E9.73012
G1 X138.073 Y136.027 E9.74537
G1 X137.878 Y136.51 E9.76061
G1 X137.612 Y136.958 E9.77586
G1 X137.28 Y137.36 E9.79112
G1 X136.89 Y137.706 E9.80638
G1 X136.452 Y137.989 E9.82164
G1 X135.977 Y138.202 E9.83688
G1 X135.474 Y138.339 E9.85214
G1 X134.832 Y138.4 E9.87101
G1 X84.833 Y138.4 E11.33443
G1 X84.313 Y138.36 E11.3497
G1 X83.806 Y138.241 E11.36494
G1 X83.323 Y138.046 E11.38018
G1 X82.875 Y137.78 E11.39543
G1 X82.473 Y137.448 E11.41069
G1 X82.127 Y137.058 E11.42595
G1 X81.844 Y136.62 E11.44122
G1 X81.631 Y136.145 E11.45645
G1 X81.494 Y135.642 E11.47171
G1 X81.433 Y135 E11.49059
G1 X81.433 Y85 E12.95403
G1 X81.473 Y84.48 E12.9693
G1 X81.592 Y83.973 E12.98454
G1 X81.787 Y83.49 E12.99979
G1 X82.053 Y83.042 E13.01504
G1 X82.385 Y82.64 E13.03029
G0 F1800 X82.779 Y82.813
G1 F1200 X83.162 Y82.508 E13.04463
G1 X83.59 Y82.27 E13.05896
G1 X84.05 Y82.104 E13.07327
G1 X84.531 Y82.015 E13.08759
G1 X84.833 Y82 E13.09644
G1 X134.832 Y82 E14.55986
G1 X135.32 Y82.04 E14.57419
G1 X135.795 Y82.159 E14.58852
G1 X136.244 Y82.353 E14.60284
G1 X136.656 Y82.618 E14.61717
G1 X137.019 Y82.946 E14.63149
G1 X137.324 Y83.329 E14.64582
G1 X137.562 Y83.757 E14.66016
G1 X137.728 Y84.217 E14.67447
G1 X137.817 Y84.698 E14.68879
G1 X137.832 Y85 E14.69764
G1 X137.832 Y135 E16.16108
G1 X137.792 Y135.488 E16.17542
G1 X137.673 Y135.963 E16.18975
G1 X137.479 Y136.412 E16.20406
G1 X137.214 Y136.824 E16.2184
G1 X136.886 Y137.187 E16.23272
G1 X136.503 Y137.492 E16.24705
G1 X136.075 Y137.73 E16.26138
G1 X135.615 Y137.896 E16.2757
G1 X135.134 Y137.985 E16.29002
G1 X134.832 Y138 E16.29887
G1 X84.833 Y138 E17.76228
G1 X84.345 Y137.96 E17.77661
G1 X83.87 Y137.841 E17.79095
G1 X83.421 Y137.647 E17.80526
G1 X83.009 Y137.382 E17.8196
G1 X82.646 Y137.054 E17.83392
G1 X82.341 Y136.671 E17.84825
G1 X82.103 Y136.243 E17.86258
G1 X81.937 Y135.783 E17.8769
G1 X81.848 Y135.302 E17.89121
G1 X81.833 Y135 E17.90006
G1 X81.833 Y85 E19.36351
G1 X81.873 Y84.512 E19.37784
G1 X81.992 Y84.037 E19.39217
G1 X82.186 Y83.588 E19.40649
G1 X82.451 Y83.176 E19.42083
G1 X82.779 Y82.813 E19.43515
G0 F1800 X83.171 Y83
G1 F1200 X83.546 Y82.741 E19.44849
G1 X83.96 Y82.551 E19.46182
G1 X84.401 Y82.436 E19.47516
G1 X84.833 Y82.4 E19.48785
G1 X134.832 Y82.4 E20.95126
G1 X135.286 Y82.44 E20.9646
G1 X135.726 Y82.558 E20.97794
G1 X136.138 Y82.752 E20.99126
G1 X136.511 Y83.015 E21.00462
G1 X136.832 Y83.338 E21.01795
G1 X137.091 Y83.713 E21.03129
G1 X137.281 Y84.127 E21.04462
G1 X137.396 Y84.568 E21.05796
G1 X137.432 Y85 E21.07065
G1 X137.432 Y135 E22.5341
G1 X137.392 Y135.454 E22.54744
G1 X137.274 Y135.894 E22.56077
G1 X137.08 Y136.306 E22.5741
G1 X136.817 Y136.679 E22.58746
G1 X136.494 Y137 E22.60078
G1 X136.119 Y137.259 E22.61412
G1 X135.705 Y137.449 E22.62746
G1 X135.264 Y137.564 E22.6408
G1 X134.832 Y137.6 E22.65348
G1 X84.833 Y137.6 E24.1169
G1 X84.379 Y137.56 E24.13024
G1 X83.939 Y137.442 E24.14357
G1 X83.527 Y137.248 E24.1569
G1 X83.154 Y136.985 E24.17026
G1 X82.833 Y136.662 E24.18359
G1 X82.574 Y136.287 E24.19693
G1 X82.384 Y135.873 E24.21026
G1 X82.269 Y135.432 E24.2236
G1 X82.233 Y135 E24.23629
G1 X82.233 Y85 E25.69973
G1 X82.273 Y84.546 E25.71307
G1 X82.391 Y84.106 E25.72641
G1 X82.585 Y83.694 E25.73974
G1 X82.848 Y83.321 E25.75309
G1 X83.171 Y83 E25.76642
G0 F1800 X83.56 Y83.206
G1 F1200 X83.923 Y82.997 E25.77868
G1 X84.32 Y82.861 E25.79096
G1 X84.833 Y82.8 E25.80608
G1 X134.832 Y82.8 E27.2695
G1 X135.249 Y82.84 E27.28176
G1 X135.651 Y82.958 E27.29403
G1 X136.023 Y83.151 E27.30629
G1 X136.352 Y83.41 E27.31855
G1 X136.626 Y83.727 E27.33081
G1 X136.835 Y84.09 E27.34307
G1 X136.971 Y84.487 E27.35535
G1 X137.032 Y85 E27.37047
G1 X137.032 Y135 E28.83392
G1 X136.992 Y135.417 E28.84618
G1 X136.874 Y135.819 E28.85844
G1 X136.681 Y136.191 E28.87071
G1 X136.422 Y136.52 E28.88296
G1 X136.105 Y136.794 E28.89523
G1 X135.742 Y137.003 E28.90749
G1 X135.345 Y137.139 E28.91977
G1 X134.832 Y137.2 E28.93489
G1 X84.833 Y137.2 E30.39831
G1 X84.416 Y137.16 E30.41057
G1 X84.014 Y137.042 E30.42283
G1 X83.642 Y136.849 E30.4351
G1 X83.313 Y136.59 E30.44735
G1 X83.039 Y136.273 E30.45962
G1 X82.83 Y135.91 E30.47188
G1 X82.694 Y135.513 E30.48416
G1 X82.633 Y135 E30.49928
G1 X82.633 Y85 E31.96273
G1 X82.673 Y84.583 E31.97499
G1 X82.791 Y84.181 E31.98725
G1 X82.984 Y83.809 E31.99952
G1 X83.243 Y83.48 E32.01177
G1 X83.56 Y83.206 E32.02404
G0 F1800 X83.945 Y83.435
G1 F1200 X84.292 Y83.283 E32.03512
G1 X84.833 Y83.2 E32.05114
G1 X134.832 Y83.2 E33.51456
G1 X135.209 Y83.24 E33.52566
G1 X135.569 Y83.358 E33.53674
G1 X135.896 Y83.548 E33.54781
G1 X136.177 Y83.803 E33.55892
G1 X136.397 Y84.112 E33.57002
G1 X136.549 Y84.459 E33.58111
G1 X136.632 Y85 E33.59713
G1 X136.632 Y135 E35.06058
G1 X136.592 Y135.377 E35.07167
G1 X136.474 Y135.737 E35.08276
G1 X136.284 Y136.064 E35.09383
G1 X136.029 Y136.345 E35.10494
G1 X135.72 Y136.565 E35.11604
G1 X135.373 Y136.717 E35.12713
G1 X134.832 Y136.8 E35.14315
G1 X84.833 Y136.8 E36.60656
G1 X84.456 Y136.76 E36.61766
G1 X84.096 Y136.642 E36.62875
G1 X83.769 Y136.452 E36.63982
G1 X83.488 Y136.197 E36.65092
G1 X83.268 Y135.888 E36.66203
G1 X83.116 Y135.541 E36.67311
G1 X83.033 Y135 E36.68913
G1 X83.033 Y85 E38.15258
G1 X83.073 Y84.623 E38.16368
G1 X83.191 Y84.263 E38.17476
G1 X83.381 Y83.936 E38.18583
G1 X83.636 Y83.655 E38.19694
G1 X83.945 Y83.435 E38.20804
G1 F4200 E33.20804
G0 F1800 X84.833 Y83.6
G1 F4200 E38.20804
G1 F1200 X134.832 Y83.6 E39.67146
G1 X135.164 Y83.64 E39.68125
G1 X135.476 Y83.757 E39.691
G1 X135.753 Y83.945 E39.7008
G1 X135.976 Y84.193 E39.71056
G1 X136.135 Y84.487 E39.72034
G1 X136.219 Y84.811 E39.73014
G1 X136.232 Y85 E39.73568
G1 X136.232 Y135 E41.19913
G1 X136.192 Y135.332 E41.20892
G1 X136.075 Y135.644 E41.21867
G1 X135.887 Y135.921 E41.22847
G1 X135.639 Y136.144 E41.23823
G1 X135.345 Y136.303 E41.24801
G1 X135.021 Y136.387 E41.25781
G1 X134.832 Y136.4 E41.26335
G1 X84.833 Y136.4 E42.72677
G1 X84.501 Y136.36 E42.73656
G1 X84.189 Y136.243 E42.74631
G1 X83.912 Y136.055 E42.75611
G1 X83.689 Y135.807 E42.76587
G1 X83.53 Y135.513 E42.77565
G1 X83.446 Y135.189 E42.78545
G1 X83.433 Y135 E42.791
G1 X83.433 Y85 E44.25444
G1 X83.473 Y84.668 E44.26423
G1 X83.59 Y84.356 E44.27398
G1 X83.778 Y84.079 E44.28378
G1 X84.026 Y83.856 E44.29354
G1 X84.32 Y83.697 E44.30333
G1 X84.644 Y83.613 E44.31312
G1 X84.833 Y83.6 E44.31867
G0 F1800 X84.833 Y84
G1 F1200 X134.832 Y84 E45.78208
G1 X135.111 Y84.04 E45.79033
G1 X135.368 Y84.156 E45.79859
G1 X135.583 Y84.339 E45.80685
G1 X135.737 Y84.575 E45.8151
G1 X135.82 Y84.845 E45.82336
G1 X135.832 Y85 E45.82792
G1 X135.832 Y135 E47.29136
G1 X135.792 Y135.279 E47.29961
G1 X135.676 Y135.536 E47.30786
G1 X135.493 Y135.751 E47.31613
G1 X135.257 Y135.905 E47.32438
G1 X134.987 Y135.988 E47.33264
G1 X134.832 Y136 E47.33719
G1 X84.833 Y136 E48.80061
G1 X84.554 Y135.96 E48.80886
G1 X84.297 Y135.844 E48.81711
G1 X84.082 Y135.661 E48.82538
G1 X83.928 Y135.425 E48.83362
G1 X83.845 Y135.155 E48.84189
G1 X83.833 Y135 E48.84644
G1 X83.833 Y85 E50.30989
G1 X83.873 Y84.721 E50.31814
G1 X83.989 Y84.464 E50.32639
G1 X84.172 Y84.249 E50.33465
G1 X84.408 Y84.095 E50.3429
G1 X84.678 Y84.012 E50.35117
G1 X84.833 Y84 E50.35572
G0 F1800 X84.833 Y84.4
G1 F1200 X134.832 Y84.4 E51.81914
G1 X135.047 Y84.44 E51.82554
G1 X135.233 Y84.553 E51.83191
G1 X135.366 Y84.726 E51.83829
G1 X135.432 Y85 E51.84654
G1 X135.432 Y135 E53.30999
G1 X135.392 Y135.215 E53.31639
G1 X135.279 Y135.401 E53.32276
G1 X135.106 Y135.534 E53.32915
G1 X134.832 Y135.6 E53.3374
G1 X84.833 Y135.6 E54.80081
G1 X84.618 Y135.56 E54.80721
G1 X84.432 Y135.447 E54.81358
G1 X84.299 Y135.274 E54.81997
G1 X84.233 Y135 E54.82822
G1 X84.233 Y85 E56.29166
G1 X84.273 Y84.785 E56.29807
G1 X84.386 Y84.599 E56.30444
G1 X84.559 Y84.466 E56.31082
G1 X84.833 Y84.4 E56.31907
G0 F1800 X84.633 Y85
G1 F1200 X84.672 Y84.881 E56.32274
G1 X84.833 Y84.8 E56.32801
G1 X134.832 Y84.8 E57.79143
G1 X134.951 Y84.839 E57.79509
G1 X135.032 Y85 E57.80037
G1 X135.032 Y135 E59.26381
G1 X134.993 Y135.119 E59.26748
G1 X134.832 Y135.2 E59.27276
G1 X84.833 Y135.2 E60.73617
G1 X84.714 Y135.161 E60.73984
G1 X84.633 Y135 E60.74511
G1 X84.633 Y85 E62.20856
G1 F4200 E57.20856
G0 F1800 X85.461 Y85.628
G0 X91.033 Y91.2
;TYPE:WALL-INNER
G1 F4200 E62.20856
G1 F1200 X128.632 Y91.2 E63.30904
G1 X128.632 Y128.8 E64.40955
G1 X91.033 Y128.8 E65.51003
G1 X91.033 Y91.2 E66.61055
G0 F1800 X90.633 Y90.8
G1 F1200 X129.032 Y90.8 E67.73444
G1 X129.032 Y129.2 E68.85837
G1 X90.633 Y129.2 E69.98227
G1 X90.633 Y90.8 E71.10619
G0 F1800 X90.233 Y90.4
G1 F1200 X129.432 Y90.4 E72.2535
G1 X129.432 Y129.6 E73.40085
G1 X90.233 Y129.6 E74.54816
G1 X90.233 Y90.4 E75.6955
G0 F1800 X89.833 Y90
G1 F1200 X129.832 Y90 E76.86623
G1 X129.832 Y130 E78.03698
G1 X89.833 Y130 E79.20771
G1 X89.833 Y90 E80.37847
G0 F1800 X89.433 Y89.6
G1 F1200 X130.232 Y89.6 E81.57261
G1 X130.232 Y130.4 E82.76678
G1 X89.433 Y130.4 E83.96093
G1 X89.433 Y89.6 E85.1551
G0 F1800 X89.033 Y89.2
G1 F1200 X130.632 Y89.2 E86.37266
G1 X130.632 Y130.8 E87.59024
G1 X89.033 Y130.8 E88.8078
G1 X89.033 Y89.2 E90.02539
G0 F1800 X88.633 Y88.8
G1 F1200 X131.032 Y88.8 E91.26636
G1 X131.032 Y131.2 E92.50736
G1 X88.633 Y131.2 E93.74834
G1 X88.633 Y88.8 E94.98934
G0 F1800 X88.233 Y88.4
G1 F1200 X131.432 Y88.4 E96.25373
G1 X131.432 Y131.6 E97.51814
G1 X88.233 Y131.6 E98.78253
G1 X88.233 Y88.4 E100.04695
G0 F1800 X87.833 Y88
G1 F1200 X131.832 Y88 E101.33475
G1 X131.832 Y132 E102.62258
G1 X87.833 Y132 E103.91039
G1 X87.833 Y88 E105.19822
G0 F1800 X87.433 Y87.6
G1 F1200 X132.232 Y87.6 E106.50944
G1 X132.232 Y132.4 E107.82069
G1 X87.433 Y132.4 E109.1319
G1 X87.433 Y87.6 E110.44315
G0 F1800 X87.033 Y87.2
G1 F1200 X132.632 Y87.2 E111.77778
G1 X132.632 Y132.8 E113.11245
G1 X87.033 Y132.8 E114.44708
G1 X87.033 Y87.2 E115.78174
G0 F1800 X86.633 Y86.8
G1 F1200 X133.032 Y86.8 E117.13979
G1 X133.032 Y133.2 E118.49787
G1 X86.633 Y133.2 E119.85592
G1 X86.633 Y86.8 E121.214
G0 F1800 X86.233 Y86.4
G1 F1200 X133.432 Y86.4 E122.59546
G1 X133.432 Y133.6 E123.97695
G1 X86.233 Y133.6 E125.35842
G1 X86.233 Y86.4 E126.73991
G0 F1800 X85.833 Y86
G1 F1200 X133.832 Y86 E128.14479
G1 X133.832 Y134 E129.5497
G1 X85.833 Y134 E130.95458
G1 X85.833 Y86 E132.35948
G0 F1800 X85.433 Y85.6
G1 F1200 X134.232 Y85.6 E133.78778
G1 X134.232 Y134.4 E135.2161
G1 X85.433 Y134.4 E136.64439
G1 X85.433 Y85.6 E138.07272
G0 F1800 X85.033 Y85.2
;TYPE:WALL-OUTER
G1 F1200 X134.632 Y85.2 E139.52443
G1 X134.632 Y134.8 E140.97617
G1 X85.033 Y134.8 E142.42787
G1 X85.033 Y85.2 E143.87961
G0 F1800 X85.503 Y85.67
G0 X91.38 Y91.38
;TYPE:SKIN
G1 F1200 X128.452 Y128.452 E145.41412
G0 X128.522 Y128.522
G0 F1800 X128.053 Y128.619
G1 F1200 X91.212 Y91.778 E146.93906
G0 X91.142 Y91.708
G0 F1800 X91.212 Y92.343
G1 F1200 X127.487 Y128.619 E148.44059
G0 X127.557 Y128.689
G0 F1800 X126.922 Y128.619
G1 F1200 X91.212 Y92.909 E149.91872
G0 X91.142 Y92.839
G0 F1800 X91.212 Y93.475
G1 F1200 X126.356 Y128.619 E151.37341
G0 X126.426 Y128.689
G0 F1800 X125.79 Y128.619
G1 F1200 X91.212 Y94.04 E152.80471
G0 X91.142 Y93.97
G0 F1800 X91.212 Y94.606
G1 F1200 X125.225 Y128.619 E154.21259
G0 X125.295 Y128.689
G0 F1800 X124.659 Y128.619
G1 F1200 X91.212 Y95.172 E155.59704
G0 X91.142 Y95.102
G0 F1800 X91.212 Y95.738
G1 F1200 X124.093 Y128.619 E156.95807
G0 X124.163 Y128.689
G0 F1800 X123.528 Y128.619
G1 F1200 X91.212 Y96.303 E158.29571
G0 X91.142 Y96.233
G0 F1800 X91.212 Y96.869
G1 F1200 X122.962 Y128.619 E159.60992
G0 X123.032 Y128.689
G0 F1800 X122.396 Y128.619
G1 F1200 X91.212 Y97.435 E160.90071
G0 X91.142 Y97.365
G0 F1800 X91.212 Y98
G1 F1200 X121.83 Y128.619 E162.16808
G0 X121.9 Y128.689
G0 F1800 X121.265 Y128.619
G1 F1200 X91.212 Y98.566 E163.41205
G0 X91.142 Y98.496
G0 F1800 X91.212 Y99.132
G1 F1200 X120.699 Y128.619 E164.63259
G0 X120.769 Y128.689
G0 F1800 X120.133 Y128.619
G1 F1200 X91.212 Y99.697 E165.82973
G0 X91.142 Y99.627
G0 F1800 X91.212 Y100.263
G1 F1200 X119.568 Y128.619 E167.00345
G0 X119.638 Y128.689
G0 F1800 X119.002 Y128.619
G1 F1200 X91.212 Y100.829 E168.15375
G0 X91.142 Y100.759
G0 F1800 X91.212 Y101.394
G1 F1200 X118.436 Y128.619 E169.28064
G0 X118.506 Y128.689
G0 F1800 X117.871 Y128.619
G1 F1200 X91.212 Y101.96 E170.38412
G0 X91.142 Y101.89
G0 F1800 X91.212 Y102.526
G1 F1200 X117.305 Y128.619 E171.46418
G0 X117.375 Y128.689
G0 F1800 X116.739 Y128.619
G1 F1200 X91.212 Y103.091 E172.52082
G0 X91.142 Y103.021
G0 F1800 X91.212 Y103.657
G1 F1200 X116.174 Y128.619 E173.55406
G0 X116.244 Y128.689
G0 F1800 X115.608 Y128.619
G1 F1200 X91.212 Y104.223 E174.56387
G0 X91.142 Y104.153
G0 F1800 X91.212 Y104.788
G1 F1200 X115.042 Y128.619 E175.55028
G0 X115.112 Y128.689
G0 F1800 X114.477 Y128.619
G1 F1200 X91.212 Y105.354 E176.51328
G0 X91.142 Y105.284
G0 F1800 X91.212 Y105.92
G1 F1200 X113.911 Y128.619 E177.45284
G0 X113.981 Y128.689
G0 F1800 X113.345 Y128.619
G1 F1200 X91.212 Y106.486 E178.36898
G0 X91.142 Y106.416
G0 F1800 X91.212 Y107.051
G1 F1200 X112.779 Y128.619 E179.26172
G0 X112.849 Y128.689
G0 F1800 X112.214 Y128.619
G1 F1200 X91.212 Y107.617 E180.13104
G0 X91.142 Y107.547
G0 F1800 X91.212 Y108.183
G1 F1200 X111.648 Y128.619 E180.97694
G0 X111.718 Y128.689
G0 F1800 X111.082 Y128.619
G1 F1200 X91.212 Y108.748 E181.79943
G0 X91.142 Y108.678
G0 F1800 X91.212 Y109.314
G1 F1200 X110.517 Y128.619 E182.59851
G0 X110.587 Y128.689
G0 F1800 X109.951 Y128.619
G1 F1200 X91.212 Y109.88 E183.37417
G0 X91.142 Y109.81
G0 F1800 X91.212 Y110.445
G1 F1200 X109.385 Y128.619 E184.12641
G0 X109.455 Y128.689
G0 F1800 X108.82 Y128.619
G1 F1200 X91.212 Y111.011 E184.85525
G0 X91.142 Y110.941
