;FLAVOR:RepRap
;TIME:3065
;Generated with Cura_SteamEngine 2.3.1
M190 S70
M104 S215
M109 S215
G28 ; home all axes
M117 Purge extruder
G92 E0 ; reset extruder
G1 Z1.0 F3000 ; move z up little to prevent scratching of surface
G1 X0.1 Y20 Z0.3 F5000.0 ; move to start-line position G1 X0.1 Y200.0 Z0.3 F1500.0 E15 ; draw 1st line
G1 X0.4 Y200.0 Z0.3 F5000.0 ; move to side a little
G1 X0.4 Y20 Z0.3 F1500.0 E30 ; draw 2nd line
G92 E0 ; reset extruder
G1 Z1.0 F3000 ; move z up little to prevent scratching of surface

M117 All systems go!
;LAYER_COUNT:19
;LAYER:0
M117 INDICATOR-Layer0
M107
G1 F4200 E-5
G0 F1800 X90.515 Y88.794 Z.16
;TYPE:SKIRT
G1 F4200 E0
G1 F1200 X90.791 Y88.544 E0.0109
G1 X92.702 Y86.975 E0.08327
G1 X93.003 Y86.752 E0.09423
G1 X95.038 Y85.393 E0.16586
G1 X95.355 Y85.202 E0.17669
G1 X97.512 Y84.048 E0.24829
G1 X97.851 Y83.888 E0.25926
G1 X100.126 Y82.946 E0.33133
G1 X100.479 Y82.82 E0.3423
G1 X102.82 Y82.111 E0.41389
G1 X103.178 Y82.021 E0.4247
G1 X105.589 Y81.54 E0.49666
G1 X105.96 Y81.485 E0.50763
G1 X108.402 Y81.245 E0.57945
G1 X108.774 Y81.227 E0.59035
G1 X111.226 Y81.227 E0.66212
G1 X111.598 Y81.245 E0.67302
G1 X114.04 Y81.485 E0.74484
G1 X114.411 Y81.54 E0.75582
G1 X116.822 Y82.021 E0.82778
G1 X117.18 Y82.111 E0.83858
G1 X119.521 Y82.82 E0.91017
G1 X119.874 Y82.946 E0.92114
G1 X122.149 Y83.888 E0.99321
G1 X122.488 Y84.048 E1.00418
G1 X124.645 Y85.202 E1.07578
G1 X124.962 Y85.393 E1.08662
G1 X126.997 Y86.752 E1.15824
G1 X127.298 Y86.975 E1.1692
G1 X129.208 Y88.543 E1.24153
G1 X129.484 Y88.793 E1.25243
G1 X131.206 Y90.515 E1.32371
G1 X131.456 Y90.791 E1.33461
G1 X133.025 Y92.702 E1.40698
G1 X133.248 Y93.002 E1.41792
G1 X134.606 Y95.035 E1.48948
G1 X134.797 Y95.353 E1.50033
G1 X135.952 Y97.512 E1.572
G1 X136.112 Y97.851 E1.58297
G1 X137.054 Y100.126 E1.65504
G1 X137.18 Y100.479 E1.66601
G1 X137.889 Y102.82 E1.7376
G1 X137.978 Y103.177 E1.74837
G1 X138.459 Y105.586 E1.82027
G1 X138.515 Y105.958 E1.83128
G1 X138.755 Y108.4 E1.9031
G1 X138.773 Y108.772 E1.914
G1 X138.773 Y111.226 E1.98583
G1 X138.755 Y111.598 E1.99673
G1 X138.515 Y114.04 E2.06855
G1 X138.46 Y114.411 E2.07953
G1 X137.979 Y116.822 E2.15148
G1 X137.889 Y117.18 E2.16229
G1 X137.181 Y119.519 E2.23382
G1 X137.055 Y119.872 E2.24479
G1 X136.112 Y122.149 E2.31692
G1 X135.952 Y122.488 E2.32789
G1 X134.798 Y124.645 E2.39949
G1 X134.607 Y124.962 E2.41033
G1 X133.248 Y126.997 E2.48195
G1 X133.025 Y127.298 E2.49291
G1 X131.457 Y129.208 E2.56524
G1 X131.207 Y129.484 E2.57614
G1 X129.485 Y131.206 E2.64742
G1 X129.209 Y131.456 E2.65832
G1 X127.3 Y133.023 E2.73061
G1 X126.999 Y133.246 E2.74157
G1 X124.961 Y134.607 E2.8133
G1 X124.644 Y134.797 E2.82412
G1 X122.488 Y135.951 E2.89569
G1 X122.149 Y136.112 E2.90668
G1 X119.874 Y137.054 E2.97874
G1 X119.521 Y137.18 E2.98971
G1 X117.18 Y137.889 E3.06131
G1 X116.822 Y137.979 E3.07211
G1 X114.411 Y138.46 E3.14407
G1 X114.04 Y138.515 E3.15505
G1 X111.598 Y138.755 E3.22687
G1 X111.226 Y138.773 E3.23777
G1 X108.774 Y138.773 E3.30953
G1 X108.402 Y138.755 E3.32043
G1 X105.96 Y138.515 E3.39225
G1 X105.589 Y138.46 E3.40323
G1 X103.178 Y137.979 E3.47519
G1 X102.82 Y137.889 E3.48599
G1 X100.479 Y137.18 E3.55759
G1 X100.126 Y137.054 E3.56856
G1 X97.851 Y136.112 E3.64063
G1 X97.512 Y135.951 E3.65161
G1 X95.356 Y134.797 E3.72318
G1 X95.039 Y134.607 E3.734
G1 X93.001 Y133.246 E3.80573
G1 X92.7 Y133.023 E3.81669
G1 X90.791 Y131.456 E3.88898
G1 X90.515 Y131.206 E3.89988
G1 X88.793 Y129.484 E3.97116
G1 X88.543 Y129.208 E3.98206
G1 X86.975 Y127.298 E4.05439
G1 X86.752 Y126.997 E4.06535
G1 X85.393 Y124.962 E4.13697
G1 X85.202 Y124.645 E4.14781
G1 X84.048 Y122.488 E4.21941
G1 X83.888 Y122.149 E4.23038
G1 X82.945 Y119.872 E4.30251
G1 X82.819 Y119.519 E4.31348
G1 X82.111 Y117.18 E4.38501
G1 X82.021 Y116.822 E4.39582
G1 X81.54 Y114.411 E4.46777
G1 X81.485 Y114.04 E4.47875
G1 X81.245 Y111.6 E4.55051
G1 X81.227 Y111.228 E4.56141
G1 X81.227 Y108.774 E4.63324
G1 X81.245 Y108.402 E4.64414
G1 X81.485 Y105.96 E4.71596
G1 X81.54 Y105.589 E4.72694
G1 X82.021 Y103.178 E4.79889
G1 X82.111 Y102.82 E4.8097
G1 X82.819 Y100.481 E4.88123
G1 X82.945 Y100.128 E4.8922
G1 X83.888 Y97.851 E4.96433
G1 X84.048 Y97.512 E4.9753
G1 X85.202 Y95.355 E5.0469
G1 X85.393 Y95.038 E5.05774
G1 X86.752 Y93.003 E5.12936
G1 X86.975 Y92.702 E5.14032
G1 X88.543 Y90.792 E5.21265
G1 X88.793 Y90.516 E5.22355
G1 X90.515 Y88.794 E5.29483
G0 F1800 X90.798 Y89.077
G1 F1200 X91.045 Y88.853 E5.30459
G1 X92.956 Y87.284 E5.37696
G1 X93.225 Y87.085 E5.38675
G1 X95.26 Y85.726 E5.45837
G1 X95.544 Y85.555 E5.46808
G1 X97.701 Y84.401 E5.53968
G1 X98.004 Y84.258 E5.54948
G1 X100.279 Y83.316 E5.62155
G1 X100.594 Y83.203 E5.63135
G1 X102.935 Y82.494 E5.70294
G1 X103.256 Y82.414 E5.71262
G1 X105.667 Y81.933 E5.78458
G1 X105.999 Y81.883 E5.79441
G1 X108.441 Y81.643 E5.86623
G1 X108.774 Y81.627 E5.87598
G1 X111.226 Y81.627 E5.94775
G1 X111.559 Y81.643 E5.95751
G1 X114.001 Y81.883 E6.02933
G1 X114.333 Y81.933 E6.03916
G1 X116.744 Y82.414 E6.11111
G1 X117.065 Y82.494 E6.1208
G1 X119.406 Y83.203 E6.19239
G1 X119.721 Y83.316 E6.20218
G1 X121.996 Y84.258 E6.27425
G1 X122.299 Y84.401 E6.28406
G1 X124.456 Y85.555 E6.35566
G1 X124.74 Y85.726 E6.36536
G1 X126.775 Y87.085 E6.43699
G1 X127.044 Y87.284 E6.44678
G1 X128.954 Y88.852 E6.51911
G1 X129.201 Y89.076 E6.52887
G1 X130.923 Y90.798 E6.60015
G1 X131.147 Y91.045 E6.6099
G1 X132.716 Y92.956 E6.68227
G1 X132.915 Y93.224 E6.69204
G1 X134.273 Y95.257 E6.7636
G1 X134.444 Y95.542 E6.77333
G1 X135.599 Y97.701 E6.845
G1 X135.742 Y98.004 E6.8548
G1 X136.684 Y100.279 E6.92687
G1 X136.797 Y100.594 E6.93667
G1 X137.506 Y102.935 E7.00826
G1 X137.586 Y103.255 E7.01791
G1 X138.067 Y105.664 E7.08981
G1 X138.117 Y105.997 E7.09967
G1 X138.357 Y108.439 E7.17149
G1 X138.373 Y108.772 E7.18125
G1 X138.373 Y111.226 E7.25307
G1 X138.357 Y111.559 E7.26283
G1 X138.117 Y114.001 E7.33465
G1 X138.067 Y114.333 E7.34448
G1 X137.586 Y116.744 E7.41643
G1 X137.506 Y117.064 E7.42609
G1 X136.798 Y119.403 E7.49762
G1 X136.685 Y119.719 E7.50744
G1 X135.742 Y121.996 E7.57957
G1 X135.599 Y122.299 E7.58938
G1 X134.445 Y124.456 E7.66098
G1 X134.274 Y124.74 E7.67068
G1 X132.915 Y126.775 E7.74231
G1 X132.716 Y127.044 E7.7521
G1 X131.148 Y128.954 E7.82443
G1 X130.924 Y129.201 E7.83419
G1 X129.202 Y130.923 E7.90547
G1 X128.955 Y131.147 E7.91523
G1 X127.046 Y132.714 E7.98751
G1 X126.777 Y132.913 E7.99731
G1 X124.739 Y134.274 E8.06903
G1 X124.455 Y134.445 E8.07874
G1 X122.299 Y135.599 E8.15031
G1 X121.996 Y135.742 E8.16012
G1 X119.721 Y136.684 E8.23219
G1 X119.406 Y136.797 E8.24198
G1 X117.065 Y137.506 E8.31358
G1 X116.744 Y137.586 E8.32326
G1 X114.333 Y138.067 E8.39522
G1 X114.001 Y138.117 E8.40504
G1 X111.559 Y138.357 E8.47686
G1 X111.226 Y138.373 E8.48662
G1 X108.774 Y138.373 E8.55839
G1 X108.441 Y138.357 E8.56814
G1 X105.999 Y138.117 E8.63996
G1 X105.667 Y138.067 E8.64979
G1 X103.256 Y137.586 E8.72175
G1 X102.935 Y137.506 E8.73143
G1 X100.594 Y136.797 E8.80302
G1 X100.279 Y136.684 E8.81282
G1 X98.004 Y135.742 E8.88489
G1 X97.701 Y135.599 E8.89469
G1 X95.545 Y134.445 E8.96627
G1 X95.261 Y134.274 E8.97597
G1 X93.223 Y132.913 E9.0477
G1 X92.954 Y132.714 E9.05749
G1 X91.045 Y131.147 E9.12978
G1 X90.798 Y130.923 E9.13954
G1 X89.076 Y129.201 E9.21082
G1 X88.852 Y128.954 E9.22058
G1 X87.284 Y127.044 E9.29291
G1 X87.085 Y126.775 E9.3027
G1 X85.726 Y124.74 E9.37432
G1 X85.555 Y124.456 E9.38403
G1 X84.401 Y122.299 E9.45563
G1 X84.258 Y121.996 E9.46543
G1 X83.315 Y119.719 E9.53757
G1 X83.202 Y119.403 E9.54739
G1 X82.494 Y117.064 E9.61892
G1 X82.414 Y116.744 E9.62857
G1 X81.933 Y114.333 E9.70053
G1 X81.883 Y114.001 E9.71036
G1 X81.643 Y111.561 E9.78212
G1 X81.627 Y111.228 E9.79188
G1 X81.627 Y108.774 E9.8637
G1 X81.643 Y108.441 E9.87346
G1 X81.883 Y105.999 E9.94528
G1 X81.933 Y105.667 E9.95511
G1 X82.414 Y103.256 E10.02706
G1 X82.494 Y102.936 E10.03672
G1 X83.202 Y100.597 E10.10825
G1 X83.315 Y100.281 E10.11807
G1 X84.258 Y98.004 E10.1902
G1 X84.401 Y97.701 E10.20001
G1 X85.555 Y95.544 E10.27161
G1 X85.726 Y95.26 E10.28131
G1 X87.085 Y93.225 E10.35293
G1 X87.284 Y92.956 E10.36273
G1 X88.852 Y91.046 E10.43506
G1 X89.076 Y90.799 E10.44482
G1 X90.798 Y89.077 E10.51609
G0 F1800 X91.081 Y89.36
G1 F1200 X91.298 Y89.162 E10.52469
G1 X93.209 Y87.593 E10.59706
G1 X93.447 Y87.417 E10.60573
G1 X95.482 Y86.058 E10.67735
G1 X95.733 Y85.908 E10.68591
G1 X97.89 Y84.754 E10.75751
G1 X98.157 Y84.627 E10.76616
G1 X100.432 Y83.685 E10.83823
G1 X100.71 Y83.586 E10.84687
G1 X103.051 Y82.877 E10.91846
G1 X103.334 Y82.806 E10.927
G1 X105.745 Y82.325 E10.99896
G1 X106.039 Y82.281 E11.00766
G1 X108.481 Y82.041 E11.07948
G1 X108.774 Y82.027 E11.08806
G1 X111.226 Y82.027 E11.15983
G1 X111.519 Y82.041 E11.16842
G1 X113.961 Y82.281 E11.24024
G1 X114.255 Y82.325 E11.24894
G1 X116.666 Y82.806 E11.32089
G1 X116.949 Y82.877 E11.32943
G1 X119.29 Y83.586 E11.40103
G1 X119.568 Y83.685 E11.40966
G1 X121.843 Y84.627 E11.48173
G1 X122.11 Y84.754 E11.49039
G1 X124.267 Y85.908 E11.56199
G1 X124.518 Y86.058 E11.57055
G1 X126.553 Y87.417 E11.64217
G1 X126.791 Y87.593 E11.65083
G1 X128.701 Y89.161 E11.72316
G1 X128.918 Y89.359 E11.73176
G1 X130.64 Y91.081 E11.80304
G1 X130.838 Y91.298 E11.81163
G1 X132.407 Y93.209 E11.884
G1 X132.583 Y93.447 E11.89267
G1 X133.941 Y95.48 E11.96423
G1 X134.091 Y95.731 E11.97278
G1 X135.246 Y97.89 E12.04445
G1 X135.373 Y98.157 E12.0531
G1 X136.315 Y100.432 E12.12517
G1 X136.414 Y100.71 E12.13381
G1 X137.123 Y103.051 E12.2054
G1 X137.194 Y103.334 E12.21394
G1 X137.675 Y105.743 E12.28584
G1 X137.719 Y106.037 E12.29454
G1 X137.959 Y108.479 E12.36636
G1 X137.973 Y108.772 E12.37495
G1 X137.973 Y111.226 E12.44677
G1 X137.959 Y111.519 E12.45536
G1 X137.719 Y113.961 E12.52718
G1 X137.675 Y114.255 E12.53588
G1 X137.194 Y116.666 E12.60784
G1 X137.123 Y116.948 E12.61635
G1 X136.415 Y119.287 E12.68788
G1 X136.316 Y119.566 E12.69654
G1 X135.373 Y121.843 E12.76868
G1 X135.246 Y122.11 E12.77733
G1 X134.092 Y124.267 E12.84893
G1 X133.942 Y124.518 E12.85749
G1 X132.583 Y126.553 E12.92911
G1 X132.407 Y126.791 E12.93778
G1 X130.839 Y128.701 E13.0101
G1 X130.641 Y128.918 E13.0187
G1 X128.919 Y130.64 E13.08998
G1 X128.701 Y130.838 E13.0986
G1 X126.792 Y132.405 E13.17089
G1 X126.555 Y132.581 E13.17953
G1 X124.517 Y133.942 E13.25126
G1 X124.267 Y134.092 E13.25979
G1 X122.111 Y135.246 E13.33136
G1 X121.843 Y135.373 E13.34004
G1 X119.568 Y136.315 E13.41211
G1 X119.29 Y136.414 E13.42075
G1 X116.949 Y137.123 E13.49234
G1 X116.666 Y137.194 E13.50088
G1 X114.255 Y137.675 E13.57284
G1 X113.961 Y137.719 E13.58154
G1 X111.519 Y137.959 E13.65336
G1 X111.226 Y137.973 E13.66195
G1 X108.774 Y137.973 E13.73371
G1 X108.481 Y137.959 E13.7423
G1 X106.039 Y137.719 E13.81412
G1 X105.745 Y137.675 E13.82282
G1 X103.334 Y137.194 E13.89478
G1 X103.051 Y137.123 E13.90332
G1 X100.71 Y136.414 E13.97491
G1 X100.432 Y136.315 E13.98355
G1 X98.157 Y135.373 E14.05562
G1 X97.889 Y135.246 E14.0643
G1 X95.733 Y134.092 E14.13587
G1 X95.483 Y133.942 E14.1444
G1 X93.445 Y132.581 E14.21613
G1 X93.208 Y132.405 E14.22477
G1 X91.299 Y130.838 E14.29706
G1 X91.081 Y130.64 E14.30568
G1 X89.359 Y128.918 E14.37696
G1 X89.161 Y128.701 E14.38556
G1 X87.593 Y126.791 E14.45788
G1 X87.417 Y126.553 E14.46655
G1 X86.058 Y124.518 E14.53817
G1 X85.908 Y124.267 E14.54673
G1 X84.754 Y122.11 E14.61833
G1 X84.627 Y121.843 E14.62698
G1 X83.684 Y119.566 E14.69912
G1 X83.585 Y119.287 E14.70778
G1 X82.877 Y116.948 E14.77931
G1 X82.806 Y116.666 E14.78782
G1 X82.325 Y114.255 E14.85978
G1 X82.281 Y113.962 E14.86845
G1 X82.041 Y111.522 E14.94021
G1 X82.027 Y111.228 E14.94883
G1 X82.027 Y108.774 E15.02065
G1 X82.041 Y108.481 E15.02924
G1 X82.281 Y106.039 E15.10106
G1 X82.325 Y105.745 E15.10976
G1 X82.806 Y103.334 E15.18172
G1 X82.877 Y103.052 E15.19023
G1 X83.585 Y100.713 E15.26176
G1 X83.684 Y100.434 E15.27042
G1 X84.627 Y98.157 E15.34256
G1 X84.754 Y97.89 E15.35121
G1 X85.908 Y95.733 E15.42281
G1 X86.058 Y95.482 E15.43137
G1 X87.417 Y93.447 E15.50299
G1 X87.593 Y93.209 E15.51165
G1 X89.161 Y91.299 E15.58398
G1 X89.359 Y91.082 E15.59258
G1 X91.081 Y89.36 E15.66386
G0 F1800 X91.364 Y89.643
G1 F1200 X91.552 Y89.472 E15.6713
G1 X93.463 Y87.903 E15.74367
G1 X93.669 Y87.75 E15.75118
G1 X95.704 Y86.391 E15.8228
G1 X95.921 Y86.26 E15.83022
G1 X98.078 Y85.106 E15.90182
G1 X98.31 Y84.997 E15.90932
G1 X100.585 Y84.055 E15.98139
G1 X100.826 Y83.969 E15.98888
G1 X103.167 Y83.26 E16.06047
G1 X103.412 Y83.198 E16.06787
G1 X105.823 Y82.717 E16.13983
G1 X106.078 Y82.679 E16.14737
G1 X108.52 Y82.439 E16.21919
G1 X108.774 Y82.427 E16.22664
G1 X111.226 Y82.427 E16.2984
G1 X111.48 Y82.439 E16.30585
G1 X113.922 Y82.679 E16.37767
G1 X114.177 Y82.717 E16.38521
G1 X116.588 Y83.198 E16.45717
G1 X116.833 Y83.26 E16.46457
G1 X119.174 Y83.969 E16.53616
G1 X119.415 Y84.055 E16.54365
G1 X121.69 Y84.997 E16.61572
G1 X121.922 Y85.106 E16.62322
G1 X124.079 Y86.26 E16.69482
G1 X124.296 Y86.391 E16.70224
G1 X126.331 Y87.75 E16.77386
G1 X126.537 Y87.902 E16.78135
G1 X128.447 Y89.47 E16.85368
G1 X128.635 Y89.642 E16.86114
G1 X130.357 Y91.364 E16.93242
G1 X130.528 Y91.552 E16.93986
G1 X132.097 Y93.463 E17.01223
G1 X132.25 Y93.669 E17.01974
G1 X133.608 Y95.702 E17.0913
G1 X133.739 Y95.92 E17.09874
G1 X134.894 Y98.079 E17.17041
G1 X135.003 Y98.31 E17.17788
G1 X135.945 Y100.585 E17.24995
G1 X136.031 Y100.826 E17.25744
G1 X136.74 Y103.167 E17.32903
G1 X136.802 Y103.412 E17.33643
G1 X137.283 Y105.821 E17.40833
G1 X137.321 Y106.076 E17.41588
G1 X137.561 Y108.518 E17.48769
G1 X137.573 Y108.772 E17.49514
G1 X137.573 Y111.226 E17.56696
G1 X137.561 Y111.48 E17.57441
G1 X137.321 Y113.922 E17.64623
G1 X137.283 Y114.177 E17.65377
G1 X136.802 Y116.588 E17.72573
G1 X136.74 Y116.832 E17.7331
G1 X136.032 Y119.171 E17.80463
G1 X135.946 Y119.413 E17.81214
G1 X135.003 Y121.69 E17.88428
G1 X134.894 Y121.922 E17.89178
G1 X133.74 Y124.079 E17.96338
G1 X133.609 Y124.296 E17.9708
G1 X132.25 Y126.331 E18.04242
G1 X132.098 Y126.537 E18.04991
G1 X130.53 Y128.447 E18.12224
G1 X130.358 Y128.635 E18.1297
G1 X128.636 Y130.357 E18.20098
G1 X128.448 Y130.529 E18.20844
G1 X126.539 Y132.096 E18.28072
G1 X126.333 Y132.248 E18.28822
G1 X124.295 Y133.609 E18.35995
G1 X124.078 Y133.739 E18.36735
G1 X121.922 Y134.893 E18.43892
G1 X121.69 Y135.003 E18.44644
G1 X119.415 Y135.945 E18.51851
G1 X119.174 Y136.031 E18.526
G1 X116.833 Y136.74 E18.59759
G1 X116.588 Y136.802 E18.60499
G1 X114.177 Y137.283 E18.67695
G1 X113.922 Y137.321 E18.68449
G1 X111.48 Y137.561 E18.75631
G1 X111.226 Y137.573 E18.76375
G1 X108.774 Y137.573 E18.83552
G1 X108.52 Y137.561 E18.84296
G1 X106.078 Y137.321 E18.91478
G1 X105.823 Y137.283 E18.92233
G1 X103.412 Y136.802 E18.99429
G1 X103.167 Y136.74 E19.00168
G1 X100.826 Y136.031 E19.07328
G1 X100.585 Y135.945 E19.08076
G1 X98.31 Y135.003 E19.15283
G1 X98.078 Y134.893 E19.16035
G1 X95.922 Y133.739 E19.23192
G1 X95.705 Y133.609 E19.23933
G1 X93.667 Y132.248 E19.31106
G1 X93.461 Y132.096 E19.31855
G1 X91.552 Y130.529 E19.39084
G1 X91.364 Y130.357 E19.39829
G1 X89.642 Y128.635 E19.46957
G1 X89.47 Y128.447 E19.47703
G1 X87.902 Y126.537 E19.54936
G1 X87.75 Y126.331 E19.55685
G1 X86.391 Y124.296 E19.62847
G1 X86.26 Y124.079 E19.63589
G1 X85.106 Y121.922 E19.70749
G1 X84.997 Y121.69 E19.715
G1 X84.054 Y119.413 E19.78713
G1 X83.968 Y119.171 E19.79465
G1 X83.26 Y116.832 E19.86618
G1 X83.198 Y116.588 E19.87354
G1 X82.717 Y114.177 E19.9455
G1 X82.679 Y113.923 E19.95302
G1 X82.439 Y111.483 E20.02478
G1 X82.427 Y111.228 E20.03225
G1 X82.427 Y108.774 E20.10408
G1 X82.439 Y108.52 E20.11152
G1 X82.679 Y106.078 E20.18334
G1 X82.717 Y105.823 E20.19089
G1 X83.198 Y103.412 E20.26284
G1 X83.26 Y103.168 E20.27021
G1 X83.968 Y100.829 E20.34174
G1 X84.054 Y100.587 E20.34926
G1 X84.997 Y98.31 E20.42139
G1 X85.106 Y98.078 E20.42889
G1 X86.26 Y95.921 E20.50049
G1 X86.391 Y95.704 E20.50791
G1 X87.75 Y93.669 E20.57954
G1 X87.902 Y93.463 E20.58703
G1 X89.47 Y91.553 E20.65936
G1 X89.642 Y91.365 E20.66682
G1 X91.364 Y89.643 E20.73809
G0 F1800 X91.806 Y89.781
G1 F1200 X93.717 Y88.212 E20.81046
G1 X93.891 Y88.082 E20.81682
G1 X95.926 Y86.723 E20.88844
G1 X96.11 Y86.613 E20.89472
