;FLAVOR:RepRap
;TIME:5158
;Generated with Cura_SteamEngine 2.3.1
M190 S70
M104 S215
M109 S215
G28 ; home all axes
M117 Purge extruder
G92 E0 ; reset extruder
G1 Z1.0 F3000 ; move z up little to prevent scratching of surface
G1 X0.1 Y20 Z0.3 F5000.0 ; move to start-line position G1 X0.1 Y200.0 Z0.3 F1500.0 E15 ; draw 1st line
G1 X0.4 Y200.0 Z0.3 F5000.0 ; move to side a little
G1 X0.4 Y20 Z0.3 F1500.0 E30 ; draw 2nd line
G92 E0 ; reset extruder
G1 Z1.0 F3000 ; move z up little to prevent scratching of surface

M117 All systems go!
;LAYER_COUNT:47
;LAYER:0
M117 INDICATOR-Layer0
M107
G1 F4200 E-5
G0 F1800 X85.333 Y100.937 Z.16
;TYPE:SKIRT
G1 F4200 E0
G1 F1200 X85.767 Y100.597 E0.01614
G1 X86.245 Y100.324 E0.03225
G1 X86.748 Y100.083 E0.04857
G1 X87.261 Y99.882 E0.0647
G1 X87.798 Y99.756 E0.08084
G1 X88.514 Y99.712 E0.10184
G1 X88.911 Y99.725 E0.11347
G1 X89.459 Y99.783 E0.12959
G1 X89.92 Y99.896 E0.14349
G1 X89.921 Y99.896 E0.14352
G1 X90.497 Y99.797 E0.16062
G1 X91.276 Y99.734 E0.1835
G1 X91.827 Y99.73 E0.19962
G1 X92.373 Y99.805 E0.21576
G1 X92.514 Y99.85 E0.22009
G1 X93.271 Y99.797 E0.2423
G1 X93.536 Y99.788 E0.25006
G1 X97.982 Y99.788 E0.38019
G1 X98.165 Y99.806 E0.38557
G1 X98.169 Y99.805 E0.38569
G1 X98.573 Y99.751 E0.39762
G1 X98.892 Y99.725 E0.40699
G1 X99.443 Y99.72 E0.42312
G1 X99.797 Y99.759 E0.43354
G1 X99.803 Y99.76 E0.43372
G1 X100.307 Y99.726 E0.4485
G1 X100.361 Y99.732 E0.45009
G1 X100.418 Y99.726 E0.45177
G1 X100.969 Y99.748 E0.46791
G1 X101.37 Y99.815 E0.47981
G1 X101.521 Y99.849 E0.48434
G1 X101.816 Y99.765 E0.49332
G1 X102.234 Y99.703 E0.50569
G1 X102.83 Y99.648 E0.52321
G1 X103.381 Y99.637 E0.53934
G1 X103.871 Y99.695 E0.55378
G1 X106.33 Y100.15 E0.62697
G1 X106.333 Y100.149 E0.62706
G1 X106.997 Y99.902 E0.6478
G1 X107.526 Y99.748 E0.66393
G1 X108.072 Y99.672 E0.68006
G1 X108.35 Y99.664 E0.6882
G1 X115.245 Y99.715 E0.89002
G1 X124.995 Y95.989 E1.19552
G1 X125.522 Y95.83 E1.21163
G1 X126.067 Y95.75 E1.22775
G1 X126.618 Y95.748 E1.24388
G1 X127.164 Y95.827 E1.26002
G1 X127.692 Y95.983 E1.27614
G1 X128.192 Y96.215 E1.29227
G1 X128.653 Y96.516 E1.30839
G1 X129.039 Y96.853 E1.32338
G1 X131.972 Y99.788 E1.44483
G1 X133.099 Y99.788 E1.47782
G1 X133.648 Y99.828 E1.49393
G1 X134.186 Y99.947 E1.51005
G1 X134.701 Y100.142 E1.52617
G1 X135.183 Y100.41 E1.54231
G1 X135.621 Y100.744 E1.55844
G1 X136.005 Y101.139 E1.57456
G1 X136.329 Y101.585 E1.59069
G1 X136.585 Y102.073 E1.60682
G1 X136.736 Y102.483 E1.61961
G1 X137.162 Y103.885 E1.6625
G1 X137.283 Y104.423 E1.67864
G1 X137.326 Y104.99 E1.69528
G1 X137.327 Y114.61 E1.97685
G1 X137.287 Y115.159 E1.99296
G1 X137.168 Y115.697 E2.00909
G1 X136.973 Y116.212 E2.02521
G1 X136.705 Y116.694 E2.04135
G1 X136.37 Y117.131 E2.05746
G1 X135.975 Y117.516 E2.07361
G1 X135.72 Y117.714 E2.08306
G1 X135.519 Y117.856 E2.09026
G1 X135.39 Y117.934 E2.09467
G1 X135.343 Y117.969 E2.09639
G1 X126.421 Y123.948 E2.41074
G1 X125.943 Y124.22 E2.42684
G1 X125.43 Y124.421 E2.44296
G1 X124.893 Y124.545 E2.4591
G1 X124.344 Y124.591 E2.47522
G1 X123.794 Y124.556 E2.49135
G1 X123.255 Y124.443 E2.50747
G1 X122.722 Y124.245 E2.52411
G1 X119.567 Y122.798 E2.6257
G1 X119.038 Y122.502 E2.64345
G1 X117.182 Y121.261 E2.70879
G1 X112.033 Y121.324 E2.85951
G1 X111.483 Y121.291 E2.87564
G1 X110.943 Y121.178 E2.89179
G1 X110.853 Y121.145 E2.89459
G1 X110.365 Y121.26 E2.90927
G1 X109.762 Y121.307 E2.92697
G1 X109.041 Y121.306 E2.94807
G1 X108.491 Y121.265 E2.96421
G1 X107.742 Y121.075 E2.98683
G1 X107.088 Y120.836 E3.00721
G1 X106.616 Y120.624 E3.02236
G1 X106.452 Y120.73 E3.02807
G1 X105.951 Y120.958 E3.04418
G1 X105.256 Y121.144 E3.06524
G1 X104.432 Y121.282 E3.08969
G1 X103.883 Y121.333 E3.10583
G1 X103.171 Y121.281 E3.12673
G1 X102.49 Y121.166 E3.14694
G1 X101.955 Y121.035 E3.16306
G1 X101.469 Y120.84 E3.17839
G1 X100.66 Y120.449 E3.20469
G1 X100.183 Y120.174 E3.2208
G1 X99.75 Y119.833 E3.23693
G1 X99.499 Y119.567 E3.24764
G1 X98.001 Y119.414 E3.29171
G1 X97.779 Y119.385 E3.29826
G1 X94.461 Y118.846 E3.39665
G1 X93.925 Y118.718 E3.41278
G1 X93.698 Y118.628 E3.41993
G1 X93.334 Y118.745 E3.43112
G1 X92.889 Y118.845 E3.44447
G1 X92.344 Y118.926 E3.4606
G1 X91.793 Y118.928 E3.47672
G1 X91.248 Y118.85 E3.49284
G1 X90.793 Y118.721 E3.50668
G1 X90.673 Y118.679 E3.5104
G1 X90.496 Y118.733 E3.51582
G1 X89.959 Y118.857 E3.53195
G1 X89.169 Y118.895 E3.5551
G1 X88.665 Y118.867 E3.56987
G1 X88.119 Y118.797 E3.58598
G1 X87.588 Y118.648 E3.60212
G1 X87.085 Y118.424 E3.61824
G1 X86.619 Y118.13 E3.63437
G1 X86.51 Y118.037 E3.63856
G1 X86.284 Y117.912 E3.64612
G1 X85.845 Y117.578 E3.66227
G1 X85.46 Y117.184 E3.67839
G1 X85.135 Y116.739 E3.69452
G1 X84.878 Y116.251 E3.71066
G1 X84.695 Y115.732 E3.72677
G1 X84.588 Y115.191 E3.74291
G1 X84.56 Y114.698 E3.75736
G1 X84.562 Y114.474 E3.76392
G1 X84.447 Y114.231 E3.77179
G1 X84.047 Y113.268 E3.80231
G1 X83.873 Y112.745 E3.81844
G1 X83.776 Y112.202 E3.83458
G1 X83.759 Y111.652 E3.85069
G1 X83.789 Y111.387 E3.8585
G1 X83.539 Y110.721 E3.87932
G1 X83.383 Y110.192 E3.89546
G1 X83.313 Y109.739 E3.90888
G1 X83.151 Y108.019 E3.95944
G1 X83.152 Y107.294 E3.98066
G1 X83.295 Y105.828 E4.02377
G1 X83.4 Y105.236 E4.04137
G1 X83.909 Y103.288 E4.1003
G1 X84.087 Y102.767 E4.11642
G1 X84.334 Y102.283 E4.13232
G1 X84.635 Y101.785 E4.14935
G1 X84.953 Y101.336 E4.16546
G1 X85.333 Y100.937 E4.18158
G0 F1800 X85.644 Y101.195
G1 F1200 X86.061 Y100.883 E4.19683
G1 X86.418 Y100.685 E4.20877
G1 X86.921 Y100.444 E4.2251
G1 X87.407 Y100.255 E4.24036
G1 X87.916 Y100.143 E4.25562
G1 X88.501 Y100.112 E4.27276
G1 X88.898 Y100.125 E4.28439
G1 X89.416 Y100.182 E4.29964
G1 X89.801 Y100.278 E4.31125
G1 X89.907 Y100.311 E4.3145
G1 X89.982 Y100.286 E4.31682
G1 X90.529 Y100.196 E4.33304
G1 X91.308 Y100.133 E4.35592
G1 X91.829 Y100.131 E4.37117
G1 X92.344 Y100.209 E4.38641
G1 X92.48 Y100.253 E4.3906
G1 X93.299 Y100.196 E4.41463
G1 X93.536 Y100.188 E4.42157
G1 X97.982 Y100.188 E4.5517
G1 X98.215 Y100.211 E4.55855
G1 X98.328 Y100.183 E4.56196
G1 X98.606 Y100.149 E4.57015
G1 X98.925 Y100.123 E4.57952
G1 X99.446 Y100.121 E4.59477
G1 X99.734 Y100.154 E4.60326
G1 X99.821 Y100.168 E4.60583
G1 X100.037 Y100.135 E4.61223
G1 X100.412 Y100.136 E4.62321
G1 X100.685 Y100.127 E4.6312
G1 X101.282 Y100.206 E4.64883
G1 X101.53 Y100.261 E4.65626
G1 X101.925 Y100.151 E4.66826
G1 X102.271 Y100.101 E4.67849
G1 X102.867 Y100.046 E4.69601
G1 X103.388 Y100.038 E4.71126
G1 X103.798 Y100.089 E4.72336
G1 X106.38 Y100.567 E4.80021
G1 X106.473 Y100.524 E4.80321
G1 X107.137 Y100.277 E4.82395
G1 X107.638 Y100.134 E4.8392
G1 X108.347 Y100.064 E4.86005
G1 X115.318 Y100.115 E5.06409
G1 X125.137 Y96.363 E5.37175
G1 X125.637 Y96.215 E5.38701
G1 X126.153 Y96.145 E5.40225
G1 X126.674 Y96.154 E5.4175
G1 X127.188 Y96.244 E5.43277
G1 X127.682 Y96.41 E5.44803
G1 X128.144 Y96.65 E5.46327
G1 X128.565 Y96.958 E5.47853
G1 X128.756 Y97.136 E5.48618
G1 X131.806 Y100.188 E5.61246
G1 X133.099 Y100.188 E5.65031
G1 X133.618 Y100.228 E5.66554
G1 X134.126 Y100.346 E5.68081
G1 X134.609 Y100.541 E5.69605
G1 X135.057 Y100.808 E5.71132
G1 X135.459 Y101.14 E5.72658
G1 X135.805 Y101.529 E5.74182
G1 X136.088 Y101.966 E5.75705
G1 X136.353 Y102.6 E5.77717
G1 X136.779 Y104.002 E5.82005
G1 X136.892 Y104.51 E5.83529
G1 X136.926 Y104.99 E5.84937
G1 X136.927 Y114.61 E6.13094
G1 X136.887 Y115.129 E6.14617
G1 X136.768 Y115.637 E6.16144
G1 X136.573 Y116.12 E6.17669
G1 X136.307 Y116.568 E6.19194
G1 X135.975 Y116.97 E6.2072
G1 X135.489 Y117.387 E6.22594
G1 X135.288 Y117.529 E6.23315
G1 X135.155 Y117.608 E6.23767
G1 X135.121 Y117.636 E6.23896
G1 X126.199 Y123.615 E6.55332
G1 X125.745 Y123.872 E6.56858
G1 X125.257 Y124.055 E6.58384
G1 X124.747 Y124.162 E6.59909
G1 X124.227 Y124.19 E6.61433
G1 X123.708 Y124.138 E6.6296
G1 X123.204 Y124.007 E6.64484
G1 X122.889 Y123.881 E6.65477
G1 X119.734 Y122.434 E6.75636
G1 X119.26 Y122.17 E6.77224
G1 X117.3 Y120.859 E6.84126
G1 X112.028 Y120.924 E6.99558
G1 X111.508 Y120.89 E7.01083
G1 X110.999 Y120.778 E7.02609
G1 X110.865 Y120.726 E7.03029
G1 X110.782 Y120.752 E7.03284
G1 X110.274 Y120.869 E7.0481
G1 X109.762 Y120.907 E7.06312
G1 X109.041 Y120.906 E7.08423
G1 X108.522 Y120.865 E7.09946
G1 X107.879 Y120.699 E7.1189
G1 X107.225 Y120.46 E7.13928
G1 X106.751 Y120.245 E7.15451
G1 X106.609 Y120.149 E7.15953
G1 X106.49 Y120.241 E7.16393
G1 X106.033 Y120.492 E7.17919
G1 X105.543 Y120.671 E7.19446
G1 X105.19 Y120.749 E7.20504
G1 X104.366 Y120.887 E7.2295
G1 X103.847 Y120.934 E7.24475
G1 X103.238 Y120.887 E7.26263
G1 X102.557 Y120.772 E7.28284
G1 X102.051 Y120.646 E7.2981
G1 X101.643 Y120.48 E7.311
G1 X100.834 Y120.089 E7.3373
G1 X100.384 Y119.827 E7.35254
G1 X99.979 Y119.499 E7.36779
G1 X99.694 Y119.185 E7.3802
G1 X98.042 Y119.016 E7.42881
G1 X97.843 Y118.99 E7.43468
G1 X94.525 Y118.451 E7.53307
G1 X94.018 Y118.328 E7.54834
G1 X93.718 Y118.204 E7.55784
G1 X93.246 Y118.354 E7.57234
G1 X92.801 Y118.454 E7.58568
G1 X92.286 Y118.529 E7.60092
G1 X91.765 Y118.524 E7.61617
G1 X91.25 Y118.44 E7.63144
G1 X90.926 Y118.344 E7.64133
G1 X90.682 Y118.258 E7.6489
G1 X90.379 Y118.351 E7.65818
G1 X89.87 Y118.465 E7.67345
G1 X89.191 Y118.496 E7.69334
G1 X88.687 Y118.468 E7.70811
G1 X88.171 Y118.399 E7.72335
G1 X87.671 Y118.252 E7.73861
G1 X87.199 Y118.031 E7.75386
G1 X86.767 Y117.74 E7.76911
G1 X86.718 Y117.695 E7.77105
G1 X86.455 Y117.545 E7.77991
G1 X86.047 Y117.221 E7.79516
G1 X85.693 Y116.838 E7.81043
G1 X85.402 Y116.406 E7.82567
G1 X85.181 Y115.934 E7.84093
G1 X85.034 Y115.434 E7.85618
G1 X84.96 Y114.701 E7.87774
G1 X84.963 Y114.358 E7.88778
G1 X84.816 Y114.077 E7.89707
G1 X84.416 Y113.114 E7.92759
G1 X84.254 Y112.619 E7.94283
G1 X84.169 Y112.105 E7.95808
G1 X84.164 Y111.584 E7.97333
G1 X84.199 Y111.338 E7.9806
G1 X83.914 Y110.58 E8.0043
G1 X83.768 Y110.079 E8.01958
G1 X83.711 Y109.702 E8.03074
G1 X83.549 Y107.982 E8.0813
G1 X83.55 Y107.333 E8.1003
G1 X83.693 Y105.867 E8.14341
G1 X83.787 Y105.337 E8.15917
G1 X84.296 Y103.389 E8.2181
G1 X84.466 Y102.897 E8.23333
G1 X84.676 Y102.49 E8.24674
G1 X84.977 Y101.992 E8.26377
G1 X85.28 Y101.568 E8.27902
G1 X85.644 Y101.195 E8.29427
G1 F4200 E3.29427
G0 F1800 X86.591 Y101.046
G1 F4200 E8.29427
G1 F1200 X87.094 Y100.805 E8.3106
G1 X87.551 Y100.63 E8.32492
G1 X88.031 Y100.532 E8.33926
G1 X88.488 Y100.512 E8.35265
G1 X88.885 Y100.525 E8.36428
G1 X89.371 Y100.58 E8.37859
G1 X89.682 Y100.66 E8.38799
G1 X89.91 Y100.731 E8.39498
G1 X90.136 Y100.66 E8.40191
G1 X90.561 Y100.595 E8.4145
G1 X91.34 Y100.532 E8.43737
G1 X91.83 Y100.532 E8.45171
G1 X92.313 Y100.612 E8.46604
G1 X92.446 Y100.657 E8.47015
G1 X93.327 Y100.595 E8.496
G1 X93.536 Y100.588 E8.50212
G1 X97.982 Y100.588 E8.63225
G1 X98.278 Y100.617 E8.64096
G1 X98.638 Y100.548 E8.65169
G1 X98.957 Y100.522 E8.66105
G1 X99.672 Y100.549 E8.682
G1 X99.795 Y100.568 E8.68564
G1 X99.817 Y100.563 E8.6863
G1 X100.305 Y100.526 E8.70062
G1 X100.376 Y100.534 E8.70272
G1 X100.446 Y100.526 E8.70478
G1 X100.935 Y100.55 E8.71911
G1 X101.195 Y100.596 E8.72684
G1 X101.542 Y100.673 E8.73724
G1 X101.559 Y100.667 E8.73777
G1 X102.031 Y100.538 E8.75209
G1 X102.307 Y100.5 E8.76024
G1 X102.903 Y100.445 E8.77776
G1 X103.393 Y100.44 E8.7921
G1 X103.725 Y100.482 E8.8019
G1 X106.429 Y100.982 E8.88238
G1 X106.612 Y100.899 E8.88826
G1 X107.276 Y100.652 E8.909
G1 X107.747 Y100.52 E8.92332
G1 X108.344 Y100.464 E8.94087
G1 X115.391 Y100.516 E9.14713
G1 X125.28 Y96.737 E9.45699
G1 X125.75 Y96.6 E9.47131
G1 X126.236 Y96.541 E9.48564
G1 X126.725 Y96.562 E9.49997
G1 X127.204 Y96.663 E9.5143
G1 X127.661 Y96.84 E9.52864
G1 X128.082 Y97.089 E9.54296
G1 X128.473 Y97.418 E9.55791
G1 X131.641 Y100.589 E9.68911
G1 X133.099 Y100.588 E9.73178
G1 X133.587 Y100.628 E9.74611
G1 X134.062 Y100.746 E9.76044
G1 X134.511 Y100.941 E9.77477
G1 X134.923 Y101.205 E9.78909
G1 X135.286 Y101.533 E9.80341
G1 X135.591 Y101.916 E9.81774
G1 X135.83 Y102.344 E9.83208
G1 X135.97 Y102.716 E9.84372
G1 X136.396 Y104.118 E9.88661
G1 X136.5 Y104.596 E9.90092
G1 X136.526 Y104.99 E9.91248
G1 X136.527 Y114.61 E10.19405
G1 X136.487 Y115.098 E10.20838
G1 X136.368 Y115.572 E10.22268
G1 X136.174 Y116.022 E10.23703
G1 X135.909 Y116.433 E10.25134
G1 X135.581 Y116.797 E10.26568
G1 X135.258 Y117.06 E10.27787
G1 X135.057 Y117.202 E10.28507
G1 X134.943 Y117.27 E10.28896
G1 X134.898 Y117.304 E10.29061
G1 X125.976 Y123.283 E10.60496
G1 X125.549 Y123.522 E10.61929
G1 X125.088 Y123.687 E10.63362
G1 X124.607 Y123.776 E10.64793
G1 X124.117 Y123.785 E10.66228
G1 X123.633 Y123.714 E10.6766
G1 X123.055 Y123.518 E10.69446
G1 X119.9 Y122.071 E10.79605
G1 X119.483 Y121.837 E10.81005
G1 X117.421 Y120.457 E10.88267
G1 X112.023 Y120.524 E11.04067
G1 X111.535 Y120.49 E11.05499
G1 X111.058 Y120.377 E11.06934
G1 X110.88 Y120.302 E11.07499
G1 X110.663 Y120.37 E11.08165
G1 X110.185 Y120.478 E11.09599
G1 X109.763 Y120.507 E11.10837
G1 X109.042 Y120.506 E11.12948
G1 X108.554 Y120.465 E11.14381
G1 X108.016 Y120.324 E11.16009
G1 X107.362 Y120.085 E11.18047
G1 X106.918 Y119.88 E11.19478
G1 X106.589 Y119.655 E11.20645
G1 X106.587 Y119.657 E11.20653
G1 X106.475 Y119.76 E11.21098
G1 X106.066 Y120.029 E11.22531
G1 X105.619 Y120.228 E11.23963
G1 X105.124 Y120.355 E11.25459
G1 X104.3 Y120.493 E11.27904
G1 X103.812 Y120.534 E11.29338
G1 X103.304 Y120.492 E11.3083
G1 X102.623 Y120.377 E11.32851
G1 X102.149 Y120.257 E11.34282
G1 X101.818 Y120.12 E11.35331
G1 X101.009 Y119.729 E11.37961
G1 X100.587 Y119.481 E11.39393
G1 X100.211 Y119.167 E11.40827
G1 X99.897 Y118.803 E11.42234
G1 X98.083 Y118.618 E11.47571
G1 X97.907 Y118.595 E11.48091
G1 X94.589 Y118.056 E11.57929
G1 X94.114 Y117.939 E11.59361
G1 X93.721 Y117.77 E11.60613
G1 X93.623 Y117.819 E11.60934
G1 X93.159 Y117.964 E11.62357
G1 X92.714 Y118.064 E11.63692
G1 X92.229 Y118.132 E11.65125
G1 X91.74 Y118.12 E11.66557
G1 X91.059 Y117.966 E11.686
G1 X90.685 Y117.834 E11.69761
G1 X90.645 Y117.851 E11.69888
G1 X90.261 Y117.969 E11.71064
G1 X89.783 Y118.074 E11.72497
G1 X89.214 Y118.096 E11.74163
G1 X88.71 Y118.068 E11.75641
G1 X88.225 Y118.001 E11.77074
G1 X87.757 Y117.857 E11.78507
G1 X87.319 Y117.638 E11.7994
G1 X86.944 Y117.365 E11.81298
G1 X86.63 Y117.18 E11.82365
G1 X86.255 Y116.866 E11.83796
G1 X85.935 Y116.495 E11.8523
G1 X85.68 Y116.078 E11.86661
G1 X85.497 Y115.624 E11.88093
G1 X85.389 Y115.146 E11.89528
G1 X85.36 Y114.704 E11.90824
G1 X85.364 Y114.271 E11.92092
G1 X85.312 Y114.191 E11.92371
G1 X85.185 Y113.924 E11.93236
G1 X84.785 Y112.961 E11.96288
G1 X84.635 Y112.495 E11.97721
G1 X84.563 Y112.011 E11.99153
G1 X84.57 Y111.521 E12.00588
G1 X84.611 Y111.297 E12.01254
G1 X84.288 Y110.439 E12.03938
G1 X84.154 Y109.968 E12.05371
G1 X84.109 Y109.664 E12.0627
G1 X83.947 Y107.944 E12.11327
G1 X83.948 Y107.372 E12.13001
G1 X84.091 Y105.906 E12.17312
G1 X84.174 Y105.439 E12.187
G1 X84.683 Y103.491 E12.24593
G1 X84.845 Y103.029 E12.26026
G1 X85.019 Y102.697 E12.27124
G1 X85.32 Y102.199 E12.28827
G1 X85.606 Y101.802 E12.30259
G1 X85.953 Y101.457 E12.31691
G1 X86.352 Y101.173 E12.33124
G1 X86.591 Y101.046 E12.33917
G0 F1800 X86.764 Y101.406
G1 F1200 X87.267 Y101.165 E12.35549
G1 X87.693 Y101.005 E12.36881
G1 X88.141 Y100.922 E12.38214
G1 X88.475 Y100.911 E12.39193
G1 X88.872 Y100.924 E12.40355
G1 X89.324 Y100.979 E12.41688
G1 X89.563 Y101.041 E12.42411
G1 X89.908 Y101.149 E12.43469
G1 X90.287 Y101.037 E12.44625
G1 X90.593 Y100.993 E12.4553
G1 X91.372 Y100.93 E12.47818
G1 X91.828 Y100.934 E12.49152
G1 X92.276 Y101.016 E12.50485
G1 X92.403 Y101.06 E12.50879
G1 X93.355 Y100.994 E12.53672
G1 X93.536 Y100.988 E12.54202
G1 X97.982 Y100.988 E12.67215
G1 X98.277 Y101.017 E12.68083
G1 X98.671 Y100.947 E12.69254
G1 X98.99 Y100.921 E12.70191
G1 X99.609 Y100.944 E12.72004
G1 X99.822 Y100.978 E12.72635
G1 X100.099 Y100.933 E12.73456
G1 X100.371 Y100.937 E12.74253
G1 X100.711 Y100.929 E12.75248
G1 X101.108 Y100.986 E12.76422
G1 X101.569 Y101.089 E12.77804
G1 X101.696 Y101.043 E12.782
G1 X102.344 Y100.898 E12.80143
G1 X102.94 Y100.843 E12.81895
G1 X103.396 Y100.841 E12.8323
G1 X103.652 Y100.875 E12.83986
G1 X106.476 Y101.398 E12.92392
G1 X106.752 Y101.274 E12.93277
G1 X107.416 Y101.027 E12.95351
G1 X107.855 Y100.906 E12.96684
