;FLAVOR:RepRap
;TIME:4067
;Generated with Cura_SteamEngine 2.3.1
M190 S70
M104 S215
M109 S215
G28 ; home all axes
M117 Purge extruder
G92 E0 ; reset extruder
G1 Z1.0 F3000 ; move z up little to prevent scratching of surface
G1 X0.1 Y20 Z0.3 F5000.0 ; move to start-line position G1 X0.1 Y200.0 Z0.3 F1500.0 E15 ; draw 1st line
G1 X0.4 Y200.0 Z0.3 F5000.0 ; move to side a little
G1 X0.4 Y20 Z0.3 F1500.0 E30 ; draw 2nd line
G92 E0 ; reset extruder
G1 Z1.0 F3000 ; move z up little to prevent scratching of surface

M117 All systems go!
;LAYER_COUNT:31
;LAYER:0
M117 INDICATOR-Layer0
M107
G1 F4200 E-5
G0 F1800 X85.116 Y99.872 Z.16
G0 X84.852 Y100.123
;TYPE:SKIRT
G1 F4200 E0
G1 F1200 X85.116 Y99.872 E0.01066
G1 X85.541 Y99.522 E0.02678
G1 X86.013 Y99.238 E0.0429
G1 X86.521 Y99.025 E0.05902
G1 X87.055 Y98.887 E0.07517
G1 X87.453 Y98.836 E0.08691
G1 X87.965 Y98.798 E0.10194
G1 X88.516 Y98.798 E0.11806
G1 X88.973 Y98.863 E0.13157
G1 X88.974 Y98.863 E0.1316
G1 X89.36 Y98.805 E0.14303
G1 X89.91 Y98.763 E0.15917
G1 X90.459 Y98.801 E0.17528
G1 X90.717 Y98.859 E0.18302
G1 X91.124 Y98.83 E0.19496
G1 X91.39 Y98.821 E0.20275
G1 X94.38 Y98.821 E0.29027
G1 X94.414 Y98.824 E0.29127
G1 X94.905 Y98.775 E0.30571
G1 X95.43 Y98.804 E0.3211
G1 X95.632 Y98.773 E0.32708
G1 X96.183 Y98.771 E0.34321
G1 X96.672 Y98.837 E0.35765
G1 X96.639 Y98.691 E0.36203
G1 X96.595 Y98.122 E0.37873
G1 X96.593 Y96.549 E0.42477
G1 X96.632 Y95.999 E0.44091
G1 X96.751 Y95.461 E0.45704
G1 X96.945 Y94.946 E0.47315
G1 X97.088 Y94.668 E0.4823
G1 X97.26 Y94.365 E0.49249
G1 X97.566 Y93.907 E0.50862
G1 X97.935 Y93.498 E0.52474
G1 X98.523 Y93.036 E0.54663
G1 X99.782 Y92.234 E0.59032
G1 X99.683 Y91.286 E0.61821
G1 X99.666 Y91.054 E0.62502
G1 X99.604 Y89.599 E0.66765
G1 X99.621 Y89.048 E0.68378
G1 X99.717 Y88.505 E0.69992
G1 X99.89 Y87.982 E0.71605
G1 X100.138 Y87.49 E0.73217
G1 X100.454 Y87.039 E0.74829
G1 X100.831 Y86.638 E0.7644
G1 X101.263 Y86.295 E0.78054
G1 X101.74 Y86.019 E0.79667
G1 X102.252 Y85.815 E0.81281
G1 X102.788 Y85.687 E0.82894
G1 X103.453 Y85.637 E0.84845
G1 X104.768 Y85.655 E0.88695
G1 X105.317 Y85.703 E0.90308
G1 X105.853 Y85.829 E0.91919
G1 X106.366 Y86.032 E0.93534
G1 X106.843 Y86.306 E0.95144
G1 X107.117 Y86.532 E0.96184
G1 X107.191 Y86.559 E0.96414
G1 X107.694 Y86.784 E0.98027
G1 X108.159 Y87.079 E0.99639
G1 X108.578 Y87.44 E1.01258
G1 X108.715 Y87.576 E1.01823
G1 X109.849 Y88.431 E1.05979
G1 X110.264 Y88.794 E1.07593
G1 X110.622 Y89.213 E1.09206
G1 X110.915 Y89.679 E1.10817
G1 X111.183 Y90.315 E1.12837
G1 X111.347 Y90.831 E1.14422
G1 X111.476 Y91.367 E1.16036
G1 X111.525 Y91.916 E1.17649
G1 X111.501 Y92.351 E1.18924
G1 X111.566 Y92.463 E1.19303
G1 X111.806 Y92.959 E1.20916
G1 X111.972 Y93.484 E1.22527
G1 X112.034 Y93.804 E1.23481
G1 X112.14 Y94.517 E1.25591
G1 X112.181 Y95.067 E1.27205
G1 X112.142 Y95.616 E1.28816
G1 X112.025 Y96.155 E1.30431
G1 X111.988 Y96.252 E1.30735
G1 X114.656 Y95.182 E1.39148
G1 X114.527 Y94.898 E1.40061
G1 X114.374 Y94.368 E1.41676
G1 X114.299 Y93.822 E1.43289
G1 X114.303 Y93.271 E1.44902
G1 X114.388 Y92.727 E1.46513
G1 X114.625 Y92.022 E1.4869
G1 X115.195 Y90.753 E1.52762
G1 X115.456 Y90.268 E1.54374
G1 X115.785 Y89.826 E1.55987
G1 X115.851 Y89.76 E1.5626
G1 X116.02 Y89.114 E1.58214
G1 X116.198 Y88.592 E1.59828
G1 X116.449 Y88.102 E1.6144
G1 X116.768 Y87.653 E1.63052
G1 X117.149 Y87.255 E1.64664
G1 X117.584 Y86.916 E1.66279
G1 X118.063 Y86.643 E1.67892
G1 X118.144 Y86.612 E1.68146
G1 X118.248 Y86.53 E1.68534
G1 X118.727 Y86.257 E1.70147
G1 X119.24 Y86.056 E1.7176
G1 X119.777 Y85.932 E1.73373
G1 X120.326 Y85.886 E1.74986
G1 X120.876 Y85.921 E1.76599
G1 X121.558 Y86.078 E1.78647
G1 X123.574 Y86.745 E1.84862
G1 X124.083 Y86.956 E1.86475
G1 X124.556 Y87.238 E1.88087
G1 X124.984 Y87.585 E1.89699
G1 X125.357 Y87.991 E1.91313
G1 X125.667 Y88.446 E1.92925
G1 X125.908 Y88.942 E1.94539
G1 X126.075 Y89.467 E1.96151
G1 X126.165 Y90.01 E1.97762
G1 X126.174 Y90.561 E1.99375
G1 X126.153 Y90.728 E1.99868
G1 X126.166 Y90.765 E1.99982
G1 X126.279 Y91.305 E2.01597
G1 X126.313 Y91.854 E2.03207
G1 X126.273 Y92.331 E2.04608
G1 X126.396 Y92.408 E2.05033
G1 X126.832 Y92.783 E2.06716
G1 X132.868 Y98.821 E2.31705
G1 X133.11 Y98.821 E2.32413
G1 X133.659 Y98.861 E2.34024
G1 X134.198 Y98.979 E2.35639
G1 X134.713 Y99.175 E2.37252
G1 X135.194 Y99.442 E2.38862
G1 X135.632 Y99.777 E2.40476
G1 X136.017 Y100.171 E2.42089
G1 X136.341 Y100.617 E2.43702
G1 X136.597 Y101.105 E2.45315
G1 X136.748 Y101.517 E2.46599
G1 X137.5 Y103.994 E2.54176
G1 X137.622 Y104.532 E2.55791
G1 X137.664 Y105.098 E2.57452
G1 X137.665 Y114.762 E2.85737
G1 X137.625 Y115.311 E2.87348
G1 X137.506 Y115.849 E2.88961
G1 X137.311 Y116.364 E2.90573
G1 X137.043 Y116.846 E2.92187
G1 X136.708 Y117.283 E2.93799
G1 X136.313 Y117.668 E2.95413
G1 X135.978 Y117.92 E2.9664
G1 X120.149 Y128.509 E3.52381
G1 X119.67 Y128.782 E3.53994
G1 X119.157 Y128.982 E3.55606
G1 X118.62 Y129.106 E3.57219
G1 X118.071 Y129.151 E3.58831
G1 X117.521 Y129.116 E3.60444
G1 X116.982 Y129.002 E3.62057
G1 X116.465 Y128.811 E3.6367
G1 X115.929 Y128.513 E3.65465
G1 X108.293 Y123.425 E3.92322
G1 X105.586 Y123.424 E4.00245
G1 X105.667 Y123.673 E4.01011
G1 X105.761 Y124.216 E4.02624
G1 X105.776 Y124.767 E4.04237
G1 X105.711 Y125.314 E4.0585
G1 X105.567 Y125.846 E4.07463
G1 X105.422 Y126.18 E4.08528
G1 X105.437 Y126.387 E4.09136
G1 X105.397 Y126.937 E4.1075
G1 X105.277 Y127.475 E4.12363
G1 X105.081 Y127.99 E4.13976
G1 X104.813 Y128.471 E4.15588
G1 X104.478 Y128.908 E4.17199
G1 X104.083 Y129.292 E4.18812
G1 X103.843 Y129.478 E4.19701
G1 X102.655 Y130.325 E4.23971
G1 X102.184 Y130.612 E4.25585
G1 X101.677 Y130.827 E4.27197
G1 X101.144 Y130.967 E4.2881
G1 X100.597 Y131.028 E4.30421
G1 X100.046 Y131.01 E4.32035
G1 X99.504 Y130.912 E4.33647
G1 X98.981 Y130.736 E4.35262
G1 X98.49 Y130.487 E4.36873
G1 X98.251 Y130.33 E4.3771
G1 X97.336 Y129.681 E4.40993
G1 X96.91 Y129.331 E4.42607
G1 X96.54 Y128.923 E4.44219
G1 X96.233 Y128.465 E4.45833
G1 X95.996 Y127.968 E4.47445
G1 X95.882 Y127.631 E4.48486
G1 X95.122 Y124.984 E4.56546
G1 X95.008 Y124.444 E4.58162
G1 X94.974 Y123.895 E4.59772
G1 X95.02 Y123.345 E4.61387
G1 X95.145 Y122.809 E4.62998
G1 X95.251 Y122.51 E4.63927
G1 X95.357 Y122.248 E4.64754
G1 X95.41 Y122.14 E4.65106
G1 X92.483 Y121.729 E4.73757
G1 X92.246 Y121.678 E4.74467
G1 X91.899 Y121.773 E4.7552
G1 X91.352 Y121.84 E4.77132
G1 X90.802 Y121.828 E4.78743
G1 X90.47 Y121.781 E4.79724
G1 X90.238 Y121.738 E4.80415
G1 X90.213 Y121.732 E4.8049
G1 X90.064 Y121.771 E4.80941
G1 X89.248 Y121.835 E4.83336
G1 X88.944 Y121.826 E4.84227
G1 X88.395 Y121.77 E4.85842
G1 X87.861 Y121.635 E4.87454
G1 X87.352 Y121.425 E4.89066
G1 X86.879 Y121.142 E4.90679
G1 X86.451 Y120.795 E4.92291
G1 X86.351 Y120.686 E4.92724
G1 X86.015 Y120.389 E4.94037
G1 X85.658 Y119.969 E4.9565
G1 X85.366 Y119.502 E4.97262
G1 X85.145 Y118.997 E4.98876
G1 X84.999 Y118.466 E5.00488
G1 X84.955 Y118.187 E5.01314
G1 X84.93 Y117.983 E5.01916
G1 X84.871 Y117.856 E5.02326
G1 X83.403 Y114.313 E5.13551
G1 X83.258 Y113.874 E5.14904
G1 X83.249 Y113.859 E5.14955
G1 X83.041 Y113.349 E5.16567
G1 X82.909 Y112.814 E5.1818
G1 X82.869 Y112.508 E5.19083
G1 X82.541 Y108.828 E5.29897
G1 X82.544 Y108.12 E5.31969
G1 X82.797 Y105.538 E5.39563
G1 X82.933 Y104.838 E5.4165
G1 X83.824 Y101.806 E5.50899
G1 X84.017 Y101.29 E5.52512
G1 X84.283 Y100.807 E5.54126
G1 X84.616 Y100.368 E5.55738
G1 X84.852 Y100.123 E5.56734
G0 F1800 X85.391 Y100.162
G1 F1200 X85.795 Y99.833 E5.58259
G1 X86.245 Y99.569 E5.59786
G1 X86.73 Y99.378 E5.61312
G1 X87.482 Y99.235 E5.63552
G1 X87.994 Y99.197 E5.65055
G1 X88.515 Y99.199 E5.6658
G1 X88.981 Y99.272 E5.6796
G1 X89.034 Y99.259 E5.6812
G1 X89.42 Y99.201 E5.69263
G1 X89.94 Y99.163 E5.70789
G1 X90.459 Y99.205 E5.72313
G1 X90.698 Y99.261 E5.73031
G1 X91.152 Y99.229 E5.74363
G1 X91.39 Y99.221 E5.7506
G1 X94.38 Y99.221 E5.83812
G1 X94.439 Y99.227 E5.83985
G1 X94.509 Y99.211 E5.84195
G1 X95.029 Y99.173 E5.85721
G1 X95.46 Y99.204 E5.86986
G1 X95.719 Y99.168 E5.87752
G1 X96.24 Y99.177 E5.89277
G1 X96.603 Y99.23 E5.9035
G1 X96.737 Y99.257 E5.9075
G1 X97.165 Y99.162 E5.92034
G1 X97.135 Y99.084 E5.92278
G1 X97.026 Y98.575 E5.93802
G1 X96.995 Y98.121 E5.95134
G1 X96.993 Y96.548 E5.99738
G1 X97.032 Y96.029 E6.01261
G1 X97.151 Y95.521 E6.02788
G1 X97.436 Y94.866 E6.04879
G1 X97.608 Y94.563 E6.05899
G1 X97.899 Y94.13 E6.07426
G1 X98.253 Y93.748 E6.0895
G1 X98.738 Y93.374 E6.10743
G1 X100.205 Y92.439 E6.15834
G1 X100.081 Y91.245 E6.19348
G1 X100.066 Y91.037 E6.19958
G1 X100.004 Y89.582 E6.24221
G1 X100.022 Y89.061 E6.25746
G1 X100.119 Y88.549 E6.27272
G1 X100.293 Y88.058 E6.28796
G1 X100.541 Y87.599 E6.30323
G1 X100.855 Y87.183 E6.31849
G1 X101.229 Y86.821 E6.33372
G1 X101.655 Y86.52 E6.34899
G1 X102.121 Y86.287 E6.36424
G1 X102.618 Y86.128 E6.37951
G1 X103.132 Y86.048 E6.39474
G1 X103.448 Y86.037 E6.40399
G1 X104.763 Y86.055 E6.44248
G1 X105.282 Y86.102 E6.45774
G1 X105.787 Y86.228 E6.47297
G1 X106.268 Y86.43 E6.48824
G1 X106.712 Y86.703 E6.5035
G1 X106.931 Y86.89 E6.51192
G1 X107.055 Y86.935 E6.51579
G1 X107.529 Y87.15 E6.53102
G1 X107.966 Y87.434 E6.54627
G1 X108.295 Y87.723 E6.55909
G1 X108.454 Y87.881 E6.56565
G1 X109.608 Y88.751 E6.60795
G1 X109.999 Y89.095 E6.62319
G1 X110.333 Y89.496 E6.63847
G1 X110.601 Y89.942 E6.6537
G1 X110.802 Y90.436 E6.66931
G1 X110.966 Y90.952 E6.68516
G1 X111.086 Y91.459 E6.7004
G1 X111.126 Y91.979 E6.71567
G1 X111.091 Y92.442 E6.72926
G1 X111.219 Y92.663 E6.73673
G1 X111.445 Y93.133 E6.752
G1 X111.638 Y93.863 E6.7741
G1 X111.744 Y94.576 E6.7952
G1 X111.781 Y95.096 E6.81046
G1 X111.738 Y95.615 E6.8257
G1 X111.616 Y96.122 E6.84096
G1 X111.418 Y96.604 E6.85621
G1 X111.199 Y96.978 E6.8689
G1 X111.178 Y97.009 E6.86999
G1 X115.215 Y95.389 E6.99731
G1 X114.982 Y94.954 E7.01175
G1 X114.808 Y94.463 E7.027
G1 X114.711 Y93.951 E7.04225
G1 X114.694 Y93.43 E7.05751
G1 X114.757 Y92.913 E7.07275
G1 X114.99 Y92.186 E7.0951
G1 X115.56 Y90.917 E7.13582
G1 X115.809 Y90.459 E7.15107
G1 X116.125 Y90.045 E7.16632
G1 X116.212 Y89.961 E7.16986
G1 X116.407 Y89.215 E7.19243
G1 X116.577 Y88.722 E7.20769
G1 X116.82 Y88.261 E7.22294
G1 X117.131 Y87.843 E7.23819
G1 X117.502 Y87.477 E7.25345
G1 X117.925 Y87.172 E7.26871
G1 X118.356 Y86.953 E7.28286
G1 X118.494 Y86.846 E7.28797
G1 X118.95 Y86.594 E7.30322
G1 X119.44 Y86.414 E7.3185
G1 X119.95 Y86.311 E7.33373
G1 X120.471 Y86.288 E7.34899
G1 X120.989 Y86.344 E7.36424
G1 X121.432 Y86.458 E7.37763
G1 X123.448 Y87.125 E7.43978
G1 X123.929 Y87.326 E7.45504
G1 X124.373 Y87.598 E7.47028
G1 X124.771 Y87.935 E7.48554
G1 X125.112 Y88.329 E7.50079
G1 X125.389 Y88.771 E7.51606
G1 X125.596 Y89.249 E7.53131
G1 X125.727 Y89.753 E7.54655
G1 X125.779 Y90.272 E7.56182
G1 X125.751 Y90.792 E7.57706
G1 X125.749 Y90.801 E7.57733
G1 X125.811 Y90.985 E7.58301
G1 X125.898 Y91.498 E7.59824
G1 X125.907 Y92.019 E7.61349
G1 X125.837 Y92.525 E7.62844
G1 X125.889 Y92.551 E7.63014
G1 X126.314 Y92.852 E7.64539
G1 X126.549 Y93.065 E7.65467
G1 X132.703 Y99.221 E7.90944
G1 X133.11 Y99.221 E7.92135
G1 X133.63 Y99.261 E7.93662
G1 X134.137 Y99.379 E7.95185
G1 X134.621 Y99.574 E7.96713
G1 X135.069 Y99.84 E7.98238
G1 X135.471 Y100.172 E7.99764
G1 X135.817 Y100.561 E8.01287
G1 X136.1 Y100.999 E8.02814
G1 X136.365 Y101.633 E8.04825
G1 X137.117 Y104.11 E8.12402
G1 X137.23 Y104.619 E8.13928
G1 X137.264 Y105.098 E8.15333
G1 X137.265 Y114.762 E8.43619
G1 X137.225 Y115.281 E8.45142
G1 X137.106 Y115.789 E8.46669
G1 X136.911 Y116.272 E8.48194
G1 X136.645 Y116.72 E8.49719
G1 X136.313 Y117.122 E8.51245
G1 X135.755 Y117.588 E8.53373
G1 X119.926 Y128.177 E9.09113
G1 X119.472 Y128.433 E9.10639
G1 X118.985 Y128.616 E9.12161
G1 X118.474 Y128.723 E9.13689
G1 X117.954 Y128.75 E9.15213
G1 X117.435 Y128.698 E9.1674
G1 X116.931 Y128.566 E9.18265
G1 X116.453 Y128.36 E9.19788
G1 X116.151 Y128.18 E9.20818
G1 X108.415 Y123.025 E9.48027
G1 X105.105 Y123.023 E9.57715
G1 X105.149 Y123.361 E9.58712
G1 X105.299 Y123.852 E9.60215
G1 X105.373 Y124.368 E9.61741
G1 X105.367 Y124.889 E9.63266
G1 X105.282 Y125.403 E9.6479
G1 X105.119 Y125.898 E9.66316
G1 X105.016 Y126.1 E9.66979
G1 X105.036 Y126.443 E9.67985
G1 X104.987 Y126.962 E9.69511
G1 X104.86 Y127.467 E9.71035
G1 X104.656 Y127.947 E9.72562
G1 X104.382 Y128.39 E9.74086
G1 X104.043 Y128.786 E9.75612
G1 X103.611 Y129.152 E9.77269
G1 X102.423 Y129.999 E9.81539
G1 X101.977 Y130.269 E9.83065
G1 X101.494 Y130.466 E9.84592
G1 X100.988 Y130.588 E9.86116
G1 X100.468 Y130.631 E9.87643
G1 X99.948 Y130.594 E9.89169
G1 X99.44 Y130.478 E9.90694
G1 X98.956 Y130.286 E9.92218
G1 X98.482 Y130.004 E9.93832
G1 X97.567 Y129.355 E9.97115
G1 X97.166 Y129.022 E9.98641
G1 X96.821 Y128.632 E10.00165
G1 X96.54 Y128.193 E10.01691
G1 X96.266 Y127.52 E10.03817
G1 X95.506 Y124.873 E10.11878
G1 X95.401 Y124.363 E10.13402
G1 X95.375 Y123.842 E10.14929
G1 X95.429 Y123.324 E10.16453
G1 X95.622 Y122.66 E10.18477
G1 X95.728 Y122.398 E10.19304
G1 X95.93 Y121.992 E10.20632
G1 X95.907 Y121.976 E10.20714
G1 X95.705 Y121.778 E10.21541
G1 X92.539 Y121.333 E10.30899
G1 X92.236 Y121.266 E10.31807
G1 X91.794 Y121.386 E10.33148
G1 X91.276 Y121.443 E10.34673
G1 X90.543 Y121.388 E10.36825
G1 X90.311 Y121.345 E10.37515
G1 X90.211 Y121.318 E10.37818
G1 X89.962 Y121.383 E10.38572
G1 X89.259 Y121.436 E10.40635
G1 X88.955 Y121.427 E10.41525
G1 X88.437 Y121.371 E10.4305
G1 X87.934 Y121.237 E10.44574
G1 X87.456 Y121.028 E10.46101
G1 X87.016 Y120.748 E10.47627
G1 X86.625 Y120.405 E10.49149
G1 X86.599 Y120.373 E10.4927
G1 X86.261 Y120.069 E10.50601
G1 X85.932 Y119.664 E10.52128
G1 X85.669 Y119.214 E10.53654
G1 X85.478 Y118.73 E10.55176
G1 X85.352 Y118.139 E10.56945
G1 X85.317 Y117.855 E10.57783
G1 X85.241 Y117.702 E10.58283
G1 X83.773 Y114.159 E10.69508
G1 X83.616 Y113.679 E10.70986
G1 X83.548 Y113.553 E10.71405
G1 X83.373 Y113.062 E10.7293
G1 X83.267 Y112.473 E10.74682
G1 X82.939 Y108.793 E10.85496
G1 X82.942 Y108.159 E10.87351
G1 X83.195 Y105.577 E10.94945
G1 X83.317 Y104.95 E10.96814
G1 X84.208 Y101.918 E11.06064
G1 X84.393 Y101.431 E11.07589
G1 X84.65 Y100.978 E11.09113
G1 X85.127 Y100.413 E11.11277
G1 X85.391 Y100.162 E11.12344
G0 F1800 X85.667 Y100.452
G1 F1200 X86.048 Y100.145 E11.13776
G1 X86.474 Y99.903 E11.1521
G1 X86.933 Y99.735 E11.1664
G1 X87.512 Y99.634 E11.18361
G1 X88.024 Y99.596 E11.19863
G1 X88.513 Y99.6 E11.21295
G1 X88.983 Y99.681 E11.2269
G1 X89.093 Y99.654 E11.23022
G1 X89.479 Y99.596 E11.24164
G1 X89.968 Y99.563 E11.25599
G1 X90.455 Y99.61 E11.27031
G1 X90.674 Y99.663 E11.2769
G1 X91.18 Y99.628 E11.29175
G1 X91.39 Y99.621 E11.2979
G1 X94.38 Y99.621 E11.38541
G1 X94.477 Y99.631 E11.38827
G1 X94.657 Y99.594 E11.39365
G1 X95.146 Y99.576 E11.40797
G1 X95.431 Y99.602 E11.41634
G1 X95.461 Y99.606 E11.41723
G1 X95.803 Y99.564 E11.42732
G1 X96.523 Y99.622 E11.44846
G1 X96.748 Y99.668 E11.45518
G1 X96.796 Y99.653 E11.45665
G1 X97.274 Y99.549 E11.47097
G1 X97.74 Y99.524 E11.48463
G1 X97.742 Y99.524 E11.48469
G1 X97.683 Y99.4 E11.48871
G1 X97.511 Y98.942 E11.50303
G1 X97.415 Y98.462 E11.51735
G1 X97.395 Y98.121 E11.52735
G1 X97.393 Y96.548 E11.57339
G1 X97.432 Y96.06 E11.58772
G1 X97.55 Y95.585 E11.60204
G1 X97.784 Y95.063 E11.61879
G1 X97.956 Y94.76 E11.62899
G1 X98.232 Y94.355 E11.64333
G1 X98.569 Y94.001 E11.65764
G1 X98.953 Y93.711 E11.67172
G1 X100.629 Y92.643 E11.72989
G1 X100.479 Y91.203 E11.77226
G1 X100.466 Y91.02 E11.77763
G1 X100.404 Y89.565 E11.82026
G1 X100.423 Y89.076 E11.83458
G1 X100.521 Y88.596 E11.84892
G1 X100.696 Y88.139 E11.86324
G1 X100.943 Y87.716 E11.87758
G1 X101.256 Y87.34 E11.8919
G1 X101.626 Y87.019 E11.90624
G1 X102.042 Y86.762 E11.92055
G1 X102.495 Y86.577 E11.93487
G1 X102.973 Y86.468 E11.94922
G1 X103.442 Y86.437 E11.96298
G1 X104.757 Y86.455 E12.00147
G1 X105.244 Y86.502 E12.01579
G1 X105.718 Y86.627 E12.03014
G1 X106.164 Y86.828 E12.04446
G1 X106.572 Y87.098 E12.05878
G1 X106.739 Y87.246 E12.06531
G1 X106.918 Y87.311 E12.07088
G1 X107.363 Y87.515 E12.08521
G1 X107.769 Y87.788 E12.09953
G1 X108.013 Y88.006 E12.1091
G1 X108.193 Y88.185 E12.11653
G1 X109.367 Y89.07 E12.15957
G1 X109.733 Y89.396 E12.17391
G1 X110.041 Y89.776 E12.18823
G1 X110.283 Y90.202 E12.20257
