;FLAVOR:Marlin
;TIME:2126
;Filament used: 1.23215m
;Layer height: 0.2
;Generated with Cura_SteamEngine 4.0.0
M140 S70
M105
M190 S70
M104 S215
M105
M109 S215
M82 ;absolute extrusion mode
G28 ; home all axes
M117 Purge extruder
G92 E0 ; reset extruder
G1 Z1.0 F3000 ; move z up little to prevent scratching of surface
G1 X0.1 Y20 Z0.3 F5000.0 ; move to start-line position G1 X0.1 Y200.0 Z0.3 F1500.0 E15 ; draw 1st line
G1 X0.4 Y200.0 Z0.3 F5000.0 ; move to side a little
G1 X0.4 Y20 Z0.3 F1500.0 E30 ; draw 2nd line
G92 E0 ; reset extruder
G1 Z1.0 F3000 ; move z up little to prevent scratching of surface
M117 All systems go!
G92 E0
G1 F6000 E-5
;LAYER_COUNT:150
;LAYER:0
M107
M204 S5000
M205 X30 Y30
G0 F7200 X94.793 Y25.055 Z0.2
M204 S500
M205 X20 Y20
;TYPE:SKIRT
G1 F6000 E0
G1 F900 X95.023 Y24.228 E0.02855
G1 X95.324 Y23.304 E0.06087
G1 X95.636 Y22.475 E0.09033
G1 X96.021 Y21.678 E0.11977
G1 X96.477 Y20.919 E0.14922
G1 X96.999 Y20.205 E0.17864
G1 X97.584 Y19.54 E0.2081
G1 X98.226 Y18.931 E0.23753
G1 X98.877 Y18.414 E0.26518
G1 X99.6 Y17.888 E0.29492
G1 X100.338 Y17.4 E0.32434
G1 X101.118 Y16.981 E0.35379
G1 X101.932 Y16.634 E0.38322
G1 X102.774 Y16.362 E0.41265
G1 X103.638 Y16.166 E0.44212
G1 X104.515 Y16.05 E0.47154
G1 X105.4 Y16.013 E0.50101
G1 X106.284 Y16.056 E0.53044
G1 X107.161 Y16.179 E0.5599
G1 X108.023 Y16.38 E0.58934
G1 X108.863 Y16.659 E0.61878
G1 X109.461 Y16.919 E0.64046
G1 X109.603 Y16.79 E0.64684
G1 X110.308 Y16.255 E0.67628
G1 X111.058 Y15.785 E0.70572
G1 X111.848 Y15.385 E0.73517
G1 X112.67 Y15.057 E0.76461
G1 X113.519 Y14.806 E0.79405
G1 X114.387 Y14.631 E0.8235
G1 X115.267 Y14.536 E0.85294
G1 X115.879 Y14.517 E0.87331
G1 X119.12 Y14.517 E0.9811
G1 X120.004 Y14.557 E1.01053
G1 X120.881 Y14.677 E1.03998
G1 X121.744 Y14.875 E1.06943
G1 X122.585 Y15.15 E1.09885
G1 X123.398 Y15.5 E1.12829
G1 X124.177 Y15.922 E1.15776
G1 X124.913 Y16.413 E1.18719
G1 X125.603 Y16.968 E1.21664
G1 X125.604 Y16.969 E1.21669
G1 X125.846 Y16.855 E1.22558
G1 X126.677 Y16.551 E1.25502
G1 X127.532 Y16.322 E1.28445
G1 X128.404 Y16.171 E1.31389
G1 X129.286 Y16.1 E1.34332
G1 X130.172 Y16.109 E1.37279
G1 X131.052 Y16.197 E1.4022
G1 X131.922 Y16.365 E1.43168
G1 X132.772 Y16.61 E1.4611
G1 X133.597 Y16.931 E1.49054
G1 X134.39 Y17.326 E1.52001
G1 X135.143 Y17.79 E1.54943
G1 X135.604 Y18.123 E1.56834
G1 X136.541 Y18.843 E1.60764
G1 X137.218 Y19.414 E1.6371
G1 X137.841 Y20.043 E1.66654
G1 X138.404 Y20.726 E1.69598
G1 X138.903 Y21.457 E1.72542
G1 X139.335 Y22.23 E1.75487
G1 X139.674 Y22.987 E1.78246
G1 X140.07 Y23.981 E1.81805
G1 X140.36 Y24.817 E1.84748
G1 X140.574 Y25.676 E1.87692
G1 X140.709 Y26.551 E1.90637
G1 X140.764 Y27.435 E1.93583
G1 X140.74 Y28.32 E1.96528
G1 X140.636 Y29.199 E1.99472
G1 X140.453 Y30.065 E2.02416
G1 X140.284 Y30.643 E2.04418
G1 X139.983 Y31.567 E2.07651
G1 X139.671 Y32.396 E2.10597
G1 X139.286 Y33.193 E2.13541
G1 X138.83 Y33.952 E2.16486
G1 X138.308 Y34.666 E2.19427
G1 X137.723 Y35.331 E2.22373
G1 X137.081 Y35.94 E2.25316
G1 X136.435 Y36.453 E2.2806
G1 X135.647 Y37.027 E2.31303
G1 X134.909 Y37.516 E2.34247
G1 X134.129 Y37.935 E2.37192
G1 X133.315 Y38.283 E2.40136
G1 X132.473 Y38.556 E2.4308
G1 X131.61 Y38.752 E2.46024
G1 X130.732 Y38.869 E2.4897
G1 X129.877 Y38.906 E2.51816
G1 X129.115 Y38.906 E2.54351
G1 X128.231 Y38.866 E2.57294
G1 X127.354 Y38.746 E2.60238
G1 X126.491 Y38.548 E2.63183
G1 X125.65 Y38.273 E2.66126
G1 X124.837 Y37.923 E2.6907
G1 X124.058 Y37.501 E2.72017
G1 X123.322 Y37.01 E2.74959
G1 X122.632 Y36.455 E2.77905
G1 X121.995 Y35.84 E2.80849
G1 X121.679 Y35.473 E2.8246
G1 X121.271 Y35.59 E2.83872
G1 X120.188 Y35.784 E2.87531
G1 X119.219 Y35.902 E2.90778
G1 X118.336 Y35.969 E2.93723
G1 X117.789 Y35.971 E2.95543
G1 X116.192 Y35.931 E3.00856
G1 X115.309 Y35.869 E3.038
G1 X114.379 Y35.716 E3.06935
G1 X113.783 Y35.588 E3.08962
G1 X112.959 Y35.371 E3.11797
G1 X112.841 Y35.506 E3.12393
G1 X112.2 Y36.118 E3.15341
G1 X111.508 Y36.669 E3.18283
G1 X110.768 Y37.155 E3.21227
G1 X109.988 Y37.573 E3.24171
G1 X109.173 Y37.918 E3.27114
G1 X108.33 Y38.189 E3.30059
G1 X107.466 Y38.382 E3.33004
G1 X106.619 Y38.494 E3.35845
G1 X106.29 Y38.523 E3.36944
G1 X105.406 Y38.561 E3.39887
G1 X104.522 Y38.519 E3.4283
G1 X103.645 Y38.397 E3.45775
G1 X102.783 Y38.197 E3.48719
G1 X101.942 Y37.919 E3.51665
G1 X101.13 Y37.567 E3.54608
G1 X100.353 Y37.143 E3.57552
G1 X99.66 Y36.682 E3.60321
G1 X98.872 Y36.108 E3.63563
G1 X98.181 Y35.555 E3.66507
G1 X97.542 Y34.942 E3.69452
G1 X96.962 Y34.274 E3.72394
G1 X96.444 Y33.556 E3.75339
G1 X95.993 Y32.794 E3.78284
G1 X95.612 Y31.995 E3.81228
G1 X95.324 Y31.222 E3.83972
G1 X95.023 Y30.298 E3.87204
G1 X94.787 Y29.445 E3.90148
G1 X94.629 Y28.574 E3.93092
G1 X94.55 Y27.693 E3.96034
G1 X94.552 Y26.807 E3.98981
G1 X94.633 Y25.926 E4.01923
G1 X94.649 Y25.842 E4.02208
G0 F810 X94.793 Y25.055
M204 S5000
M205 X30 Y30
G0 F7200 X95.207 Y25.041
M204 S500
M205 X20 Y20
G1 F6000 E4.04869
G1 F900 X95.403 Y24.351 E4.07254
G1 X95.704 Y23.427 E4.10486
G1 X96.011 Y22.616 E4.13371
G1 X96.39 Y21.837 E4.16252
G1 X96.84 Y21.096 E4.19135
G1 X97.356 Y20.399 E4.2202
G1 X97.934 Y19.753 E4.24903
G1 X98.57 Y19.164 E4.27786
G1 X99.112 Y18.738 E4.30079
G1 X99.835 Y18.212 E4.33053
G1 X100.559 Y17.735 E4.35936
G1 X101.323 Y17.326 E4.38819
G1 X102.123 Y16.99 E4.41705
G1 X102.949 Y16.729 E4.44586
G1 X103.796 Y16.545 E4.47469
G1 X104.657 Y16.44 E4.50354
G1 X105.524 Y16.414 E4.53238
G1 X106.389 Y16.469 E4.56121
G1 X107.245 Y16.603 E4.59003
G1 X108.086 Y16.815 E4.61888
G1 X108.903 Y17.104 E4.6477
G1 X109.534 Y17.395 E4.67081
G1 X109.873 Y17.086 E4.68607
G1 X110.565 Y16.563 E4.71492
G1 X111.302 Y16.107 E4.74374
G1 X112.077 Y15.72 E4.77256
G1 X112.886 Y15.406 E4.80142
G1 X113.719 Y15.168 E4.83023
G1 X114.571 Y15.008 E4.85907
G1 X115.434 Y14.928 E4.88789
G1 X115.879 Y14.917 E4.9027
G1 X119.12 Y14.917 E5.01049
G1 X119.986 Y14.957 E5.03933
G1 X120.845 Y15.077 E5.06818
G1 X121.689 Y15.275 E5.09701
G1 X122.511 Y15.55 E5.12584
G1 X123.304 Y15.9 E5.15467
G1 X124.062 Y16.321 E5.18351
G1 X124.777 Y16.81 E5.21232
G1 X125.445 Y17.363 E5.24116
G1 X125.528 Y17.443 E5.245
G1 X126.199 Y17.144 E5.26943
G1 X127.02 Y16.865 E5.29827
G1 X127.863 Y16.662 E5.32711
G1 X128.721 Y16.538 E5.35594
G1 X129.587 Y16.494 E5.38478
G1 X130.453 Y16.53 E5.41361
G1 X131.312 Y16.645 E5.44244
G1 X132.157 Y16.839 E5.47127
G1 X132.981 Y17.11 E5.50012
G1 X133.776 Y17.456 E5.52896
G1 X134.535 Y17.874 E5.55778
G1 X135.36 Y18.44 E5.59106
G1 X136.297 Y19.16 E5.63036
G1 X136.96 Y19.72 E5.65922
G1 X137.568 Y20.338 E5.68806
G1 X138.116 Y21.009 E5.71687
G1 X138.601 Y21.728 E5.74572
G1 X139.017 Y22.489 E5.77457
G1 X139.303 Y23.135 E5.79806
G1 X139.699 Y24.129 E5.83365
G1 X139.982 Y24.948 E5.86247
G1 X140.189 Y25.79 E5.89131
G1 X140.317 Y26.648 E5.92016
G1 X140.366 Y27.513 E5.94898
G1 X140.334 Y28.38 E5.97783
G1 X140.223 Y29.24 E6.00668
G1 X140.034 Y30.085 E6.03548
G1 X139.904 Y30.52 E6.05058
G1 X139.603 Y31.444 E6.0829
G1 X139.296 Y32.255 E6.11174
G1 X138.917 Y33.034 E6.14055
G1 X138.467 Y33.775 E6.16939
G1 X137.951 Y34.472 E6.19823
G1 X137.373 Y35.118 E6.22706
G1 X136.737 Y35.707 E6.25589
G1 X136.2 Y36.13 E6.27863
G1 X135.412 Y36.704 E6.31105
G1 X134.688 Y37.182 E6.33991
G1 X133.924 Y37.59 E6.36872
G1 X133.125 Y37.927 E6.39756
G1 X132.298 Y38.189 E6.42641
G1 X131.451 Y38.373 E6.45524
G1 X130.591 Y38.479 E6.48406
G1 X129.877 Y38.506 E6.50783
G1 X129.115 Y38.506 E6.53317
G1 X128.249 Y38.466 E6.562
G1 X127.39 Y38.346 E6.59085
G1 X126.546 Y38.148 E6.61969
G1 X125.724 Y37.873 E6.64851
G1 X124.931 Y37.523 E6.67734
G1 X124.173 Y37.102 E6.70618
G1 X123.458 Y36.613 E6.73499
G1 X122.79 Y36.06 E6.76384
G1 X122.176 Y35.447 E6.79269
G1 X121.819 Y35.019 E6.81123
G1 X121.109 Y35.217 E6.83575
G1 X120.139 Y35.387 E6.8685
G1 X119.17 Y35.505 E6.90097
G1 X118.306 Y35.57 E6.92979
G1 X117.799 Y35.571 E6.94665
G1 X116.202 Y35.531 E6.99978
G1 X115.337 Y35.469 E7.02863
G1 X114.463 Y35.324 E7.05809
G1 X113.867 Y35.196 E7.07837
G1 X113.029 Y34.976 E7.10719
G1 X112.837 Y34.906 E7.11398
G1 X112.414 Y35.371 E7.13489
G1 X111.774 Y35.955 E7.16371
G1 X111.083 Y36.479 E7.19255
G1 X110.347 Y36.936 E7.22136
G1 X109.571 Y37.324 E7.25022
G1 X108.764 Y37.639 E7.27903
G1 X107.93 Y37.878 E7.30789
G1 X107.078 Y38.039 E7.33673
G1 X106.584 Y38.096 E7.35327
G1 X106.255 Y38.125 E7.36425
G1 X105.389 Y38.161 E7.39308
G1 X104.523 Y38.117 E7.42192
G1 X103.665 Y37.994 E7.45075
G1 X102.822 Y37.792 E7.47958
G1 X102.001 Y37.513 E7.50842
G1 X101.209 Y37.16 E7.53726
G1 X100.454 Y36.736 E7.56606
G1 X99.895 Y36.359 E7.58849
G1 X99.107 Y35.785 E7.62091
G1 X98.431 Y35.243 E7.64973
G1 X97.807 Y34.641 E7.67857
G1 X97.242 Y33.983 E7.70742
G1 X96.739 Y33.277 E7.73625
G1 X96.304 Y32.527 E7.76509
G1 X95.94 Y31.741 E7.7939
G1 X95.704 Y31.099 E7.81665
G1 X95.403 Y30.175 E7.84897
G1 X95.173 Y29.339 E7.87781
G1 X95.021 Y28.485 E7.90666
G1 X94.948 Y27.621 E7.9355
G1 X94.955 Y26.754 E7.96433
G1 X95.042 Y25.892 E7.99315
G1 X95.055 Y25.827 E7.99535
G0 F810 X95.207 Y25.041
M204 S5000
M205 X30 Y30
G0 F7200 X95.623 Y25.029
M204 S500
M205 X20 Y20
G1 F6000 E8.02196
G1 F900 X95.784 Y24.475 E8.04115
G1 X96.085 Y23.551 E8.07347
G1 X96.385 Y22.758 E8.10167
G1 X96.759 Y21.997 E8.12987
G1 X97.203 Y21.274 E8.15809
G1 X97.713 Y20.596 E8.18631
G1 X98.284 Y19.969 E8.21452
G1 X98.912 Y19.399 E8.24273
G1 X99.347 Y19.061 E8.26105
G1 X100.07 Y18.535 E8.29079
G1 X100.779 Y18.069 E8.31901
G1 X101.528 Y17.672 E8.3472
G1 X102.312 Y17.347 E8.37543
G1 X103.123 Y17.097 E8.40365
G1 X103.953 Y16.924 E8.43185
G1 X104.796 Y16.831 E8.46006
G1 X105.645 Y16.817 E8.4883
G1 X106.49 Y16.884 E8.5165
G1 X107.326 Y17.029 E8.54472
G1 X108.144 Y17.253 E8.57293
G1 X108.938 Y17.553 E8.60116
G1 X109.599 Y17.877 E8.62564
G1 X110.142 Y17.382 E8.65008
G1 X110.821 Y16.873 E8.6783
G1 X111.544 Y16.43 E8.70651
G1 X112.306 Y16.057 E8.73472
G1 X113.1 Y15.757 E8.76295
G1 X113.918 Y15.533 E8.79116
G1 X114.754 Y15.388 E8.81938
G1 X115.879 Y15.317 E8.85687
G1 X119.12 Y15.317 E8.96467
G1 X119.967 Y15.357 E8.99287
G1 X120.807 Y15.477 E9.0211
G1 X121.632 Y15.675 E9.04931
G1 X122.435 Y15.95 E9.07755
G1 X123.208 Y16.299 E9.10575
G1 X123.944 Y16.719 E9.13394
G1 X124.638 Y17.207 E9.16216
G1 X125.457 Y17.932 E9.19854
G1 X125.768 Y17.766 E9.21026
G1 X126.55 Y17.439 E9.23845
G1 X127.36 Y17.186 E9.26668
G1 X128.19 Y17.01 E9.2949
G1 X129.033 Y16.914 E9.32312
G1 X129.881 Y16.897 E9.35133
G1 X130.727 Y16.961 E9.37955
G1 X131.563 Y17.103 E9.40775
G1 X132.382 Y17.324 E9.43596
G1 X133.177 Y17.621 E9.46419
G1 X133.94 Y17.991 E9.49239
G1 X134.665 Y18.432 E9.52062
G1 X135.117 Y18.758 E9.53915
G1 X136.054 Y19.478 E9.57846
G1 X136.701 Y20.026 E9.60666
G1 X137.294 Y20.632 E9.63486
G1 X137.828 Y21.292 E9.6631
G1 X138.297 Y21.999 E9.69131
G1 X138.697 Y22.747 E9.71953
G1 X138.931 Y23.283 E9.73898
G1 X139.327 Y24.277 E9.77457
G1 X139.603 Y25.079 E9.80278
G1 X139.803 Y25.904 E9.83101
G1 X139.924 Y26.743 E9.8592
G1 X139.966 Y27.59 E9.88741
G1 X139.928 Y28.438 E9.91564
G1 X139.81 Y29.278 E9.94386
G1 X139.523 Y30.396 E9.98225
G1 X139.222 Y31.32 E10.01457
G1 X138.922 Y32.113 E10.04277
G1 X138.548 Y32.874 E10.07097
G1 X138.104 Y33.597 E10.09919
G1 X137.594 Y34.275 E10.12741
G1 X137.023 Y34.902 E10.15561
G1 X136.395 Y35.472 E10.18382
G1 X135.964 Y35.807 E10.20198
G1 X135.176 Y36.381 E10.2344
G1 X134.468 Y36.847 E10.26259
G1 X133.718 Y37.245 E10.29083
G1 X132.935 Y37.571 E10.31904
G1 X132.124 Y37.821 E10.34727
G1 X131.294 Y37.994 E10.37547
G1 X130.451 Y38.088 E10.40368
G1 X129.877 Y38.106 E10.42278
G1 X129.115 Y38.106 E10.44813
G1 X128.268 Y38.066 E10.47633
G1 X127.428 Y37.946 E10.50455
G1 X126.603 Y37.748 E10.53277
G1 X125.8 Y37.473 E10.561
G1 X125.027 Y37.124 E10.58921
G1 X124.291 Y36.704 E10.6174
G1 X123.597 Y36.216 E10.64561
G1 X122.952 Y35.665 E10.67383
G1 X122.362 Y35.055 E10.70205
G1 X121.957 Y34.55 E10.72358
G1 X121.767 Y34.621 E10.73033
G1 X120.948 Y34.843 E10.75855
G1 X120.091 Y34.99 E10.78747
G1 X119.122 Y35.108 E10.81994
G1 X118.276 Y35.171 E10.84816
G1 X117.809 Y35.171 E10.86369
G1 X116.212 Y35.131 E10.91682
G1 X115.366 Y35.07 E10.94503
G1 X114.547 Y34.933 E10.97265
G1 X113.951 Y34.805 E10.99293
G1 X113.131 Y34.588 E11.02114
G1 X112.712 Y34.434 E11.03599
G1 X112.571 Y34.613 E11.04357
G1 X111.988 Y35.229 E11.07178
G1 X111.348 Y35.786 E11.09999
G1 X110.659 Y36.281 E11.12821
G1 X109.927 Y36.709 E11.15641
G1 X109.157 Y37.066 E11.18464
G1 X108.357 Y37.349 E11.21287
G1 X107.535 Y37.555 E11.24105
G1 X106.549 Y37.697 E11.27419
G1 X106.22 Y37.726 E11.28517
G1 X105.373 Y37.761 E11.31337
G1 X104.526 Y37.715 E11.34158
G1 X103.687 Y37.591 E11.36979
G1 X102.863 Y37.387 E11.39802
G1 X102.062 Y37.107 E11.42624
G1 X101.291 Y36.753 E11.45446
G1 X100.557 Y36.328 E11.48267
G1 X100.131 Y36.036 E11.49985
G1 X99.343 Y35.462 E11.53227
G1 X98.682 Y34.93 E11.56049
G1 X98.073 Y34.339 E11.58872
G1 X97.523 Y33.694 E11.61691
G1 X97.036 Y32.999 E11.64514
G1 X96.617 Y32.261 E11.67337
G1 X96.269 Y31.488 E11.70156
G1 X96.085 Y30.975 E11.71969
G1 X95.784 Y30.051 E11.75201
G1 X95.559 Y29.233 E11.78023
G1 X95.413 Y28.397 E11.80845
G1 X95.346 Y27.551 E11.83668
G1 X95.358 Y26.703 E11.86489
G1 X95.451 Y25.86 E11.89309
G1 X95.461 Y25.812 E11.89473
G0 F810 X95.623 Y25.029
M204 S5000
M205 X30 Y30
G0 F7200 X96.039 Y25.02
M204 S500
M205 X20 Y20
G1 F6000 E11.92133
G1 F900 X96.164 Y24.599 E11.93594
G1 X96.465 Y23.675 E11.96826
G1 X96.759 Y22.9 E11.99583
G1 X97.127 Y22.157 E12.02341
G1 X97.565 Y21.453 E12.05099
G1 X98.069 Y20.794 E12.07858
G1 X98.633 Y20.186 E12.10616
G1 X99.583 Y19.385 E12.14749
G1 X100.306 Y18.859 E12.17723
G1 X100.999 Y18.404 E12.2048
G1 X101.733 Y18.018 E12.23239
G1 X102.5 Y17.704 E12.25995
G1 X103.295 Y17.466 E12.28755
G1 X104.108 Y17.305 E12.31512
G1 X104.933 Y17.224 E12.34269
G1 X105.763 Y17.222 E12.3703
G1 X106.588 Y17.3 E12.39786
G1 X107.402 Y17.458 E12.42544
G1 X108.197 Y17.693 E12.45301
G1 X108.966 Y18.003 E12.48059
G1 X109.668 Y18.368 E12.5069
G1 X109.681 Y18.353 E12.50756
G1 X109.798 Y18.236 E12.51307
G1 X110.412 Y17.678 E12.54066
G1 X111.077 Y17.183 E12.56823
G1 X111.786 Y16.753 E12.59581
G1 X112.533 Y16.394 E12.62338
G1 X113.312 Y16.109 E12.65097
G1 X114.114 Y15.9 E12.67853
G1 X114.933 Y15.769 E12.70612
G1 X115.879 Y15.717 E12.73763
G1 X119.12 Y15.717 E12.84543
G1 X119.948 Y15.757 E12.873
G1 X120.769 Y15.877 E12.9006
G1 X121.574 Y16.075 E12.92817
G1 X122.356 Y16.349 E12.95573
G1 X123.109 Y16.698 E12.98333
G1 X123.824 Y17.118 E13.01091
G1 X124.495 Y17.604 E13.03847
G1 X125.227 Y18.262 E13.07121
G1 X125.344 Y18.38 E13.07673
G1 X125.38 Y18.42 E13.07852
G1 X125.386 Y18.416 E13.07876
G1 X126.126 Y18.042 E13.10634
G1 X126.898 Y17.74 E13.13391
G1 X127.696 Y17.515 E13.16149
G1 X128.512 Y17.367 E13.18907
G1 X129.339 Y17.299 E13.21667
G1 X130.168 Y17.311 E13.24425
G1 X130.992 Y17.402 E13.27182
G1 X131.803 Y17.572 E13.29938
G1 X132.595 Y17.82 E13.32698
G1 X133.359 Y18.143 E13.35457
G1 X134.088 Y18.538 E13.38215
G1 X134.873 Y19.075 E13.41378
G1 X135.81 Y19.795 E13.45308
G1 X136.442 Y20.331 E13.48065
G1 X137.02 Y20.926 E13.50824
G1 X137.538 Y21.573 E13.5358
G1 X137.991 Y22.268 E13.5634
G1 X138.375 Y23.003 E13.59098
G1 X138.559 Y23.431 E13.60647
G1 X138.955 Y24.425 E13.64206
G1 X139.225 Y25.209 E13.66964
G1 X139.417 Y26.016 E13.69723
G1 X139.531 Y26.837 E13.7248
G1 X139.566 Y27.666 E13.7524
G1 X139.52 Y28.494 E13.77998
G1 X139.395 Y29.313 E13.80753
G1 X139.143 Y30.272 E13.84051
G1 X138.842 Y31.196 E13.87283
G1 X138.548 Y31.971 E13.9004
G1 X138.18 Y32.714 E13.92798
G1 X137.742 Y33.418 E13.95556
G1 X137.238 Y34.077 E13.98315
G1 X136.674 Y34.685 E14.01073
G1 X135.729 Y35.483 E14.05187
G1 X134.941 Y36.057 E14.0843
G1 X134.248 Y36.513 E14.11189
G1 X133.514 Y36.899 E14.13947
G1 X132.746 Y37.213 E14.16707
G1 X131.952 Y37.452 E14.19465
G1 X131.139 Y37.613 E14.22221
G1 X130.314 Y37.695 E14.24979
G1 X129.877 Y37.706 E14.26433
G1 X129.115 Y37.706 E14.28967
G1 X128.287 Y37.666 E14.31724
G1 X127.466 Y37.546 E14.34484
G1 X126.661 Y37.348 E14.37241
G1 X125.879 Y37.074 E14.39997
G1 X125.126 Y36.725 E14.42758
G1 X124.411 Y36.305 E14.45516
G1 X123.74 Y35.819 E14.48271
G1 X123.118 Y35.27 E14.51031
G1 X122.552 Y34.664 E14.53789
G1 X122.097 Y34.071 E14.56275
