;FLAVOR:Marlin
;TIME:834
;Filament used: 0.841639m
;Layer height: 0.25
;Generated with Cura_SteamEngine 3.6.0
M140 S70
M105
M190 S70
M104 S215
M105
M109 S215
M82 ;absolute extrusion mode
; Ender 3 Custom Start G-code
G28 ; Home all axes
G92 E0 ; Reset Extruder
G1 Z2.0 F3000 ; Move Z Axis up little to prevent scratching of Heat Bed
G1 X0.1 Y20 Z0.3 F5000.0 ; Move to start position
G1 X0.1 Y200.0 Z0.3 F1500.0 E15 ; Draw the first line
G1 X0.4 Y200.0 Z0.3 F5000.0 ; Move to side a little
G1 X0.4 Y20 Z0.3 F1500.0 E30 ; Draw the second line
G92 E0 ; Reset Extruder
G1 Z2.0 F3000 ; Move Z Axis up little to prevent scratching of Heat Bed
; End of custom start GCode
G92 E0
G1 F6000 E-5
;LAYER_COUNT:32
;LAYER:0
M107
M204 S5000
M205 X30 Y30
G0 F7200 X97.081 Y96.591 Z0.25
M204 S500
M205 X20 Y20
;TYPE:SKIRT
G1 F6000 E0
G1 F900 X97.94 Y95.786 E0.06118
G1 X98.884 Y94.956 E0.1265
G1 X99.837 Y94.218 E0.18915
G1 X100.813 Y93.509 E0.25184
G1 X101.853 Y92.803 E0.31716
G1 X102.89 Y92.19 E0.37977
G1 X103.919 Y91.623 E0.44082
G1 X105.038 Y91.052 E0.50611
G1 X106.169 Y90.562 E0.57017
G1 X107.286 Y90.119 E0.63261
G1 X108.468 Y89.693 E0.69791
G1 X109.648 Y89.35 E0.76177
G1 X110.799 Y89.054 E0.82353
G1 X112.026 Y88.78 E0.88887
G1 X113.252 Y88.587 E0.95337
G1 X114.436 Y88.438 E1.01538
G1 X115.687 Y88.32 E1.08069
G1 X116.885 Y88.283 E1.14297
G1 X118.075 Y88.282 E1.20482
G1 X119.332 Y88.321 E1.27017
G1 X120.562 Y88.437 E1.33438
G1 X121.744 Y88.586 E1.39629
G1 X122.985 Y88.783 E1.46159
G1 X124.162 Y89.045 E1.52426
G1 X125.313 Y89.339 E1.586
G1 X126.52 Y89.689 E1.65131
G1 X127.694 Y90.111 E1.71614
G1 X128.803 Y90.55 E1.77812
G1 X129.957 Y91.05 E1.84348
G1 X131.044 Y91.605 E1.90691
G1 X132.096 Y92.183 E1.96929
G1 X133.178 Y92.823 E2.03462
G1 X134.19 Y93.51 E2.09819
G1 X135.15 Y94.207 E2.15984
G1 X136.143 Y94.978 E2.22518
G1 X137.05 Y95.777 E2.28799
G1 X137.923 Y96.595 E2.35017
G1 X138.812 Y97.483 E2.41547
G1 X139.656 Y98.441 E2.48182
G1 X140.404 Y99.348 E2.54291
G1 X141.172 Y100.343 E2.60824
G1 X141.821 Y101.297 E2.6682
G1 X142.47 Y102.315 E2.73094
G1 X143.111 Y103.396 E2.79625
G1 X143.704 Y104.56 E2.86414
G1 X144.209 Y105.639 E2.92605
G1 X144.705 Y106.794 E2.99138
G1 X145.283 Y108.487 E3.08435
G1 X145.782 Y110.2 E3.17707
G1 X146.095 Y111.418 E3.24243
G1 X146.416 Y113.26 E3.3396
G1 X146.563 Y114.429 E3.40083
G1 X146.68 Y115.68 E3.46612
G1 X146.717 Y116.877 E3.52836
G1 X146.718 Y118.076 E3.59067
G1 X146.679 Y119.332 E3.65597
G1 X146.565 Y120.544 E3.71924
G1 X146.418 Y121.719 E3.78078
G1 X146.223 Y122.96 E3.84606
G1 X145.959 Y124.147 E3.90926
G1 X145.665 Y125.3 E3.9711
G1 X145.316 Y126.507 E4.03639
G1 X144.89 Y127.69 E4.10174
G1 X144.449 Y128.804 E4.164
G1 X143.95 Y129.957 E4.22929
G1 X143.395 Y131.046 E4.29281
G1 X142.818 Y132.096 E4.35507
G1 X142.178 Y133.177 E4.42036
G1 X141.494 Y134.183 E4.48358
G1 X140.796 Y135.145 E4.54535
G1 X140.026 Y136.138 E4.61065
G1 X139.22 Y137.053 E4.67402
G1 X138.412 Y137.915 E4.73542
G1 X137.524 Y138.804 E4.80072
G1 X136.596 Y139.622 E4.86501
G1 X135.679 Y140.381 E4.92687
G1 X134.686 Y141.152 E4.99221
G1 X133.698 Y141.824 E5.0543
G1 X132.684 Y142.47 E5.11678
G1 X131.603 Y143.111 E5.1821
G1 X130.459 Y143.694 E5.24882
G1 X129.376 Y144.202 E5.31099
G1 X128.222 Y144.699 E5.37629
G1 X127.088 Y145.106 E5.4389
G1 X125.97 Y145.469 E5.49999
G1 X124.763 Y145.819 E5.5653
G1 X123.627 Y146.074 E5.62581
G1 X122.45 Y146.302 E5.68811
G1 X121.209 Y146.501 E5.75343
G1 X119.919 Y146.624 E5.82077
G1 X118.728 Y146.698 E5.88279
G1 X117.472 Y146.736 E5.94809
G1 X116.292 Y146.699 E6.00944
G1 X115.104 Y146.626 E6.0713
G1 X113.852 Y146.509 E6.13665
G1 X112.578 Y146.306 E6.20369
G1 X111.4 Y146.079 E6.26604
G1 X110.174 Y145.802 E6.33136
G1 X109.058 Y145.477 E6.39176
G1 X107.939 Y145.115 E6.45288
G1 X106.756 Y144.69 E6.51821
G1 X105.642 Y144.21 E6.58125
G1 X104.553 Y143.7 E6.64374
G1 X103.432 Y143.131 E6.70907
G1 X102.354 Y142.494 E6.77415
G1 X101.354 Y141.86 E6.83568
G1 X100.314 Y141.154 E6.901
G1 X99.351 Y140.406 E6.96437
G1 X98.431 Y139.646 E7.02639
G1 X97.488 Y138.816 E7.09168
G1 X96.603 Y137.93 E7.15676
G1 X95.789 Y137.062 E7.2186
G1 X94.959 Y136.118 E7.28392
G1 X94.217 Y135.162 E7.34681
G1 X93.51 Y134.189 E7.40932
G1 X92.804 Y133.149 E7.47464
G1 X92.193 Y132.116 E7.53701
G1 X91.625 Y131.086 E7.59814
G1 X91.054 Y129.967 E7.66343
G1 X90.558 Y128.822 E7.72828
G1 X90.114 Y127.701 E7.79094
G1 X89.688 Y126.518 E7.85628
G1 X89.202 Y124.738 E7.95217
G1 X88.814 Y123.003 E8.04456
G1 X88.579 Y121.769 E8.10985
G1 X88.377 Y119.93 E8.20599
G1 X88.303 Y118.751 E8.26738
G1 X88.264 Y117.495 E8.33269
G1 X88.3 Y116.321 E8.39373
G1 X88.372 Y115.131 E8.45568
G1 X88.488 Y113.88 E8.52098
G1 X88.69 Y112.602 E8.58822
G1 X88.918 Y111.414 E8.65108
G1 X89.194 Y110.187 E8.71644
G1 X89.524 Y109.052 E8.77787
G1 X89.886 Y107.934 E8.83894
G1 X90.311 Y106.751 E8.90427
G1 X90.788 Y105.647 E8.96677
G1 X91.299 Y104.555 E9.02942
G1 X91.867 Y103.434 E9.09473
G1 X92.513 Y102.341 E9.16071
G1 X93.144 Y101.347 E9.2219
G1 X93.851 Y100.308 E9.28721
G1 X94.589 Y99.356 E9.34981
G1 X95.357 Y98.426 E9.41249
G1 X96.188 Y97.483 E9.47781
G1 X96.719 Y96.952 E9.51684
G0 F810 X97.081 Y96.591
M204 S5000
M205 X30 Y30
G0 F7200 X97.423 Y96.956
M204 S500
M205 X20 Y20
G1 F6000 E9.54345
G1 F900 X98.282 Y96.151 E9.60463
G1 X99.214 Y95.332 E9.6691
G1 X100.131 Y94.623 E9.72934
G1 X101.107 Y93.914 E9.79204
G1 X102.134 Y93.217 E9.85654
G1 X103.131 Y92.628 E9.91672
G1 X104.16 Y92.061 E9.97778
G1 X105.265 Y91.498 E10.04222
G1 X106.353 Y91.027 E10.10384
G1 X107.47 Y90.584 E10.16629
G1 X108.638 Y90.164 E10.23079
G1 X109.773 Y89.835 E10.2922
G1 X110.924 Y89.539 E10.35397
G1 X112.135 Y89.268 E10.41846
G1 X113.314 Y89.083 E10.48048
G1 X114.498 Y88.934 E10.54249
G1 X115.734 Y88.818 E10.60701
G1 X116.886 Y88.783 E10.66691
G1 X118.076 Y88.782 E10.72875
G1 X119.316 Y88.821 E10.79322
G1 X120.5 Y88.933 E10.85503
G1 X121.682 Y89.082 E10.91694
G1 X122.907 Y89.277 E10.98141
G1 X124.038 Y89.53 E11.04164
G1 X125.189 Y89.824 E11.10337
G1 X126.381 Y90.169 E11.16786
G1 X127.51 Y90.576 E11.23023
G1 X128.619 Y91.015 E11.29222
G1 X129.758 Y91.509 E11.35674
G1 X130.804 Y92.043 E11.41777
G1 X131.856 Y92.621 E11.48015
G1 X132.923 Y93.253 E11.5446
G1 X133.896 Y93.915 E11.60576
G1 X134.856 Y94.612 E11.66741
G1 X135.836 Y95.373 E11.73189
G1 X136.708 Y96.142 E11.79231
G1 X137.581 Y96.96 E11.85449
G1 X138.459 Y97.837 E11.91898
G1 X139.27 Y98.759 E11.98279
G1 X140.018 Y99.666 E12.04389
G1 X140.776 Y100.649 E12.1084
G1 X141.399 Y101.566 E12.16601
G1 X142.048 Y102.584 E12.22875
G1 X142.681 Y103.651 E12.29323
G1 X143.251 Y104.772 E12.35858
G1 X143.756 Y105.851 E12.4205
G1 X144.245 Y106.991 E12.48496
G1 X144.803 Y108.627 E12.57479
G1 X145.302 Y110.34 E12.66751
G1 X145.61 Y111.542 E12.732
G1 X145.92 Y113.322 E12.8259
G1 X146.067 Y114.491 E12.88713
G1 X146.182 Y115.727 E12.95164
G1 X146.217 Y116.877 E13.01143
G1 X146.218 Y118.076 E13.07374
G1 X146.179 Y119.316 E13.13821
G1 X146.069 Y120.482 E13.19908
G1 X145.922 Y121.657 E13.26062
G1 X145.728 Y122.882 E13.32507
G1 X145.474 Y124.023 E13.38582
G1 X145.18 Y125.176 E13.44766
G1 X144.835 Y126.368 E13.51215
G1 X144.426 Y127.506 E13.57499
G1 X143.985 Y128.62 E13.63726
G1 X143.491 Y129.758 E13.70173
G1 X142.957 Y130.805 E13.76281
G1 X142.38 Y131.855 E13.82507
G1 X141.747 Y132.922 E13.88955
G1 X141.09 Y133.889 E13.9503
G1 X140.392 Y134.851 E14.01207
G1 X139.631 Y135.831 E14.07655
G1 X138.856 Y136.711 E14.13749
G1 X138.048 Y137.573 E14.19889
G1 X137.17 Y138.45 E14.26339
G1 X136.277 Y139.237 E14.32524
G1 X135.36 Y139.996 E14.38711
G1 X134.379 Y140.756 E14.4516
G1 X133.429 Y141.402 E14.5113
G1 X132.415 Y142.048 E14.57378
G1 X131.348 Y142.681 E14.63826
G1 X130.247 Y143.241 E14.70245
G1 X129.164 Y143.749 E14.76462
G1 X128.024 Y144.239 E14.8291
G1 X126.934 Y144.63 E14.88928
G1 X125.816 Y144.993 E14.95037
G1 X124.624 Y145.338 E15.01486
G1 X123.532 Y145.583 E15.07302
G1 X122.355 Y145.811 E15.13533
G1 X121.13 Y146.007 E15.1998
G1 X119.888 Y146.125 E15.26463
G1 X118.697 Y146.199 E15.32665
G1 X117.456 Y146.236 E15.39117
G1 X116.322 Y146.2 E15.45013
G1 X115.134 Y146.127 E15.51199
G1 X113.899 Y146.011 E15.57645
G1 X112.673 Y145.815 E15.64098
G1 X111.495 Y145.588 E15.70332
G1 X110.284 Y145.314 E15.76785
G1 X109.212 Y145.001 E15.82588
G1 X108.093 Y144.639 E15.887
G1 X106.925 Y144.22 E15.95149
G1 X105.854 Y143.757 E16.01213
G1 X104.765 Y143.247 E16.07462
G1 X103.659 Y142.685 E16.13909
G1 X102.622 Y142.072 E16.2017
G1 X101.622 Y141.438 E16.26323
G1 X100.596 Y140.74 E16.32772
G1 X99.669 Y140.021 E16.38869
G1 X98.749 Y139.261 E16.4507
G1 X97.818 Y138.44 E16.51521
G1 X96.967 Y137.588 E16.57779
G1 X96.153 Y136.72 E16.63963
G1 X95.334 Y135.788 E16.70411
G1 X94.622 Y134.868 E16.76457
G1 X93.915 Y133.895 E16.82708
G1 X93.218 Y132.868 E16.89158
G1 X92.631 Y131.875 E16.95153
G1 X92.063 Y130.845 E17.01265
G1 X91.499 Y129.739 E17.07717
G1 X91.023 Y128.638 E17.13951
G1 X90.579 Y127.517 E17.20217
G1 X90.159 Y126.349 E17.26667
G1 X89.69 Y124.629 E17.35932
G1 X89.302 Y122.894 E17.45172
G1 X89.07 Y121.675 E17.51621
G1 X88.876 Y119.899 E17.60905
G1 X88.802 Y118.72 E17.67044
G1 X88.764 Y117.48 E17.73491
G1 X88.799 Y116.351 E17.79362
G1 X88.871 Y115.161 E17.85557
G1 X88.986 Y113.926 E17.92003
G1 X89.181 Y112.696 E17.98475
G1 X89.409 Y111.508 E18.04762
G1 X89.682 Y110.297 E18.11213
G1 X90 Y109.206 E18.17119
G1 X90.362 Y108.088 E18.23226
G1 X90.782 Y106.921 E18.29672
G1 X91.241 Y105.859 E18.35684
G1 X91.752 Y104.767 E18.4195
G1 X92.313 Y103.661 E18.48395
G1 X92.935 Y102.609 E18.54746
G1 X93.566 Y101.615 E18.60865
G1 X94.264 Y100.59 E18.67309
G1 X94.975 Y99.675 E18.73331
G1 X95.743 Y98.745 E18.79599
G1 X96.563 Y97.814 E18.86047
G1 X97.061 Y97.317 E18.89703
G0 F810 X97.423 Y96.956
M204 S5000
M205 X30 Y30
G0 F7200 X97.765 Y97.321
M204 S500
M205 X20 Y20
G1 F6000 E18.92364
G1 F900 X98.624 Y96.516 E18.98482
G1 X99.544 Y95.708 E19.04845
G1 X100.425 Y95.027 E19.10632
G1 X101.401 Y94.318 E19.16901
G1 X102.415 Y93.631 E19.23267
G1 X103.372 Y93.066 E19.29042
G1 X104.401 Y92.499 E19.35148
G1 X105.492 Y91.943 E19.41511
G1 X106.538 Y91.492 E19.47431
G1 X107.655 Y91.049 E19.53676
G1 X108.807 Y90.635 E19.60038
G1 X109.897 Y90.319 E19.65935
G1 X111.048 Y90.023 E19.72112
G1 X112.243 Y89.757 E19.78474
G1 X113.377 Y89.579 E19.84439
G1 X114.561 Y89.43 E19.90641
G1 X115.78 Y89.317 E19.97003
G1 X116.886 Y89.283 E20.02754
G1 X118.076 Y89.282 E20.08938
G1 X119.3 Y89.321 E20.15302
G1 X120.437 Y89.429 E20.21238
G1 X121.619 Y89.578 E20.27429
G1 X122.828 Y89.771 E20.33792
G1 X123.914 Y90.014 E20.39575
G1 X125.065 Y90.308 E20.45749
G1 X126.241 Y90.65 E20.52113
G1 X127.326 Y91.041 E20.58107
G1 X128.435 Y91.48 E20.64306
G1 X129.558 Y91.968 E20.70669
G1 X130.563 Y92.481 E20.76533
G1 X131.615 Y93.059 E20.82771
G1 X132.668 Y93.683 E20.89132
G1 X133.602 Y94.319 E20.95004
G1 X134.562 Y95.016 E21.0117
G1 X135.529 Y95.768 E21.07536
G1 X136.366 Y96.507 E21.13338
G1 X137.239 Y97.325 E21.19556
G1 X138.105 Y98.191 E21.2592
G1 X138.884 Y99.077 E21.32051
G1 X139.632 Y99.984 E21.38161
G1 X140.38 Y100.954 E21.44527
G1 X140.977 Y101.835 E21.50057
G1 X141.626 Y102.853 E21.56332
G1 X142.251 Y103.906 E21.62695
G1 X142.798 Y104.984 E21.68977
G1 X143.303 Y106.063 E21.75169
G1 X143.786 Y107.188 E21.81531
G1 X144.323 Y108.767 E21.90199
G1 X144.822 Y110.48 E21.99471
G1 X145.126 Y111.666 E22.05834
G1 X145.423 Y113.385 E22.149
G1 X145.57 Y114.554 E22.21023
G1 X145.684 Y115.773 E22.27385
G1 X145.717 Y116.877 E22.33125
G1 X145.718 Y118.076 E22.39356
G1 X145.679 Y119.3 E22.45721
G1 X145.573 Y120.42 E22.51567
G1 X145.426 Y121.595 E22.57721
G1 X145.234 Y122.804 E22.64083
G1 X144.99 Y123.9 E22.69918
G1 X144.696 Y125.053 E22.76102
G1 X144.354 Y126.229 E22.82467
G1 X143.961 Y127.321 E22.88498
G1 X143.52 Y128.435 E22.94724
G1 X143.032 Y129.559 E23.01092
G1 X142.518 Y130.564 E23.06959
G1 X141.941 Y131.614 E23.13185
G1 X141.317 Y132.667 E23.19546
G1 X140.685 Y133.595 E23.25381
G1 X139.987 Y134.557 E23.31558
G1 X139.236 Y135.524 E23.37921
G1 X138.491 Y136.369 E23.43775
G1 X137.683 Y137.231 E23.49915
G1 X136.817 Y138.096 E23.56276
G1 X135.958 Y138.852 E23.62223
G1 X135.041 Y139.611 E23.68409
G1 X134.073 Y140.361 E23.74773
G1 X133.16 Y140.981 E23.80509
G1 X132.146 Y141.627 E23.86757
G1 X131.093 Y142.25 E23.93115
G1 X130.035 Y142.788 E23.99283
G1 X128.952 Y143.296 E24.055
G1 X127.826 Y143.78 E24.11869
G1 X126.779 Y144.155 E24.17649
G1 X125.661 Y144.518 E24.23758
G1 X124.485 Y144.857 E24.30118
G1 X123.437 Y145.092 E24.357
G1 X122.26 Y145.32 E24.4193
G1 X121.051 Y145.513 E24.48293
G1 X119.857 Y145.626 E24.54526
G1 X118.666 Y145.7 E24.60727
G1 X117.442 Y145.736 E24.67091
G1 X116.353 Y145.701 E24.72753
G1 X115.165 Y145.628 E24.78939
G1 X113.946 Y145.513 E24.85302
G1 X112.767 Y145.324 E24.91507
G1 X111.589 Y145.097 E24.97742
G1 X110.395 Y144.826 E25.04105
G1 X109.366 Y144.526 E25.09675
G1 X108.247 Y144.164 E25.15787
G1 X107.095 Y143.749 E25.22151
G1 X106.066 Y143.304 E25.27977
G1 X104.977 Y142.794 E25.34226
G1 X103.885 Y142.239 E25.40592
G1 X102.889 Y141.65 E25.46605
G1 X101.889 Y141.016 E25.52759
G1 X100.877 Y140.326 E25.59124
G1 X99.987 Y139.636 E25.64977
G1 X99.067 Y138.876 E25.71178
G1 X98.149 Y138.065 E25.77544
G1 X97.332 Y137.246 E25.83556
G1 X96.518 Y136.378 E25.8974
G1 X95.71 Y135.458 E25.96103
G1 X95.026 Y134.574 E26.01912
G1 X94.319 Y133.601 E26.08163
G1 X93.632 Y132.587 E26.14528
G1 X93.069 Y131.633 E26.20285
G1 X92.501 Y130.603 E26.26397
G1 X91.945 Y129.512 E26.32761
G1 X91.488 Y128.454 E26.3875
G1 X91.044 Y127.333 E26.45016
G1 X90.63 Y126.18 E26.51383
G1 X90.178 Y124.52 E26.60324
G1 X89.79 Y122.785 E26.69563
G1 X89.562 Y121.582 E26.75926
G1 X89.375 Y119.868 E26.84887
G1 X89.301 Y118.689 E26.91026
G1 X89.264 Y117.465 E26.9739
G1 X89.298 Y116.382 E27.03021
G1 X89.37 Y115.192 E27.09216
G1 X89.484 Y113.972 E27.15584
G1 X89.672 Y112.79 E27.21804
G1 X89.9 Y111.602 E27.28091
G1 X90.17 Y110.408 E27.34453
G1 X90.476 Y109.36 E27.40126
G1 X90.838 Y108.242 E27.46233
G1 X91.253 Y107.09 E27.52597
G1 X91.693 Y106.071 E27.58365
G1 X92.204 Y104.979 E27.64631
G1 X92.759 Y103.887 E27.70997
G1 X93.357 Y102.877 E27.77096
G1 X93.988 Y101.883 E27.83215
G1 X94.678 Y100.871 E27.89581
G1 X95.36 Y99.993 E27.95358
G1 X96.128 Y99.063 E28.01626
G1 X96.939 Y98.145 E28.07992
G1 X97.403 Y97.682 E28.11399
G0 F810 X97.765 Y97.321
M204 S5000
M205 X30 Y30
G0 F7200 X98.107 Y97.686
M204 S500
M205 X20 Y20
G1 F6000 E28.14059
G1 F900 X98.966 Y96.881 E28.20177
G1 X99.874 Y96.084 E28.26456
G1 X100.719 Y95.432 E28.32003
G1 X101.695 Y94.723 E28.38272
G1 X102.695 Y94.045 E28.44551
G1 X103.613 Y93.504 E28.50088
G1 X104.642 Y92.937 E28.56194
G1 X105.719 Y92.389 E28.62474
G1 X106.722 Y91.956 E28.68152
G1 X107.839 Y91.513 E28.74396
G1 X108.976 Y91.105 E28.80674
G1 X110.022 Y90.803 E28.86332
G1 X111.173 Y90.507 E28.92508
G1 X112.352 Y90.245 E28.98785
G1 X113.439 Y90.075 E29.04503
G1 X114.623 Y89.926 E29.10704
G1 X115.826 Y89.815 E29.16983
G1 X116.887 Y89.783 E29.22499
G1 X118.077 Y89.782 E29.28683
G1 X119.284 Y89.821 E29.34959
G1 X120.374 Y89.925 E29.4065
G1 X121.556 Y90.074 E29.46841
G1 X122.749 Y90.265 E29.5312
G1 X123.791 Y90.499 E29.5867
G1 X124.942 Y90.793 E29.64844
G1 X126.102 Y91.13 E29.71121
G1 X127.142 Y91.506 E29.76868
G1 X128.251 Y91.945 E29.83067
G1 X129.359 Y92.427 E29.89346
G1 X130.322 Y92.919 E29.94966
G1 X131.374 Y93.497 E30.01204
G1 X132.413 Y94.114 E30.07484
G1 X133.308 Y94.724 E30.13113
G1 X134.268 Y95.421 E30.19278
G1 X135.222 Y96.163 E30.25559
G1 X136.024 Y96.872 E30.31122
G1 X136.897 Y97.69 E30.37339
G1 X137.751 Y98.544 E30.43616
G1 X138.499 Y99.396 E30.49508
G1 X139.247 Y100.303 E30.55618
G1 X139.984 Y101.26 E30.61895
G1 X140.556 Y102.103 E30.67189
G1 X141.205 Y103.121 E30.73463
G1 X141.82 Y104.161 E30.79743
G1 X142.345 Y105.196 E30.85774
G1 X142.85 Y106.275 E30.91965
G1 X143.326 Y107.385 E30.98242
G1 X143.843 Y108.907 E31.06595
G1 X144.342 Y110.62 E31.15867
G1 X144.641 Y111.79 E31.22143
G1 X144.927 Y113.447 E31.30882
G1 X145.074 Y114.616 E31.37005
G1 X145.185 Y115.819 E31.43283
G1 X145.217 Y116.878 E31.48789
G1 X145.218 Y118.077 E31.5502
G1 X145.179 Y119.284 E31.61296
G1 X145.077 Y120.358 E31.66903
