;FLAVOR:Marlin
;TIME:9004
;Filament used: 5.18258m
;Layer height: 0.16
;Generated with Cura_SteamEngine 3.6.0
M140 S70
M105
M190 S70
M104 S215
M105
M109 S215
M82 ;absolute extrusion mode
G28 ; home all axes
M117 Purge extruder
G92 E0 ; reset extruder
G1 Z1.0 F3000 ; move z up little to prevent scratching of surface
G1 X0.1 Y20 Z0.3 F5000.0 ; move to start-line position G1 X0.1 Y200.0 Z0.3 F1500.0 E15 ; draw 1st line
G1 X0.4 Y200.0 Z0.3 F5000.0 ; move to side a little
G1 X0.4 Y20 Z0.3 F1500.0 E30 ; draw 2nd line
G92 E0 ; reset extruder
G1 Z1.0 F3000 ; move z up little to prevent scratching of surface
M117 All systems go!
G92 E0
G1 F6000 E-5
;LAYER_COUNT:44
;LAYER:0
M107
M204 S5000
M205 X30 Y30
G0 F7200 X71.051 Y79.422 Z0.2
M204 S500
M205 X20 Y20
;TYPE:SKIRT
G1 F6000 E0
G1 F900 X71.528 Y79.002 E0.02325
G1 X72.054 Y78.644 E0.04653
G1 X72.621 Y78.356 E0.0698
G1 X73.219 Y78.14 E0.09306
G1 X73.84 Y78.002 E0.11633
G1 X74.629 Y77.94 E0.14529
G1 X160.371 Y77.94 E3.28226
G1 X161.006 Y77.98 E3.30554
G1 X161.63 Y78.099 E3.32878
G1 X162.235 Y78.296 E3.35206
G1 X162.81 Y78.567 E3.37531
G1 X163.347 Y78.908 E3.39859
G1 X163.949 Y79.422 E3.42755
G1 X164.078 Y79.551 E3.43422
G1 X164.498 Y80.028 E3.45747
G1 X164.856 Y80.554 E3.48075
G1 X165.144 Y81.121 E3.50402
G1 X165.36 Y81.719 E3.52728
G1 X165.498 Y82.34 E3.55056
G1 X165.56 Y83.129 E3.57951
G1 X165.56 Y151.857 E6.09401
G1 X165.52 Y152.492 E6.11728
G1 X165.401 Y153.116 E6.14052
G1 X165.204 Y153.721 E6.1638
G1 X164.933 Y154.296 E6.18706
G1 X164.592 Y154.833 E6.21033
G1 X164.078 Y155.435 E6.23929
G1 X163.949 Y155.564 E6.24597
G1 X163.472 Y155.984 E6.26922
G1 X162.946 Y156.342 E6.2925
G1 X162.379 Y156.63 E6.31577
G1 X161.781 Y156.846 E6.33903
G1 X161.16 Y156.984 E6.3623
G1 X160.371 Y157.046 E6.39126
G1 X74.629 Y157.045 E9.52823
G1 X73.994 Y157.005 E9.55151
G1 X73.37 Y156.886 E9.57475
G1 X72.765 Y156.689 E9.59803
G1 X72.19 Y156.418 E9.62128
G1 X71.653 Y156.077 E9.64456
G1 X71.051 Y155.563 E9.67352
G1 X70.922 Y155.434 E9.68019
G1 X70.502 Y154.957 E9.70344
G1 X70.144 Y154.431 E9.72672
G1 X69.856 Y153.864 E9.74999
G1 X69.64 Y153.266 E9.77325
G1 X69.502 Y152.645 E9.79652
G1 X69.44 Y151.856 E9.82548
G1 X69.44 Y83.129 E12.33994
G1 X69.48 Y82.494 E12.36321
G1 X69.599 Y81.87 E12.38646
G1 X69.796 Y81.265 E12.40973
G1 X70.067 Y80.69 E12.43299
G1 X70.408 Y80.153 E12.45626
G1 X70.568 Y79.965 E12.4653
G0 F810 X70.922 Y79.551
G0 X71.051 Y79.422
M204 S5000
M205 X30 Y30
G0 F7200 X71.362 Y79.733
M204 S500
M205 X20 Y20
G1 F6000 E12.49189
G1 F900 X71.819 Y79.333 E12.51411
G1 X72.325 Y78.996 E12.53636
G1 X72.87 Y78.728 E12.55858
G1 X73.446 Y78.534 E12.58081
G1 X74.042 Y78.417 E12.60303
G1 X74.629 Y78.38 E12.62455
G1 X160.371 Y78.38 E15.76152
G1 X160.977 Y78.42 E15.78374
G1 X161.573 Y78.539 E15.80598
G1 X162.148 Y78.735 E15.8282
G1 X162.692 Y79.006 E15.85044
G1 X163.197 Y79.345 E15.87269
G1 X163.638 Y79.733 E15.89418
G1 X163.767 Y79.862 E15.90086
G1 X164.167 Y80.319 E15.92308
G1 X164.504 Y80.825 E15.94532
G1 X164.772 Y81.37 E15.96754
G1 X164.966 Y81.946 E15.98978
G1 X165.083 Y82.542 E16.012
G1 X165.12 Y83.129 E16.03352
G1 X165.12 Y151.857 E18.54801
G1 X165.08 Y152.463 E18.57023
G1 X164.961 Y153.059 E18.59246
G1 X164.765 Y153.634 E18.61469
G1 X164.494 Y154.178 E18.63693
G1 X164.155 Y154.683 E18.65918
G1 X163.767 Y155.124 E18.68067
G1 X163.638 Y155.253 E18.68734
G1 X163.181 Y155.653 E18.70956
G1 X162.675 Y155.99 E18.73181
G1 X162.13 Y156.258 E18.75403
G1 X161.554 Y156.452 E18.77626
G1 X160.958 Y156.569 E18.79848
G1 X160.371 Y156.606 E18.82
G1 X74.629 Y156.605 E21.95697
G1 X74.023 Y156.565 E21.97919
G1 X73.427 Y156.446 E22.00143
G1 X72.852 Y156.25 E22.02365
G1 X72.308 Y155.979 E22.04589
G1 X71.803 Y155.64 E22.06814
G1 X71.362 Y155.252 E22.08963
G1 X71.233 Y155.123 E22.09631
G1 X70.833 Y154.666 E22.11853
G1 X70.496 Y154.16 E22.14077
G1 X70.228 Y153.615 E22.16299
G1 X70.034 Y153.039 E22.18523
G1 X69.917 Y152.443 E22.20745
G1 X69.88 Y151.856 E22.22897
G1 X69.88 Y83.129 E24.74342
G1 X69.92 Y82.523 E24.76564
G1 X70.039 Y81.927 E24.78788
G1 X70.235 Y81.352 E24.8101
G1 X70.506 Y80.808 E24.83234
G1 X70.845 Y80.303 E24.85459
G1 X70.873 Y80.271 E24.85615
G0 F810 X71.233 Y79.862
G0 X71.362 Y79.733
M204 S5000
M205 X30 Y30
G0 F7200 X71.673 Y80.044
M204 S500
M205 X20 Y20
G1 F6000 E24.88275
G1 F900 X72.109 Y79.665 E24.90388
G1 X72.593 Y79.349 E24.92503
G1 X73.116 Y79.103 E24.94617
G1 X73.668 Y78.932 E24.96732
G1 X74.239 Y78.838 E24.98849
G1 X74.629 Y78.82 E25.00277
G1 X160.371 Y78.82 E28.13974
G1 X160.948 Y78.86 E28.1609
G1 X161.513 Y78.979 E28.18203
G1 X162.057 Y79.175 E28.20318
G1 X162.568 Y79.444 E28.22431
G1 X163.038 Y79.781 E28.24547
G1 X163.327 Y80.044 E28.25977
G1 X163.456 Y80.173 E28.26644
G1 X163.835 Y80.609 E28.28758
G1 X164.151 Y81.093 E28.30872
G1 X164.397 Y81.616 E28.32987
G1 X164.568 Y82.168 E28.35101
G1 X164.662 Y82.739 E28.37218
G1 X164.68 Y83.129 E28.38647
G1 X164.68 Y151.857 E30.90096
G1 X164.64 Y152.434 E30.92212
G1 X164.521 Y152.999 E30.94325
G1 X164.325 Y153.543 E30.9644
G1 X164.056 Y154.054 E30.98553
G1 X163.719 Y154.524 E31.00669
G1 X163.456 Y154.813 E31.02098
G1 X163.327 Y154.942 E31.02766
G1 X162.891 Y155.321 E31.04879
G1 X162.407 Y155.637 E31.06994
G1 X161.884 Y155.883 E31.09109
G1 X161.332 Y156.054 E31.11223
G1 X160.761 Y156.148 E31.1334
G1 X160.371 Y156.166 E31.14769
G1 X74.629 Y156.165 E34.28466
G1 X74.052 Y156.125 E34.30582
G1 X73.487 Y156.006 E34.32694
G1 X72.943 Y155.81 E34.3481
G1 X72.432 Y155.541 E34.36922
G1 X71.962 Y155.204 E34.39038
G1 X71.673 Y154.941 E34.40468
G1 X71.544 Y154.812 E34.41135
G1 X71.165 Y154.376 E34.43249
G1 X70.849 Y153.892 E34.45364
G1 X70.603 Y153.369 E34.47478
G1 X70.432 Y152.817 E34.49593
G1 X70.338 Y152.246 E34.5171
G1 X70.32 Y151.856 E34.53138
G1 X70.32 Y83.129 E37.04584
G1 X70.36 Y82.552 E37.067
G1 X70.479 Y81.987 E37.08812
G1 X70.675 Y81.443 E37.10928
G1 X70.944 Y80.932 E37.13041
G1 X71.191 Y80.588 E37.1459
G0 F810 X71.281 Y80.462
G0 X71.544 Y80.173
G0 X71.673 Y80.044
M204 S5000
M205 X30 Y30
G0 F7200 X71.984 Y80.355
M204 S500
M205 X20 Y20
G1 F6000 E37.1725
G1 F900 X72.398 Y79.998 E37.1925
G1 X72.86 Y79.705 E37.21251
G1 X73.359 Y79.482 E37.23251
G1 X73.885 Y79.335 E37.25249
G1 X74.629 Y79.26 E37.27985
G1 X160.371 Y79.26 E40.41682
G1 X160.916 Y79.3 E40.43681
G1 X161.45 Y79.419 E40.45683
G1 X161.96 Y79.614 E40.47681
G1 X162.437 Y79.882 E40.49682
G1 X163.016 Y80.355 E40.52418
G1 X163.145 Y80.484 E40.53085
G1 X163.502 Y80.898 E40.55085
G1 X163.795 Y81.36 E40.57087
G1 X164.018 Y81.859 E40.59086
G1 X164.165 Y82.385 E40.61084
G1 X164.24 Y83.129 E40.6382
G1 X164.24 Y151.857 E43.1527
G1 X164.2 Y152.402 E43.17269
G1 X164.081 Y152.936 E43.1927
G1 X163.886 Y153.446 E43.21268
G1 X163.618 Y153.923 E43.2327
G1 X163.145 Y154.502 E43.26005
G1 X163.016 Y154.631 E43.26673
G1 X162.602 Y154.988 E43.28673
G1 X162.14 Y155.281 E43.30674
G1 X161.641 Y155.504 E43.32674
G1 X161.115 Y155.651 E43.34672
G1 X160.371 Y155.726 E43.37408
G1 X74.629 Y155.725 E46.51105
G1 X74.084 Y155.685 E46.53104
G1 X73.55 Y155.566 E46.55106
G1 X73.04 Y155.371 E46.57103
G1 X72.563 Y155.103 E46.59105
G1 X71.984 Y154.63 E46.6184
G1 X71.855 Y154.501 E46.62508
G1 X71.498 Y154.087 E46.64508
G1 X71.205 Y153.625 E46.6651
G1 X70.982 Y153.126 E46.68509
G1 X70.835 Y152.6 E46.70507
G1 X70.76 Y151.856 E46.73243
G1 X70.76 Y83.129 E49.24689
G1 X70.8 Y82.584 E49.26688
G1 X70.919 Y82.05 E49.2869
G1 X71.114 Y81.54 E49.30687
G1 X71.382 Y81.063 E49.32689
G1 X71.51 Y80.906 E49.3343
G0 F810 X71.855 Y80.484
G0 X71.984 Y80.355
M204 S5000
M205 X30 Y30
G0 F7200 X72.296 Y80.667
M204 S500
M205 X20 Y20
G1 F6000 E49.3609
G1 F900 X72.686 Y80.333 E49.37969
G1 X73.123 Y80.064 E49.39846
G1 X73.597 Y79.866 E49.41725
G1 X74.095 Y79.743 E49.43602
G1 X74.629 Y79.7 E49.45562
G1 X160.371 Y79.7 E52.59259
G1 X160.883 Y79.74 E52.61138
G1 X161.382 Y79.859 E52.63015
G1 X161.857 Y80.054 E52.64894
G1 X162.296 Y80.32 E52.66771
G1 X162.704 Y80.667 E52.68731
G1 X162.833 Y80.796 E52.69399
G1 X163.167 Y81.186 E52.71277
G1 X163.436 Y81.623 E52.73155
G1 X163.634 Y82.097 E52.75034
G1 X163.757 Y82.595 E52.76911
G1 X163.8 Y83.129 E52.78871
G1 X163.8 Y151.857 E55.3032
G1 X163.76 Y152.369 E55.32199
G1 X163.641 Y152.868 E55.34076
G1 X163.446 Y153.343 E55.35954
G1 X163.18 Y153.782 E55.37832
G1 X162.833 Y154.19 E55.39792
G1 X162.704 Y154.319 E55.40459
G1 X162.314 Y154.653 E55.42338
G1 X161.877 Y154.922 E55.44215
G1 X161.403 Y155.12 E55.46095
G1 X160.905 Y155.243 E55.47972
G1 X160.371 Y155.286 E55.49932
G1 X74.629 Y155.285 E58.63629
G1 X74.117 Y155.245 E58.65507
G1 X73.618 Y155.126 E58.67384
G1 X73.143 Y154.931 E58.69263
G1 X72.704 Y154.665 E58.71141
G1 X72.296 Y154.318 E58.731
G1 X72.167 Y154.189 E58.73768
G1 X71.833 Y153.799 E58.75646
G1 X71.564 Y153.362 E58.77524
G1 X71.366 Y152.888 E58.79403
G1 X71.243 Y152.39 E58.8128
G1 X71.2 Y151.856 E58.8324
G1 X71.2 Y83.129 E61.34686
G1 X71.24 Y82.617 E61.36565
G1 X71.359 Y82.118 E61.38441
G1 X71.554 Y81.643 E61.4032
G1 X71.815 Y81.212 E61.42164
G0 F810 X71.82 Y81.204
G0 X72.167 Y80.796
G0 X72.296 Y80.667
M204 S5000
M205 X30 Y30
G0 F7200 X72.607 Y80.978
M204 S500
M205 X20 Y20
G1 F6000 E61.44823
G1 F900 X72.972 Y80.669 E61.46573
G1 X73.383 Y80.426 E61.4832
G1 X73.829 Y80.254 E61.50069
G1 X74.297 Y80.159 E61.51816
G1 X74.629 Y80.14 E61.53033
G1 X160.371 Y80.14 E64.66729
G1 X160.847 Y80.18 E64.68477
G1 X161.31 Y80.299 E64.70226
G1 X161.747 Y80.493 E64.71975
G1 X162.145 Y80.757 E64.73723
G1 X162.393 Y80.978 E64.74938
G1 X162.522 Y81.107 E64.75606
G1 X162.831 Y81.472 E64.77355
G1 X163.074 Y81.883 E64.79102
G1 X163.246 Y82.329 E64.80851
G1 X163.341 Y82.797 E64.82598
G1 X163.36 Y83.129 E64.83815
G1 X163.36 Y151.857 E67.35264
G1 X163.32 Y152.333 E67.37012
G1 X163.201 Y152.796 E67.38761
G1 X163.007 Y153.233 E67.4051
G1 X162.743 Y153.631 E67.42257
G1 X162.522 Y153.879 E67.43473
G1 X162.393 Y154.008 E67.4414
G1 X162.028 Y154.317 E67.4589
G1 X161.617 Y154.56 E67.47637
G1 X161.171 Y154.732 E67.49385
G1 X160.703 Y154.827 E67.51133
G1 X160.371 Y154.846 E67.52349
G1 X74.629 Y154.845 E70.66046
G1 X74.153 Y154.805 E70.67794
G1 X73.69 Y154.686 E70.69543
G1 X73.253 Y154.492 E70.71292
G1 X72.855 Y154.228 E70.73039
G1 X72.607 Y154.007 E70.74255
G1 X72.478 Y153.878 E70.74922
G1 X72.169 Y153.513 E70.76672
G1 X71.926 Y153.102 E70.78419
G1 X71.754 Y152.656 E70.80168
G1 X71.659 Y152.188 E70.81915
G1 X71.64 Y151.856 E70.83131
G1 X71.64 Y83.129 E73.34577
G1 X71.68 Y82.653 E73.36325
G1 X71.799 Y82.19 E73.38074
G1 X71.993 Y81.753 E73.39823
G1 X72.14 Y81.532 E73.40794
G0 F810 X72.257 Y81.355
G0 X72.478 Y81.107
G0 X72.607 Y80.978
M204 S5000
M205 X30 Y30
G0 F7200 X72.918 Y81.289
M204 S500
M205 X20 Y20
G1 F6000 E73.43454
G1 F900 X73.256 Y81.008 E73.45062
G1 X73.639 Y80.792 E73.46671
G1 X74.054 Y80.649 E73.48277
G1 X74.629 Y80.58 E73.50395
G1 X160.371 Y80.58 E76.64092
G1 X160.809 Y80.62 E76.65702
G1 X161.232 Y80.738 E76.67308
G1 X161.627 Y80.931 E76.68917
G1 X162.082 Y81.289 E76.71035
G1 X162.211 Y81.418 E76.71702
G1 X162.492 Y81.756 E76.7331
G1 X162.708 Y82.139 E76.74919
G1 X162.851 Y82.554 E76.76525
G1 X162.92 Y83.129 E76.78644
G1 X162.92 Y151.857 E79.30093
G1 X162.88 Y152.295 E79.31702
G1 X162.762 Y152.718 E79.33309
G1 X162.569 Y153.113 E79.34917
G1 X162.211 Y153.568 E79.37036
G1 X162.082 Y153.697 E79.37703
G1 X161.744 Y153.978 E79.39311
G1 X161.361 Y154.194 E79.4092
G1 X160.946 Y154.337 E79.42526
G1 X160.371 Y154.406 E79.44645
G1 X74.629 Y154.405 E82.58342
G1 X74.191 Y154.365 E82.59951
G1 X73.768 Y154.247 E82.61557
G1 X73.373 Y154.054 E82.63166
G1 X72.918 Y153.696 E82.65284
G1 X72.789 Y153.567 E82.65952
G1 X72.508 Y153.229 E82.6756
G1 X72.292 Y152.846 E82.69168
G1 X72.149 Y152.431 E82.70774
G1 X72.08 Y151.856 E82.72893
G1 X72.08 Y83.129 E85.24339
G1 X72.12 Y82.691 E85.25948
G1 X72.238 Y82.268 E85.27555
G1 X72.431 Y81.873 E85.29163
G1 X72.452 Y81.847 E85.29285
G0 F810 X72.789 Y81.418
G0 X72.918 Y81.289
M204 S5000
M205 X30 Y30
G0 F7200 X73.229 Y81.6
M204 S500
M205 X20 Y20
G1 F6000 E85.31945
G1 F900 X73.537 Y81.348 E85.33401
G1 X73.889 Y81.164 E85.34854
G1 X74.27 Y81.053 E85.36306
G1 X74.629 Y81.02 E85.37625
G1 X160.371 Y81.02 E88.51322
G1 X160.766 Y81.06 E88.52775
G1 X161.146 Y81.178 E88.5423
G1 X161.494 Y81.37 E88.55685
G1 X161.771 Y81.6 E88.57002
G1 X161.9 Y81.729 E88.57669
G1 X162.152 Y82.037 E88.59125
G1 X162.336 Y82.389 E88.60578
G1 X162.447 Y82.77 E88.6203
G1 X162.48 Y83.129 E88.63349
G1 X162.48 Y151.857 E91.14798
G1 X162.44 Y152.252 E91.16251
G1 X162.322 Y152.632 E91.17707
G1 X162.13 Y152.98 E91.19161
G1 X161.9 Y153.257 E91.20478
G1 X161.771 Y153.386 E91.21146
G1 X161.463 Y153.638 E91.22602
G1 X161.111 Y153.822 E91.24055
G1 X160.73 Y153.933 E91.25507
G1 X160.371 Y153.966 E91.26826
G1 X74.629 Y153.965 E94.40523
G1 X74.233 Y153.925 E94.41979
G1 X73.854 Y153.807 E94.43431
G1 X73.506 Y153.615 E94.44885
G1 X73.229 Y153.385 E94.46202
G1 X73.1 Y153.256 E94.4687
G1 X72.848 Y152.948 E94.48326
G1 X72.664 Y152.596 E94.49779
G1 X72.553 Y152.215 E94.51231
G1 X72.52 Y151.856 E94.5255
G1 X72.52 Y83.129 E97.03995
G1 X72.56 Y82.734 E97.05448
G1 X72.678 Y82.354 E97.06904
G1 X72.781 Y82.168 E97.07682
G0 F810 X72.87 Y82.006
G0 X73.1 Y81.729
G0 X73.229 Y81.6
M204 S5000
M205 X30 Y30
G0 F7200 X73.54 Y81.911
M204 S500
M205 X20 Y20
G1 F6000 E97.10341
G1 F900 X73.814 Y81.693 E97.11622
G1 X74.131 Y81.543 E97.12906
G1 X74.629 Y81.46 E97.14753
G1 X160.371 Y81.46 E100.2845
G1 X160.719 Y81.5 E100.29731
G1 X161.049 Y81.617 E100.31012
G1 X161.46 Y81.911 E100.32861
G1 X161.589 Y82.04 E100.33528
G1 X161.807 Y82.314 E100.34809
G1 X161.957 Y82.631 E100.36093
G1 X162.04 Y83.129 E100.3794
G1 X162.04 Y151.857 E102.89389
G1 X162 Y152.205 E102.90671
G1 X161.883 Y152.535 E102.91952
G1 X161.589 Y152.946 E102.938
G1 X161.46 Y153.075 E102.94468
G1 X161.186 Y153.293 E102.95749
G1 X160.869 Y153.443 E102.97032
G1 X160.371 Y153.526 E102.98879
G1 X74.629 Y153.525 E106.12576
G1 X74.281 Y153.485 E106.13858
G1 X73.951 Y153.368 E106.15139
G1 X73.54 Y153.074 E106.16987
G1 X73.411 Y152.945 E106.17655
G1 X73.193 Y152.671 E106.18936
G1 X73.043 Y152.354 E106.20219
G1 X72.96 Y151.856 E106.22066
G1 X72.96 Y83.129 E108.73512
G1 X73 Y82.781 E108.74793
G1 X73.104 Y82.488 E108.75931
G0 F810 X73.117 Y82.451
G0 X73.411 Y82.04
G0 X73.54 Y81.911
M204 S5000
M205 X30 Y30
G0 F7200 X73.851 Y82.222
M204 S500
M205 X20 Y20
G1 F6000 E108.78591
G1 F900 X74.087 Y82.043 E108.79674
G1 X74.362 Y81.933 E108.80758
G1 X74.629 Y81.9 E108.81742
G1 X160.371 Y81.9 E111.95439
G1 X160.664 Y81.94 E111.96521
G1 X160.936 Y82.056 E111.97603
G1 X161.149 Y82.222 E111.98591
G1 X161.278 Y82.351 E111.99258
G1 X161.457 Y82.587 E112.00342
G1 X161.567 Y82.862 E112.01426
G1 X161.6 Y83.129 E112.0241
G1 X161.6 Y151.857 E114.53859
G1 X161.56 Y152.15 E114.54941
G1 X161.444 Y152.422 E114.56023
G1 X161.278 Y152.635 E114.57011
G1 X161.149 Y152.764 E114.57678
G1 X160.913 Y152.943 E114.58762
G1 X160.638 Y153.053 E114.59846
G1 X160.371 Y153.086 E114.6083
G1 X74.629 Y153.085 E117.74527
G1 X74.336 Y153.045 E117.75609
G1 X74.064 Y152.929 E117.76691
G1 X73.851 Y152.763 E117.77679
G1 X73.722 Y152.634 E117.78346
G1 X73.543 Y152.398 E117.7943
G1 X73.433 Y152.123 E117.80514
G1 X73.4 Y151.856 E117.81498
G1 X73.4 Y83.129 E120.32943
G1 X73.44 Y82.836 E120.34025
G1 X73.448 Y82.817 E120.34101
G0 F810 X73.556 Y82.564
G0 X73.722 Y82.351
G0 X73.851 Y82.222
M204 S5000
M205 X30 Y30
G0 F7200 X74.162 Y82.533
M204 S500
M205 X20 Y20
G1 F6000 E120.36761
G1 F900 X74.35 Y82.402 E120.37599
G1 X74.629 Y82.34 E120.38645
G1 X160.371 Y82.34 E123.52342
G1 X160.596 Y82.38 E123.53178
G1 X160.838 Y82.533 E123.54225
G1 X160.967 Y82.662 E123.54893
G1 X161.098 Y82.85 E123.55731
G1 X161.16 Y83.129 E123.56777
G1 X161.16 Y151.857 E126.08226
G1 X161.12 Y152.082 E126.09062
G1 X160.967 Y152.324 E126.10109
G1 X160.838 Y152.453 E126.10777
G1 X160.65 Y152.584 E126.11615
G1 X160.371 Y152.646 E126.12661
G1 X74.629 Y152.645 E129.26358
G1 X74.404 Y152.605 E129.27194
G1 X74.162 Y152.452 E129.28241
G1 X74.033 Y152.323 E129.28909
G1 X73.902 Y152.135 E129.29747
G1 X73.84 Y151.856 E129.30793
G1 X73.84 Y83.16 E131.82125
G0 F810 X73.84 Y83.129
G0 X73.88 Y82.904
G0 X74.033 Y82.662
G0 X74.162 Y82.533
