;FLAVOR:Marlin
;TIME:6358
;Filament used: 4.83222m
;Layer height: 0.2
;Generated with Cura_SteamEngine 3.6.0
M140 S70
M105
M190 S70
M104 S215
M105
M109 S215
M82 ;absolute extrusion mode
G28 ; home all axes
M117 Purge extruder
G92 E0 ; reset extruder
G1 Z1.0 F3000 ; move z up little to prevent scratching of surface
G1 X0.1 Y20 Z0.3 F5000.0 ; move to start-line position G1 X0.1 Y200.0 Z0.3 F1500.0 E15 ; draw 1st line
G1 X0.4 Y200.0 Z0.3 F5000.0 ; move to side a little
G1 X0.4 Y20 Z0.3 F1500.0 E30 ; draw 2nd line
G92 E0 ; reset extruder
G1 Z1.0 F3000 ; move z up little to prevent scratching of surface
M117 All systems go!
G92 E0
G1 F6000 E-5
;LAYER_COUNT:41
;LAYER:0
M107
M204 S5000
M205 X30 Y30
G0 F7200 X82.482 Y82.093 Z0.2
M204 S500
M205 X20 Y20
;TYPE:SKIRT
G1 F6000 E0
G1 F900 X82.985 Y81.62 E0.02296
G1 X85.163 Y79.646 E0.12073
G1 X86.122 Y78.831 E0.16259
G1 X86.657 Y78.419 E0.18505
G1 X89.025 Y76.661 E0.28314
G1 X90.059 Y75.944 E0.32499
G1 X90.646 Y75.578 E0.348
G1 X93.176 Y74.061 E0.44612
G1 X94.275 Y73.448 E0.48797
G1 X94.898 Y73.14 E0.51108
G1 X97.558 Y71.883 E0.60894
G1 X98.713 Y71.382 E0.65081
G1 X99.335 Y71.147 E0.67293
G1 X102.099 Y70.156 E0.77059
G1 X103.297 Y69.769 E0.81246
G1 X103.972 Y69.587 E0.83571
G1 X106.831 Y68.871 E0.93374
G1 X108.061 Y68.604 E0.9756
G1 X108.731 Y68.493 E0.99819
G1 X111.645 Y68.06 E1.09618
G1 X112.895 Y67.915 E1.13803
G1 X113.58 Y67.869 E1.16086
G1 X116.52 Y67.724 E1.25877
G1 X117.778 Y67.702 E1.30062
G1 X118.463 Y67.724 E1.32341
G1 X121.404 Y67.868 E1.42135
G1 X122.659 Y67.969 E1.46322
G1 X123.341 Y68.058 E1.4861
G1 X126.254 Y68.49 E1.58404
G1 X127.492 Y68.714 E1.62589
G1 X128.153 Y68.868 E1.64846
G1 X131.012 Y69.583 E1.74648
G1 X132.222 Y69.927 E1.78832
G1 X132.876 Y70.148 E1.81128
G1 X135.641 Y71.137 E1.90895
G1 X136.812 Y71.598 E1.95081
G1 X137.433 Y71.878 E1.97347
G1 X140.093 Y73.135 E2.07132
G1 X141.213 Y73.709 E2.11318
G1 X141.812 Y74.054 E2.13617
G1 X144.343 Y75.571 E2.23431
G1 X145.401 Y76.252 E2.27616
G1 X145.957 Y76.649 E2.29888
G1 X148.324 Y78.404 E2.39689
G1 X149.31 Y79.185 E2.43873
G1 X149.824 Y79.635 E2.46145
G1 X152.002 Y81.608 E2.55919
G1 X152.907 Y82.482 E2.60104
G1 X153.38 Y82.985 E2.624
G1 X155.354 Y85.163 E2.72177
G1 X156.169 Y86.122 E2.76363
G1 X156.579 Y86.655 E2.78599
G1 X158.336 Y89.021 E2.88401
G1 X159.054 Y90.055 E2.92588
G1 X159.423 Y90.647 E2.94908
G1 X160.943 Y93.183 E3.04742
G1 X161.555 Y94.282 E3.08926
G1 X161.862 Y94.903 E3.1123
G1 X163.117 Y97.559 E3.21
G1 X163.618 Y98.713 E3.25185
G1 X163.852 Y99.333 E3.27389
G1 X164.842 Y102.093 E3.37141
G1 X165.229 Y103.29 E3.41326
G1 X165.412 Y103.968 E3.43661
G1 X166.129 Y106.831 E3.53478
G1 X166.396 Y108.061 E3.57664
G1 X166.507 Y108.729 E3.59916
G1 X166.94 Y111.641 E3.69708
G1 X167.085 Y112.891 E3.73893
G1 X167.131 Y113.578 E3.76184
G1 X167.276 Y116.519 E3.85977
G1 X167.298 Y117.777 E3.90162
G1 X167.276 Y118.462 E3.92441
G1 X167.132 Y121.404 E4.02238
G1 X167.031 Y122.658 E4.06423
G1 X166.942 Y123.341 E4.08714
G1 X166.51 Y126.254 E4.18508
G1 X166.286 Y127.492 E4.22693
G1 X166.132 Y128.153 E4.2495
G1 X165.417 Y131.012 E4.34752
G1 X165.073 Y132.222 E4.38936
G1 X164.853 Y132.875 E4.41228
G1 X163.865 Y135.638 E4.50987
G1 X163.404 Y136.809 E4.55173
G1 X163.123 Y137.43 E4.5744
G1 X161.867 Y140.088 E4.67218
G1 X161.293 Y141.208 E4.71404
G1 X160.949 Y141.806 E4.73698
G1 X159.43 Y144.341 E4.83528
G1 X158.749 Y145.4 E4.87715
G1 X158.351 Y145.957 E4.89992
G1 X156.596 Y148.324 E4.99793
G1 X155.815 Y149.31 E5.03976
G1 X155.365 Y149.824 E5.06249
G1 X153.392 Y152.002 E5.16023
G1 X152.518 Y152.907 E5.20208
G1 X152.015 Y153.38 E5.22504
G1 X149.837 Y155.354 E5.32281
G1 X148.878 Y156.169 E5.36467
G1 X148.343 Y156.581 E5.38713
G1 X145.975 Y158.339 E5.48522
G1 X144.941 Y159.056 E5.52707
G1 X144.354 Y159.422 E5.55008
G1 X141.824 Y160.939 E5.64819
G1 X140.725 Y161.552 E5.69005
G1 X140.102 Y161.86 E5.71316
G1 X137.442 Y163.117 E5.81101
G1 X136.287 Y163.618 E5.85289
G1 X135.665 Y163.853 E5.875
G1 X132.901 Y164.844 E5.97266
G1 X131.703 Y165.231 E6.01454
G1 X131.028 Y165.413 E6.03779
G1 X128.169 Y166.129 E6.13582
G1 X126.939 Y166.396 E6.17768
G1 X126.269 Y166.507 E6.20027
G1 X123.355 Y166.94 E6.29825
G1 X122.105 Y167.085 E6.34011
G1 X121.42 Y167.131 E6.36294
G1 X118.48 Y167.276 E6.46084
G1 X117.222 Y167.298 E6.50269
G1 X116.537 Y167.276 E6.52549
G1 X113.596 Y167.132 E6.62342
G1 X112.341 Y167.031 E6.6653
G1 X111.659 Y166.942 E6.68817
G1 X108.746 Y166.51 E6.78612
G1 X107.508 Y166.286 E6.82796
G1 X106.847 Y166.132 E6.85054
G1 X103.988 Y165.417 E6.94856
G1 X102.778 Y165.073 E6.9904
G1 X102.124 Y164.852 E7.01336
G1 X99.359 Y163.863 E7.11103
G1 X98.188 Y163.402 E7.15288
G1 X97.567 Y163.122 E7.17554
G1 X94.907 Y161.865 E7.27339
G1 X93.787 Y161.291 E7.31525
G1 X93.188 Y160.946 E7.33824
G1 X90.657 Y159.429 E7.43639
G1 X89.599 Y158.748 E7.47824
G1 X89.042 Y158.35 E7.50101
G1 X86.674 Y156.594 E7.59906
G1 X85.688 Y155.813 E7.64089
G1 X85.175 Y155.364 E7.66357
G1 X82.996 Y153.39 E7.76136
G1 X82.09 Y152.516 E7.80323
G1 X81.618 Y152.012 E7.8262
G1 X79.645 Y149.835 E7.92392
G1 X78.83 Y148.877 E7.96575
G1 X78.417 Y148.34 E7.98828
G1 X76.66 Y145.973 E8.08633
G1 X75.943 Y144.94 E8.12815
G1 X75.577 Y144.352 E8.15119
G1 X74.058 Y141.818 E8.24945
G1 X73.445 Y140.719 E8.2913
G1 X73.138 Y140.097 E8.31438
G1 X71.882 Y137.439 E8.41215
G1 X71.381 Y136.285 E8.454
G1 X71.145 Y135.661 E8.47619
G1 X70.155 Y132.899 E8.57377
G1 X69.768 Y131.701 E8.61565
G1 X69.587 Y131.028 E8.63883
G1 X68.871 Y128.169 E8.73685
G1 X68.604 Y126.939 E8.77872
G1 X68.493 Y126.269 E8.8013
G1 X68.06 Y123.355 E8.89929
G1 X67.915 Y122.105 E8.94114
G1 X67.869 Y121.421 E8.96394
G1 X67.724 Y118.482 E9.06181
G1 X67.702 Y117.223 E9.1037
G1 X67.724 Y116.538 E9.12649
G1 X67.868 Y113.596 E9.22446
G1 X67.969 Y112.342 E9.2663
G1 X68.058 Y111.659 E9.28921
G1 X68.49 Y108.746 E9.38716
G1 X68.714 Y107.508 E9.429
G1 X68.868 Y106.847 E9.45158
G1 X69.584 Y103.984 E9.54973
G1 X69.928 Y102.774 E9.59157
G1 X70.149 Y102.119 E9.61456
G1 X71.136 Y99.36 E9.71202
G1 X71.597 Y98.189 E9.75388
G1 X71.877 Y97.57 E9.77648
G1 X73.133 Y94.912 E9.87426
G1 X73.707 Y93.792 E9.91611
G1 X74.051 Y93.194 E9.93906
G1 X75.57 Y90.659 E10.03735
G1 X76.251 Y89.6 E10.07923
G1 X76.649 Y89.043 E10.102
G1 X78.404 Y86.676 E10.2
G1 X79.185 Y85.69 E10.24184
G1 X79.635 Y85.176 E10.26456
G1 X81.608 Y82.998 E10.36231
G1 X81.927 Y82.668 E10.37757
G0 F810 X82.482 Y82.093
M204 S5000
M205 X30 Y30
G0 F7200 X82.77 Y82.371
M204 S500
M205 X20 Y20
G1 F6000 E10.40418
G1 F900 X83.254 Y81.916 E10.42627
G1 X85.432 Y79.942 E10.52404
G1 X86.381 Y79.136 E10.56545
G1 X86.896 Y78.74 E10.58706
G1 X89.264 Y76.982 E10.68515
G1 X90.287 Y76.272 E10.72657
G1 X90.852 Y75.921 E10.74869
G1 X93.382 Y74.404 E10.84681
G1 X94.47 Y73.798 E10.88823
G1 X95.069 Y73.502 E10.91045
G1 X97.729 Y72.245 E11.0083
G1 X98.872 Y71.749 E11.04975
G1 X99.47 Y71.523 E11.07101
G1 X102.234 Y70.532 E11.16867
G1 X103.42 Y70.15 E11.21011
G1 X104.069 Y69.975 E11.23247
G1 X106.928 Y69.259 E11.3305
G1 X108.145 Y68.996 E11.37191
G1 X108.79 Y68.889 E11.39365
G1 X111.704 Y68.456 E11.49164
G1 X112.941 Y68.312 E11.53306
G1 X113.599 Y68.269 E11.55499
G1 X116.539 Y68.124 E11.65289
G1 X117.785 Y68.102 E11.69434
G1 X118.444 Y68.123 E11.71627
G1 X121.385 Y68.267 E11.81421
G1 X122.626 Y68.368 E11.85562
G1 X123.282 Y68.454 E11.87762
G1 X126.195 Y68.886 E11.97557
G1 X127.421 Y69.108 E12.01701
G1 X128.056 Y69.256 E12.0387
G1 X130.915 Y69.971 E12.13672
G1 X132.113 Y70.311 E12.17814
G1 X132.742 Y70.524 E12.20022
G1 X135.507 Y71.513 E12.29789
G1 X136.666 Y71.97 E12.33933
G1 X137.262 Y72.24 E12.36109
G1 X139.922 Y73.497 E12.45895
G1 X141.03 Y74.065 E12.50036
G1 X141.606 Y74.397 E12.52247
G1 X144.137 Y75.914 E12.62061
G1 X145.185 Y76.588 E12.66206
G1 X145.718 Y76.97 E12.68387
G1 X148.085 Y78.725 E12.78187
G1 X149.062 Y79.499 E12.82333
G1 X149.556 Y79.931 E12.84516
G1 X151.734 Y81.904 E12.9429
G1 X152.629 Y82.77 E12.98432
G1 X153.084 Y83.254 E13.00642
G1 X155.058 Y85.432 E13.10418
G1 X155.864 Y86.381 E13.1456
G1 X156.258 Y86.894 E13.16711
G1 X158.015 Y89.26 E13.26513
G1 X158.725 Y90.283 E13.30655
G1 X159.08 Y90.853 E13.32888
G1 X160.6 Y93.389 E13.42722
G1 X161.206 Y94.477 E13.46864
G1 X161.5 Y95.074 E13.49077
G1 X162.755 Y97.73 E13.58848
G1 X163.251 Y98.873 E13.62992
G1 X163.476 Y99.468 E13.65108
G1 X164.466 Y102.228 E13.7486
G1 X164.849 Y103.413 E13.79002
G1 X165.024 Y104.065 E13.81248
G1 X165.741 Y106.928 E13.91064
G1 X166.004 Y108.145 E13.95205
G1 X166.111 Y108.788 E13.97373
G1 X166.544 Y111.7 E14.07165
G1 X166.688 Y112.937 E14.11307
G1 X166.731 Y113.598 E14.1351
G1 X166.876 Y116.539 E14.23304
G1 X166.898 Y117.784 E14.27445
G1 X166.877 Y118.442 E14.29635
G1 X166.733 Y121.384 E14.39432
G1 X166.632 Y122.626 E14.43576
G1 X166.546 Y123.282 E14.45777
G1 X166.114 Y126.195 E14.55572
G1 X165.892 Y127.421 E14.59716
G1 X165.744 Y128.056 E14.61884
G1 X165.029 Y130.915 E14.71686
G1 X164.689 Y132.113 E14.75828
G1 X164.476 Y132.74 E14.78031
G1 X163.488 Y135.503 E14.8779
G1 X163.031 Y136.662 E14.91934
G1 X162.761 Y137.259 E14.94113
G1 X161.505 Y139.917 E15.03891
G1 X160.937 Y141.026 E15.08035
G1 X160.606 Y141.601 E15.10242
G1 X159.087 Y144.136 E15.20071
G1 X158.413 Y145.183 E15.24213
G1 X158.03 Y145.718 E15.26401
G1 X156.275 Y148.085 E15.36202
G1 X155.501 Y149.062 E15.40347
G1 X155.069 Y149.556 E15.4253
G1 X153.096 Y151.734 E15.52304
G1 X152.23 Y152.629 E15.56447
G1 X151.746 Y153.084 E15.58656
G1 X149.568 Y155.058 E15.68433
G1 X148.619 Y155.864 E15.72574
G1 X148.104 Y156.26 E15.74735
G1 X145.736 Y158.018 E15.84544
G1 X144.713 Y158.728 E15.88685
G1 X144.148 Y159.079 E15.90898
G1 X141.618 Y160.596 E16.00709
G1 X140.53 Y161.202 E16.04851
G1 X139.931 Y161.498 E16.07074
G1 X137.271 Y162.755 E16.16859
G1 X136.128 Y163.251 E16.21003
G1 X135.53 Y163.477 E16.23129
G1 X132.766 Y164.468 E16.32896
G1 X131.58 Y164.85 E16.3704
G1 X130.931 Y165.025 E16.39275
G1 X128.072 Y165.741 E16.49078
G1 X126.855 Y166.004 E16.53219
G1 X126.21 Y166.111 E16.55394
G1 X123.296 Y166.544 E16.65192
G1 X122.059 Y166.688 E16.69334
G1 X121.401 Y166.731 E16.71528
G1 X118.461 Y166.876 E16.81318
G1 X117.215 Y166.898 E16.85463
G1 X116.556 Y166.877 E16.87656
G1 X113.615 Y166.733 E16.97449
G1 X112.374 Y166.632 E17.01591
G1 X111.718 Y166.546 E17.03791
G1 X108.805 Y166.114 E17.13586
G1 X107.579 Y165.892 E17.1773
G1 X106.944 Y165.744 E17.19898
G1 X104.085 Y165.029 E17.297
G1 X102.887 Y164.689 E17.33842
G1 X102.258 Y164.476 E17.36051
G1 X99.493 Y163.487 E17.45818
G1 X98.334 Y163.03 E17.49962
G1 X97.738 Y162.76 E17.52138
G1 X95.078 Y161.503 E17.61923
G1 X93.97 Y160.935 E17.66064
G1 X93.394 Y160.603 E17.68276
G1 X90.863 Y159.086 E17.7809
G1 X89.815 Y158.412 E17.82234
G1 X89.28 Y158.029 E17.84423
G1 X86.912 Y156.273 E17.94228
G1 X85.936 Y155.499 E17.98371
G1 X85.443 Y155.068 E18.00549
G1 X83.264 Y153.094 E18.10328
G1 X82.368 Y152.228 E18.14473
G1 X81.914 Y151.744 E18.1668
G1 X79.941 Y149.567 E18.26452
G1 X79.135 Y148.617 E18.30596
G1 X78.739 Y148.102 E18.32756
G1 X76.982 Y145.735 E18.42561
G1 X76.272 Y144.711 E18.46705
G1 X75.92 Y144.146 E18.48919
G1 X74.401 Y141.612 E18.58746
G1 X73.795 Y140.524 E18.62888
G1 X73.5 Y139.926 E18.65106
G1 X72.244 Y137.268 E18.74884
G1 X71.748 Y136.126 E18.79025
G1 X71.522 Y135.526 E18.81157
G1 X70.532 Y132.764 E18.90916
G1 X70.149 Y131.578 E18.95061
G1 X69.975 Y130.931 E18.9729
G1 X69.259 Y128.072 E19.07092
G1 X68.996 Y126.855 E19.11233
G1 X68.889 Y126.21 E19.13408
G1 X68.456 Y123.296 E19.23206
G1 X68.312 Y122.059 E19.27349
G1 X68.269 Y121.401 E19.29542
G1 X68.124 Y118.462 E19.39329
G1 X68.102 Y117.217 E19.4347
G1 X68.123 Y116.558 E19.45663
G1 X68.267 Y113.616 E19.5546
G1 X68.368 Y112.374 E19.59605
G1 X68.454 Y111.718 E19.61805
G1 X68.886 Y108.805 E19.716
G1 X69.108 Y107.579 E19.75744
G1 X69.256 Y106.944 E19.77912
G1 X69.972 Y104.081 E19.87728
G1 X70.312 Y102.883 E19.9187
G1 X70.526 Y102.253 E19.94083
G1 X71.513 Y99.494 E20.03829
G1 X71.97 Y98.336 E20.0797
G1 X72.239 Y97.741 E20.10141
G1 X73.495 Y95.083 E20.19919
G1 X74.063 Y93.974 E20.24063
G1 X74.394 Y93.399 E20.2627
G1 X75.913 Y90.864 E20.36099
G1 X76.587 Y89.817 E20.40241
G1 X76.97 Y89.282 E20.42429
G1 X78.725 Y86.915 E20.5223
G1 X79.499 Y85.938 E20.56376
G1 X79.931 Y85.444 E20.58558
G1 X81.904 Y83.266 E20.68333
G1 X82.214 Y82.946 E20.69815
G0 F810 X82.77 Y82.371
M204 S5000
M205 X30 Y30
G0 F7200 X83.057 Y82.649
M204 S500
M205 X20 Y20
G1 F6000 E20.72475
G1 F900 X83.522 Y82.213 E20.74595
G1 X85.7 Y80.239 E20.84372
G1 X86.64 Y79.441 E20.88473
G1 X87.134 Y79.062 E20.90544
G1 X89.502 Y77.304 E21.00353
G1 X90.515 Y76.601 E21.04454
G1 X91.057 Y76.264 E21.06577
G1 X93.587 Y74.747 E21.16389
G1 X94.665 Y74.148 E21.2049
G1 X95.24 Y73.863 E21.22625
G1 X97.9 Y72.606 E21.3241
G1 X99.605 Y71.9 E21.38548
G1 X102.369 Y70.909 E21.48314
G1 X103.543 Y70.531 E21.52416
G1 X104.166 Y70.363 E21.54562
G1 X107.025 Y69.647 E21.64365
G1 X108.23 Y69.387 E21.68465
G1 X108.848 Y69.284 E21.70549
G1 X111.762 Y68.851 E21.80348
G1 X112.987 Y68.71 E21.84449
G1 X113.619 Y68.668 E21.86555
G1 X116.559 Y68.523 E21.96346
G1 X117.792 Y68.502 E22.00447
G1 X118.424 Y68.523 E22.02551
G1 X121.365 Y68.667 E22.12344
G1 X122.594 Y68.767 E22.16445
G1 X123.223 Y68.85 E22.18556
G1 X126.136 Y69.282 E22.2835
G1 X127.349 Y69.502 E22.3245
G1 X127.959 Y69.644 E22.34534
G1 X130.818 Y70.359 E22.44335
G1 X132.003 Y70.696 E22.48433
G1 X132.607 Y70.901 E22.50555
G1 X135.372 Y71.89 E22.60322
G1 X136.519 Y72.343 E22.64423
G1 X137.091 Y72.601 E22.6651
G1 X139.751 Y73.858 E22.76296
G1 X140.848 Y74.421 E22.80397
G1 X141.401 Y74.74 E22.8252
G1 X143.932 Y76.257 E22.92334
G1 X144.968 Y76.925 E22.96434
G1 X145.48 Y77.292 E22.9853
G1 X147.847 Y79.047 E23.0833
G1 X148.813 Y79.812 E23.12429
G1 X149.287 Y80.228 E23.14526
G1 X151.465 Y82.201 E23.24301
G1 X152.351 Y83.057 E23.28398
G1 X152.787 Y83.522 E23.30518
G1 X154.761 Y85.7 E23.40295
G1 X155.559 Y86.64 E23.44396
G1 X155.937 Y87.132 E23.4646
G1 X157.694 Y89.498 E23.56261
G1 X158.396 Y90.511 E23.60361
G1 X158.737 Y91.058 E23.62505
G1 X160.257 Y93.594 E23.72338
G1 X160.856 Y94.671 E23.76437
G1 X161.139 Y95.245 E23.78566
G1 X162.394 Y97.901 E23.88336
G1 X163.099 Y99.603 E23.94464
G1 X164.089 Y102.363 E24.04216
G1 X164.468 Y103.536 E24.08316
G1 X164.636 Y104.162 E24.10472
G1 X165.353 Y107.025 E24.20288
G1 X165.613 Y108.23 E24.24388
G1 X165.715 Y108.847 E24.26468
G1 X166.148 Y111.759 E24.3626
G1 X166.29 Y112.983 E24.40358
G1 X166.332 Y113.617 E24.42472
G1 X166.477 Y116.558 E24.52265
G1 X166.498 Y117.791 E24.56367
G1 X166.477 Y118.423 E24.5847
G1 X166.333 Y121.365 E24.68267
G1 X166.233 Y122.594 E24.72368
G1 X166.15 Y123.223 E24.74478
G1 X165.718 Y126.136 E24.84273
G1 X165.498 Y127.349 E24.88373
G1 X165.356 Y127.959 E24.90457
G1 X164.641 Y130.818 E25.00258
G1 X164.304 Y132.003 E25.04356
G1 X164.1 Y132.605 E25.0647
G1 X163.112 Y135.368 E25.1623
G1 X162.659 Y136.515 E25.20331
G1 X162.4 Y137.089 E25.22426
G1 X161.144 Y139.747 E25.32204
G1 X160.581 Y140.843 E25.36302
G1 X160.263 Y141.395 E25.38421
G1 X158.744 Y143.93 E25.4825
G1 X158.076 Y144.966 E25.5235
G1 X157.708 Y145.48 E25.54453
G1 X155.953 Y147.847 E25.64253
G1 X155.188 Y148.813 E25.68351
G1 X154.772 Y149.287 E25.70449
G1 X152.799 Y151.465 E25.80223
G1 X151.943 Y152.351 E25.84321
G1 X151.478 Y152.787 E25.86441
G1 X149.3 Y154.761 E25.96218
G1 X148.36 Y155.559 E26.00319
G1 X147.866 Y155.938 E26.0239
G1 X145.498 Y157.696 E26.12199
G1 X144.485 Y158.399 E26.163
G1 X143.943 Y158.736 E26.18423
G1 X141.413 Y160.253 E26.28234
G1 X140.335 Y160.852 E26.32336
G1 X139.76 Y161.137 E26.34471
G1 X137.1 Y162.394 E26.44256
G1 X135.395 Y163.1 E26.50394
G1 X132.631 Y164.091 E26.6016
G1 X131.457 Y164.469 E26.64262
G1 X130.834 Y164.637 E26.66408
G1 X127.975 Y165.353 E26.76211
G1 X126.77 Y165.613 E26.80311
G1 X126.152 Y165.716 E26.82395
G1 X123.238 Y166.149 E26.92193
G1 X122.013 Y166.29 E26.96294
G1 X121.381 Y166.332 E26.98401
G1 X118.441 Y166.477 E27.08192
G1 X117.208 Y166.498 E27.12293
G1 X116.576 Y166.477 E27.14396
G1 X113.635 Y166.333 E27.2419
G1 X112.406 Y166.233 E27.28291
G1 X111.777 Y166.15 E27.30401
G1 X108.864 Y165.718 E27.40196
G1 X107.651 Y165.498 E27.44296
