;FLAVOR:Marlin
;TIME:2802
;Filament used: 1.67738m
;Layer height: 0.2
;Generated with Cura_SteamEngine 3.6.0
M140 S70
M105
M190 S70
M104 S215
M105
M109 S215
M82 ;absolute extrusion mode
G28 ; home all axes
M117 Purge extruder
G92 E0 ; reset extruder
G1 Z1.0 F3000 ; move z up little to prevent scratching of surface
G1 X0.1 Y20 Z0.3 F5000.0 ; move to start-line position G1 X0.1 Y200.0 Z0.3 F1500.0 E15 ; draw 1st line
G1 X0.4 Y200.0 Z0.3 F5000.0 ; move to side a little
G1 X0.4 Y20 Z0.3 F1500.0 E30 ; draw 2nd line
G92 E0 ; reset extruder
G1 Z1.0 F3000 ; move z up little to prevent scratching of surface
M117 All systems go!
G92 E0
G1 F6000 E-5
;LAYER_COUNT:66
;LAYER:0
M107
M204 S5000
M205 X30 Y30
G0 F7200 X80.018 Y53.251 Z0.2
M204 S500
M205 X20 Y20
;TYPE:SKIRT
G1 F6000 E0
G1 F900 X80.528 Y52.528 E0.02943
G1 X81.023 Y51.938 E0.05504
G1 X82.446 Y50.373 E0.1254
G1 X83.071 Y49.746 E0.15484
G1 X83.658 Y49.248 E0.18044
G1 X85.318 Y47.949 E0.25055
G1 X86.039 Y47.436 E0.27998
G1 X86.507 Y47.151 E0.29821
G1 X87.873 Y46.373 E0.35049
G1 X88.994 Y45.826 E0.39198
G1 X90.457 Y45.224 E0.4446
G1 X91.62 Y44.829 E0.48545
G1 X93.146 Y44.415 E0.53804
G1 X94.379 Y44.164 E0.57989
G1 X95.945 Y43.949 E0.63246
G1 X97.264 Y43.858 E0.67644
G1 X117.684 Y43.828 E1.35561
G1 X118.568 Y43.867 E1.38504
G1 X119.445 Y43.985 E1.41447
G1 X120.308 Y44.182 E1.44391
G1 X121.15 Y44.456 E1.47337
G1 X121.763 Y44.719 E1.49555
G1 X121.74 Y44.68 E1.49706
G1 X121.36 Y43.881 E1.52648
G1 X121.053 Y43.05 E1.55595
G1 X120.822 Y42.196 E1.58537
G1 X120.67 Y41.324 E1.61481
G1 X120.597 Y40.442 E1.64425
G1 X120.604 Y39.556 E1.67372
G1 X120.668 Y38.898 E1.69571
G1 X120.276 Y38.686 E1.71053
G1 X119.382 Y38.079 E1.74647
G1 X118.75 Y37.597 E1.77291
G1 X118.071 Y37.029 E1.80235
G1 X117.446 Y36.402 E1.8318
G1 X116.881 Y35.722 E1.8612
G1 X116.379 Y34.992 E1.89067
G1 X116.025 Y34.378 E1.91424
G1 X115.652 Y33.671 E1.94083
G1 X115.275 Y32.87 E1.97027
G1 X114.972 Y32.039 E1.99969
G1 X114.744 Y31.183 E2.02915
G1 X114.62 Y30.492 E2.0525
G1 X114.55 Y30.005 E2.06887
G1 X114.463 Y29.124 E2.09831
G1 X114.457 Y28.239 E2.12775
G1 X114.568 Y27.093 E2.16604
G1 X114.661 Y26.5 E2.18601
G1 X114.838 Y25.632 E2.21547
G1 X115.092 Y24.784 E2.24491
G1 X115.421 Y23.963 E2.27433
G1 X115.931 Y22.99 E2.31087
G1 X116.35 Y22.289 E2.33803
G1 X116.838 Y21.551 E2.36746
G1 X117.391 Y20.859 E2.39692
G1 X118.004 Y20.22 E2.42637
G1 X118.843 Y19.507 E2.46299
G1 X119.318 Y19.147 E2.48282
G1 X120.047 Y18.644 E2.51228
G1 X120.818 Y18.21 E2.5417
G1 X121.625 Y17.847 E2.57113
G1 X122.104 Y17.671 E2.58811
G1 X122.676 Y17.478 E2.60819
G1 X123.527 Y17.233 E2.63764
G1 X124.396 Y17.066 E2.66707
G1 X125.534 Y16.968 E2.70506
G1 X126.033 Y16.954 E2.72167
G1 X126.918 Y16.969 E2.75111
G1 X127.798 Y17.064 E2.78054
G1 X128.666 Y17.238 E2.80999
G1 X129.436 Y17.463 E2.83667
G1 X130.199 Y17.72 E2.86345
G1 X131.025 Y18.04 E2.89291
G1 X131.818 Y18.433 E2.92235
G1 X132.572 Y18.896 E2.95178
G1 X133.281 Y19.426 E2.98122
G1 X133.821 Y19.902 E3.00516
G1 X134.402 Y20.454 E3.03182
G1 X135.016 Y21.092 E3.06127
G1 X135.569 Y21.783 E3.0907
G1 X136.058 Y22.521 E3.12015
G1 X136.328 Y23.002 E3.13849
G1 X136.515 Y23.358 E3.15187
G1 X136.891 Y24.159 E3.1813
G1 X137.193 Y24.991 E3.21074
G1 X137.349 Y25.548 E3.22998
G1 X137.467 Y26.022 E3.24622
G1 X137.642 Y26.889 E3.27564
G1 X137.737 Y27.769 E3.30508
G1 X137.753 Y28.654 E3.33452
G1 X137.709 Y29.362 E3.35811
G1 X137.63 Y30.154 E3.38459
G1 X137.502 Y31.03 E3.41403
G1 X137.426 Y31.346 E3.42484
G1 X137.875 Y31.663 E3.44312
G1 X138.549 Y32.237 E3.47257
G1 X139.169 Y32.869 E3.50201
G1 X139.729 Y33.554 E3.53144
G1 X139.988 Y33.937 E3.54682
G1 X140.82 Y33.847 E3.57465
G1 X141.445 Y33.828 E3.59545
G1 X149.53 Y33.839 E3.86436
G1 X150.415 Y33.88 E3.89383
G1 X151.292 Y34.001 E3.92327
G1 X152.509 Y34.307 E3.96501
G1 X153.298 Y34.56 E3.99257
G1 X154.128 Y34.868 E4.02201
G1 X154.927 Y35.25 E4.05147
G1 X155.688 Y35.702 E4.08091
G1 X156.424 Y36.236 E4.11115
G1 X156.912 Y36.626 E4.13193
G1 X157.578 Y37.21 E4.16139
G1 X158.189 Y37.851 E4.19084
G1 X158.739 Y38.544 E4.22027
G1 X159.267 Y39.357 E4.25251
G1 X159.689 Y40.083 E4.28044
G1 X160.098 Y40.868 E4.30988
G1 X160.436 Y41.686 E4.33932
G1 X160.798 Y42.955 E4.38321
G1 X160.885 Y43.361 E4.39702
G1 X161.032 Y44.234 E4.42647
G1 X161.103 Y45.464 E4.46744
G1 X161.069 Y52.105 E4.68833
G1 X161.024 Y52.989 E4.71777
G1 X160.9 Y53.866 E4.74723
G1 X160.568 Y55.147 E4.79124
G1 X160.437 Y55.541 E4.80505
G1 X160.121 Y56.367 E4.83447
G1 X159.73 Y57.162 E4.86393
G1 X159.248 Y57.921 E4.89384
G1 X159.295 Y58.111 E4.90035
G1 X159.388 Y58.536 E4.91482
G1 X159.538 Y59.409 E4.94428
G1 X159.615 Y60.643 E4.9854
G1 X159.605 Y68.78 E5.25604
G1 X159.564 Y69.664 E5.28547
G1 X159.443 Y70.541 E5.31492
G1 X159.244 Y71.404 E5.34438
G1 X159.002 Y72.153 E5.37056
G1 X158.857 Y72.547 E5.38452
G1 X158.514 Y73.363 E5.41396
G1 X158.099 Y74.145 E5.4434
G1 X157.615 Y74.886 E5.47284
G1 X157.066 Y75.58 E5.50227
G1 X156.148 Y76.507 E5.54567
G1 X155.728 Y76.878 E5.5643
G1 X155.039 Y77.433 E5.59373
G1 X154.302 Y77.924 E5.62319
G1 X153.524 Y78.347 E5.65264
G1 X152.712 Y78.698 E5.68206
G1 X151.87 Y78.973 E5.71152
G1 X151.359 Y79.101 E5.72904
G1 X150.93 Y79.196 E5.74366
G1 X150.058 Y79.348 E5.7731
G1 X148.811 Y79.428 E5.81466
G1 X134.932 Y79.428 E6.27628
G1 X134.048 Y79.388 E6.30571
G1 X133.171 Y79.268 E6.33515
G1 X132.308 Y79.07 E6.3646
G1 X131.467 Y78.795 E6.39403
G1 X130.654 Y78.445 E6.42347
G1 X129.875 Y78.023 E6.45293
G1 X129.139 Y77.532 E6.48236
G1 X128.449 Y76.977 E6.51181
G1 X128.002 Y76.558 E6.53219
G1 X127.885 Y76.441 E6.53769
G1 X127.615 Y76.145 E6.55102
G1 X127.615 Y78.511 E6.62971
G1 X127.575 Y79.395 E6.65915
G1 X127.455 Y80.272 E6.68859
G1 X127.257 Y81.135 E6.71804
G1 X126.982 Y81.976 E6.74746
G1 X126.632 Y82.789 E6.7769
G1 X126.21 Y83.568 E6.80637
G1 X125.719 Y84.304 E6.8358
G1 X125.164 Y84.994 E6.86525
G1 X124.745 Y85.441 E6.88563
G1 X124.628 Y85.558 E6.89113
G1 X123.974 Y86.155 E6.92058
G1 X123.269 Y86.69 E6.95002
G1 X122.519 Y87.16 E6.97946
G1 X121.729 Y87.56 E7.00891
G1 X120.907 Y87.888 E7.03835
G1 X120.058 Y88.139 E7.06779
G1 X119.19 Y88.314 E7.09724
G1 X118.31 Y88.409 E7.12668
G1 X117.684 Y88.428 E7.14751
G1 X97.268 Y88.399 E7.82655
G1 X96.384 Y88.358 E7.85598
G1 X95.74 Y88.277 E7.87757
G1 X93.662 Y87.946 E7.94756
G1 X92.795 Y87.767 E7.977
G1 X92.254 Y87.614 E7.9957
G1 X90.749 Y87.139 E8.04819
G1 X89.594 Y86.692 E8.08939
G1 X88.161 Y86.031 E8.14187
G1 X87.375 Y85.624 E8.17131
G1 X86.894 Y85.329 E8.19008
G1 X85.124 Y84.169 E8.26047
G1 X84.407 Y83.65 E8.28991
G1 X83.823 Y83.149 E8.3155
G1 X82.286 Y81.72 E8.3853
G1 X81.666 Y81.089 E8.41472
G1 X81.186 Y80.511 E8.43971
G1 X79.903 Y78.84 E8.50978
G1 X79.396 Y78.114 E8.53923
G1 X78.914 Y77.261 E8.57182
G1 X77.741 Y74.919 E8.65894
G1 X77.38 Y74.11 E8.68841
G1 X77.071 Y73.192 E8.72062
G1 X76.493 Y71.144 E8.7914
G1 X76.292 Y70.282 E8.82084
G1 X76.202 Y69.708 E8.84016
G1 X76.005 Y68.146 E8.89253
G1 X75.93 Y67.123 E8.92664
G1 X75.908 Y66.059 E8.96204
G1 X75.941 Y65.033 E8.99618
G1 X76.073 Y63.467 E9.04845
G1 X76.187 Y62.589 E9.0779
G1 X76.301 Y62.034 E9.09674
G1 X76.786 Y59.984 E9.16681
G1 X77.029 Y59.132 E9.19628
G1 X77.298 Y58.421 E9.22156
G1 X78.121 Y56.476 E9.29181
G1 X78.502 Y55.677 E9.32125
G1 X78.89 Y55.015 E9.34677
G1 X79.587 Y53.925 E9.3898
G0 F810 X80.018 Y53.251
M204 S5000
M205 X30 Y30
G0 F7200 X80.355 Y53.467
M204 S500
M205 X20 Y20
G1 F6000 E9.41641
G1 F900 X80.855 Y52.759 E9.44524
G1 X81.319 Y52.207 E9.46922
G1 X82.742 Y50.642 E9.53957
G1 X83.354 Y50.028 E9.56841
G1 X83.904 Y49.563 E9.59236
G1 X85.564 Y48.264 E9.66247
G1 X86.271 Y47.762 E9.69131
G1 X86.705 Y47.499 E9.70819
G1 X88.071 Y46.721 E9.76047
G1 X89.146 Y46.196 E9.80026
G1 X90.609 Y45.594 E9.85288
G1 X91.725 Y45.215 E9.89208
G1 X93.251 Y44.801 E9.94467
G1 X94.433 Y44.56 E9.98479
G1 X95.999 Y44.345 E10.03737
G1 X97.264 Y44.258 E10.07954
G1 X117.684 Y44.228 E10.75871
G1 X118.55 Y44.267 E10.78755
G1 X119.409 Y44.385 E10.81639
G1 X120.253 Y44.582 E10.84521
G1 X121.076 Y44.856 E10.87406
G1 X121.87 Y45.204 E10.9029
G1 X122.628 Y45.625 E10.93173
G1 X122.993 Y45.874 E10.94643
G1 X122.989 Y45.869 E10.94664
G1 X122.487 Y45.163 E10.97546
G1 X122.051 Y44.413 E11.00431
G1 X121.687 Y43.626 E11.03315
G1 X121.397 Y42.809 E11.06198
G1 X121.183 Y41.969 E11.09081
G1 X121.048 Y41.113 E11.11964
G1 X120.992 Y40.248 E11.14847
G1 X121.016 Y39.381 E11.17732
G1 X121.1 Y38.679 E11.20083
G1 X120.436 Y38.316 E11.226
G1 X119.625 Y37.761 E11.25869
G1 X118.993 Y37.279 E11.28512
G1 X118.328 Y36.722 E11.31397
G1 X117.718 Y36.107 E11.34278
G1 X117.167 Y35.437 E11.37164
G1 X116.68 Y34.72 E11.40046
G1 X116.379 Y34.191 E11.42071
G1 X116.006 Y33.484 E11.44729
G1 X115.637 Y32.7 E11.47611
G1 X115.342 Y31.884 E11.50497
G1 X115.124 Y31.045 E11.53381
G1 X115.016 Y30.435 E11.55441
G1 X114.946 Y29.948 E11.57077
G1 X114.862 Y29.085 E11.59961
G1 X114.858 Y28.219 E11.62842
G1 X114.964 Y27.155 E11.66398
G1 X115.057 Y26.562 E11.68394
G1 X115.23 Y25.712 E11.7128
G1 X115.481 Y24.882 E11.74164
G1 X115.808 Y24.079 E11.77047
G1 X116.274 Y23.195 E11.80371
G1 X116.693 Y22.494 E11.83087
G1 X117.172 Y21.771 E11.85972
G1 X117.715 Y21.096 E11.88853
G1 X118.318 Y20.473 E11.91737
G1 X119.084 Y19.825 E11.95074
G1 X119.559 Y19.465 E11.97056
G1 X120.274 Y18.974 E11.99941
G1 X121.03 Y18.551 E12.02823
G1 X121.822 Y18.199 E12.05705
G1 X122.232 Y18.05 E12.07156
G1 X122.804 Y17.857 E12.09164
G1 X123.637 Y17.618 E12.12046
G1 X124.489 Y17.457 E12.1493
G1 X125.545 Y17.368 E12.18455
G1 X126.044 Y17.354 E12.20115
G1 X126.911 Y17.369 E12.22999
G1 X127.773 Y17.465 E12.25884
G1 X128.622 Y17.639 E12.28767
G1 X129.309 Y17.842 E12.31149
G1 X130.072 Y18.099 E12.33827
G1 X130.88 Y18.413 E12.3671
G1 X131.655 Y18.801 E12.39593
G1 X132.392 Y19.258 E12.42477
G1 X133.083 Y19.781 E12.4536
G1 X133.546 Y20.192 E12.47419
G1 X134.127 Y20.744 E12.50084
G1 X134.727 Y21.37 E12.52968
G1 X135.267 Y22.048 E12.55851
G1 X135.742 Y22.773 E12.58734
G1 X135.974 Y23.188 E12.60315
G1 X136.161 Y23.544 E12.61653
G1 X136.528 Y24.329 E12.64535
G1 X136.822 Y25.145 E12.6742
G1 X136.961 Y25.644 E12.69143
G1 X137.079 Y26.118 E12.70767
G1 X137.249 Y26.968 E12.7365
G1 X137.34 Y27.83 E12.76533
G1 X137.352 Y28.697 E12.79417
G1 X137.311 Y29.322 E12.815
G1 X137.232 Y30.114 E12.84148
G1 X137.106 Y30.972 E12.87032
G1 X136.973 Y31.52 E12.88908
G1 X137.101 Y31.597 E12.89404
G1 X137.798 Y32.113 E12.92289
G1 X138.445 Y32.69 E12.95172
G1 X139.036 Y33.324 E12.98055
G1 X139.565 Y34.011 E13.00939
G1 X139.799 Y34.38 E13.02392
G1 X140.124 Y34.319 E13.03492
G1 X140.987 Y34.239 E13.06375
G1 X141.445 Y34.228 E13.07898
G1 X149.53 Y34.239 E13.34789
G1 X150.396 Y34.28 E13.37673
G1 X151.254 Y34.401 E13.40555
G1 X152.387 Y34.688 E13.44442
G1 X153.176 Y34.941 E13.47198
G1 X153.989 Y35.243 E13.50083
G1 X154.77 Y35.62 E13.52967
G1 X155.513 Y36.066 E13.55849
G1 X156.174 Y36.549 E13.58572
G1 X156.662 Y36.939 E13.6065
G1 X157.314 Y37.511 E13.63535
G1 X157.91 Y38.14 E13.66417
G1 X158.446 Y38.822 E13.69302
G1 X158.921 Y39.558 E13.72215
G1 X159.343 Y40.284 E13.75008
G1 X159.743 Y41.053 E13.77891
G1 X160.072 Y41.855 E13.80774
G1 X160.407 Y43.038 E13.84864
G1 X160.494 Y43.444 E13.86245
G1 X160.637 Y44.3 E13.89131
G1 X160.703 Y45.462 E13.93002
G1 X160.669 Y52.103 E14.15091
G1 X160.624 Y52.969 E14.17975
G1 X160.5 Y53.827 E14.20858
G1 X160.189 Y55.021 E14.24962
G1 X160.058 Y55.415 E14.26343
G1 X159.747 Y56.224 E14.29226
G1 X159.362 Y57.001 E14.3211
G1 X158.82 Y57.85 E14.3546
G1 X158.905 Y58.197 E14.36648
G1 X158.998 Y58.622 E14.38095
G1 X159.144 Y59.476 E14.40977
G1 X159.215 Y60.643 E14.44866
G1 X159.205 Y68.78 E14.71929
G1 X159.164 Y69.646 E14.74813
G1 X159.043 Y70.504 E14.77695
G1 X158.844 Y71.348 E14.80579
G1 X158.627 Y72.015 E14.82912
G1 X158.482 Y72.409 E14.84308
G1 X158.145 Y73.207 E14.87189
G1 X157.736 Y73.972 E14.90075
G1 X157.259 Y74.696 E14.92958
G1 X156.717 Y75.372 E14.9584
G1 X155.883 Y76.207 E14.99765
G1 X155.463 Y76.578 E15.01629
G1 X154.788 Y77.121 E15.04511
G1 X154.065 Y77.6 E15.07395
G1 X153.301 Y78.01 E15.10279
G1 X152.503 Y78.349 E15.13163
G1 X151.272 Y78.711 E15.1743
G1 X150.843 Y78.806 E15.18892
G1 X149.989 Y78.954 E15.21775
G1 X148.811 Y79.028 E15.257
G1 X134.932 Y79.028 E15.71862
G1 X134.066 Y78.988 E15.74746
G1 X133.207 Y78.868 E15.7763
G1 X132.363 Y78.67 E15.80514
G1 X131.541 Y78.395 E15.83397
G1 X130.748 Y78.045 E15.8628
G1 X129.99 Y77.624 E15.89164
G1 X129.275 Y77.135 E15.92045
G1 X128.607 Y76.582 E15.94929
G1 X128.285 Y76.275 E15.96409
G1 X128.168 Y76.158 E15.96959
G1 X127.584 Y75.517 E15.99843
G1 X127.215 Y75.029 E16.01878
G1 X127.215 Y78.511 E16.13459
G1 X127.175 Y79.377 E16.16343
G1 X127.055 Y80.236 E16.19227
G1 X126.857 Y81.08 E16.22111
G1 X126.582 Y81.902 E16.24994
G1 X126.232 Y82.695 E16.27877
G1 X125.811 Y83.453 E16.30761
G1 X125.322 Y84.168 E16.33642
G1 X124.769 Y84.836 E16.36526
G1 X124.462 Y85.158 E16.38006
G1 X124.345 Y85.275 E16.38556
G1 X123.704 Y85.859 E16.4144
G1 X123.012 Y86.382 E16.44325
G1 X122.275 Y86.838 E16.47208
G1 X121.5 Y87.225 E16.50089
G1 X120.691 Y87.539 E16.52975
G1 X119.858 Y87.777 E16.55857
G1 X119.006 Y87.937 E16.5874
G1 X118.143 Y88.017 E16.61623
G1 X117.685 Y88.028 E16.63146
G1 X97.269 Y87.999 E17.3105
G1 X96.403 Y87.958 E17.33934
G1 X95.803 Y87.882 E17.35945
G1 X93.725 Y87.551 E17.42944
G1 X92.876 Y87.375 E17.45828
G1 X92.375 Y87.232 E17.47561
G1 X90.87 Y86.757 E17.5281
G1 X89.762 Y86.329 E17.5676
G1 X88.329 Y85.668 E17.62009
G1 X87.559 Y85.269 E17.64894
G1 X87.113 Y84.994 E17.66636
G1 X85.343 Y83.834 E17.73675
G1 X84.641 Y83.326 E17.76557
G1 X84.095 Y82.856 E17.78953
G1 X82.558 Y81.427 E17.85933
G1 X81.951 Y80.808 E17.88817
G1 X81.503 Y80.268 E17.91151
G1 X80.22 Y78.597 E17.98158
G1 X79.724 Y77.885 E18.01044
G1 X79.271 Y77.082 E18.0411
G1 X78.098 Y74.74 E18.12822
G1 X77.746 Y73.947 E18.15708
G1 X77.456 Y73.083 E18.18739
G1 X76.878 Y71.035 E18.25817
G1 X76.682 Y70.191 E18.28699
G1 X76.599 Y69.658 E18.30493
G1 X76.402 Y68.096 E18.35729
G1 X76.33 Y67.114 E18.39004
G1 X76.308 Y66.05 E18.42544
G1 X76.339 Y65.066 E18.45818
G1 X76.471 Y63.5 E18.51045
G1 X76.584 Y62.641 E18.53927
G1 X76.691 Y62.126 E18.55676
G1 X77.176 Y60.076 E18.62683
G1 X77.414 Y59.242 E18.65567
G1 X77.666 Y58.577 E18.67933
G1 X78.489 Y56.632 E18.74957
G1 X78.863 Y55.85 E18.7784
G1 X79.227 Y55.231 E18.80229
G1 X79.924 Y54.141 E18.84532
G0 F810 X80.355 Y53.467
M204 S5000
M205 X30 Y30
G0 F7200 X80.692 Y53.682
M204 S500
M205 X20 Y20
G1 F6000 E18.87193
G1 F900 X81.182 Y52.99 E18.90013
G1 X81.615 Y52.476 E18.92248
G1 X83.038 Y50.911 E18.99283
G1 X83.638 Y50.311 E19.02106
G1 X84.151 Y49.878 E19.04338
G1 X85.811 Y48.579 E19.11349
G1 X86.503 Y48.088 E19.14171
G1 X86.903 Y47.846 E19.15726
G1 X88.269 Y47.068 E19.20955
G1 X89.298 Y46.566 E19.24763
G1 X90.761 Y45.964 E19.30024
G1 X91.83 Y45.601 E19.33779
G1 X93.356 Y45.187 E19.39038
G1 X94.488 Y44.957 E19.4288
G1 X96.054 Y44.742 E19.48138
G1 X97.265 Y44.658 E19.52175
G1 X117.685 Y44.628 E20.20092
G1 X118.532 Y44.667 E20.22913
G1 X119.372 Y44.785 E20.25734
G1 X120.197 Y44.982 E20.28555
G1 X121 Y45.256 E20.31377
G1 X121.774 Y45.604 E20.342
G1 X122.511 Y46.023 E20.37019
G1 X123.206 Y46.51 E20.39842
G1 X124.062 Y47.264 E20.43636
G1 X124.179 Y47.381 E20.44186
G1 X124.75 Y48.008 E20.47007
G1 X125.259 Y48.687 E20.49829
G1 X125.702 Y49.41 E20.52649
G1 X126.075 Y50.172 E20.55471
G1 X126.375 Y50.966 E20.58294
G1 X126.599 Y51.784 E20.61115
G1 X126.744 Y52.62 E20.63937
G1 X126.815 Y53.745 E20.67686
G1 X126.815 Y55.625 E20.73939
G1 X127.217 Y54.921 E20.76636
G1 X127.705 Y54.227 E20.79458
G1 X128.451 Y53.381 E20.83209
G1 X128.568 Y53.264 E20.83759
G1 X129.195 Y52.693 E20.8658
G1 X129.874 Y52.184 E20.89402
G1 X130.597 Y51.741 E20.92223
G1 X131.359 Y51.368 E20.95044
G1 X132.153 Y51.068 E20.97867
G1 X132.315 Y51.024 E20.98426
G1 X132.315 Y49.312 E21.0412
G1 X132.163 Y49.332 E21.0463
G1 X131.406 Y49.364 E21.0715
G1 X130.788 Y49.364 E21.09205
G1 X129.941 Y49.324 E21.12026
G1 X129.101 Y49.204 E21.14848
G1 X128.276 Y49.006 E21.1767
G1 X127.473 Y48.731 E21.20493
G1 X126.7 Y48.382 E21.23314
G1 X125.964 Y47.962 E21.26132
G1 X125.488 Y47.638 E21.28047
G1 X125.09 Y47.348 E21.29685
