;FLAVOR:Marlin
;TIME:2315
;Filament used: 1.26836m
;Layer height: 0.2
;Generated with Cura_SteamEngine 3.6.0
M140 S70
M105
M190 S70
M104 S215
M105
M109 S215
M82 ;absolute extrusion mode
G28 ; home all axes
M117 Purge extruder
G92 E0 ; reset extruder
G1 Z1.0 F3000 ; move z up little to prevent scratching of surface
G1 X0.1 Y20 Z0.3 F5000.0 ; move to start-line position G1 X0.1 Y200.0 Z0.3 F1500.0 E15 ; draw 1st line
G1 X0.4 Y200.0 Z0.3 F5000.0 ; move to side a little
G1 X0.4 Y20 Z0.3 F1500.0 E30 ; draw 2nd line
G92 E0 ; reset extruder
G1 Z1.0 F3000 ; move z up little to prevent scratching of surface
M117 All systems go!
G92 E0
G1 F6000 E-5
;LAYER_COUNT:11
;LAYER:0
M107
M204 S5000
M205 X30 Y30
G0 F7200 X86.429 Y38.922 Z0.2
M204 S500
M205 X20 Y20
;TYPE:SKIRT
G1 F6000 E0
G1 F900 X87.001 Y37.642 E0.04663
G1 X87.34 Y36.956 E0.07208
G1 X88.024 Y35.699 E0.11968
G1 X88.396 Y35.072 E0.14393
G1 X89.177 Y33.861 E0.19185
G1 X89.789 Y33.014 E0.22661
G1 X91.616 Y30.752 E0.32332
G1 X92.376 Y29.915 E0.36092
G1 X94.036 Y28.286 E0.43828
G1 X94.589 Y27.783 E0.46314
G1 X95.808 Y26.757 E0.51613
G1 X96.278 Y26.386 E0.53605
G1 X97.876 Y25.2 E0.60224
G1 X98.44 Y24.811 E0.62503
G1 X100.592 Y23.436 E0.70997
G1 X101.274 Y23.038 E0.73623
G1 X104.318 Y21.422 E0.85086
G1 X105.011 Y21.088 E0.87644
G1 X108.14 Y19.73 E0.98989
G1 X108.776 Y19.48 E1.01262
G1 X112.157 Y18.285 E1.13189
G1 X112.611 Y18.137 E1.14777
G1 X114.27 Y17.64 E1.20537
G1 X114.696 Y17.523 E1.22007
G1 X118.055 Y16.68 E1.33525
G1 X118.475 Y16.584 E1.34958
G1 X120.311 Y16.208 E1.41192
G1 X120.738 Y16.131 E1.42635
G1 X124.147 Y15.589 E1.54115
G1 X124.69 Y15.518 E1.55937
G1 X128.136 Y15.166 E1.67458
G1 X128.694 Y15.125 E1.69319
G1 X132.224 Y14.967 E1.81071
G1 X132.705 Y14.957 E1.82672
G1 X135.238 Y14.968 E1.91096
G1 X136.122 Y15.012 E1.9404
G1 X136.998 Y15.135 E1.96982
G1 X137.86 Y15.337 E1.99927
G1 X138.7 Y15.616 E2.02871
G1 X139.512 Y15.97 E2.05817
G1 X140.288 Y16.395 E2.0876
G1 X141.023 Y16.889 E2.11705
G1 X141.71 Y17.447 E2.14649
G1 X142.155 Y17.868 E2.16687
G1 X142.27 Y17.984 E2.1723
G1 X142.864 Y18.641 E2.20176
G1 X143.396 Y19.348 E2.23119
G1 X143.863 Y20.1 E2.26063
G1 X144.26 Y20.891 E2.29007
G1 X144.584 Y21.715 E2.31951
G1 X144.832 Y22.565 E2.34896
G1 X145.002 Y23.433 E2.37838
G1 X145.093 Y24.314 E2.40784
G1 X145.11 Y24.884 E2.42681
G1 X145.11 Y72.551 E4.01222
G1 X145.07 Y73.435 E4.04165
G1 X144.95 Y74.312 E4.07109
G1 X144.752 Y75.175 E4.10054
G1 X144.477 Y76.016 E4.12997
G1 X144.127 Y76.829 E4.15941
G1 X143.705 Y77.608 E4.18888
G1 X143.214 Y78.344 E4.2183
G1 X142.42 Y79.296 E4.25953
G1 X142.309 Y79.413 E4.2649
G1 X141.671 Y80.027 E4.29435
G1 X140.98 Y80.581 E4.32381
G1 X140.243 Y81.07 E4.35322
G1 X139.464 Y81.491 E4.38268
G1 X138.651 Y81.84 E4.4121
G1 X137.809 Y82.114 E4.44155
G1 X136.946 Y82.311 E4.47099
G1 X136.068 Y82.429 E4.50046
G1 X135.424 Y82.465 E4.52191
G1 X132.423 Y82.534 E4.62175
G1 X131.719 Y82.525 E4.64517
G1 X128.492 Y82.367 E4.75263
G1 X127.842 Y82.314 E4.77432
G1 X124.601 Y81.938 E4.88284
G1 X123.984 Y81.846 E4.90359
G1 X120.511 Y81.217 E5.02098
G1 X119.94 Y81.096 E5.04039
G1 X116.542 Y80.269 E5.15671
G1 X115.981 Y80.115 E5.17606
G1 X112.407 Y79.017 E5.30041
G1 X111.848 Y78.827 E5.32005
G1 X108.446 Y77.553 E5.44087
G1 X107.841 Y77.303 E5.46265
G1 X104.406 Y75.748 E5.58806
G1 X103.832 Y75.465 E5.60934
G1 X101.476 Y74.207 E5.69818
G1 X100.978 Y73.922 E5.71726
G1 X99.095 Y72.77 E5.79068
G1 X98.658 Y72.487 E5.808
G1 X97.264 Y71.529 E5.86425
G1 X96.742 Y71.144 E5.88583
G1 X94.756 Y69.576 E5.96999
G1 X94.14 Y69.046 E5.99702
G1 X92.671 Y67.674 E6.06387
G1 X91.963 Y66.94 E6.09779
G1 X90.178 Y64.886 E6.1883
G1 X89.544 Y64.074 E6.22256
G1 X88.714 Y62.887 E6.27074
G1 X88.241 Y62.142 E6.30009
G1 X87.356 Y60.597 E6.35931
G1 X86.879 Y59.648 E6.39463
G1 X86.186 Y58.061 E6.45223
G1 X85.837 Y57.136 E6.48511
G1 X85.395 Y55.76 E6.53318
G1 X85.158 Y54.887 E6.56327
G1 X84.874 Y53.608 E6.60685
G1 X84.724 Y52.759 E6.63552
G1 X84.548 Y51.418 E6.68051
G1 X84.473 Y50.54 E6.70981
G1 X84.419 Y49.209 E6.75412
G1 X84.421 Y48.372 E6.78196
G1 X84.478 Y47.103 E6.82421
G1 X84.578 Y46.077 E6.85849
G1 X84.881 Y44.074 E6.92587
G1 X85.092 Y43.052 E6.96058
G1 X85.438 Y41.734 E7.0059
G1 X85.675 Y40.964 E7.0327
G1 X86.133 Y39.665 E7.07851
G0 F810 X86.134 Y39.662
G0 X86.429 Y38.922
M204 S5000
M205 X30 Y30
G0 F7200 X86.794 Y39.085
M204 S500
M205 X20 Y20
G1 F6000 E7.10512
G1 F900 X87.366 Y37.805 E7.15175
G1 X87.691 Y37.147 E7.17616
G1 X88.375 Y35.89 E7.22376
G1 X88.732 Y35.288 E7.24703
G1 X89.513 Y34.077 E7.29496
G1 X90.1 Y33.266 E7.32826
G1 X91.927 Y31.004 E7.42497
G1 X92.656 Y30.201 E7.46104
G1 X94.316 Y28.572 E7.5384
G1 X94.847 Y28.089 E7.56227
G1 X96.066 Y27.063 E7.61527
G1 X96.517 Y26.707 E7.63438
G1 X98.115 Y25.521 E7.70057
G1 X98.656 Y25.148 E7.72242
G1 X100.808 Y23.773 E7.80736
G1 X101.461 Y23.391 E7.83252
G1 X104.505 Y21.775 E7.94715
G1 X105.171 Y21.455 E7.97172
G1 X108.3 Y20.097 E8.08517
G1 X108.91 Y19.857 E8.10698
G1 X112.291 Y18.662 E8.22625
G1 X112.725 Y18.52 E8.24143
G1 X114.384 Y18.023 E8.29904
G1 X114.794 Y17.911 E8.31317
G1 X118.153 Y17.068 E8.42836
G1 X118.555 Y16.976 E8.44207
G1 X120.391 Y16.6 E8.50441
G1 X120.801 Y16.526 E8.51826
G1 X124.21 Y15.984 E8.63307
G1 X124.731 Y15.916 E8.65055
G1 X128.177 Y15.564 E8.76576
G1 X128.712 Y15.524 E8.7836
G1 X132.242 Y15.366 E8.90113
G1 X132.703 Y15.357 E8.91646
G1 X135.236 Y15.368 E9.00071
G1 X136.102 Y15.412 E9.02955
G1 X136.96 Y15.535 E9.05838
G1 X137.803 Y15.737 E9.08721
G1 X138.624 Y16.016 E9.11605
G1 X139.416 Y16.369 E9.14489
G1 X140.171 Y16.793 E9.17369
G1 X140.885 Y17.286 E9.20255
G1 X141.55 Y17.842 E9.23138
G1 X141.871 Y18.15 E9.24618
G1 X141.986 Y18.266 E9.25161
G1 X142.567 Y18.909 E9.28044
G1 X143.086 Y19.603 E9.30926
G1 X143.54 Y20.342 E9.33811
G1 X143.923 Y21.12 E9.36695
G1 X144.234 Y21.929 E9.39578
G1 X144.468 Y22.764 E9.42462
G1 X144.624 Y23.617 E9.45346
G1 X144.71 Y24.884 E9.4957
G1 X144.71 Y72.551 E11.08111
G1 X144.67 Y73.417 E11.10994
G1 X144.55 Y74.276 E11.13879
G1 X144.352 Y75.12 E11.16762
G1 X144.077 Y75.942 E11.19645
G1 X143.727 Y76.735 E11.22528
G1 X143.306 Y77.493 E11.25412
G1 X142.817 Y78.208 E11.28293
G1 X142.129 Y79.021 E11.31836
G1 X142.018 Y79.138 E11.32372
G1 X141.393 Y79.738 E11.35254
G1 X140.716 Y80.279 E11.38136
G1 X139.991 Y80.755 E11.41021
G1 X139.225 Y81.162 E11.43906
G1 X138.426 Y81.497 E11.46787
G1 X137.599 Y81.757 E11.49671
G1 X136.751 Y81.939 E11.52555
G1 X135.89 Y82.043 E11.5544
G1 X135.415 Y82.066 E11.57021
G1 X132.414 Y82.135 E11.67005
G1 X131.738 Y82.126 E11.69254
G1 X128.511 Y81.968 E11.8
G1 X127.888 Y81.916 E11.82079
G1 X124.647 Y81.54 E11.92931
G1 X124.055 Y81.453 E11.94921
G1 X120.582 Y80.824 E12.0666
G1 X120.034 Y80.707 E12.08524
G1 X116.636 Y79.88 E12.20156
G1 X116.098 Y79.733 E12.22011
G1 X112.524 Y78.635 E12.34446
G1 X111.988 Y78.452 E12.3633
G1 X108.586 Y77.178 E12.48413
G1 X108.006 Y76.938 E12.505
G1 X104.571 Y75.383 E12.63041
G1 X104.02 Y75.112 E12.65084
G1 X101.664 Y73.854 E12.73967
G1 X101.186 Y73.58 E12.75799
G1 X99.303 Y72.428 E12.83141
G1 X98.885 Y72.157 E12.84798
G1 X97.491 Y71.199 E12.90424
G1 X96.99 Y70.83 E12.92494
G1 X95.004 Y69.262 E13.0091
G1 X94.413 Y68.754 E13.03502
G1 X92.944 Y67.382 E13.10187
G1 X92.265 Y66.678 E13.1344
G1 X90.48 Y64.624 E13.22491
G1 X89.871 Y63.845 E13.2578
G1 X89.041 Y62.658 E13.30597
G1 X88.588 Y61.943 E13.33413
G1 X87.703 Y60.398 E13.39335
G1 X87.246 Y59.488 E13.42721
G1 X86.553 Y57.901 E13.48481
G1 X86.217 Y57.014 E13.51636
G1 X85.775 Y55.638 E13.56443
G1 X85.549 Y54.801 E13.59326
G1 X85.265 Y53.522 E13.63684
G1 X85.121 Y52.707 E13.66437
G1 X84.945 Y51.366 E13.70935
G1 X84.873 Y50.524 E13.73746
G1 X84.819 Y49.193 E13.78176
G1 X84.82 Y48.39 E13.80847
G1 X84.877 Y47.121 E13.85072
G1 X84.974 Y46.137 E13.88361
G1 X85.277 Y44.134 E13.95099
G1 X85.479 Y43.153 E13.9843
G1 X85.825 Y41.835 E14.02962
G1 X86.052 Y41.097 E14.0553
G1 X86.5 Y39.828 E14.10006
G0 F810 X86.511 Y39.795
G0 X86.794 Y39.085
M204 S5000
M205 X30 Y30
G0 F7200 X87.159 Y39.248
M204 S500
M205 X20 Y20
G1 F6000 E14.12667
G1 F900 X87.731 Y37.968 E14.1733
G1 X88.043 Y37.338 E14.19668
G1 X88.727 Y36.081 E14.24428
G1 X89.069 Y35.505 E14.26656
G1 X89.85 Y34.294 E14.31449
G1 X90.412 Y33.517 E14.34638
G1 X92.239 Y31.255 E14.44309
G1 X92.936 Y30.486 E14.47761
G1 X94.596 Y28.857 E14.55497
G1 X95.105 Y28.395 E14.57783
G1 X96.324 Y27.369 E14.63082
G1 X96.755 Y27.028 E14.6491
G1 X98.353 Y25.842 E14.71529
G1 X98.871 Y25.485 E14.73622
G1 X101.023 Y24.11 E14.82116
G1 X101.649 Y23.745 E14.84526
G1 X104.693 Y22.129 E14.95988
G1 X105.33 Y21.822 E14.9834
G1 X108.459 Y20.464 E15.09685
G1 X109.043 Y20.234 E15.11773
G1 X112.424 Y19.039 E15.237
G1 X112.84 Y18.904 E15.25154
G1 X114.499 Y18.407 E15.30915
G1 X114.891 Y18.299 E15.32267
G1 X118.25 Y17.456 E15.43785
G1 X118.635 Y17.368 E15.45099
G1 X120.471 Y16.992 E15.51332
G1 X120.864 Y16.921 E15.52661
G1 X124.273 Y16.379 E15.64141
G1 X124.771 Y16.314 E15.65812
G1 X128.217 Y15.962 E15.77333
G1 X128.73 Y15.924 E15.79044
G1 X132.26 Y15.766 E15.90796
G1 X132.701 Y15.757 E15.92263
G1 X135.234 Y15.768 E16.00688
G1 X136.081 Y15.812 E16.03509
G1 X136.921 Y15.935 E16.06333
G1 X137.745 Y16.137 E16.09155
G1 X138.546 Y16.415 E16.11975
G1 X139.317 Y16.768 E16.14795
G1 X140.052 Y17.191 E16.17616
G1 X140.744 Y17.682 E16.20438
G1 X141.586 Y18.432 E16.24188
G1 X141.701 Y18.548 E16.24731
G1 X142.27 Y19.178 E16.27555
G1 X142.776 Y19.858 E16.30374
G1 X143.216 Y20.583 E16.33195
G1 X143.586 Y21.347 E16.36018
G1 X143.882 Y22.142 E16.3884
G1 X144.102 Y22.961 E16.4166
G1 X144.244 Y23.797 E16.44481
G1 X144.31 Y24.884 E16.48103
G1 X144.31 Y72.551 E18.06644
G1 X144.27 Y73.398 E18.09464
G1 X144.15 Y74.238 E18.12286
G1 X143.952 Y75.063 E18.15108
G1 X143.677 Y75.866 E18.17931
G1 X143.328 Y76.639 E18.20752
G1 X142.908 Y77.375 E18.23571
G1 X142.42 Y78.069 E18.26392
G1 X141.839 Y78.745 E18.29357
G1 X141.728 Y78.862 E18.29893
G1 X141.116 Y79.45 E18.32716
G1 X140.451 Y79.977 E18.35538
G1 X139.74 Y80.439 E18.38359
G1 X138.988 Y80.832 E18.41181
G1 X138.203 Y81.152 E18.44
G1 X137.39 Y81.397 E18.46824
G1 X136.559 Y81.565 E18.49644
G1 X135.406 Y81.666 E18.53494
G1 X132.405 Y81.735 E18.63478
G1 X131.758 Y81.726 E18.6563
G1 X128.531 Y81.568 E18.76376
G1 X127.934 Y81.519 E18.78368
G1 X124.693 Y81.143 E18.8922
G1 X124.126 Y81.059 E18.91126
G1 X120.653 Y80.43 E19.02866
G1 X120.129 Y80.319 E19.04647
G1 X116.731 Y79.492 E19.16279
G1 X116.216 Y79.35 E19.18056
G1 X112.642 Y78.252 E19.30491
G1 X112.129 Y78.077 E19.32294
G1 X108.727 Y76.803 E19.44376
G1 X108.171 Y76.574 E19.46376
G1 X104.736 Y75.019 E19.58917
G1 X104.209 Y74.759 E19.60872
G1 X101.853 Y73.501 E19.69755
G1 X101.395 Y73.239 E19.7151
G1 X99.512 Y72.087 E19.78852
G1 X99.112 Y71.827 E19.80439
G1 X97.718 Y70.869 E19.86065
G1 X97.238 Y70.516 E19.88046
G1 X95.252 Y68.948 E19.96462
G1 X94.686 Y68.461 E19.98946
G1 X93.217 Y67.089 E20.05631
G1 X92.567 Y66.416 E20.08743
G1 X90.782 Y64.362 E20.17794
G1 X90.199 Y63.615 E20.20946
G1 X89.369 Y62.428 E20.25763
G1 X88.935 Y61.744 E20.28457
G1 X88.05 Y60.199 E20.3438
G1 X87.612 Y59.328 E20.37622
G1 X86.919 Y57.741 E20.43382
G1 X86.598 Y56.891 E20.46404
G1 X86.156 Y55.515 E20.51211
G1 X85.939 Y54.714 E20.53971
G1 X85.655 Y53.435 E20.58329
G1 X85.518 Y52.655 E20.60963
G1 X85.342 Y51.314 E20.65461
G1 X85.272 Y50.508 E20.68152
G1 X85.218 Y49.177 E20.72582
G1 X85.22 Y48.408 E20.7514
G1 X85.277 Y47.139 E20.79365
G1 X85.369 Y46.197 E20.82513
G1 X85.672 Y44.194 E20.89251
G1 X85.866 Y43.255 E20.9244
G1 X86.212 Y41.937 E20.96972
G1 X86.429 Y41.23 E20.99432
G1 X86.866 Y39.992 E21.03799
G0 F810 X86.888 Y39.928
G0 X87.159 Y39.248
M204 S5000
M205 X30 Y30
G0 F7200 X87.524 Y39.411
M204 S500
M205 X20 Y20
G1 F6000 E21.06459
G1 F900 X88.096 Y38.131 E21.11122
G1 X88.394 Y37.529 E21.13357
G1 X89.078 Y36.272 E21.18116
G1 X89.405 Y35.722 E21.20244
G1 X90.186 Y34.511 E21.25037
G1 X90.723 Y33.768 E21.28086
G1 X92.55 Y31.506 E21.37757
G1 X93.216 Y30.772 E21.41054
G1 X94.876 Y29.143 E21.48789
G1 X95.362 Y28.701 E21.50974
G1 X96.581 Y27.675 E21.56274
G1 X96.994 Y27.349 E21.58024
G1 X98.592 Y26.163 E21.64643
G1 X99.087 Y25.822 E21.66642
G1 X101.239 Y24.447 E21.75136
G1 X101.836 Y24.098 E21.77436
G1 X104.88 Y22.482 E21.88898
G1 X105.489 Y22.189 E21.91146
G1 X108.618 Y20.831 E22.02491
G1 X109.176 Y20.612 E22.04485
G1 X112.557 Y19.417 E22.16412
G1 X112.955 Y19.287 E22.17804
G1 X114.614 Y18.79 E22.23564
G1 X114.989 Y18.687 E22.24858
G1 X118.348 Y17.844 E22.36376
G1 X118.716 Y17.76 E22.37632
G1 X120.552 Y17.384 E22.43865
G1 X120.927 Y17.316 E22.45133
G1 X124.336 Y16.774 E22.56614
G1 X124.812 Y16.712 E22.5821
G1 X128.258 Y16.36 E22.69731
G1 X128.747 Y16.324 E22.71362
G1 X132.277 Y16.166 E22.83115
G1 X132.699 Y16.157 E22.84519
G1 X135.232 Y16.168 E22.92943
G1 X136.06 Y16.212 E22.95701
G1 X136.88 Y16.335 E22.98459
G1 X137.685 Y16.536 E23.01219
G1 X138.466 Y16.814 E23.03976
G1 X139.217 Y17.166 E23.06735
G1 X139.93 Y17.589 E23.09492
G1 X140.6 Y18.078 E23.12251
G1 X141.302 Y18.713 E23.15399
G1 X141.417 Y18.829 E23.15942
G1 X141.972 Y19.446 E23.18703
G1 X142.465 Y20.112 E23.21459
G1 X142.891 Y20.824 E23.24218
G1 X143.247 Y21.573 E23.26977
G1 X143.529 Y22.353 E23.29735
G1 X143.735 Y23.156 E23.32492
G1 X143.862 Y23.975 E23.35249
G1 X143.91 Y24.884 E23.38277
G1 X143.91 Y72.551 E24.96818
G1 X143.87 Y73.379 E24.99575
G1 X143.75 Y74.2 E25.02334
G1 X143.552 Y75.005 E25.05092
G1 X143.278 Y75.787 E25.07848
G1 X142.929 Y76.54 E25.10608
G1 X142.509 Y77.255 E25.13366
G1 X142.023 Y77.926 E25.16122
G1 X141.549 Y78.47 E25.18522
G1 X141.438 Y78.587 E25.19058
G1 X140.839 Y79.16 E25.21815
G1 X140.187 Y79.673 E25.24574
G1 X139.49 Y80.121 E25.2733
G1 X138.752 Y80.5 E25.3009
G1 X137.981 Y80.806 E25.32849
G1 X137.184 Y81.036 E25.35608
G1 X136.369 Y81.188 E25.38365
G1 X135.397 Y81.266 E25.41608
G1 X132.396 Y81.335 E25.51592
G1 X131.777 Y81.327 E25.53651
G1 X128.55 Y81.169 E25.64397
G1 X127.98 Y81.122 E25.66299
G1 X124.739 Y80.746 E25.77151
G1 X124.197 Y80.665 E25.78974
G1 X120.724 Y80.036 E25.90713
G1 X120.223 Y79.93 E25.92416
G1 X116.825 Y79.103 E26.04048
G1 X116.333 Y78.968 E26.05745
G1 X112.759 Y77.87 E26.1818
G1 X112.269 Y77.703 E26.19902
G1 X108.867 Y76.429 E26.31985
G1 X108.336 Y76.21 E26.33895
G1 X104.901 Y74.655 E26.46436
G1 X104.397 Y74.406 E26.48306
G1 X102.041 Y73.148 E26.57189
G1 X101.604 Y72.898 E26.58864
G1 X99.721 Y71.746 E26.66206
G1 X99.338 Y71.498 E26.67723
G1 X97.944 Y70.54 E26.73349
G1 X97.486 Y70.202 E26.75242
G1 X95.5 Y68.634 E26.83658
G1 X94.959 Y68.169 E26.86031
G1 X93.49 Y66.797 E26.92716
G1 X92.869 Y66.153 E26.95692
G1 X91.084 Y64.099 E27.04743
G1 X90.527 Y63.386 E27.07752
G1 X89.697 Y62.199 E27.1257
G1 X89.283 Y61.546 E27.15141
G1 X88.398 Y60.001 E27.21063
G1 X87.979 Y59.168 E27.24165
G1 X87.286 Y57.581 E27.29924
G1 X86.979 Y56.769 E27.32812
G1 X86.537 Y55.393 E27.37618
G1 X86.329 Y54.627 E27.40258
G1 X86.045 Y53.348 E27.44616
G1 X85.914 Y52.603 E27.47132
G1 X85.738 Y51.262 E27.5163
G1 X85.672 Y50.492 E27.54201
G1 X85.618 Y49.161 E27.58631
G1 X85.62 Y48.426 E27.61076
G1 X85.677 Y47.157 E27.65301
G1 X85.765 Y46.257 E27.68309
G1 X86.068 Y44.254 E27.75046
G1 X86.253 Y43.356 E27.78096
G1 X86.599 Y42.038 E27.82628
G1 X86.806 Y41.363 E27.84976
G1 X87.232 Y40.156 E27.89234
G0 F810 X87.265 Y40.061
G0 X87.524 Y39.411
M204 S5000
M205 X30 Y30
G0 F7200 X87.89 Y39.574
M204 S500
M205 X20 Y20
G1 F6000 E27.91894
G1 F900 X88.462 Y38.294 E27.96557
G1 X88.745 Y37.721 E27.98683
G1 X89.429 Y36.464 E28.03443
G1 X89.741 Y35.939 E28.05474
G1 X90.522 Y34.728 E28.10267
G1 X91.034 Y34.02 E28.13173
G1 X92.861 Y31.758 E28.22844
G1 X93.497 Y31.057 E28.25992
G1 X95.157 Y29.428 E28.33727
G1 X95.62 Y29.007 E28.35809
G1 X96.839 Y27.981 E28.41108
G1 X97.232 Y27.67 E28.42775
G1 X98.83 Y26.484 E28.49394
G1 X99.302 Y26.159 E28.513
G1 X101.454 Y24.784 E28.59794
G1 X102.024 Y24.451 E28.6199
G1 X105.068 Y22.835 E28.73452
G1 X105.648 Y22.556 E28.75593
G1 X108.777 Y21.198 E28.86938
G1 X109.309 Y20.989 E28.88839
G1 X112.69 Y19.794 E29.00766
G1 X113.07 Y19.67 E29.02095
G1 X114.729 Y19.173 E29.07855
G1 X115.086 Y19.075 E29.09087
G1 X118.445 Y18.232 E29.20605
G1 X118.796 Y18.152 E29.21803
