;FLAVOR:Marlin
;TIME:1157
;Filament used: 0.745142m
;Layer height: 0.2
;Generated with Cura_SteamEngine 3.6.0
M140 S70
M105
M190 S70
M104 S215
M105
M109 S215
M82 ;absolute extrusion mode
G28 ; home all axes
M117 Purge extruder
G92 E0 ; reset extruder
G1 Z1.0 F3000 ; move z up little to prevent scratching of surface
G1 X0.1 Y20 Z0.3 F5000.0 ; move to start-line position G1 X0.1 Y200.0 Z0.3 F1500.0 E15 ; draw 1st line
G1 X0.4 Y200.0 Z0.3 F5000.0 ; move to side a little
G1 X0.4 Y20 Z0.3 F1500.0 E30 ; draw 2nd line
G92 E0 ; reset extruder
G1 Z1.0 F3000 ; move z up little to prevent scratching of surface
M117 All systems go!
G92 E0
G1 F6000 E-5
;LAYER_COUNT:16
;LAYER:0
M107
M204 S5000
M205 X30 Y30
G0 F7200 X83.179 Y35.572 Z0.2
M204 S500
M205 X20 Y20
;TYPE:SKIRT
G1 F6000 E0
G1 F900 X84.565 Y32.694 E0.10624
G1 X85.097 Y31.731 E0.14284
G1 X86.801 Y29.02 E0.24934
G1 X87.437 Y28.123 E0.28591
G1 X89.43 Y25.625 E0.3922
G1 X90.062 Y24.908 E0.42399
G1 X91.729 Y23.192 E0.50356
G1 X92.434 Y22.535 E0.53561
G1 X94.876 Y20.472 E0.64193
G1 X95.756 Y19.809 E0.67858
G1 X98.413 Y18.034 E0.78486
G1 X99.357 Y17.477 E0.82131
G1 X102.197 Y16.009 E0.92765
G1 X103.207 Y15.558 E0.96444
G1 X106.198 Y14.418 E1.0709
G1 X107.11 Y14.12 E1.10281
G1 X109.417 Y13.491 E1.18234
G1 X110.349 Y13.285 E1.21409
G1 X113.501 Y12.748 E1.32043
G1 X114.598 Y12.624 E1.35715
G1 X117.791 Y12.445 E1.46352
G1 X118.889 Y12.445 E1.50004
G1 X122.079 Y12.624 E1.60631
G1 X123.173 Y12.748 E1.64293
G1 X126.324 Y13.284 E1.74923
G1 X127.262 Y13.491 E1.78118
G1 X129.57 Y14.121 E1.86075
G1 X130.482 Y14.418 E1.89266
G1 X133.476 Y15.56 E1.99924
G1 X134.48 Y16.009 E2.03582
G1 X137.315 Y17.473 E2.14194
G1 X138.264 Y18.034 E2.1786
G1 X140.921 Y19.81 E2.2849
G1 X141.798 Y20.469 E2.32139
G1 X144.24 Y22.531 E2.42769
G1 X144.942 Y23.186 E2.45962
G1 X146.613 Y24.904 E2.53934
G1 X147.25 Y25.627 E2.57139
G1 X149.243 Y28.126 E2.6777
G1 X149.879 Y29.023 E2.71427
G1 X151.582 Y31.734 E2.82075
G1 X152.115 Y32.698 E2.85739
G1 X153.498 Y35.572 E2.96347
G1 X153.915 Y36.578 E2.99969
G1 X154.973 Y39.595 E3.10603
G1 X155.249 Y40.529 E3.13842
G1 X155.814 Y42.859 E3.21817
G1 X155.994 Y43.797 E3.24993
G1 X156.441 Y46.961 E3.35621
G1 X156.533 Y48.056 E3.39276
G1 X156.623 Y51.252 E3.4991
G1 X156.592 Y52.35 E3.53564
G1 X156.324 Y55.534 E3.64191
G1 X156.196 Y56.49 E3.67399
G1 X155.76 Y58.853 E3.75391
G1 X155.577 Y59.656 E3.7813
G1 X154.947 Y61.964 E3.86088
G1 X154.648 Y62.879 E3.89289
G1 X153.506 Y65.87 E3.99938
G1 X153.059 Y66.871 E4.03584
G1 X151.595 Y69.706 E4.14196
G1 X151.183 Y70.427 E4.16958
G1 X150.332 Y71.78 E4.22275
G1 X149.95 Y72.341 E4.24532
G1 X148.537 Y74.276 E4.32501
G1 X147.928 Y75.03 E4.35725
G1 X145.796 Y77.414 E4.46362
G1 X145.126 Y78.093 E4.49535
G1 X143.362 Y79.716 E4.57508
G1 X142.62 Y80.334 E4.60719
G1 X140.066 Y82.256 E4.71351
G1 X139.389 Y82.723 E4.74086
G1 X138.037 Y83.573 E4.79398
G1 X137.44 Y83.919 E4.81693
G1 X135.32 Y85.052 E4.89688
G1 X134.579 Y85.409 E4.92423
G1 X132.381 Y86.356 E5.00384
G1 X131.609 Y86.651 E5.03132
G1 X129.335 Y87.411 E5.11107
G1 X128.542 Y87.639 E5.13851
G1 X126.208 Y88.206 E5.2184
G1 X125.398 Y88.367 E5.24587
G1 X123.034 Y88.734 E5.32544
G1 X122.082 Y88.834 E5.35728
G1 X118.888 Y89.014 E5.46368
G1 X117.785 Y89.014 E5.50036
G1 X114.592 Y88.834 E5.60673
G1 X113.363 Y88.687 E5.6479
G1 X109.44 Y87.962 E5.78059
G1 X108.377 Y87.703 E5.81698
G1 X106.079 Y87.006 E5.89685
G1 X105.177 Y86.684 E5.9287
G1 X102.23 Y85.465 E6.03477
G1 X101.235 Y84.986 E6.0715
G1 X98.431 Y83.436 E6.17807
G1 X97.499 Y82.85 E6.21468
G1 X94.897 Y81.003 E6.32081
G1 X93.938 Y80.227 E6.36184
G1 X90.994 Y77.521 E6.49484
G1 X90.229 Y76.734 E6.53134
G1 X88.656 Y74.924 E6.6111
G1 X88.058 Y74.163 E6.64329
G1 X86.21 Y71.556 E6.74958
G1 X85.628 Y70.63 E6.78595
G1 X84.082 Y67.833 E6.89225
G1 X83.659 Y66.969 E6.92424
G1 X82.71 Y64.766 E7.00403
G1 X82.415 Y63.994 E7.03151
G1 X81.657 Y61.725 E7.11108
G1 X81.429 Y60.933 E7.13849
G1 X80.862 Y58.599 E7.21838
G1 X80.701 Y57.789 E7.24585
G1 X80.334 Y55.425 E7.32542
G1 X80.233 Y54.471 E7.35732
G1 X80.054 Y51.281 E7.46359
G1 X80.054 Y50.184 E7.50008
G1 X80.233 Y46.987 E7.60658
G1 X80.381 Y45.754 E7.64788
G1 X81.106 Y41.831 E7.78057
G1 X81.324 Y40.904 E7.81224
G1 X81.765 Y39.37 E7.86533
G1 X81.98 Y38.713 E7.88832
G1 X82.804 Y36.459 E7.96814
G1 X82.868 Y36.308 E7.9736
G0 F810 X83.179 Y35.572
M204 S5000
M205 X30 Y30
G0 F7200 X83.539 Y35.745
M204 S500
M205 X20 Y20
G1 F6000 E8.00021
G1 F900 X84.925 Y32.867 E8.10645
G1 X85.436 Y31.944 E8.14154
G1 X87.14 Y29.233 E8.24804
G1 X87.75 Y28.373 E8.28311
G1 X89.743 Y25.875 E8.3894
G1 X90.349 Y25.187 E8.41989
G1 X92.016 Y23.471 E8.49946
G1 X92.692 Y22.84 E8.53022
G1 X95.134 Y20.777 E8.63654
G1 X95.978 Y20.142 E8.67167
G1 X98.635 Y18.367 E8.77795
G1 X99.541 Y17.833 E8.81293
G1 X102.381 Y16.365 E8.91926
G1 X103.349 Y15.931 E8.95454
G1 X106.34 Y14.791 E9.06101
G1 X107.215 Y14.506 E9.09161
G1 X109.522 Y13.877 E9.17115
G1 X110.416 Y13.68 E9.20159
G1 X113.568 Y13.143 E9.30794
G1 X114.621 Y13.024 E9.34319
G1 X117.814 Y12.845 E9.44955
G1 X118.867 Y12.845 E9.48457
G1 X122.057 Y13.024 E9.59084
G1 X123.106 Y13.142 E9.62595
G1 X126.257 Y13.678 E9.73226
G1 X127.156 Y13.877 E9.76288
G1 X129.464 Y14.507 E9.84246
G1 X130.339 Y14.792 E9.87306
G1 X133.333 Y15.934 E9.97964
G1 X134.296 Y16.365 E10.01473
G1 X137.131 Y17.829 E10.12086
G1 X138.042 Y18.366 E10.15603
G1 X140.699 Y20.142 E10.26233
G1 X141.539 Y20.775 E10.29731
G1 X143.981 Y22.837 E10.40361
G1 X144.655 Y23.465 E10.43425
G1 X146.326 Y25.183 E10.51396
G1 X146.937 Y25.876 E10.54469
G1 X148.93 Y28.375 E10.65101
G1 X149.541 Y29.236 E10.68612
G1 X151.244 Y31.947 E10.7926
G1 X151.754 Y32.871 E10.82771
G1 X153.137 Y35.745 E10.93379
G1 X153.537 Y36.71 E10.96853
G1 X154.595 Y39.727 E11.07487
G1 X154.86 Y40.623 E11.10595
G1 X155.425 Y42.953 E11.18569
G1 X155.598 Y43.853 E11.21617
G1 X156.045 Y47.017 E11.32245
G1 X156.133 Y48.067 E11.3575
G1 X156.223 Y51.263 E11.46384
G1 X156.194 Y52.316 E11.49887
G1 X155.926 Y55.5 E11.60515
G1 X155.803 Y56.418 E11.63595
G1 X155.367 Y58.781 E11.71588
G1 X155.191 Y59.55 E11.74211
G1 X154.561 Y61.858 E11.82169
G1 X154.275 Y62.736 E11.8524
G1 X153.133 Y65.727 E11.95888
G1 X152.703 Y66.687 E11.99387
G1 X151.239 Y69.522 E12.09999
G1 X150.844 Y70.214 E12.1265
G1 X149.993 Y71.567 E12.17966
G1 X149.627 Y72.105 E12.2013
G1 X148.214 Y74.04 E12.28099
G1 X147.63 Y74.763 E12.3119
G1 X145.498 Y77.147 E12.41828
G1 X144.856 Y77.799 E12.44871
G1 X143.092 Y79.422 E12.52844
G1 X142.379 Y80.015 E12.55928
G1 X139.825 Y81.937 E12.66559
G1 X139.176 Y82.384 E12.69181
G1 X137.824 Y83.234 E12.74492
G1 X137.252 Y83.566 E12.76692
G1 X135.132 Y84.699 E12.84687
G1 X134.42 Y85.042 E12.87315
G1 X132.222 Y85.989 E12.95276
G1 X131.483 Y86.271 E12.97906
G1 X129.209 Y87.031 E13.05881
G1 X128.448 Y87.25 E13.08515
G1 X126.114 Y87.817 E13.16504
G1 X125.337 Y87.972 E13.19139
G1 X122.973 Y88.339 E13.27096
G1 X122.06 Y88.435 E13.30149
G1 X118.866 Y88.615 E13.40789
G1 X117.808 Y88.615 E13.44308
G1 X114.615 Y88.435 E13.54945
G1 X113.436 Y88.293 E13.58895
G1 X109.513 Y87.568 E13.72164
G1 X108.493 Y87.32 E13.75655
G1 X106.195 Y86.623 E13.83642
G1 X105.33 Y86.314 E13.86697
G1 X102.383 Y85.095 E13.97304
G1 X101.428 Y84.636 E14.00828
G1 X98.624 Y83.086 E14.11485
G1 X97.731 Y82.524 E14.14994
G1 X95.129 Y80.677 E14.25607
G1 X94.209 Y79.933 E14.29542
G1 X91.265 Y77.227 E14.42842
G1 X90.531 Y76.472 E14.46344
G1 X88.958 Y74.662 E14.5432
G1 X88.384 Y73.932 E14.57409
G1 X86.536 Y71.325 E14.68037
G1 X85.978 Y70.436 E14.71528
G1 X84.432 Y67.639 E14.82157
G1 X84.026 Y66.811 E14.85225
G1 X83.077 Y64.608 E14.93203
G1 X82.794 Y63.867 E14.95841
G1 X82.036 Y61.598 E15.03798
G1 X81.818 Y60.839 E15.06424
G1 X81.251 Y58.505 E15.14413
G1 X81.096 Y57.728 E15.17048
G1 X80.729 Y55.364 E15.25005
G1 X80.633 Y54.449 E15.28065
G1 X80.454 Y51.259 E15.38692
G1 X80.454 Y50.207 E15.42191
G1 X80.633 Y47.01 E15.52841
G1 X80.775 Y45.827 E15.56804
G1 X81.5 Y41.904 E15.70072
G1 X81.709 Y41.015 E15.7311
G1 X82.15 Y39.481 E15.78419
G1 X82.355 Y38.851 E15.80622
G1 X83.179 Y36.597 E15.88604
G1 X83.228 Y36.482 E15.8902
G0 F810 X83.539 Y35.745
M204 S5000
M205 X30 Y30
G0 F7200 X83.899 Y35.919
M204 S500
M205 X20 Y20
G1 F6000 E15.91681
G1 F900 X85.285 Y33.041 E16.02305
G1 X85.774 Y32.157 E16.05665
G1 X87.478 Y29.446 E16.16315
G1 X88.063 Y28.622 E16.19676
G1 X90.056 Y26.124 E16.30305
G1 X90.636 Y25.466 E16.33223
G1 X92.303 Y23.75 E16.4118
G1 X92.95 Y23.146 E16.44124
G1 X95.392 Y21.083 E16.54756
G1 X96.201 Y20.474 E16.58124
G1 X98.858 Y18.699 E16.68752
G1 X99.724 Y18.188 E16.72096
G1 X102.564 Y16.72 E16.82729
G1 X103.492 Y16.305 E16.8611
G1 X106.483 Y15.165 E16.96757
G1 X107.321 Y14.892 E16.99688
G1 X109.628 Y14.263 E17.07641
G1 X110.483 Y14.074 E17.10554
G1 X113.635 Y13.537 E17.21188
G1 X114.643 Y13.423 E17.24562
G1 X117.836 Y13.244 E17.35199
G1 X118.844 Y13.244 E17.38552
G1 X122.034 Y13.423 E17.49178
G1 X123.039 Y13.536 E17.52542
G1 X126.19 Y14.072 E17.63173
G1 X127.051 Y14.263 E17.66106
G1 X129.359 Y14.893 E17.74063
G1 X130.196 Y15.166 E17.76992
G1 X133.19 Y16.308 E17.87649
G1 X134.113 Y16.72 E17.91011
G1 X136.948 Y18.184 E18.01624
G1 X137.819 Y18.699 E18.04989
G1 X140.476 Y20.475 E18.15619
G1 X141.281 Y21.081 E18.1897
G1 X143.723 Y23.143 E18.296
G1 X144.369 Y23.744 E18.32535
G1 X146.04 Y25.462 E18.40506
G1 X146.624 Y26.125 E18.43445
G1 X148.617 Y28.624 E18.54076
G1 X149.202 Y29.449 E18.5744
G1 X150.905 Y32.16 E18.68088
G1 X151.394 Y33.044 E18.71448
G1 X152.777 Y35.918 E18.82056
G1 X153.16 Y36.843 E18.85386
G1 X154.218 Y39.86 E18.9602
G1 X154.472 Y40.717 E18.98993
G1 X155.037 Y43.047 E19.06967
G1 X155.202 Y43.909 E19.09886
G1 X155.649 Y47.073 E19.20514
G1 X155.733 Y48.079 E19.23872
G1 X155.823 Y51.275 E19.34506
G1 X155.795 Y52.283 E19.3786
G1 X155.527 Y55.467 E19.48487
G1 X155.41 Y56.345 E19.51433
G1 X154.974 Y58.708 E19.59425
G1 X154.805 Y59.445 E19.6194
G1 X154.175 Y61.753 E19.69898
G1 X153.901 Y62.593 E19.72836
G1 X152.759 Y65.584 E19.83485
G1 X152.348 Y66.504 E19.86836
G1 X150.884 Y69.339 E19.97449
G1 X150.505 Y70.001 E19.99986
G1 X149.654 Y71.354 E20.05302
G1 X149.304 Y71.87 E20.07376
G1 X147.891 Y73.805 E20.15345
G1 X147.332 Y74.497 E20.18304
G1 X145.2 Y76.881 E20.28941
G1 X144.585 Y77.504 E20.31853
G1 X142.821 Y79.127 E20.39825
G1 X142.139 Y79.695 E20.42777
G1 X139.585 Y81.617 E20.53409
G1 X138.963 Y82.045 E20.5592
G1 X137.611 Y82.895 E20.61231
G1 X137.063 Y83.214 E20.6334
G1 X134.943 Y84.347 E20.71335
G1 X134.262 Y84.674 E20.73848
G1 X132.064 Y85.621 E20.81808
G1 X131.356 Y85.892 E20.8433
G1 X129.082 Y86.652 E20.92304
G1 X128.354 Y86.862 E20.94824
G1 X126.02 Y87.429 E21.02813
G1 X125.276 Y87.576 E21.05335
G1 X122.912 Y87.943 E21.13292
G1 X122.037 Y88.036 E21.16219
G1 X118.843 Y88.216 E21.26859
G1 X117.83 Y88.216 E21.30228
G1 X114.637 Y88.036 E21.40865
G1 X113.508 Y87.9 E21.44647
G1 X109.585 Y87.175 E21.57916
G1 X108.609 Y86.938 E21.61257
G1 X106.311 Y86.241 E21.69244
G1 X105.483 Y85.945 E21.72168
G1 X102.536 Y84.726 E21.82776
G1 X101.622 Y84.286 E21.86149
G1 X98.818 Y82.736 E21.96806
G1 X97.962 Y82.198 E22.00168
G1 X95.36 Y80.351 E22.10781
G1 X94.48 Y79.638 E22.14548
G1 X91.536 Y76.932 E22.27848
G1 X90.833 Y76.21 E22.312
G1 X89.26 Y74.4 E22.39176
G1 X88.711 Y73.701 E22.42132
G1 X86.863 Y71.094 E22.5276
G1 X86.328 Y70.243 E22.56104
G1 X84.782 Y67.446 E22.66733
G1 X84.393 Y66.653 E22.69671
G1 X83.444 Y64.45 E22.77649
G1 X83.174 Y63.741 E22.80172
G1 X82.416 Y61.472 E22.88129
G1 X82.206 Y60.745 E22.90646
G1 X81.639 Y58.411 E22.98634
G1 X81.492 Y57.667 E23.01157
G1 X81.125 Y55.303 E23.09114
G1 X81.032 Y54.426 E23.12047
G1 X80.853 Y51.236 E23.22674
G1 X80.853 Y50.229 E23.26023
G1 X81.032 Y47.032 E23.36673
G1 X81.168 Y45.899 E23.40468
G1 X81.893 Y41.976 E23.53737
G1 X82.093 Y41.125 E23.56645
G1 X82.534 Y39.591 E23.61954
G1 X82.731 Y38.988 E23.64063
G1 X83.555 Y36.734 E23.72045
G1 X83.588 Y36.656 E23.72327
G0 F810 X83.899 Y35.919
M204 S5000
M205 X30 Y30
G0 F7200 X84.26 Y36.093
M204 S500
M205 X20 Y20
G1 F6000 E23.74988
G1 F900 X85.646 Y33.215 E23.85612
G1 X86.113 Y32.369 E23.88826
G1 X87.817 Y29.658 E23.99477
G1 X88.375 Y28.871 E24.02685
G1 X90.368 Y26.373 E24.13314
G1 X90.922 Y25.745 E24.16099
G1 X92.589 Y24.029 E24.24056
G1 X93.208 Y23.451 E24.26873
G1 X95.65 Y21.388 E24.37506
G1 X96.423 Y20.807 E24.40722
G1 X99.08 Y19.032 E24.5135
G1 X99.908 Y18.543 E24.54548
G1 X102.748 Y17.075 E24.65181
G1 X103.634 Y16.679 E24.68409
G1 X106.625 Y15.539 E24.79055
G1 X107.426 Y15.278 E24.81857
G1 X109.733 Y14.649 E24.89811
G1 X110.551 Y14.468 E24.92597
G1 X113.703 Y13.931 E25.03232
G1 X114.666 Y13.822 E25.06455
G1 X117.859 Y13.643 E25.17092
G1 X118.822 Y13.644 E25.20295
G1 X122.012 Y13.823 E25.30921
G1 X122.972 Y13.931 E25.34134
G1 X126.123 Y14.467 E25.44765
G1 X126.946 Y14.649 E25.47569
G1 X129.254 Y15.279 E25.55526
G1 X130.054 Y15.54 E25.58325
G1 X133.048 Y16.682 E25.68983
G1 X133.929 Y17.076 E25.72193
G1 X136.764 Y18.54 E25.82805
G1 X137.597 Y19.031 E25.86021
G1 X140.254 Y20.807 E25.96651
G1 X141.023 Y21.386 E25.99852
G1 X143.465 Y23.448 E26.10483
G1 X144.082 Y24.023 E26.13288
G1 X145.753 Y25.741 E26.21259
G1 X146.312 Y26.375 E26.2407
G1 X148.305 Y28.874 E26.34701
G1 X148.863 Y29.661 E26.3791
G1 X150.566 Y32.372 E26.48559
G1 X151.033 Y33.218 E26.51773
G1 X152.416 Y36.092 E26.62381
G1 X152.782 Y36.975 E26.6556
G1 X153.84 Y39.992 E26.76194
G1 X154.083 Y40.811 E26.79035
G1 X154.648 Y43.141 E26.87009
G1 X154.805 Y43.965 E26.89799
G1 X155.252 Y47.129 E27.00427
G1 X155.334 Y48.09 E27.03635
G1 X155.424 Y51.286 E27.14269
G1 X155.397 Y52.249 E27.17473
G1 X155.129 Y55.433 E27.28101
G1 X155.016 Y56.272 E27.30917
G1 X154.58 Y58.635 E27.38909
G1 X154.419 Y59.34 E27.41314
G1 X153.789 Y61.648 E27.49271
G1 X153.527 Y62.451 E27.5208
G1 X152.385 Y65.442 E27.62729
G1 X151.992 Y66.32 E27.65928
G1 X150.528 Y69.155 E27.76541
G1 X150.167 Y69.788 E27.78964
G1 X149.316 Y71.141 E27.84281
G1 X148.981 Y71.634 E27.86263
G1 X147.568 Y73.569 E27.94232
G1 X147.033 Y74.23 E27.97061
G1 X144.901 Y76.614 E28.07698
G1 X144.314 Y77.21 E28.1048
G1 X142.55 Y78.833 E28.18453
G1 X141.898 Y79.376 E28.21275
G1 X139.344 Y81.298 E28.31906
G1 X138.75 Y81.707 E28.34305
G1 X137.398 Y82.557 E28.39617
G1 X136.875 Y82.861 E28.41629
G1 X134.755 Y83.994 E28.49624
G1 X134.104 Y84.307 E28.52026
G1 X131.906 Y85.254 E28.59986
G1 X131.229 Y85.513 E28.62397
G1 X128.955 Y86.273 E28.70372
G1 X128.259 Y86.473 E28.7278
G1 X125.925 Y87.04 E28.80769
G1 X125.214 Y87.181 E28.8318
G1 X122.85 Y87.548 E28.91137
G1 X122.015 Y87.636 E28.9393
G1 X118.821 Y87.816 E29.0457
G1 X117.853 Y87.816 E29.07789
G1 X114.66 Y87.636 E29.18426
G1 X113.581 Y87.507 E29.2204
G1 X109.658 Y86.782 E29.35309
G1 X108.725 Y86.555 E29.38503
G1 X106.427 Y85.858 E29.4649
G1 X105.636 Y85.575 E29.49284
G1 X102.689 Y84.356 E29.59891
G1 X101.815 Y83.936 E29.63117
G1 X99.011 Y82.386 E29.73773
G1 X98.194 Y81.872 E29.76983
G1 X95.592 Y80.025 E29.87596
G1 X94.75 Y79.344 E29.91198
G1 X91.806 Y76.638 E30.04498
G1 X91.135 Y75.947 E30.07701
G1 X89.562 Y74.137 E30.15677
G1 X89.037 Y73.469 E30.18503
G1 X87.189 Y70.862 E30.29131
G1 X86.678 Y70.049 E30.32325
G1 X85.132 Y67.252 E30.42954
G1 X84.761 Y66.494 E30.45761
G1 X83.812 Y64.291 E30.5374
G1 X83.553 Y63.614 E30.5615
G1 X82.795 Y61.345 E30.64107
G1 X82.595 Y60.65 E30.66512
G1 X82.028 Y58.316 E30.74501
G1 X81.887 Y57.605 E30.76912
G1 X81.52 Y55.241 E30.84869
G1 X81.432 Y54.404 E30.87668
G1 X81.253 Y51.214 E30.98295
G1 X81.252 Y50.251 E31.01498
G1 X81.431 Y47.054 E31.12148
G1 X81.561 Y45.972 E31.15772
G1 X82.286 Y42.049 E31.29041
G1 X82.478 Y41.236 E31.3182
G1 X82.919 Y39.702 E31.37128
G1 X83.107 Y39.125 E31.39147
G1 X83.931 Y36.871 E31.47129
G1 X83.949 Y36.83 E31.47278
G0 F810 X84.26 Y36.093
M204 S5000
M205 X30 Y30
G0 F7200 X84.62 Y36.266
M204 S500
M205 X20 Y20
G1 F6000 E31.49939
G1 F900 X86.006 Y33.388 E31.60563
G1 X86.452 Y32.582 E31.63627
G1 X88.156 Y29.871 E31.74277
G1 X88.688 Y29.121 E31.77335
G1 X90.681 Y26.623 E31.87964
G1 X91.209 Y26.023 E31.90622
G1 X92.876 Y24.307 E31.98579
G1 X93.466 Y23.757 E32.01262
G1 X95.908 Y21.694 E32.11895
G1 X96.645 Y21.14 E32.14961
G1 X99.302 Y19.365 E32.25589
