;FLAVOR:Marlin
;TIME:2123
;Filament used: 1.13454m
;Layer height: 0.2
;Generated with Cura_SteamEngine 3.6.0
M140 S70
M105
M190 S70
M104 S215
M105
M109 S215
M82 ;absolute extrusion mode
G28 ; home all axes
M117 Purge extruder
G92 E0 ; reset extruder
G1 Z1.0 F3000 ; move z up little to prevent scratching of surface
G1 X0.1 Y20 Z0.3 F5000.0 ; move to start-line position G1 X0.1 Y200.0 Z0.3 F1500.0 E15 ; draw 1st line
G1 X0.4 Y200.0 Z0.3 F5000.0 ; move to side a little
G1 X0.4 Y20 Z0.3 F1500.0 E30 ; draw 2nd line
G92 E0 ; reset extruder
G1 Z1.0 F3000 ; move z up little to prevent scratching of surface
M117 All systems go!
G92 E0
G1 F6000 E-5
;LAYER_COUNT:11
;LAYER:0
M107
M204 S5000
M205 X30 Y30
G0 F7200 X90.757 Y48.825 Z0.2
M204 S500
M205 X20 Y20
;TYPE:SKIRT
G1 F6000 E0
G1 F900 X92.006 Y46.572 E0.08568
G1 X92.528 Y45.734 E0.11852
G1 X93.276 Y44.657 E0.16213
G1 X93.836 Y43.926 E0.19276
G1 X95.531 Y41.918 E0.28016
G1 X96.317 Y41.09 E0.31813
G1 X98.368 Y39.167 E0.41164
G1 X99.135 Y38.518 E0.44506
G1 X101.392 Y36.8 E0.5394
G1 X102.005 Y36.37 E0.5643
G1 X103.656 Y35.302 E0.6297
G1 X104.42 Y34.855 E0.65914
G1 X105.222 Y34.479 E0.6886
G1 X106.054 Y34.177 E0.71804
G1 X106.91 Y33.951 E0.74749
G1 X107.286 Y33.887 E0.76018
G1 X107.706 Y33.489 E0.77942
G1 X108.401 Y32.94 E0.80888
G1 X109.142 Y32.456 E0.83832
G1 X109.924 Y32.041 E0.86776
G1 X110.56 Y31.766 E0.89081
G1 X113.749 Y30.521 E1.00467
G1 X114.225 Y30.349 E1.0215
G1 X116.162 Y29.706 E1.08939
G1 X116.632 Y29.563 E1.10572
G1 X119.973 Y28.637 E1.22104
G1 X120.58 Y28.489 E1.24182
G1 X124.697 Y27.626 E1.38172
G1 X125.305 Y27.519 E1.40226
G1 X128.719 Y27.025 E1.51699
G1 X129.425 Y26.949 E1.54061
G1 X134.793 Y26.566 E1.7196
G1 X135.677 Y26.543 E1.74901
G1 X136.561 Y26.6 E1.77848
G1 X137.435 Y26.736 E1.8079
G1 X138.294 Y26.951 E1.83735
G1 X139.13 Y27.242 E1.86679
G1 X139.936 Y27.608 E1.89623
G1 X140.706 Y28.045 E1.92568
G1 X141.434 Y28.549 E1.95513
G1 X142.333 Y29.326 E1.99465
G1 X142.455 Y29.445 E2.00032
G1 X143.06 Y30.091 E2.02976
G1 X143.604 Y30.789 E2.05919
G1 X144.076 Y31.522 E2.08819
G1 X144.542 Y31.833 E2.10682
G1 X145.232 Y32.388 E2.13627
G1 X145.679 Y32.807 E2.15665
G1 X145.796 Y32.924 E2.16215
G1 X146.393 Y33.578 E2.19161
G1 X146.928 Y34.283 E2.22104
G1 X147.398 Y35.033 E2.25048
G1 X147.798 Y35.823 E2.27993
G1 X148.126 Y36.645 E2.30937
G1 X148.377 Y37.494 E2.33881
G1 X148.552 Y38.362 E2.36826
G1 X148.647 Y39.242 E2.3977
G1 X148.666 Y39.854 E2.41807
G1 X148.666 Y80.687 E3.77618
G1 X148.626 Y81.571 E3.80561
G1 X148.506 Y82.448 E3.83505
G1 X148.308 Y83.311 E3.8645
G1 X148.033 Y84.152 E3.89393
G1 X147.683 Y84.965 E3.92337
G1 X147.261 Y85.744 E3.95284
G1 X146.77 Y86.48 E3.98226
G1 X146.215 Y87.17 E4.01172
G1 X145.796 Y87.617 E4.03209
G1 X145.679 Y87.734 E4.0376
G1 X145.025 Y88.331 E4.06705
G1 X144.32 Y88.866 E4.09649
G1 X144.151 Y88.972 E4.10312
G1 X144.007 Y89.238 E4.11318
G1 X143.516 Y89.974 E4.14261
G1 X142.961 Y90.664 E4.17206
G1 X142.454 Y91.197 E4.19653
G1 X142.333 Y91.315 E4.20215
G1 X141.672 Y91.904 E4.23159
G1 X140.961 Y92.431 E4.26103
G1 X140.205 Y92.891 E4.29046
G1 X139.41 Y93.281 E4.31992
G1 X138.584 Y93.598 E4.34934
G1 X137.732 Y93.839 E4.37879
G1 X136.862 Y94.003 E4.40824
G1 X135.981 Y94.087 E4.43767
G1 X134.986 Y94.086 E4.47077
G1 X131.982 Y93.931 E4.57081
G1 X131.336 Y93.876 E4.59238
G1 X127.962 Y93.477 E4.70538
G1 X127.411 Y93.396 E4.7239
G1 X124.763 Y92.929 E4.81333
G1 X124.133 Y92.797 E4.83474
G1 X119.287 Y91.61 E5.00069
G1 X118.575 Y91.406 E5.02532
G1 X114.48 Y90.068 E5.16861
G1 X113.858 Y89.841 E5.19063
G1 X110.457 Y88.469 E5.3126
G1 X109.652 Y88.101 E5.34204
G1 X108.883 Y87.662 E5.3715
G1 X108.157 Y87.156 E5.40093
G1 X107.48 Y86.586 E5.43036
G1 X107.272 Y86.376 E5.44019
G1 X106.907 Y86.314 E5.45251
G1 X106.051 Y86.088 E5.48195
G1 X105.219 Y85.785 E5.5114
G1 X104.418 Y85.409 E5.54084
G1 X103.629 Y84.945 E5.57128
G1 X101.247 Y83.392 E5.66586
G1 X100.628 Y82.954 E5.69108
G1 X98.767 Y81.524 E5.76914
G1 X98.112 Y80.974 E5.79758
G1 X96.305 Y79.316 E5.87915
G1 X95.749 Y78.762 E5.90526
G1 X94.817 Y77.758 E5.95082
G1 X94.356 Y77.225 E5.97426
G1 X93.295 Y75.903 E6.03064
G1 X92.782 Y75.202 E6.05953
G1 X91.878 Y73.845 E6.11376
G1 X91.411 Y73.069 E6.14388
G1 X90.656 Y71.671 E6.19673
G1 X90.248 Y70.82 E6.22812
G1 X89.647 Y69.394 E6.27959
G1 X89.228 Y68.183 E6.32221
G1 X88.572 Y65.794 E6.40461
G1 X88.376 Y64.931 E6.43404
G1 X88.299 Y64.426 E6.45103
G1 X88.081 Y62.699 E6.50893
G1 X88.008 Y61.764 E6.54012
G1 X87.972 Y60.558 E6.58025
G1 X87.99 Y59.608 E6.61186
G1 X88.107 Y57.87 E6.66979
G1 X88.23 Y56.849 E6.704
G1 X88.492 Y55.342 E6.75487
G1 X88.716 Y54.359 E6.7884
G1 X89.206 Y52.623 E6.8484
G1 X89.552 Y51.61 E6.884
G1 X90.243 Y49.902 E6.94528
G1 X90.413 Y49.547 E6.95838
G0 F810 X90.757 Y48.825
M204 S5000
M205 X30 Y30
G0 F7200 X91.107 Y49.019
M204 S500
M205 X20 Y20
G1 F6000 E6.98498
G1 F900 X92.356 Y46.766 E7.07066
G1 X92.856 Y45.962 E7.10215
G1 X93.604 Y44.885 E7.14577
G1 X94.142 Y44.184 E7.17516
G1 X95.837 Y42.176 E7.26256
G1 X96.591 Y41.382 E7.29898
G1 X98.642 Y39.459 E7.39249
G1 X99.378 Y38.836 E7.42456
G1 X101.635 Y37.118 E7.5189
G1 X102.222 Y36.705 E7.54277
G1 X103.873 Y35.637 E7.60817
G1 X104.622 Y35.201 E7.637
G1 X105.408 Y34.835 E7.66583
G1 X106.225 Y34.543 E7.69469
G1 X107.064 Y34.327 E7.72351
G1 X107.471 Y34.262 E7.73722
G1 X108.009 Y33.756 E7.76178
G1 X108.693 Y33.223 E7.79062
G1 X109.423 Y32.755 E7.81946
G1 X110.192 Y32.357 E7.84826
G1 X110.705 Y32.139 E7.8668
G1 X113.894 Y30.894 E7.98066
G1 X114.352 Y30.729 E7.99686
G1 X116.289 Y30.086 E8.06474
G1 X116.739 Y29.948 E8.08039
G1 X120.08 Y29.022 E8.1957
G1 X120.662 Y28.881 E8.21562
G1 X124.779 Y28.018 E8.35553
G1 X125.362 Y27.915 E8.37522
G1 X128.776 Y27.421 E8.48995
G1 X129.453 Y27.348 E8.5126
G1 X134.821 Y26.965 E8.6916
G1 X135.688 Y26.943 E8.72044
G1 X136.553 Y27.001 E8.74928
G1 X137.409 Y27.139 E8.77811
G1 X138.248 Y27.355 E8.80693
G1 X139.064 Y27.647 E8.83575
G1 X139.85 Y28.013 E8.86459
G1 X140.599 Y28.451 E8.89345
G1 X141.304 Y28.955 E8.92228
G1 X142.054 Y29.612 E8.95544
G1 X142.176 Y29.731 E8.96111
G1 X142.768 Y30.364 E8.98993
G1 X143.299 Y31.049 E9.01876
G1 X143.765 Y31.781 E9.04762
G1 X143.773 Y31.797 E9.04822
G1 X144.406 Y32.23 E9.07372
G1 X145.074 Y32.783 E9.10257
G1 X145.396 Y33.09 E9.11736
G1 X145.513 Y33.207 E9.12287
G1 X146.097 Y33.848 E9.15171
G1 X146.62 Y34.54 E9.18056
G1 X147.076 Y35.277 E9.20938
G1 X147.463 Y36.052 E9.2382
G1 X147.777 Y36.861 E9.26706
G1 X148.015 Y37.694 E9.29587
G1 X148.175 Y38.546 E9.32471
G1 X148.255 Y39.409 E9.35353
G1 X148.266 Y39.854 E9.36834
G1 X148.266 Y80.687 E10.72645
G1 X148.226 Y81.553 E10.75528
G1 X148.106 Y82.412 E10.78413
G1 X147.908 Y83.256 E10.81297
G1 X147.633 Y84.078 E10.84179
G1 X147.283 Y84.871 E10.87062
G1 X146.862 Y85.629 E10.89946
G1 X146.373 Y86.344 E10.92827
G1 X145.82 Y87.012 E10.95712
G1 X145.513 Y87.334 E10.97191
G1 X145.396 Y87.451 E10.97742
G1 X144.755 Y88.035 E11.00626
G1 X144.063 Y88.558 E11.03511
G1 X143.848 Y88.691 E11.04352
G1 X143.608 Y89.123 E11.05995
G1 X143.119 Y89.838 E11.08877
G1 X142.566 Y90.506 E11.11761
G1 X142.175 Y90.911 E11.13633
G1 X142.054 Y91.029 E11.14195
G1 X141.406 Y91.605 E11.17079
G1 X140.708 Y92.119 E11.19962
G1 X139.965 Y92.566 E11.22846
G1 X139.184 Y92.943 E11.2573
G1 X138.372 Y93.247 E11.28614
G1 X137.536 Y93.474 E11.31495
G1 X136.682 Y93.623 E11.34379
G1 X135.818 Y93.693 E11.37262
G1 X135.007 Y93.687 E11.39959
G1 X132.003 Y93.532 E11.49964
G1 X131.383 Y93.479 E11.52034
G1 X128.009 Y93.08 E11.63334
G1 X127.48 Y93.002 E11.65112
G1 X124.832 Y92.535 E11.74055
G1 X124.229 Y92.408 E11.76105
G1 X119.383 Y91.221 E11.92699
G1 X118.7 Y91.026 E11.95062
G1 X114.605 Y89.688 E12.0939
G1 X114.007 Y89.47 E12.11507
G1 X110.606 Y88.098 E12.23705
G1 X109.818 Y87.737 E12.26588
G1 X109.067 Y87.305 E12.29469
G1 X108.358 Y86.806 E12.32353
G1 X107.699 Y86.243 E12.35236
G1 X107.468 Y86.005 E12.36339
G1 X106.852 Y85.892 E12.38422
G1 X106.017 Y85.657 E12.41307
G1 X105.208 Y85.346 E12.4419
G1 X104.431 Y84.961 E12.47074
G1 X103.847 Y84.61 E12.4934
G1 X101.465 Y83.057 E12.58798
G1 X100.872 Y82.637 E12.61215
G1 X99.011 Y81.207 E12.69021
G1 X98.383 Y80.679 E12.7175
G1 X96.576 Y79.021 E12.79906
G1 X96.042 Y78.49 E12.82411
G1 X95.11 Y77.486 E12.86967
G1 X94.668 Y76.975 E12.89215
G1 X93.607 Y75.653 E12.94853
G1 X93.115 Y74.981 E12.97623
G1 X92.211 Y73.624 E13.03046
G1 X91.763 Y72.879 E13.05937
G1 X91.008 Y71.481 E13.11222
G1 X90.617 Y70.665 E13.14231
G1 X90.016 Y69.239 E13.19378
G1 X89.614 Y68.077 E13.23468
G1 X88.958 Y65.688 E13.31708
G1 X88.767 Y64.842 E13.34592
G1 X88.696 Y64.376 E13.3616
G1 X88.478 Y62.649 E13.4195
G1 X88.408 Y61.752 E13.44942
G1 X88.372 Y60.546 E13.48955
G1 X88.389 Y59.635 E13.51986
G1 X88.506 Y57.897 E13.5778
G1 X88.624 Y56.918 E13.61059
G1 X88.886 Y55.411 E13.66147
G1 X89.1 Y54.468 E13.69363
G1 X89.59 Y52.732 E13.75362
G1 X89.923 Y51.76 E13.7878
G1 X90.614 Y50.052 E13.84908
G1 X90.763 Y49.741 E13.86055
G0 F810 X91.107 Y49.019
M204 S5000
M205 X30 Y30
G0 F7200 X91.457 Y49.213
M204 S500
M205 X20 Y20
G1 F6000 E13.88716
G1 F900 X92.706 Y46.96 E13.97284
G1 X93.185 Y46.19 E14.003
G1 X93.933 Y45.113 E14.04661
G1 X94.448 Y44.442 E14.07474
G1 X96.143 Y42.434 E14.16214
G1 X96.864 Y41.673 E14.19701
G1 X98.915 Y39.75 E14.29052
G1 X99.62 Y39.155 E14.32121
G1 X101.877 Y37.437 E14.41555
G1 X102.44 Y37.041 E14.43844
G1 X104.091 Y35.973 E14.50384
G1 X104.824 Y35.547 E14.53204
G1 X105.594 Y35.191 E14.56025
G1 X106.394 Y34.909 E14.58847
G1 X107.217 Y34.704 E14.61668
G1 X107.659 Y34.637 E14.63154
G1 X107.69 Y34.602 E14.6331
G1 X108.311 Y34.024 E14.66132
G1 X108.984 Y33.507 E14.68954
G1 X109.702 Y33.056 E14.71774
G1 X110.851 Y32.511 E14.76004
G1 X114.04 Y31.266 E14.8739
G1 X114.478 Y31.108 E14.88939
G1 X116.415 Y30.465 E14.95727
G1 X116.846 Y30.334 E14.97226
G1 X120.187 Y29.408 E15.08757
G1 X120.745 Y29.272 E15.10667
G1 X124.862 Y28.409 E15.24658
G1 X125.419 Y28.311 E15.26539
G1 X128.833 Y27.817 E15.38012
G1 X129.481 Y27.747 E15.4018
G1 X134.849 Y27.364 E15.58079
G1 X135.698 Y27.343 E15.60904
G1 X136.544 Y27.403 E15.63725
G1 X137.381 Y27.542 E15.66547
G1 X138.201 Y27.759 E15.69368
G1 X138.997 Y28.052 E15.72189
G1 X139.761 Y28.419 E15.75008
G1 X140.488 Y28.857 E15.77831
G1 X141.171 Y29.36 E15.80652
G1 X141.774 Y29.898 E15.8334
G1 X141.896 Y30.017 E15.83907
G1 X142.475 Y30.638 E15.86731
G1 X142.993 Y31.31 E15.89553
G1 X143.445 Y32.027 E15.92372
G1 X143.473 Y32.082 E15.92577
G1 X143.573 Y32.139 E15.9296
G1 X144.267 Y32.627 E15.95782
G1 X145.113 Y33.373 E15.99533
G1 X145.23 Y33.49 E16.00084
G1 X145.801 Y34.117 E16.02904
G1 X146.31 Y34.796 E16.05727
G1 X146.753 Y35.519 E16.08547
G1 X147.126 Y36.281 E16.11369
G1 X147.426 Y37.075 E16.14192
G1 X147.65 Y37.893 E16.17013
G1 X147.795 Y38.729 E16.19835
G1 X147.866 Y39.854 E16.23584
G1 X147.866 Y80.687 E17.59395
G1 X147.826 Y81.534 E17.62215
G1 X147.706 Y82.374 E17.65038
G1 X147.508 Y83.199 E17.6786
G1 X147.233 Y84.002 E17.70683
G1 X146.884 Y84.775 E17.73503
G1 X146.464 Y85.511 E17.76322
G1 X145.976 Y86.205 E17.79144
G1 X145.23 Y87.051 E17.82895
G1 X145.113 Y87.168 E17.83446
G1 X144.486 Y87.739 E17.86266
G1 X143.807 Y88.248 E17.89089
G1 X143.553 Y88.403 E17.90078
G1 X143.21 Y89.005 E17.92383
G1 X142.722 Y89.699 E17.95205
G1 X141.896 Y90.624 E17.99329
G1 X141.775 Y90.742 E17.99891
G1 X141.14 Y91.305 E18.02714
G1 X140.455 Y91.806 E18.05537
G1 X139.726 Y92.24 E18.08358
G1 X138.96 Y92.604 E18.11179
G1 X138.163 Y92.893 E18.13999
G1 X137.342 Y93.107 E18.16821
G1 X136.504 Y93.242 E18.19644
G1 X135.658 Y93.297 E18.22464
G1 X135.027 Y93.287 E18.24563
G1 X132.023 Y93.132 E18.34567
G1 X131.43 Y93.082 E18.36547
G1 X128.056 Y92.683 E18.47847
G1 X127.55 Y92.608 E18.49548
G1 X124.902 Y92.141 E18.58491
G1 X124.324 Y92.02 E18.60455
G1 X119.478 Y90.833 E18.7705
G1 X118.824 Y90.646 E18.79312
G1 X114.729 Y89.308 E18.93641
G1 X114.157 Y89.099 E18.95666
G1 X110.756 Y87.727 E19.07864
G1 X109.985 Y87.373 E19.10686
G1 X109.251 Y86.948 E19.13507
G1 X108.56 Y86.456 E19.16328
G1 X107.919 Y85.901 E19.19148
G1 X107.667 Y85.638 E19.20359
G1 X107.632 Y85.634 E19.20477
G1 X106.8 Y85.468 E19.23298
G1 X105.988 Y85.224 E19.26118
G1 X105.202 Y84.904 E19.28941
G1 X104.45 Y84.512 E19.31762
G1 X104.066 Y84.275 E19.33262
G1 X101.684 Y82.722 E19.4272
G1 X101.115 Y82.319 E19.45039
G1 X99.254 Y80.889 E19.52845
G1 X98.653 Y80.384 E19.55456
G1 X96.846 Y78.726 E19.63613
G1 X96.335 Y78.218 E19.66009
G1 X95.403 Y77.214 E19.70566
G1 X94.98 Y76.724 E19.72719
G1 X93.919 Y75.402 E19.78357
G1 X93.448 Y74.759 E19.81008
G1 X92.544 Y73.402 E19.86431
G1 X92.115 Y72.689 E19.89199
G1 X91.36 Y71.291 E19.94483
G1 X90.985 Y70.509 E19.97368
G1 X90.384 Y69.083 E20.02514
G1 X89.999 Y67.971 E20.06428
G1 X89.343 Y65.582 E20.14668
G1 X89.157 Y64.754 E20.17491
G1 X89.093 Y64.326 E20.1893
G1 X88.875 Y62.599 E20.2472
G1 X88.808 Y61.741 E20.27582
G1 X88.772 Y60.535 E20.31595
G1 X88.788 Y59.661 E20.34503
G1 X88.905 Y57.923 E20.40296
G1 X89.018 Y56.986 E20.43435
G1 X89.28 Y55.479 E20.48523
G1 X89.485 Y54.576 E20.51603
G1 X89.975 Y52.84 E20.57602
G1 X90.294 Y51.91 E20.60872
G1 X90.985 Y50.202 E20.67001
G1 X91.113 Y49.935 E20.67985
G0 F810 X91.457 Y49.213
M204 S5000
M205 X30 Y30
G0 F7200 X91.806 Y49.407
M204 S500
M205 X20 Y20
G1 F6000 E20.70646
G1 F900 X93.055 Y47.154 E20.79214
G1 X93.513 Y46.418 E20.82097
G1 X94.261 Y45.341 E20.86459
G1 X94.753 Y44.7 E20.89146
G1 X96.448 Y42.692 E20.97886
G1 X97.138 Y41.965 E21.0122
G1 X99.189 Y40.042 E21.10571
G1 X99.862 Y39.473 E21.13502
G1 X102.119 Y37.755 E21.22936
G1 X102.657 Y37.377 E21.25123
G1 X104.308 Y36.309 E21.31663
G1 X105.025 Y35.893 E21.3442
G1 X105.779 Y35.548 E21.37178
G1 X106.563 Y35.276 E21.39938
G1 X107.369 Y35.082 E21.42696
G1 X107.861 Y35.012 E21.44348
G1 X108.002 Y34.855 E21.4505
G1 X108.612 Y34.294 E21.47807
G1 X109.273 Y33.793 E21.50565
G1 X109.98 Y33.359 E21.53325
G1 X110.996 Y32.884 E21.57055
G1 X114.185 Y31.639 E21.68441
G1 X114.604 Y31.488 E21.69923
G1 X116.541 Y30.845 E21.76711
G1 X116.953 Y30.719 E21.78144
G1 X120.294 Y29.793 E21.89675
G1 X120.827 Y29.664 E21.91499
G1 X124.944 Y28.801 E22.0549
G1 X125.476 Y28.707 E22.07286
G1 X128.89 Y28.213 E22.1876
G1 X129.51 Y28.146 E22.20834
G1 X134.878 Y27.763 E22.38733
G1 X135.707 Y27.744 E22.41491
G1 X136.534 Y27.805 E22.44249
G1 X137.351 Y27.945 E22.47006
G1 X138.151 Y28.163 E22.49764
G1 X138.926 Y28.457 E22.52521
G1 X139.67 Y28.825 E22.55282
G1 X140.374 Y29.262 E22.58038
G1 X141.033 Y29.766 E22.60797
G1 X141.495 Y30.185 E22.62871
G1 X141.617 Y30.304 E22.63438
G1 X142.182 Y30.911 E22.66196
G1 X142.686 Y31.569 E22.68953
G1 X143.124 Y32.273 E22.71711
G1 X143.174 Y32.374 E22.72086
G1 X143.453 Y32.538 E22.73162
G1 X144.124 Y33.024 E22.75918
G1 X144.83 Y33.656 E22.79069
G1 X144.947 Y33.773 E22.7962
G1 X145.505 Y34.387 E22.82379
G1 X146 Y35.052 E22.85137
G1 X146.43 Y35.761 E22.87894
G1 X146.789 Y36.508 E22.90651
G1 X147.074 Y37.287 E22.9341
G1 X147.283 Y38.089 E22.96166
G1 X147.414 Y38.908 E22.98925
G1 X147.466 Y39.854 E23.02076
G1 X147.466 Y80.687 E24.37887
G1 X147.426 Y81.515 E24.40645
G1 X147.306 Y82.336 E24.43404
G1 X147.108 Y83.141 E24.46161
G1 X146.834 Y83.923 E24.48917
G1 X146.485 Y84.676 E24.51678
G1 X146.065 Y85.391 E24.54436
G1 X145.579 Y86.062 E24.57192
G1 X144.947 Y86.768 E24.60343
G1 X144.83 Y86.885 E24.60893
G1 X144.216 Y87.443 E24.63653
G1 X143.551 Y87.938 E24.6641
G1 X143.255 Y88.117 E24.67561
G1 X143.231 Y88.17 E24.67754
G1 X142.811 Y88.885 E24.70512
G1 X142.325 Y89.556 E24.73268
G1 X141.616 Y90.338 E24.76779
G1 X141.495 Y90.456 E24.77341
G1 X140.874 Y91.006 E24.801
G1 X140.204 Y91.493 E24.82855
G1 X139.489 Y91.913 E24.85613
G1 X138.737 Y92.263 E24.88372
G1 X137.955 Y92.539 E24.9113
G1 X137.15 Y92.738 E24.93888
G1 X136.329 Y92.858 E24.96648
G1 X135.501 Y92.899 E24.99405
G1 X135.048 Y92.888 E25.00912
G1 X132.044 Y92.733 E25.10917
G1 X131.477 Y92.684 E25.1281
G1 X128.103 Y92.285 E25.2411
G1 X127.619 Y92.214 E25.25737
G1 X124.971 Y91.747 E25.3468
G1 X124.419 Y91.631 E25.36556
G1 X119.573 Y90.444 E25.5315
G1 X118.948 Y90.266 E25.55312
G1 X114.853 Y88.928 E25.6964
G1 X114.307 Y88.728 E25.71574
G1 X110.906 Y87.356 E25.83772
G1 X110.152 Y87.01 E25.86531
