;FLAVOR:Marlin
;TIME:3590
;Filament used: 2.48424m
;Layer height: 0.16
;Generated with Cura_SteamEngine 3.6.0
M140 S70
M105
M190 S70
M104 S215
M105
M109 S215
M82 ;absolute extrusion mode
G28 ; home all axes
M117 Purge extruder
G92 E0 ; reset extruder
G1 Z1.0 F3000 ; move z up little to prevent scratching of surface
G1 X0.1 Y20 Z0.3 F5000.0 ; move to start-line position G1 X0.1 Y200.0 Z0.3 F1500.0 E15 ; draw 1st line
G1 X0.4 Y200.0 Z0.3 F5000.0 ; move to side a little
G1 X0.4 Y20 Z0.3 F1500.0 E30 ; draw 2nd line
G92 E0 ; reset extruder
G1 Z1.0 F3000 ; move z up little to prevent scratching of surface
M117 All systems go!
G92 E0
G1 F6000 E-5
;LAYER_COUNT:290
;LAYER:0
M107
M204 S5000
M205 X30 Y30
G0 F7200 X103.81 Y106.574 Z0.2
M204 S500
M205 X20 Y20
;TYPE:SKIRT
G1 F6000 E0
G1 F900 X106.574 Y103.81 E0.14301
G1 X107.051 Y103.39 E0.16626
G1 X107.856 Y102.879 E0.20115
G1 X111.341 Y101.104 E0.34424
G1 X111.924 Y100.852 E0.36747
G1 X112.844 Y100.616 E0.40222
G1 X116.707 Y100.003 E0.54532
G1 X117.34 Y99.943 E0.56859
G1 X117.976 Y99.962 E0.59187
G1 X118.293 Y100.003 E0.60356
G1 X122.156 Y100.616 E0.74666
G1 X122.777 Y100.754 E0.76993
G1 X123.659 Y101.104 E0.80465
G1 X127.144 Y102.879 E0.94774
G1 X127.692 Y103.203 E0.97103
G1 X128.426 Y103.81 E1.00588
G1 X131.19 Y106.574 E1.14889
G1 X131.61 Y107.051 E1.17214
G1 X132.121 Y107.856 E1.20703
G1 X133.896 Y111.341 E1.35011
G1 X134.148 Y111.924 E1.37335
G1 X134.384 Y112.844 E1.4081
G1 X134.997 Y116.707 E1.5512
G1 X135.057 Y117.34 E1.57446
G1 X135.038 Y117.976 E1.59774
G1 X134.997 Y118.293 E1.60944
G1 X134.384 Y122.156 E1.75254
G1 X134.246 Y122.777 E1.77581
G1 X133.896 Y123.659 E1.81053
G1 X132.121 Y127.144 E1.95362
G1 X131.797 Y127.692 E1.97691
G1 X131.19 Y128.426 E2.01176
G1 X128.426 Y131.19 E2.15477
G1 X127.949 Y131.61 E2.17802
G1 X127.144 Y132.121 E2.2129
G1 X123.659 Y133.896 E2.35599
G1 X123.076 Y134.148 E2.37923
G1 X122.156 Y134.384 E2.41398
G1 X118.293 Y134.997 E2.55708
G1 X117.66 Y135.057 E2.58034
G1 X117.024 Y135.038 E2.60362
G1 X116.707 Y134.997 E2.61532
G1 X112.844 Y134.384 E2.75842
G1 X112.223 Y134.246 E2.78169
G1 X111.341 Y133.896 E2.81641
G1 X107.856 Y132.121 E2.9595
G1 X107.308 Y131.797 E2.98279
G1 X106.574 Y131.19 E3.01763
G1 X103.81 Y128.426 E3.16064
G1 X103.39 Y127.949 E3.1839
G1 X102.879 Y127.144 E3.21878
G1 X101.104 Y123.659 E3.36187
G1 X100.852 Y123.076 E3.38511
G1 X100.616 Y122.156 E3.41986
G1 X100.003 Y118.293 E3.56296
G1 X99.943 Y117.66 E3.58622
G1 X99.962 Y117.024 E3.6095
G1 X100.003 Y116.707 E3.62119
G1 X100.616 Y112.844 E3.76429
G1 X100.754 Y112.223 E3.78757
G1 X101.104 Y111.341 E3.82228
G1 X102.879 Y107.856 E3.96537
G1 X103.203 Y107.308 E3.98866
G1 X103.347 Y107.134 E3.99693
G0 F810 X103.81 Y106.574
M204 S5000
M205 X30 Y30
G0 F7200 X104.121 Y106.885
M204 S500
M205 X20 Y20
G1 F6000 E4.02353
G1 F900 X106.885 Y104.121 E4.16654
G1 X107.342 Y103.721 E4.18876
G1 X108.055 Y103.271 E4.2196
G1 X111.54 Y101.496 E4.36269
G1 X112.099 Y101.257 E4.38493
G1 X112.913 Y101.05 E4.41566
G1 X116.776 Y100.437 E4.55876
G1 X117.381 Y100.382 E4.58099
G1 X118.224 Y100.437 E4.6119
G1 X122.087 Y101.05 E4.755
G1 X122.68 Y101.185 E4.77725
G1 X123.46 Y101.496 E4.80797
G1 X126.945 Y103.271 E4.95106
G1 X127.467 Y103.582 E4.97329
G1 X128.115 Y104.121 E5.00413
G1 X130.879 Y106.885 E5.14714
G1 X131.279 Y107.342 E5.16936
G1 X131.729 Y108.055 E5.2002
G1 X133.504 Y111.54 E5.34329
G1 X133.743 Y112.099 E5.36554
G1 X133.95 Y112.913 E5.39626
G1 X134.563 Y116.776 E5.53936
G1 X134.618 Y117.381 E5.56159
G1 X134.563 Y118.224 E5.5925
G1 X133.95 Y122.087 E5.7356
G1 X133.815 Y122.68 E5.75785
G1 X133.504 Y123.46 E5.78857
G1 X131.729 Y126.945 E5.93166
G1 X131.418 Y127.467 E5.95389
G1 X130.879 Y128.115 E5.98473
G1 X128.115 Y130.879 E6.12774
G1 X127.658 Y131.279 E6.14996
G1 X126.945 Y131.729 E6.18081
G1 X123.46 Y133.504 E6.32389
G1 X122.901 Y133.743 E6.34614
G1 X122.087 Y133.95 E6.37687
G1 X118.224 Y134.563 E6.51997
G1 X117.619 Y134.618 E6.54219
G1 X116.776 Y134.563 E6.5731
G1 X112.913 Y133.95 E6.7162
G1 X112.32 Y133.815 E6.73845
G1 X111.54 Y133.504 E6.76917
G1 X108.055 Y131.729 E6.91226
G1 X107.533 Y131.418 E6.93449
G1 X106.885 Y130.879 E6.96533
G1 X104.121 Y128.115 E7.10834
G1 X103.721 Y127.658 E7.13056
G1 X103.271 Y126.945 E7.16141
G1 X101.496 Y123.46 E7.30449
G1 X101.257 Y122.901 E7.32674
G1 X101.05 Y122.087 E7.35747
G1 X100.437 Y118.224 E7.50057
G1 X100.382 Y117.619 E7.52279
G1 X100.437 Y116.776 E7.5537
G1 X101.05 Y112.913 E7.6968
G1 X101.185 Y112.32 E7.71905
G1 X101.496 Y111.54 E7.74977
G1 X103.271 Y108.055 E7.89286
G1 X103.582 Y107.533 E7.91509
G1 X103.656 Y107.444 E7.91933
G0 F810 X104.121 Y106.885
M204 S5000
M205 X30 Y30
G0 F7200 X104.432 Y107.196
M204 S500
M205 X20 Y20
G1 F6000 E7.94592
G1 F900 X107.196 Y104.432 E8.08894
G1 X107.632 Y104.053 E8.11007
G1 X108.255 Y103.663 E8.13696
G1 X111.74 Y101.888 E8.28005
G1 X112.272 Y101.662 E8.3012
G1 X112.982 Y101.485 E8.32797
G1 X116.845 Y100.872 E8.47107
G1 X117.421 Y100.821 E8.49223
G1 X118.155 Y100.872 E8.51915
G1 X122.018 Y101.485 E8.66225
G1 X122.581 Y101.614 E8.68338
G1 X123.26 Y101.888 E8.71017
G1 X126.745 Y103.663 E8.85325
G1 X127.241 Y103.961 E8.87442
G1 X127.804 Y104.432 E8.90128
G1 X130.568 Y107.196 E9.04429
G1 X130.947 Y107.632 E9.06543
G1 X131.337 Y108.255 E9.09232
G1 X133.112 Y111.74 E9.23541
G1 X133.338 Y112.272 E9.25655
G1 X133.515 Y112.982 E9.28332
G1 X134.128 Y116.845 E9.42642
G1 X134.179 Y117.421 E9.44758
G1 X134.128 Y118.155 E9.4745
G1 X133.515 Y122.018 E9.6176
G1 X133.386 Y122.581 E9.63873
G1 X133.112 Y123.26 E9.66552
G1 X131.337 Y126.745 E9.80861
G1 X131.039 Y127.241 E9.82978
G1 X130.568 Y127.804 E9.85663
G1 X127.804 Y130.568 E9.99965
G1 X127.368 Y130.947 E10.02078
G1 X126.745 Y131.337 E10.04767
G1 X123.26 Y133.112 E10.19076
G1 X122.728 Y133.338 E10.21191
G1 X122.018 Y133.515 E10.23868
G1 X118.155 Y134.128 E10.38178
G1 X117.579 Y134.179 E10.40294
G1 X116.845 Y134.128 E10.42985
G1 X112.982 Y133.515 E10.57296
G1 X112.419 Y133.386 E10.59409
G1 X111.74 Y133.112 E10.62088
G1 X108.255 Y131.337 E10.76396
G1 X107.759 Y131.039 E10.78513
G1 X107.196 Y130.568 E10.81199
G1 X104.432 Y127.804 E10.955
G1 X104.053 Y127.368 E10.97614
G1 X103.663 Y126.745 E11.00303
G1 X101.888 Y123.26 E11.14611
G1 X101.662 Y122.728 E11.16726
G1 X101.485 Y122.018 E11.19403
G1 X100.872 Y118.155 E11.33713
G1 X100.821 Y117.579 E11.35829
G1 X100.872 Y116.845 E11.38521
G1 X101.485 Y112.982 E11.52831
G1 X101.614 Y112.419 E11.54944
G1 X101.888 Y111.74 E11.57623
G1 X103.663 Y108.255 E11.71932
G1 X103.961 Y107.759 E11.74049
G1 X103.966 Y107.753 E11.74077
G0 F810 X104.432 Y107.196
M204 S5000
M205 X30 Y30
G0 F7200 X104.743 Y107.507
M204 S500
M205 X20 Y20
G1 F6000 E11.76737
G1 F900 X107.507 Y104.743 E11.91038
G1 X107.921 Y104.386 E11.93038
G1 X108.455 Y104.055 E11.95337
G1 X111.94 Y102.28 E12.09646
G1 X112.444 Y102.069 E12.11645
G1 X113.051 Y101.919 E12.13932
G1 X116.914 Y101.306 E12.28242
G1 X117.459 Y101.26 E12.30243
G1 X118.086 Y101.306 E12.32544
G1 X121.949 Y101.919 E12.46854
G1 X122.481 Y102.044 E12.48853
G1 X123.06 Y102.28 E12.51141
G1 X126.545 Y104.055 E12.65449
G1 X127.013 Y104.338 E12.6745
G1 X127.493 Y104.743 E12.69748
G1 X130.257 Y107.507 E12.84049
G1 X130.614 Y107.921 E12.86049
G1 X130.945 Y108.455 E12.88348
G1 X132.72 Y111.94 E13.02657
G1 X132.931 Y112.444 E13.04656
G1 X133.081 Y113.051 E13.06943
G1 X133.694 Y116.914 E13.21253
G1 X133.74 Y117.459 E13.23254
G1 X133.694 Y118.086 E13.25554
G1 X133.081 Y121.949 E13.39864
G1 X132.956 Y122.481 E13.41864
G1 X132.72 Y123.06 E13.44151
G1 X130.945 Y126.545 E13.5846
G1 X130.662 Y127.013 E13.60461
G1 X130.257 Y127.493 E13.62759
G1 X127.493 Y130.257 E13.7706
G1 X127.079 Y130.614 E13.7906
G1 X126.545 Y130.945 E13.81359
G1 X123.06 Y132.72 E13.95667
G1 X122.556 Y132.931 E13.97666
G1 X121.949 Y133.081 E13.99954
G1 X118.086 Y133.694 E14.14264
G1 X117.541 Y133.74 E14.16265
G1 X116.914 Y133.694 E14.18565
G1 X113.051 Y133.081 E14.32875
G1 X112.519 Y132.956 E14.34875
G1 X111.94 Y132.72 E14.37162
G1 X108.455 Y130.945 E14.51471
G1 X107.987 Y130.662 E14.53472
G1 X107.507 Y130.257 E14.5577
G1 X104.743 Y127.493 E14.70071
G1 X104.386 Y127.079 E14.72071
G1 X104.055 Y126.545 E14.74369
G1 X102.28 Y123.06 E14.88678
G1 X102.069 Y122.556 E14.90677
G1 X101.919 Y121.949 E14.92965
G1 X101.306 Y118.086 E15.07275
G1 X101.26 Y117.541 E15.09276
G1 X101.306 Y116.914 E15.11576
G1 X101.919 Y113.051 E15.25886
G1 X102.044 Y112.519 E15.27886
G1 X102.28 Y111.94 E15.30173
G1 X104.055 Y108.455 E15.44482
G1 X104.287 Y108.071 E15.46123
G0 F810 X104.338 Y107.987
G0 X104.743 Y107.507
M204 S5000
M205 X30 Y30
G0 F7200 X105.055 Y107.819
M204 S500
M205 X20 Y20
G1 F6000 E15.48783
G1 F900 X107.819 Y105.055 E15.63084
G1 X108.209 Y104.721 E15.64963
G1 X108.654 Y104.447 E15.66875
G1 X112.139 Y102.672 E15.81184
G1 X112.614 Y102.476 E15.83064
G1 X113.12 Y102.354 E15.84968
G1 X116.983 Y101.741 E15.99278
G1 X117.495 Y101.7 E16.01157
G1 X118.017 Y101.741 E16.03073
G1 X121.88 Y102.354 E16.17383
G1 X122.379 Y102.473 E16.1926
G1 X122.861 Y102.672 E16.21168
G1 X126.346 Y104.447 E16.35476
G1 X126.784 Y104.715 E16.37355
G1 X127.181 Y105.055 E16.39267
G1 X129.945 Y107.819 E16.53568
G1 X130.279 Y108.209 E16.55447
G1 X130.553 Y108.654 E16.57359
G1 X132.328 Y112.139 E16.71668
G1 X132.524 Y112.614 E16.73548
G1 X132.646 Y113.12 E16.75452
G1 X133.259 Y116.983 E16.89762
G1 X133.3 Y117.495 E16.91641
G1 X133.259 Y118.017 E16.93557
G1 X132.646 Y121.88 E17.07867
G1 X132.527 Y122.379 E17.09744
G1 X132.328 Y122.861 E17.11652
G1 X130.553 Y126.346 E17.25961
G1 X130.285 Y126.784 E17.27839
G1 X129.945 Y127.181 E17.29752
G1 X127.181 Y129.945 E17.44053
G1 X126.791 Y130.279 E17.45931
G1 X126.346 Y130.553 E17.47843
G1 X122.861 Y132.328 E17.62152
G1 X122.386 Y132.524 E17.64032
G1 X121.88 Y132.646 E17.65936
G1 X118.017 Y133.259 E17.80246
G1 X117.505 Y133.3 E17.82126
G1 X116.983 Y133.259 E17.84041
G1 X113.12 Y132.646 E17.98351
G1 X112.621 Y132.527 E18.00228
G1 X112.139 Y132.328 E18.02136
G1 X108.654 Y130.553 E18.16445
G1 X108.216 Y130.285 E18.18324
G1 X107.819 Y129.945 E18.20236
G1 X105.055 Y127.181 E18.34537
G1 X104.721 Y126.791 E18.36416
G1 X104.447 Y126.346 E18.38328
G1 X102.672 Y122.861 E18.52636
G1 X102.476 Y122.386 E18.54516
G1 X102.354 Y121.88 E18.56421
G1 X101.741 Y118.017 E18.70731
G1 X101.7 Y117.505 E18.7261
G1 X101.741 Y116.983 E18.74526
G1 X102.354 Y113.12 E18.88836
G1 X102.473 Y112.621 E18.90713
G1 X102.672 Y112.139 E18.9262
G1 X104.447 Y108.654 E19.06929
G1 X104.608 Y108.391 E19.08057
G0 F810 X104.715 Y108.216
G0 X105.055 Y107.819
M204 S5000
M205 X30 Y30
G0 F7200 X105.366 Y108.13
M204 S500
M205 X20 Y20
G1 F6000 E19.10717
G1 F900 X108.13 Y105.366 E19.25018
G1 X108.495 Y105.057 E19.26768
G1 X108.854 Y104.84 E19.28303
G1 X112.339 Y103.065 E19.42612
G1 X112.781 Y102.884 E19.44359
G1 X113.189 Y102.788 E19.45892
G1 X117.052 Y102.175 E19.60203
G1 X117.528 Y102.14 E19.61949
G1 X117.948 Y102.175 E19.63491
G1 X121.811 Y102.788 E19.77801
G1 X122.275 Y102.902 E19.79549
G1 X122.661 Y103.065 E19.81082
G1 X126.146 Y104.84 E19.95391
G1 X126.552 Y105.091 E19.97137
G1 X126.87 Y105.366 E19.98675
G1 X129.634 Y108.13 E20.12976
G1 X129.943 Y108.495 E20.14726
G1 X130.16 Y108.854 E20.16261
G1 X131.935 Y112.339 E20.30569
G1 X132.116 Y112.781 E20.32317
G1 X132.212 Y113.189 E20.3385
G1 X132.825 Y117.052 E20.4816
G1 X132.86 Y117.528 E20.49907
G1 X132.825 Y117.948 E20.51449
G1 X132.212 Y121.811 E20.65759
G1 X132.098 Y122.275 E20.67507
G1 X131.935 Y122.661 E20.6904
G1 X130.16 Y126.146 E20.83348
G1 X129.909 Y126.552 E20.85095
G1 X129.634 Y126.87 E20.86633
G1 X126.87 Y129.634 E21.00934
G1 X126.505 Y129.943 E21.02684
G1 X126.146 Y130.16 E21.04218
G1 X122.661 Y131.935 E21.18527
G1 X122.219 Y132.116 E21.20275
G1 X121.811 Y132.212 E21.21808
G1 X117.948 Y132.825 E21.36118
G1 X117.472 Y132.86 E21.37864
G1 X117.052 Y132.825 E21.39406
G1 X113.189 Y132.212 E21.53716
G1 X112.725 Y132.098 E21.55465
G1 X112.339 Y131.935 E21.56998
G1 X108.854 Y130.16 E21.71306
G1 X108.448 Y129.909 E21.73053
G1 X108.13 Y129.634 E21.74591
G1 X105.366 Y126.87 E21.88892
G1 X105.057 Y126.505 E21.90642
G1 X104.84 Y126.146 E21.92176
G1 X103.065 Y122.661 E22.06485
G1 X102.884 Y122.219 E22.08233
G1 X102.788 Y121.811 E22.09766
G1 X102.175 Y117.948 E22.24076
G1 X102.14 Y117.472 E22.25822
G1 X102.175 Y117.052 E22.27364
G1 X102.788 Y113.189 E22.41674
G1 X102.902 Y112.725 E22.43422
G1 X103.065 Y112.339 E22.44955
G1 X104.84 Y108.854 E22.59264
G1 X104.93 Y108.709 E22.59889
G0 F810 X105.091 Y108.448
G0 X105.366 Y108.13
M204 S5000
M205 X30 Y30
G0 F7200 X105.677 Y108.441
M204 S500
M205 X20 Y20
G1 F6000 E22.62548
G1 F900 X108.441 Y105.677 E22.7685
G1 X108.779 Y105.396 E22.78458
G1 X109.054 Y105.232 E22.79629
G1 X112.539 Y103.457 E22.93938
G1 X112.947 Y103.293 E22.95547
G1 X113.258 Y103.223 E22.96713
G1 X117.121 Y102.61 E23.11023
G1 X117.559 Y102.581 E23.12629
G1 X117.879 Y102.61 E23.13805
G1 X121.742 Y103.223 E23.28115
G1 X122.168 Y103.331 E23.29723
G1 X122.461 Y103.457 E23.30889
G1 X125.946 Y105.232 E23.45198
G1 X126.318 Y105.466 E23.46806
G1 X126.559 Y105.677 E23.47978
G1 X129.323 Y108.441 E23.62279
G1 X129.604 Y108.779 E23.63887
G1 X129.768 Y109.054 E23.65059
G1 X131.543 Y112.539 E23.79368
G1 X131.707 Y112.947 E23.80976
G1 X131.777 Y113.258 E23.82143
G1 X132.39 Y117.121 E23.96453
G1 X132.419 Y117.559 E23.98059
G1 X132.39 Y117.879 E23.99234
G1 X131.777 Y121.742 E24.13544
G1 X131.669 Y122.168 E24.15152
G1 X131.543 Y122.461 E24.16319
G1 X129.768 Y125.946 E24.30628
G1 X129.534 Y126.318 E24.32236
G1 X129.323 Y126.559 E24.33408
G1 X126.559 Y129.323 E24.47709
G1 X126.221 Y129.604 E24.49317
G1 X125.946 Y129.768 E24.50488
G1 X122.461 Y131.543 E24.64797
G1 X122.053 Y131.707 E24.66406
G1 X121.742 Y131.777 E24.67572
G1 X117.879 Y132.39 E24.81882
G1 X117.441 Y132.419 E24.83488
G1 X117.121 Y132.39 E24.84664
G1 X113.258 Y131.777 E24.98974
G1 X112.832 Y131.669 E25.00582
G1 X112.539 Y131.543 E25.01749
G1 X109.054 Y129.768 E25.16058
G1 X108.682 Y129.534 E25.17665
G1 X108.441 Y129.323 E25.18837
G1 X105.677 Y126.559 E25.33138
G1 X105.396 Y126.221 E25.34747
G1 X105.232 Y125.946 E25.35918
G1 X103.457 Y122.461 E25.50227
G1 X103.293 Y122.053 E25.51836
G1 X103.223 Y121.742 E25.53002
G1 X102.61 Y117.879 E25.67312
G1 X102.581 Y117.441 E25.68918
G1 X102.61 Y117.121 E25.70094
G1 X103.223 Y113.258 E25.84404
G1 X103.331 Y112.832 E25.86011
G1 X103.457 Y112.539 E25.87178
G1 X105.232 Y109.054 E26.01487
G1 X105.25 Y109.026 E26.01609
G0 F810 X105.466 Y108.682
G0 X105.677 Y108.441
M204 S5000
M205 X30 Y30
G0 F7200 X105.988 Y108.752
M204 S500
M205 X20 Y20
G1 F6000 E26.04269
G1 F900 X108.752 Y105.988 E26.1857
G1 X109.06 Y105.736 E26.20026
G1 X109.253 Y105.624 E26.20842
G1 X112.738 Y103.849 E26.35151
G1 X113.109 Y103.705 E26.36607
G1 X113.327 Y103.657 E26.37424
G1 X117.19 Y103.044 E26.51734
G1 X117.587 Y103.022 E26.53189
G1 X117.81 Y103.044 E26.54008
G1 X121.673 Y103.657 E26.68318
G1 X122.058 Y103.759 E26.69776
G1 X122.262 Y103.849 E26.70591
G1 X125.747 Y105.624 E26.849
G1 X126.081 Y105.839 E26.86353
G1 X126.248 Y105.988 E26.87172
G1 X129.012 Y108.752 E27.01473
G1 X129.264 Y109.06 E27.02929
G1 X129.376 Y109.253 E27.03746
G1 X131.151 Y112.738 E27.18055
G1 X131.295 Y113.109 E27.19511
G1 X131.343 Y113.327 E27.20327
G1 X131.956 Y117.19 E27.34637
G1 X131.978 Y117.587 E27.36092
G1 X131.956 Y117.81 E27.36912
G1 X131.343 Y121.673 E27.51222
G1 X131.241 Y122.058 E27.52679
G1 X131.151 Y122.262 E27.53495
G1 X129.376 Y125.747 E27.67804
G1 X129.161 Y126.081 E27.69257
G1 X129.012 Y126.248 E27.70076
G1 X126.248 Y129.012 E27.84377
G1 X125.94 Y129.264 E27.85833
G1 X125.747 Y129.376 E27.86649
G1 X122.262 Y131.151 E28.00958
G1 X121.891 Y131.295 E28.02414
G1 X121.673 Y131.343 E28.03231
G1 X117.81 Y131.956 E28.17541
G1 X117.413 Y131.978 E28.18995
G1 X117.19 Y131.956 E28.19815
G1 X113.327 Y131.343 E28.34125
G1 X112.942 Y131.241 E28.35582
G1 X112.738 Y131.151 E28.36398
G1 X109.253 Y129.376 E28.50707
G1 X108.919 Y129.161 E28.5216
G1 X108.752 Y129.012 E28.52979
G1 X105.988 Y126.248 E28.6728
G1 X105.736 Y125.94 E28.68736
G1 X105.624 Y125.747 E28.69553
G1 X103.849 Y122.262 E28.83861
G1 X103.705 Y121.891 E28.85317
