;FLAVOR:Marlin
;TIME:2466
;Filament used: 1.48574m
;Layer height: 0.16
;Generated with Cura_SteamEngine 3.6.0
M140 S70
M105
M190 S70
M104 S215
M105
M109 S215
M82 ;absolute extrusion mode
G28 ; home all axes
M117 Purge extruder
G92 E0 ; reset extruder
G1 Z1.0 F3000 ; move z up little to prevent scratching of surface
G1 X0.1 Y20 Z0.3 F5000.0 ; move to start-line position G1 X0.1 Y200.0 Z0.3 F1500.0 E15 ; draw 1st line
G1 X0.4 Y200.0 Z0.3 F5000.0 ; move to side a little
G1 X0.4 Y20 Z0.3 F1500.0 E30 ; draw 2nd line
G92 E0 ; reset extruder
G1 Z1.0 F3000 ; move z up little to prevent scratching of surface
M117 All systems go!
G92 E0
G1 F6000 E-5
;LAYER_COUNT:144
;LAYER:0
M107
M204 S5000
M205 X30 Y30
G0 F7200 X91.973 Y105.405 Z0.2
M204 S500
M205 X20 Y20
;TYPE:SKIRT
G1 F6000 E0
G1 F900 X92.453 Y105.008 E0.02279
G1 X93.001 Y104.609 E0.04759
G1 X93.537 Y104.268 E0.07083
G1 X94.112 Y103.997 E0.09409
G1 X94.717 Y103.8 E0.11737
G1 X95.342 Y103.68 E0.14065
G1 X96.245 Y103.647 E0.17371
G1 X96.397 Y103.655 E0.17928
G1 X96.63 Y103.579 E0.18825
G1 X97.498 Y103.435 E0.22044
G1 X98.889 Y103.327 E0.27148
G1 X99.525 Y103.318 E0.29475
G1 X100.157 Y103.388 E0.31802
G1 X100.775 Y103.538 E0.34128
G1 X101.37 Y103.763 E0.36456
G1 X101.931 Y104.062 E0.38781
G1 X102.26 Y104.282 E0.40229
G1 X102.823 Y104.692 E0.42778
G1 X103.274 Y105.067 E0.44923
G1 X103.422 Y104.945 E0.45625
G1 X103.978 Y104.54 E0.48142
G1 X104.514 Y104.199 E0.50466
G1 X105.089 Y103.927 E0.52793
G1 X105.694 Y103.73 E0.55121
G1 X106.319 Y103.61 E0.5745
G1 X106.957 Y103.57 E0.59788
G1 X107.643 Y103.57 E0.62298
G1 X108.278 Y103.61 E0.64626
G1 X108.794 Y103.708 E0.66548
G1 X108.988 Y103.66 E0.67279
G1 X109.903 Y103.577 E0.7064
G1 X110.589 Y103.577 E0.7315
G1 X111.224 Y103.617 E0.75478
G1 X111.848 Y103.736 E0.77802
G1 X112.453 Y103.933 E0.8013
G1 X113.028 Y104.204 E0.82455
G1 X113.266 Y104.355 E0.83487
G1 X113.379 Y104.283 E0.83977
G1 X113.954 Y104.011 E0.86304
G1 X114.559 Y103.814 E0.88632
G1 X115.184 Y103.694 E0.9096
G1 X115.822 Y103.654 E0.93299
G1 X116.508 Y103.654 E0.95809
G1 X117.143 Y103.694 E0.98137
G1 X117.767 Y103.813 E1.00461
G1 X118.001 Y103.889 E1.01361
G1 X118.503 Y103.944 E1.03209
G1 X118.542 Y103.953 E1.03355
G1 X118.612 Y103.949 E1.03611
G1 X119.29 Y103.949 E1.06092
G1 X119.925 Y103.989 E1.0842
G1 X120.549 Y104.108 E1.10744
G1 X120.723 Y104.165 E1.11414
G1 X120.876 Y104.155 E1.11975
G1 X121.561 Y104.155 E1.14481
G1 X122.196 Y104.195 E1.16809
G1 X122.82 Y104.314 E1.19133
G1 X123.333 Y104.481 E1.21107
G1 X123.841 Y104.513 E1.22969
G1 X124.465 Y104.632 E1.25293
G1 X125.07 Y104.829 E1.27621
G1 X125.645 Y105.1 E1.29947
G1 X125.963 Y105.29 E1.31302
G1 X127.074 Y106.012 E1.3615
G1 X127.585 Y106.392 E1.38479
G1 X128.228 Y107.045 E1.41832
G1 X128.846 Y107.798 E1.45396
G1 X129.141 Y108.208 E1.47244
G1 X129.333 Y108.27 E1.47982
G1 X129.908 Y108.541 E1.50308
G1 X130.447 Y108.883 E1.52643
G1 X130.947 Y109.247 E1.54906
G1 X131.437 Y109.653 E1.57234
G1 X131.567 Y109.792 E1.57931
G1 X132.112 Y109.792 E1.59925
G1 X132.747 Y109.832 E1.62252
G1 X133.371 Y109.951 E1.64576
G1 X133.976 Y110.148 E1.66904
G1 X134.551 Y110.419 E1.6923
G1 X135.091 Y110.762 E1.7157
G1 X136.427 Y111.735 E1.77617
G1 X136.916 Y112.141 E1.79943
G1 X137.351 Y112.605 E1.8227
G1 X137.724 Y113.12 E1.84596
G1 X138.03 Y113.678 E1.86924
G1 X138.259 Y114.258 E1.89206
G1 X138.77 Y115.827 E1.95243
G1 X138.929 Y116.443 E1.97571
G1 X139.009 Y117.074 E1.99898
G1 X139.009 Y117.71 E2.02224
G1 X138.93 Y118.341 E2.04551
G1 X138.77 Y118.961 E2.06894
G1 X138.259 Y120.53 E2.12931
G1 X138.025 Y121.121 E2.15256
G1 X137.718 Y121.678 E2.17583
G1 X137.344 Y122.192 E2.19909
G1 X136.908 Y122.655 E2.22236
G1 X136.427 Y123.053 E2.2452
G1 X135.091 Y124.026 E2.30567
G1 X134.554 Y124.368 E2.32896
G1 X133.979 Y124.639 E2.35222
G1 X133.471 Y124.805 E2.37177
G1 X133.259 Y125.452 E2.39668
G1 X133.023 Y126.043 E2.41996
G1 X132.716 Y126.6 E2.44323
G1 X132.341 Y127.113 E2.46648
G1 X131.905 Y127.576 E2.48975
G1 X131.431 Y127.968 E2.51225
G1 X130.862 Y128.383 E2.53802
G1 X130.325 Y128.725 E2.56131
G1 X129.75 Y128.997 E2.58458
G1 X129.146 Y129.194 E2.60783
G1 X128.521 Y129.314 E2.63111
G1 X127.88 Y129.355 E2.65461
G1 X127.783 Y129.355 E2.65816
G1 X127.69 Y129.423 E2.66237
G1 X127.153 Y129.765 E2.68567
G1 X126.578 Y130.036 E2.70892
G1 X125.973 Y130.233 E2.7322
G1 X125.037 Y130.382 E2.76688
G1 X124.938 Y130.388 E2.77051
G1 X124.359 Y130.577 E2.79279
G1 X123.735 Y130.697 E2.81604
G1 X123.096 Y130.737 E2.83946
G1 X122.488 Y130.737 E2.86171
G1 X122.281 Y130.788 E2.86951
G1 X121.385 Y130.868 E2.90242
G1 X120.708 Y130.868 E2.92719
G1 X120.073 Y130.828 E2.95046
G1 X120.067 Y130.827 E2.95069
G1 X120.055 Y130.829 E2.95113
G1 X119.421 Y130.869 E2.97437
G1 X118.753 Y130.869 E2.99881
G1 X118.166 Y130.832 E3.02033
G1 X118.156 Y130.834 E3.0207
G1 X116.936 Y131.01 E3.0658
G1 X116.303 Y131.061 E3.08904
G1 X115.667 Y131.032 E3.11233
G1 X115.041 Y130.924 E3.13557
G1 X114.433 Y130.738 E3.15883
G1 X113.853 Y130.477 E3.1821
G1 X113.236 Y130.093 E3.20869
G1 X112.786 Y129.765 E3.22906
G1 X112.583 Y129.913 E3.23825
G1 X112.047 Y130.254 E3.2615
G1 X111.472 Y130.526 E3.28477
G1 X110.867 Y130.723 E3.30805
G1 X110.242 Y130.843 E3.33133
G1 X109.604 Y130.883 E3.35472
G1 X108.918 Y130.883 E3.37982
G1 X108.283 Y130.843 E3.4031
G1 X107.659 Y130.724 E3.42634
G1 X107.054 Y130.527 E3.44962
G1 X106.848 Y130.43 E3.45795
G1 X106.254 Y130.43 E3.47968
G1 X105.619 Y130.39 E3.50296
G1 X104.995 Y130.271 E3.5262
G1 X104.39 Y130.074 E3.54948
G1 X103.815 Y129.803 E3.57273
G1 X103.599 Y129.666 E3.58209
G1 X103.229 Y129.972 E3.59966
G1 X102.673 Y130.377 E3.62482
G1 X102.137 Y130.718 E3.64807
G1 X101.562 Y130.99 E3.67134
G1 X100.957 Y131.187 E3.69462
G1 X100.332 Y131.307 E3.7179
G1 X99.694 Y131.347 E3.74129
G1 X99.008 Y131.347 E3.76639
G1 X98.373 Y131.307 E3.78966
G1 X97.749 Y131.188 E3.81291
G1 X97.659 Y131.159 E3.81636
G1 X97.213 Y131.139 E3.8327
G1 X96.983 Y131.099 E3.84124
G1 X96.817 Y131.128 E3.84741
G1 X96.185 Y131.198 E3.87067
G1 X95.549 Y131.188 E3.89394
G1 X94.92 Y131.099 E3.91718
G1 X94.306 Y130.931 E3.94047
G1 X93.719 Y130.688 E3.96372
G1 X92.967 Y130.235 E3.99583
G1 X92.419 Y129.836 E4.02064
G1 X91.929 Y129.43 E4.04392
G1 X91.494 Y128.966 E4.06719
G1 X91.121 Y128.451 E4.09045
G1 X90.816 Y127.893 E4.11372
G1 X90.586 Y127.314 E4.13651
G1 X90.376 Y126.67 E4.16129
G1 X90.218 Y126.054 E4.18456
G1 X90.137 Y125.423 E4.20783
G1 X90.137 Y124.787 E4.2311
G1 X90.216 Y124.156 E4.25437
G1 X90.376 Y123.532 E4.27794
G1 X90.586 Y122.888 E4.30272
G1 X90.821 Y122.297 E4.32599
G1 X91.12 Y121.755 E4.34864
G1 X90.952 Y121.547 E4.35842
G1 X90.62 Y121.005 E4.38167
G1 X90.357 Y120.426 E4.40494
G1 X90.183 Y119.871 E4.42622
G1 X89.996 Y119.13 E4.45418
G1 X89.879 Y118.505 E4.47744
G1 X89.842 Y117.898 E4.49969
G1 X89.841 Y117.112 E4.52845
G1 X89.88 Y116.478 E4.55169
G1 X90.017 Y115.782 E4.57764
G1 X90.232 Y114.989 E4.6077
G1 X90.437 Y114.387 E4.63097
G1 X90.716 Y113.815 E4.65425
G1 X91.064 Y113.283 E4.67751
G1 X91.19 Y113.137 E4.68457
G1 X91.129 Y113.052 E4.68839
G1 X90.829 Y112.491 E4.71167
G1 X90.62 Y111.955 E4.73272
G1 X90.41 Y111.31 E4.75753
G1 X90.251 Y110.694 E4.78081
G1 X90.171 Y110.063 E4.80408
G1 X90.171 Y109.427 E4.82735
G1 X90.25 Y108.796 E4.85062
G1 X90.41 Y108.174 E4.87411
G1 X90.62 Y107.53 E4.8989
G1 X90.855 Y106.939 E4.92216
G1 X91.162 Y106.382 E4.94543
G1 X91.483 Y105.942 E4.96536
G0 F810 X91.537 Y105.868
G0 X91.973 Y105.405
M204 S5000
M205 X30 Y30
G0 F7200 X92.353 Y105.654
M204 S500
M205 X20 Y20
G1 F6000 E4.99196
G1 F900 X92.712 Y105.364 E5.00884
G1 X93.26 Y104.965 E5.03364
G1 X93.773 Y104.641 E5.05584
G1 X94.325 Y104.386 E5.07809
G1 X94.906 Y104.206 E5.10034
G1 X95.505 Y104.104 E5.12257
G1 X96.222 Y104.086 E5.14881
G1 X96.456 Y104.098 E5.15738
G1 X96.818 Y103.986 E5.17125
G1 X97.532 Y103.874 E5.19769
G1 X98.923 Y103.766 E5.24873
G1 X99.531 Y103.759 E5.27098
G1 X100.134 Y103.831 E5.2932
G1 X100.723 Y103.983 E5.31545
G1 X101.286 Y104.21 E5.33766
G1 X102.001 Y104.637 E5.36813
G1 X102.564 Y105.047 E5.39361
G1 X103.03 Y105.437 E5.41585
G1 X103.244 Y105.669 E5.42739
G1 X103.32 Y105.592 E5.43135
G1 X103.681 Y105.301 E5.44832
G1 X104.237 Y104.896 E5.47348
G1 X104.75 Y104.571 E5.4957
G1 X105.302 Y104.317 E5.51793
G1 X105.883 Y104.137 E5.54018
G1 X106.482 Y104.035 E5.56241
G1 X106.957 Y104.01 E5.57982
G1 X107.643 Y104.01 E5.60492
G1 X108.249 Y104.05 E5.62713
G1 X108.801 Y104.16 E5.64773
G1 X109.175 Y104.075 E5.66176
G1 X109.903 Y104.017 E5.68848
G1 X110.589 Y104.017 E5.71358
G1 X111.195 Y104.057 E5.7358
G1 X111.791 Y104.176 E5.75803
G1 X112.366 Y104.372 E5.78026
G1 X112.91 Y104.643 E5.80249
G1 X113.267 Y104.876 E5.81809
G1 X113.615 Y104.655 E5.83317
G1 X114.167 Y104.401 E5.8554
G1 X114.748 Y104.221 E5.87766
G1 X115.347 Y104.119 E5.89989
G1 X115.822 Y104.094 E5.91729
G1 X116.508 Y104.094 E5.94239
G1 X117.114 Y104.134 E5.96461
G1 X117.71 Y104.253 E5.98684
G1 X117.9 Y104.318 E5.99419
G1 X118.48 Y104.388 E6.01556
G1 X118.505 Y104.394 E6.01651
G1 X118.612 Y104.389 E6.02042
G1 X119.29 Y104.389 E6.04523
G1 X119.896 Y104.429 E6.06745
G1 X120.492 Y104.548 E6.08968
G1 X120.663 Y104.606 E6.09629
G1 X120.876 Y104.595 E6.10409
G1 X121.561 Y104.595 E6.12916
G1 X122.167 Y104.635 E6.15138
G1 X122.763 Y104.754 E6.17361
G1 X123.235 Y104.915 E6.19186
G1 X123.812 Y104.953 E6.21301
G1 X124.408 Y105.072 E6.23525
G1 X124.983 Y105.268 E6.25747
G1 X125.723 Y105.659 E6.28809
G1 X126.834 Y106.381 E6.33657
G1 X127.321 Y106.745 E6.35882
G1 X127.888 Y107.324 E6.38846
G1 X128.506 Y108.077 E6.4241
G1 X128.86 Y108.571 E6.44634
G1 X128.864 Y108.579 E6.44667
G1 X129.246 Y108.709 E6.46143
G1 X129.79 Y108.98 E6.48367
G1 X130.188 Y109.239 E6.50104
G1 X130.688 Y109.603 E6.52367
G1 X131.155 Y109.992 E6.5459
G1 X131.376 Y110.232 E6.55784
G1 X132.112 Y110.232 E6.58477
G1 X132.718 Y110.272 E6.60699
G1 X133.314 Y110.391 E6.62922
G1 X133.889 Y110.587 E6.65145
G1 X134.433 Y110.858 E6.67368
G1 X134.832 Y111.117 E6.69109
G1 X136.168 Y112.09 E6.75155
G1 X136.634 Y112.48 E6.77379
G1 X137.046 Y112.927 E6.79603
G1 X137.395 Y113.424 E6.81825
G1 X137.676 Y113.963 E6.84048
G1 X137.841 Y114.394 E6.85737
G1 X138.352 Y115.963 E6.91774
G1 X138.502 Y116.552 E6.93998
G1 X138.573 Y117.156 E6.96223
G1 X138.564 Y117.763 E6.98444
G1 X138.476 Y118.364 E7.00666
G1 X138.352 Y118.825 E7.02413
G1 X137.841 Y120.394 E7.0845
G1 X137.615 Y120.958 E7.10673
G1 X137.317 Y121.487 E7.12894
G1 X136.953 Y121.973 E7.15116
G1 X136.527 Y122.407 E7.17341
G1 X136.168 Y122.698 E7.19031
G1 X134.832 Y123.671 E7.25078
G1 X134.318 Y123.995 E7.27301
G1 X133.766 Y124.25 E7.29526
G1 X133.186 Y124.429 E7.31747
G1 X133.114 Y124.441 E7.32014
G1 X133.058 Y124.648 E7.32798
G1 X132.84 Y125.315 E7.35365
G1 X132.614 Y125.879 E7.37588
G1 X132.316 Y126.408 E7.3981
G1 X131.95 Y126.894 E7.42036
G1 X131.525 Y127.327 E7.44255
G1 X131.171 Y127.613 E7.4592
G1 X130.602 Y128.028 E7.48497
G1 X130.089 Y128.353 E7.50719
G1 X129.537 Y128.607 E7.52942
G1 X128.957 Y128.788 E7.55165
G1 X128.358 Y128.89 E7.57388
G1 X127.88 Y128.915 E7.59139
G1 X127.641 Y128.915 E7.60014
G1 X127.431 Y129.068 E7.60964
G1 X126.917 Y129.392 E7.63187
G1 X126.365 Y129.647 E7.65412
G1 X125.785 Y129.826 E7.67633
G1 X125.009 Y129.943 E7.70504
G1 X124.828 Y129.955 E7.71167
G1 X124.751 Y129.99 E7.71477
G1 X124.171 Y130.17 E7.73699
G1 X123.572 Y130.272 E7.75922
G1 X123.096 Y130.297 E7.77666
G1 X122.436 Y130.297 E7.8008
G1 X122.097 Y130.373 E7.81351
G1 X121.385 Y130.428 E7.83964
G1 X120.708 Y130.428 E7.86441
G1 X120.102 Y130.388 E7.88663
G1 X120.051 Y130.378 E7.88853
G1 X119.892 Y130.405 E7.89443
G1 X119.421 Y130.429 E7.91169
G1 X118.753 Y130.429 E7.93613
G1 X118.147 Y130.389 E7.95834
G1 X118.146 Y130.389 E7.95838
G1 X118.094 Y130.399 E7.96032
G1 X116.874 Y130.575 E8.00542
G1 X116.268 Y130.622 E8.02765
G1 X115.661 Y130.589 E8.04989
G1 X115.064 Y130.477 E8.07212
G1 X114.487 Y130.287 E8.09434
G1 X113.939 Y130.023 E8.1166
G1 X113.495 Y129.737 E8.13592
G1 X112.947 Y129.338 E8.16072
G1 X112.797 Y129.213 E8.16786
G1 X112.324 Y129.557 E8.18926
G1 X111.811 Y129.882 E8.21148
G1 X111.259 Y130.136 E8.23371
G1 X110.678 Y130.316 E8.25596
G1 X110.079 Y130.418 E8.27819
G1 X109.604 Y130.443 E8.2956
G1 X108.918 Y130.443 E8.3207
G1 X108.312 Y130.403 E8.34291
G1 X107.716 Y130.284 E8.36515
G1 X107.141 Y130.088 E8.38738
G1 X106.941 Y129.988 E8.39556
G1 X106.906 Y129.99 E8.39684
G1 X106.254 Y129.99 E8.42069
G1 X105.648 Y129.95 E8.44291
G1 X105.052 Y129.831 E8.46515
G1 X104.477 Y129.635 E8.48737
G1 X103.933 Y129.364 E8.50961
G1 X103.542 Y129.11 E8.52667
G1 X103.331 Y129.325 E8.53769
G1 X102.97 Y129.616 E8.55465
G1 X102.414 Y130.021 E8.57982
G1 X101.901 Y130.346 E8.60204
G1 X101.349 Y130.6 E8.62427
G1 X100.768 Y130.78 E8.64652
G1 X100.169 Y130.882 E8.66875
G1 X99.694 Y130.907 E8.68616
G1 X99.008 Y130.907 E8.71125
G1 X98.402 Y130.867 E8.73347
G1 X97.806 Y130.748 E8.75571
G1 X97.735 Y130.724 E8.75845
G1 X97.206 Y130.695 E8.77783
G1 X96.999 Y130.65 E8.78558
G1 X96.741 Y130.695 E8.79517
G1 X96.137 Y130.76 E8.81739
G1 X95.53 Y130.745 E8.83961
G1 X94.929 Y130.651 E8.86186
G1 X94.347 Y130.479 E8.88407
G1 X93.792 Y130.231 E8.90631
G1 X93.226 Y129.879 E8.93069
G1 X92.678 Y129.48 E8.95549
G1 X92.211 Y129.091 E8.97773
G1 X91.799 Y128.644 E8.99997
G1 X91.45 Y128.146 E9.02222
G1 X91.169 Y127.608 E9.04443
G1 X91.005 Y127.177 E9.0613
G1 X90.795 Y126.533 E9.08608
G1 X90.645 Y125.944 E9.10832
G1 X90.573 Y125.341 E9.13053
G1 X90.582 Y124.734 E9.15275
G1 X90.67 Y124.132 E9.175
G1 X90.795 Y123.669 E9.19255
G1 X91.005 Y123.025 E9.21733
G1 X91.231 Y122.461 E9.23956
G1 X91.529 Y121.931 E9.26181
G1 X91.671 Y121.741 E9.27049
G1 X91.297 Y121.272 E9.29243
G1 X90.983 Y120.751 E9.31469
G1 X90.741 Y120.194 E9.33691
G1 X90.609 Y119.763 E9.3534
G1 X90.422 Y119.022 E9.38136
G1 X90.313 Y118.425 E9.40356
G1 X90.282 Y117.898 E9.42288
G1 X90.281 Y117.112 E9.45163
G1 X90.32 Y116.506 E9.47385
G1 X90.442 Y115.897 E9.49657
G1 X90.657 Y115.104 E9.52663
G1 X90.854 Y114.529 E9.54887
G1 X91.125 Y113.985 E9.57111
G1 X91.465 Y113.482 E9.59332
G1 X91.744 Y113.164 E9.6088
G1 X91.447 Y112.727 E9.62813
G1 X91.175 Y112.184 E9.65035
G1 X91.038 Y111.818 E9.66465
G1 X90.828 Y111.173 E9.68946
G1 X90.678 Y110.584 E9.7117
G1 X90.607 Y109.981 E9.73391
G1 X90.616 Y109.373 E9.75616
G1 X90.704 Y108.772 E9.77838
G1 X90.829 Y108.311 E9.79586
G1 X91.039 Y107.667 E9.82064
G1 X91.265 Y107.103 E9.84287
G1 X91.563 Y106.573 E9.86512
G1 X91.856 Y106.183 E9.88296
G0 F810 X91.928 Y106.087
G0 X92.353 Y105.654
M204 S5000
M205 X30 Y30
G0 F7200 X92.731 Y105.908
M204 S500
M205 X20 Y20
G1 F6000 E9.90956
G1 F900 X92.971 Y105.72 E9.92071
G1 X93.519 Y105.321 E9.94552
G1 X94.008 Y105.014 E9.96664
G1 X94.535 Y104.777 E9.98778
G1 X95.09 Y104.616 E10.00892
G1 X95.662 Y104.532 E10.03007
G1 X96.199 Y104.526 E10.04972
G1 X96.5 Y104.542 E10.06075
G1 X97.003 Y104.395 E10.07992
G1 X97.566 Y104.313 E10.10074
G1 X98.957 Y104.205 E10.15178
G1 X99.535 Y104.2 E10.17293
G1 X100.108 Y104.275 E10.19407
G1 X100.666 Y104.428 E10.21524
G1 X101.196 Y104.657 E10.23637
G1 X101.742 Y104.993 E10.25982
G1 X102.305 Y105.403 E10.2853
G1 X102.747 Y105.775 E10.30644
G1 X103.134 Y106.204 E10.32758
G1 X103.221 Y106.332 E10.33324
G1 X103.285 Y106.249 E10.33707
G1 X103.699 Y105.846 E10.35821
G1 X103.94 Y105.656 E10.36944
G1 X104.496 Y105.251 E10.39461
G1 X104.985 Y104.944 E10.41573
G1 X105.513 Y104.707 E10.4369
G1 X106.068 Y104.546 E10.45805
G1 X106.639 Y104.462 E10.47916
G1 X106.957 Y104.45 E10.4908
G1 X107.643 Y104.45 E10.5159
G1 X108.22 Y104.49 E10.53706
G1 X108.785 Y104.609 E10.55819
G1 X108.786 Y104.609 E10.55822
G1 X108.789 Y104.608 E10.55834
G1 X109.356 Y104.493 E10.57951
G1 X109.903 Y104.457 E10.59956
G1 X110.589 Y104.457 E10.62466
G1 X111.166 Y104.497 E10.64582
G1 X111.731 Y104.616 E10.66695
G1 X112.275 Y104.812 E10.6881
G1 X112.786 Y105.081 E10.70923
G1 X113.05 Y105.258 E10.72086
G1 X113.258 Y105.41 E10.73028
G1 X113.361 Y105.335 E10.73495
G1 X113.85 Y105.028 E10.75607
G1 X114.378 Y104.791 E10.77724
G1 X114.933 Y104.63 E10.79839
G1 X115.504 Y104.546 E10.8195
G1 X115.822 Y104.534 E10.83114
G1 X116.508 Y104.534 E10.85624
G1 X117.085 Y104.574 E10.8774
