;FLAVOR:Marlin
;TIME:4298
;Filament used: 2.53344m
;Layer height: 0.16
;Generated with Cura_SteamEngine 3.6.0
M140 S70
M105
M190 S70
M104 S215
M105
M109 S215
M82 ;absolute extrusion mode
G28 ; home all axes
M117 Purge extruder
G92 E0 ; reset extruder
G1 Z1.0 F3000 ; move z up little to prevent scratching of surface
G1 X0.1 Y20 Z0.3 F5000.0 ; move to start-line position G1 X0.1 Y200.0 Z0.3 F1500.0 E15 ; draw 1st line
G1 X0.4 Y200.0 Z0.3 F5000.0 ; move to side a little
G1 X0.4 Y20 Z0.3 F1500.0 E30 ; draw 2nd line
G92 E0 ; reset extruder
G1 Z1.0 F3000 ; move z up little to prevent scratching of surface
M117 All systems go!
G92 E0
G1 F6000 E-5
;LAYER_COUNT:70
;LAYER:0
M107
M204 S5000
M205 X30 Y30
G0 F7200 X88.922 Y89.051 Z0.2
M204 S500
M205 X20 Y20
;TYPE:SKIRT
G1 F6000 E0
G1 F900 X89.051 Y88.922 E0.00667
G1 X89.528 Y88.502 E0.02993
G1 X90.054 Y88.144 E0.05321
G1 X90.621 Y87.856 E0.07647
G1 X91.219 Y87.64 E0.09973
G1 X91.84 Y87.502 E0.12301
G1 X92.629 Y87.44 E0.15196
G1 X138.913 Y87.44 E1.84532
G1 X139.548 Y87.48 E1.8686
G1 X140.172 Y87.599 E1.89184
G1 X140.777 Y87.796 E1.91512
G1 X141.352 Y88.067 E1.93837
G1 X141.889 Y88.408 E1.96165
G1 X142.491 Y88.922 E1.99061
G1 X142.62 Y89.051 E1.99728
G1 X143.04 Y89.528 E2.02053
G1 X143.398 Y90.054 E2.04381
G1 X143.686 Y90.621 E2.06708
G1 X143.902 Y91.219 E2.09034
G1 X144.04 Y91.84 E2.11362
G1 X144.102 Y92.629 E2.14257
G1 X144.102 Y113.053 E2.88981
G1 X144.235 Y113.096 E2.89492
G1 X144.81 Y113.367 E2.91818
G1 X145.347 Y113.708 E2.94145
G1 X145.949 Y114.222 E2.97041
G1 X146.078 Y114.351 E2.97709
G1 X146.498 Y114.828 E3.00034
G1 X146.856 Y115.354 E3.02362
G1 X147.144 Y115.921 E3.04688
G1 X147.36 Y116.519 E3.07015
G1 X147.498 Y117.14 E3.09342
G1 X147.56 Y117.929 E3.12237
G1 X147.56 Y142.371 E4.01661
G1 X147.52 Y143.006 E4.03989
G1 X147.401 Y143.63 E4.06313
G1 X147.204 Y144.235 E4.08641
G1 X146.933 Y144.81 E4.10967
G1 X146.592 Y145.347 E4.13294
G1 X146.078 Y145.949 E4.1619
G1 X145.949 Y146.078 E4.16858
G1 X145.472 Y146.498 E4.19183
G1 X144.946 Y146.856 E4.21511
G1 X144.379 Y147.144 E4.23837
G1 X143.781 Y147.36 E4.26164
G1 X143.16 Y147.498 E4.28491
G1 X142.371 Y147.56 E4.31387
G1 X92.629 Y147.56 E6.13373
G1 X91.994 Y147.52 E6.15701
G1 X91.37 Y147.401 E6.18025
G1 X90.765 Y147.204 E6.20353
G1 X90.19 Y146.933 E6.22679
G1 X89.653 Y146.592 E6.25006
G1 X89.051 Y146.078 E6.27902
G1 X88.922 Y145.949 E6.2857
G1 X88.502 Y145.472 E6.30895
G1 X88.144 Y144.946 E6.33223
G1 X87.856 Y144.379 E6.3555
G1 X87.64 Y143.781 E6.37876
G1 X87.502 Y143.16 E6.40203
G1 X87.44 Y142.371 E6.43099
G1 X87.44 Y117.929 E7.32523
G1 X87.48 Y117.294 E7.3485
G1 X87.599 Y116.67 E7.37175
G1 X87.719 Y116.301 E7.38594
G1 X87.64 Y116.081 E7.39449
G1 X87.502 Y115.46 E7.41777
G1 X87.44 Y114.671 E7.44672
G1 X87.44 Y92.629 E8.25316
G1 X87.48 Y91.994 E8.27643
G1 X87.599 Y91.37 E8.29967
G1 X87.796 Y90.765 E8.32295
G1 X88.067 Y90.19 E8.34621
G1 X88.408 Y89.653 E8.36948
G1 X88.45 Y89.604 E8.37184
G0 F810 X88.922 Y89.051
M204 S5000
M205 X30 Y30
G0 F7200 X89.233 Y89.362
M204 S500
M205 X20 Y20
G1 F6000 E8.39844
G1 F900 X89.362 Y89.233 E8.40512
G1 X89.819 Y88.833 E8.42734
G1 X90.325 Y88.496 E8.44958
G1 X90.87 Y88.228 E8.4718
G1 X91.446 Y88.034 E8.49404
G1 X92.042 Y87.917 E8.51626
G1 X92.629 Y87.88 E8.53778
G1 X138.913 Y87.88 E10.23113
G1 X139.519 Y87.92 E10.25335
G1 X140.115 Y88.039 E10.27558
G1 X140.69 Y88.235 E10.29781
G1 X141.234 Y88.506 E10.32005
G1 X141.739 Y88.845 E10.3423
G1 X142.18 Y89.233 E10.36379
G1 X142.309 Y89.362 E10.37046
G1 X142.709 Y89.819 E10.39268
G1 X143.046 Y90.325 E10.41493
G1 X143.314 Y90.87 E10.43715
G1 X143.508 Y91.446 E10.45938
G1 X143.625 Y92.042 E10.4816
G1 X143.662 Y92.629 E10.50312
G1 X143.662 Y113.369 E11.26192
G1 X144.148 Y113.535 E11.28071
G1 X144.692 Y113.806 E11.30294
G1 X145.197 Y114.145 E11.3252
G1 X145.638 Y114.533 E11.34669
G1 X145.767 Y114.662 E11.35336
G1 X146.167 Y115.119 E11.37558
G1 X146.504 Y115.625 E11.39783
G1 X146.772 Y116.17 E11.42004
G1 X146.966 Y116.746 E11.44228
G1 X147.083 Y117.342 E11.4645
G1 X147.12 Y117.929 E11.48602
G1 X147.12 Y142.371 E12.38026
G1 X147.08 Y142.977 E12.40248
G1 X146.961 Y143.573 E12.42472
G1 X146.765 Y144.148 E12.44694
G1 X146.494 Y144.692 E12.46918
G1 X146.155 Y145.197 E12.49143
G1 X145.767 Y145.638 E12.51292
G1 X145.638 Y145.767 E12.51959
G1 X145.181 Y146.167 E12.54181
G1 X144.675 Y146.504 E12.56406
G1 X144.13 Y146.772 E12.58628
G1 X143.554 Y146.966 E12.60851
G1 X142.958 Y147.083 E12.63074
G1 X142.371 Y147.12 E12.65225
G1 X92.629 Y147.12 E14.47212
G1 X92.023 Y147.08 E14.49434
G1 X91.427 Y146.961 E14.51658
G1 X90.852 Y146.765 E14.5388
G1 X90.308 Y146.494 E14.56104
G1 X89.803 Y146.155 E14.58329
G1 X89.362 Y145.767 E14.60478
G1 X89.233 Y145.638 E14.61146
G1 X88.833 Y145.181 E14.63368
G1 X88.496 Y144.675 E14.65592
G1 X88.228 Y144.13 E14.67814
G1 X88.034 Y143.554 E14.70038
G1 X87.917 Y142.958 E14.7226
G1 X87.88 Y142.371 E14.74412
G1 X87.88 Y117.929 E15.63835
G1 X87.92 Y117.323 E15.66057
G1 X88.039 Y116.727 E15.68281
G1 X88.184 Y116.3 E15.69931
G1 X88.034 Y115.854 E15.71652
G1 X87.917 Y115.258 E15.73875
G1 X87.88 Y114.671 E15.76026
G1 X87.88 Y92.629 E16.5667
G1 X87.92 Y92.023 E16.58892
G1 X88.039 Y91.427 E16.61115
G1 X88.235 Y90.852 E16.63338
G1 X88.506 Y90.308 E16.65561
G1 X88.767 Y89.919 E16.67275
G0 F810 X88.845 Y89.803
G0 X89.233 Y89.362
M204 S5000
M205 X30 Y30
G0 F7200 X89.544 Y89.673
M204 S500
M205 X20 Y20
G1 F6000 E16.69935
G1 F900 X89.673 Y89.544 E16.70602
G1 X90.109 Y89.165 E16.72716
G1 X90.593 Y88.849 E16.74831
G1 X91.116 Y88.603 E16.76945
G1 X91.668 Y88.432 E16.7906
G1 X92.239 Y88.338 E16.81177
G1 X92.629 Y88.32 E16.82605
G1 X138.913 Y88.32 E18.5194
G1 X139.49 Y88.36 E18.54056
G1 X140.055 Y88.479 E18.56169
G1 X140.599 Y88.675 E18.58284
G1 X141.11 Y88.944 E18.60397
G1 X141.58 Y89.281 E18.62513
G1 X141.869 Y89.544 E18.63943
G1 X141.998 Y89.673 E18.6461
G1 X142.377 Y90.109 E18.66724
G1 X142.693 Y90.593 E18.68839
G1 X142.939 Y91.116 E18.70953
G1 X143.11 Y91.668 E18.73067
G1 X143.204 Y92.239 E18.75185
G1 X143.222 Y92.629 E18.76613
G1 X143.222 Y113.718 E19.53769
G1 X143.513 Y113.779 E19.54857
G1 X144.057 Y113.975 E19.56973
G1 X144.568 Y114.244 E19.59086
G1 X145.038 Y114.581 E19.61201
G1 X145.327 Y114.844 E19.62631
G1 X145.456 Y114.973 E19.63299
G1 X145.835 Y115.409 E19.65412
G1 X146.151 Y115.893 E19.67527
G1 X146.397 Y116.416 E19.69641
G1 X146.568 Y116.968 E19.71756
G1 X146.662 Y117.539 E19.73873
G1 X146.68 Y117.929 E19.75301
G1 X146.68 Y142.371 E20.64725
G1 X146.64 Y142.948 E20.66841
G1 X146.521 Y143.513 E20.68954
G1 X146.325 Y144.057 E20.71069
G1 X146.056 Y144.568 E20.73182
G1 X145.719 Y145.038 E20.75298
G1 X145.456 Y145.327 E20.76728
G1 X145.327 Y145.456 E20.77395
G1 X144.891 Y145.835 E20.79509
G1 X144.407 Y146.151 E20.81623
G1 X143.884 Y146.397 E20.83738
G1 X143.332 Y146.568 E20.85852
G1 X142.761 Y146.662 E20.87969
G1 X142.371 Y146.68 E20.89398
G1 X92.629 Y146.68 E22.71384
G1 X92.052 Y146.64 E22.73501
G1 X91.487 Y146.521 E22.75613
G1 X90.943 Y146.325 E22.77729
G1 X90.432 Y146.056 E22.79841
G1 X89.962 Y145.719 E22.81957
G1 X89.673 Y145.456 E22.83387
G1 X89.544 Y145.327 E22.84054
G1 X89.165 Y144.891 E22.86168
G1 X88.849 Y144.407 E22.88283
G1 X88.603 Y143.884 E22.90397
G1 X88.432 Y143.332 E22.92511
G1 X88.338 Y142.761 E22.94629
G1 X88.32 Y142.371 E22.96057
G1 X88.32 Y117.929 E23.85481
G1 X88.36 Y117.352 E23.87597
G1 X88.479 Y116.787 E23.89709
G1 X88.656 Y116.296 E23.91619
G1 X88.603 Y116.184 E23.92072
G1 X88.432 Y115.632 E23.94187
G1 X88.338 Y115.061 E23.96304
G1 X88.32 Y114.671 E23.97732
G1 X88.32 Y92.629 E24.78375
G1 X88.36 Y92.052 E24.80491
G1 X88.479 Y91.487 E24.82604
G1 X88.675 Y90.943 E24.84719
G1 X88.944 Y90.432 E24.86832
G1 X89.085 Y90.236 E24.87716
G0 F810 X89.281 Y89.962
G0 X89.544 Y89.673
M204 S5000
M205 X30 Y30
G0 F7200 X89.855 Y89.984
M204 S500
M205 X20 Y20
G1 F6000 E24.90375
G1 F900 X89.984 Y89.855 E24.91043
G1 X90.398 Y89.498 E24.93043
G1 X90.86 Y89.205 E24.95044
G1 X91.359 Y88.982 E24.97044
G1 X91.885 Y88.835 E24.99042
G1 X92.629 Y88.76 E25.01778
G1 X138.913 Y88.76 E26.71113
G1 X139.458 Y88.8 E26.73113
G1 X139.992 Y88.919 E26.75114
G1 X140.502 Y89.114 E26.77112
G1 X140.979 Y89.382 E26.79114
G1 X141.558 Y89.855 E26.81849
G1 X141.687 Y89.984 E26.82516
G1 X142.044 Y90.398 E26.84517
G1 X142.337 Y90.86 E26.86518
G1 X142.56 Y91.359 E26.88518
G1 X142.707 Y91.885 E26.90516
G1 X142.782 Y92.629 E26.93252
G1 X142.782 Y114.09 E27.71769
G1 X142.916 Y114.1 E27.72261
G1 X143.45 Y114.219 E27.74262
G1 X143.96 Y114.414 E27.7626
G1 X144.437 Y114.682 E27.78262
G1 X145.016 Y115.155 E27.80997
G1 X145.145 Y115.284 E27.81665
G1 X145.502 Y115.698 E27.83665
G1 X145.795 Y116.16 E27.85666
G1 X146.018 Y116.659 E27.87666
G1 X146.165 Y117.185 E27.89664
G1 X146.24 Y117.929 E27.924
G1 X146.24 Y142.371 E28.81824
G1 X146.2 Y142.916 E28.83823
G1 X146.081 Y143.45 E28.85825
G1 X145.886 Y143.96 E28.87822
G1 X145.618 Y144.437 E28.89824
G1 X145.145 Y145.016 E28.92559
G1 X145.016 Y145.145 E28.93227
G1 X144.602 Y145.502 E28.95227
G1 X144.14 Y145.795 E28.97228
G1 X143.641 Y146.018 E28.99228
G1 X143.115 Y146.165 E29.01226
G1 X142.371 Y146.24 E29.03962
G1 X92.629 Y146.24 E30.85949
G1 X92.084 Y146.2 E30.87948
G1 X91.55 Y146.081 E30.8995
G1 X91.04 Y145.886 E30.91947
G1 X90.563 Y145.618 E30.93949
G1 X89.984 Y145.145 E30.96685
G1 X89.855 Y145.016 E30.97352
G1 X89.498 Y144.602 E30.99352
G1 X89.205 Y144.14 E31.01354
G1 X88.982 Y143.641 E31.03353
G1 X88.835 Y143.115 E31.05351
G1 X88.76 Y142.371 E31.08087
G1 X88.76 Y117.929 E31.97511
G1 X88.8 Y117.384 E31.9951
G1 X88.919 Y116.85 E32.01512
G1 X89.114 Y116.34 E32.0351
G1 X89.14 Y116.294 E32.03703
G1 X88.982 Y115.941 E32.05118
G1 X88.835 Y115.415 E32.07116
G1 X88.76 Y114.671 E32.09852
G1 X88.76 Y92.629 E32.90495
G1 X88.8 Y92.084 E32.92494
G1 X88.919 Y91.55 E32.94496
G1 X89.114 Y91.04 E32.96494
G1 X89.382 Y90.563 E32.98495
G1 X89.395 Y90.547 E32.98571
G0 F810 X89.855 Y89.984
M204 S5000
M205 X30 Y30
G0 F7200 X90.167 Y90.296
M204 S500
M205 X20 Y20
G1 F6000 E33.01231
G1 F900 X90.296 Y90.167 E33.01898
G1 X90.686 Y89.833 E33.03777
G1 X91.123 Y89.564 E33.05654
G1 X91.597 Y89.366 E33.07534
G1 X92.095 Y89.243 E33.0941
G1 X92.629 Y89.2 E33.1137
G1 X138.913 Y89.2 E34.80706
G1 X139.425 Y89.24 E34.82585
G1 X139.924 Y89.359 E34.84461
G1 X140.399 Y89.554 E34.8634
G1 X140.838 Y89.82 E34.88218
G1 X141.246 Y90.167 E34.90177
G1 X141.375 Y90.296 E34.90845
G1 X141.709 Y90.686 E34.92724
G1 X141.978 Y91.123 E34.94601
G1 X142.176 Y91.597 E34.9648
G1 X142.299 Y92.095 E34.98357
G1 X142.342 Y92.629 E35.00317
G1 X142.342 Y114.5 E35.80335
G1 X142.371 Y114.5 E35.80441
G1 X142.883 Y114.54 E35.8232
G1 X143.382 Y114.659 E35.84197
G1 X143.857 Y114.854 E35.86075
G1 X144.296 Y115.12 E35.87953
G1 X144.704 Y115.467 E35.89913
G1 X144.833 Y115.596 E35.9058
G1 X145.167 Y115.986 E35.92459
G1 X145.436 Y116.423 E35.94336
G1 X145.634 Y116.897 E35.96216
G1 X145.757 Y117.395 E35.98092
G1 X145.8 Y117.929 E36.00052
G1 X145.8 Y142.371 E36.89476
G1 X145.76 Y142.883 E36.91355
G1 X145.641 Y143.382 E36.93232
G1 X145.446 Y143.857 E36.95111
G1 X145.18 Y144.296 E36.96989
G1 X144.833 Y144.704 E36.98948
G1 X144.704 Y144.833 E36.99616
G1 X144.314 Y145.167 E37.01494
G1 X143.877 Y145.436 E37.03372
G1 X143.403 Y145.634 E37.05251
G1 X142.905 Y145.757 E37.07128
G1 X142.371 Y145.8 E37.09088
G1 X92.629 Y145.8 E38.91075
G1 X92.117 Y145.76 E38.92954
G1 X91.618 Y145.641 E38.9483
G1 X91.143 Y145.446 E38.96709
G1 X90.704 Y145.18 E38.98587
G1 X90.296 Y144.833 E39.00547
G1 X90.167 Y144.704 E39.01214
G1 X89.833 Y144.314 E39.03093
G1 X89.564 Y143.877 E39.0497
G1 X89.366 Y143.403 E39.06849
G1 X89.243 Y142.905 E39.08726
G1 X89.2 Y142.371 E39.10686
G1 X89.2 Y117.929 E40.0011
G1 X89.24 Y117.417 E40.01989
G1 X89.359 Y116.918 E40.03866
G1 X89.554 Y116.443 E40.05744
G1 X89.64 Y116.301 E40.06352
G1 X89.564 Y116.177 E40.06884
G1 X89.366 Y115.703 E40.08763
G1 X89.243 Y115.205 E40.1064
G1 X89.2 Y114.671 E40.126
G1 X89.2 Y92.629 E40.93243
G1 X89.24 Y92.117 E40.95122
G1 X89.359 Y91.618 E40.96999
G1 X89.554 Y91.143 E40.98878
G1 X89.721 Y90.868 E41.00055
G0 F810 X89.82 Y90.704
G0 X90.167 Y90.296
M204 S5000
M205 X30 Y30
G0 F7200 X90.478 Y90.607
M204 S500
M205 X20 Y20
G1 F6000 E41.02714
G1 F900 X90.607 Y90.478 E41.03382
G1 X90.972 Y90.169 E41.05132
G1 X91.383 Y89.926 E41.06878
G1 X91.829 Y89.754 E41.08627
G1 X92.297 Y89.659 E41.10374
G1 X92.629 Y89.64 E41.11591
G1 X138.913 Y89.64 E42.80926
G1 X139.389 Y89.68 E42.82674
G1 X139.852 Y89.799 E42.84423
G1 X140.289 Y89.993 E42.86172
G1 X140.687 Y90.257 E42.8792
G1 X140.935 Y90.478 E42.89135
G1 X141.064 Y90.607 E42.89803
G1 X141.373 Y90.972 E42.91552
G1 X141.616 Y91.383 E42.93299
G1 X141.788 Y91.829 E42.95048
G1 X141.883 Y92.297 E42.96795
G1 X141.902 Y92.629 E42.98012
G1 X141.902 Y114.671 E43.78655
G1 X141.879 Y114.94 E43.79643
G1 X142.371 Y114.94 E43.81443
G1 X142.847 Y114.98 E43.8319
G1 X143.31 Y115.099 E43.84939
G1 X143.747 Y115.293 E43.86689
G1 X144.145 Y115.557 E43.88436
G1 X144.393 Y115.778 E43.89651
G1 X144.522 Y115.907 E43.90319
G1 X144.831 Y116.272 E43.92068
G1 X145.074 Y116.683 E43.93815
G1 X145.246 Y117.129 E43.95564
G1 X145.341 Y117.597 E43.97311
G1 X145.36 Y117.929 E43.98528
G1 X145.36 Y142.371 E44.87952
G1 X145.32 Y142.847 E44.89699
G1 X145.201 Y143.31 E44.91448
G1 X145.007 Y143.747 E44.93198
G1 X144.743 Y144.145 E44.94945
G1 X144.522 Y144.393 E44.9616
G1 X144.393 Y144.522 E44.96828
G1 X144.028 Y144.831 E44.98578
G1 X143.617 Y145.074 E45.00324
G1 X143.171 Y145.246 E45.02073
G1 X142.703 Y145.341 E45.0382
G1 X142.371 Y145.36 E45.05037
G1 X92.629 Y145.36 E46.87024
G1 X92.153 Y145.32 E46.88771
G1 X91.69 Y145.201 E46.9052
G1 X91.253 Y145.007 E46.9227
G1 X90.855 Y144.743 E46.94017
G1 X90.607 Y144.522 E46.95232
G1 X90.478 Y144.393 E46.959
G1 X90.169 Y144.028 E46.9765
G1 X89.926 Y143.617 E46.99396
G1 X89.754 Y143.171 E47.01145
G1 X89.659 Y142.703 E47.02892
G1 X89.64 Y142.371 E47.04109
G1 X89.64 Y117.929 E47.93533
G1 X89.68 Y117.453 E47.95281
G1 X89.799 Y116.99 E47.9703
G1 X89.993 Y116.553 E47.98779
G1 X90.156 Y116.307 E47.99859
G1 X89.926 Y115.917 E48.01515
G1 X89.754 Y115.471 E48.03264
G1 X89.659 Y115.003 E48.05011
G1 X89.64 Y114.671 E48.06228
G1 X89.64 Y92.629 E48.86871
G1 X89.68 Y92.153 E48.88619
G1 X89.799 Y91.69 E48.90368
G1 X89.993 Y91.253 E48.92117
G1 X90.039 Y91.184 E48.9242
G0 F810 X90.257 Y90.855
G0 X90.478 Y90.607
M204 S5000
M205 X30 Y30
G0 F7200 X90.789 Y90.918
M204 S500
M205 X20 Y20
G1 F6000 E48.9508
G1 F900 X90.918 Y90.789 E48.95747
G1 X91.256 Y90.508 E48.97356
G1 X91.639 Y90.292 E48.98964
G1 X92.054 Y90.149 E49.0057
G1 X92.629 Y90.08 E49.02689
G1 X138.913 Y90.08 E50.72024
G1 X139.351 Y90.12 E50.73634
G1 X139.774 Y90.238 E50.7524
G1 X140.169 Y90.431 E50.76849
G1 X140.624 Y90.789 E50.78967
G1 X140.753 Y90.918 E50.79634
G1 X141.034 Y91.256 E50.81242
G1 X141.25 Y91.639 E50.82851
G1 X141.393 Y92.054 E50.84457
G1 X141.462 Y92.629 E50.86576
G1 X141.462 Y114.671 E51.67219
G1 X141.422 Y115.109 E51.68828
G1 X141.346 Y115.38 E51.69858
G1 X142.371 Y115.38 E51.73608
G1 X142.809 Y115.42 E51.75217
G1 X143.232 Y115.538 E51.76824
G1 X143.627 Y115.731 E51.78432
G1 X144.082 Y116.089 E51.80551
G1 X144.211 Y116.218 E51.81218
G1 X144.492 Y116.556 E51.82826
G1 X144.708 Y116.939 E51.84435
G1 X144.851 Y117.354 E51.86041
G1 X144.92 Y117.929 E51.8816
G1 X144.92 Y142.371 E52.77583
G1 X144.88 Y142.809 E52.79193
G1 X144.762 Y143.232 E52.80799
G1 X144.569 Y143.627 E52.82408
G1 X144.211 Y144.082 E52.84526
G1 X144.082 Y144.211 E52.85193
G1 X143.744 Y144.492 E52.86801
G1 X143.361 Y144.708 E52.8841
G1 X142.946 Y144.851 E52.90016
G1 X142.371 Y144.92 E52.92135
G1 X92.629 Y144.92 E54.74122
G1 X92.191 Y144.88 E54.75731
G1 X91.768 Y144.762 E54.77338
G1 X91.373 Y144.569 E54.78946
G1 X90.918 Y144.211 E54.81064
G1 X90.789 Y144.082 E54.81732
G1 X90.508 Y143.744 E54.8334
G1 X90.292 Y143.361 E54.84949
G1 X90.149 Y142.946 E54.86554
G1 X90.08 Y142.371 E54.88673
G1 X90.08 Y117.929 E55.78097
G1 X90.12 Y117.491 E55.79706
G1 X90.238 Y117.068 E55.81313
G1 X90.431 Y116.673 E55.82921
G1 X90.723 Y116.302 E55.84649
G1 X90.508 Y116.044 E55.85877
G1 X90.292 Y115.661 E55.87486
G1 X90.149 Y115.246 E55.89092
