;FLAVOR:Marlin
;TIME:10695
;Filament used: 7.6549m
;Layer height: 0.16
;Generated with Cura_SteamEngine 3.6.0
M140 S70
M105
M190 S70
M104 S215
M105
M109 S215
M82 ;absolute extrusion mode
G28 ; home all axes
M117 Purge extruder
G92 E0 ; reset extruder
G1 Z1.0 F3000 ; move z up little to prevent scratching of surface
G1 X0.1 Y20 Z0.3 F5000.0 ; move to start-line position G1 X0.1 Y200.0 Z0.3 F1500.0 E15 ; draw 1st line
G1 X0.4 Y200.0 Z0.3 F5000.0 ; move to side a little
G1 X0.4 Y20 Z0.3 F1500.0 E30 ; draw 2nd line
G92 E0 ; reset extruder
G1 Z1.0 F3000 ; move z up little to prevent scratching of surface
M117 All systems go!
G92 E0
G1 F6000 E-5
;LAYER_COUNT:82
;LAYER:0
M107
M204 S5000
M205 X30 Y30
G0 F7200 X109.951 Y120.841 Z0.2
M204 S500
M205 X20 Y20
;TYPE:SKIRT
G1 F6000 E0
G1 F900 X110.089 Y121.267 E0.01638
G1 X110.247 Y121.883 E0.03965
G1 X110.326 Y122.514 E0.06292
G1 X110.326 Y123.149 E0.08615
G1 X110.245 Y123.78 E0.10942
G1 X110.155 Y124.169 E0.12403
G1 X109.796 Y125.473 E0.17351
G1 X109.838 Y125.549 E0.17669
G1 X110.112 Y126.276 E0.20512
G1 X110.302 Y126.927 E0.22993
G1 X110.442 Y127.548 E0.25322
G1 X110.502 Y128.181 E0.27648
G1 X110.483 Y128.816 E0.29972
G1 X110.384 Y129.445 E0.32302
G1 X110.144 Y130.221 E0.35274
G1 X109.79 Y131.109 E0.38771
G1 X109.78 Y131.183 E0.39044
G1 X109.785 Y131.222 E0.39188
G1 X109.783 Y131.732 E0.41054
G1 X109.847 Y131.97 E0.41956
G1 X109.973 Y132.593 E0.44281
G1 X110.019 Y133.227 E0.46607
G1 X109.985 Y133.862 E0.48933
G1 X109.962 Y133.976 E0.49359
G1 X109.986 Y134.051 E0.49647
G1 X110.144 Y134.667 E0.51974
G1 X110.153 Y134.738 E0.52236
G1 X110.538 Y135.011 E0.53962
G1 X110.858 Y135.292 E0.5552
G1 X111.478 Y135.886 E0.58662
G1 X111.908 Y136.354 E0.60987
G1 X112.184 Y136.741 E0.62726
G1 X112.234 Y136.783 E0.62965
G1 X112.292 Y136.845 E0.63276
G1 X112.548 Y136.619 E0.64525
G1 X113.074 Y136.261 E0.66853
G1 X113.641 Y135.973 E0.6918
G1 X114.239 Y135.757 E0.71506
G1 X114.86 Y135.619 E0.73833
G1 X115.642 Y135.557 E0.76703
G1 X120.999 Y135.549 E0.96302
G1 X110.387 Y121.422 E1.60946
G0 F810 X109.951 Y120.841
M204 S5000
M205 X30 Y30
G0 F7200 X109.47 Y120.782
M204 S500
M205 X20 Y20
G1 F6000 E1.63606
G1 F900 X109.671 Y121.402 E1.6599
G1 X109.82 Y121.991 E1.68213
G1 X109.89 Y122.595 E1.70438
G1 X109.881 Y123.202 E1.72659
G1 X109.731 Y124.052 E1.75816
G1 X109.325 Y125.529 E1.81421
G1 X109.484 Y125.834 E1.82679
G1 X109.69 Y126.4 E1.84883
G1 X109.88 Y127.051 E1.87364
G1 X110.011 Y127.644 E1.89586
G1 X110.064 Y128.249 E1.91808
G1 X110.037 Y128.856 E1.94031
G1 X109.93 Y129.454 E1.96253
G1 X109.736 Y130.058 E1.98574
G1 X109.354 Y131.014 E2.02341
G1 X109.353 Y131.095 E2.02637
G1 X109.337 Y131.205 E2.03044
G1 X109.348 Y131.303 E2.03405
G1 X109.34 Y131.777 E2.05139
G1 X109.422 Y132.083 E2.06298
G1 X109.54 Y132.679 E2.08521
G1 X109.579 Y133.286 E2.10746
G1 X109.538 Y133.892 E2.12968
G1 X109.512 Y134.017 E2.13436
G1 X109.567 Y134.187 E2.14089
G1 X109.717 Y134.776 E2.16313
G1 X109.742 Y134.989 E2.17098
G1 X109.788 Y135.017 E2.17295
G1 X110.282 Y135.37 E2.19516
G1 X110.553 Y135.61 E2.2084
G1 X111.173 Y136.204 E2.23982
G1 X111.583 Y136.652 E2.26204
G1 X111.853 Y137.039 E2.2793
G1 X111.952 Y137.122 E2.28403
G1 X112.268 Y137.464 E2.30106
G1 X112.382 Y137.35 E2.30696
G1 X112.839 Y136.95 E2.32918
G1 X113.345 Y136.613 E2.35142
G1 X113.89 Y136.345 E2.37364
G1 X114.466 Y136.151 E2.39588
G1 X115.062 Y136.034 E2.4181
G1 X115.642 Y135.997 E2.43936
G1 X121.879 Y135.988 E2.66755
G1 X109.835 Y119.954 E3.40124
G1 X109.77 Y120.025 E3.40476
G1 X109.611 Y120.159 E3.41237
G0 F810 X109.451 Y120.294
G0 X109.374 Y120.53
G0 X109.47 Y120.782
M204 S5000
M205 X30 Y30
G0 F7200 X109.051 Y120.918
M204 S500
M205 X20 Y20
G1 F6000 E3.43896
G1 F900 X109.252 Y121.538 E3.46281
G1 X109.392 Y122.099 E3.48396
G1 X109.453 Y122.673 E3.50508
G1 X109.434 Y123.251 E3.52624
G1 X109.306 Y123.935 E3.5517
G1 X108.855 Y125.574 E3.61389
G1 X108.871 Y125.597 E3.61492
G1 X109.125 Y126.115 E3.63603
G1 X109.268 Y126.523 E3.65184
G1 X109.458 Y127.174 E3.67666
G1 X109.581 Y127.739 E3.69781
G1 X109.625 Y128.315 E3.71895
G1 X109.589 Y128.892 E3.7401
G1 X109.474 Y129.458 E3.76123
G1 X109.327 Y129.895 E3.7781
G1 X108.914 Y130.93 E3.81887
G1 X108.907 Y131.144 E3.8267
G1 X108.894 Y131.219 E3.82949
G1 X108.911 Y131.381 E3.83544
G1 X108.897 Y131.821 E3.85155
G1 X108.997 Y132.197 E3.86579
G1 X109.107 Y132.764 E3.88692
G1 X109.139 Y133.341 E3.90806
G1 X109.09 Y133.917 E3.92921
G1 X109.06 Y134.05 E3.9342
G1 X109.149 Y134.323 E3.9447
G1 X109.289 Y134.884 E3.96586
G1 X109.329 Y135.25 E3.97933
G1 X109.556 Y135.391 E3.9891
G1 X110.026 Y135.729 E4.01028
G1 X110.249 Y135.928 E4.02122
G1 X110.869 Y136.522 E4.05263
G1 X111.257 Y136.949 E4.07374
G1 X111.519 Y137.333 E4.09075
G1 X111.669 Y137.459 E4.09792
G1 X112.056 Y137.889 E4.11908
G1 X112.241 Y138.163 E4.13118
G1 X112.301 Y138.079 E4.13495
G1 X112.564 Y137.79 E4.14925
G1 X112.693 Y137.661 E4.15592
G1 X113.129 Y137.282 E4.17706
G1 X113.613 Y136.966 E4.19821
G1 X114.136 Y136.72 E4.21935
G1 X114.688 Y136.549 E4.2405
G1 X115.259 Y136.455 E4.26167
G1 X115.643 Y136.437 E4.27573
G1 X122.76 Y136.427 E4.53612
G1 X109.86 Y119.254 E5.32193
G1 X109.652 Y119.517 E5.3342
G1 X109.073 Y120.036 E5.36264
G1 X109.008 Y120.236 E5.37034
G0 F810 X108.936 Y120.456
G0 X108.902 Y120.54
G0 X108.945 Y120.628
G0 X109.051 Y120.918
M204 S5000
M205 X30 Y30
G0 F7200 X108.633 Y121.054
M204 S500
M205 X20 Y20
G1 F6000 E5.39694
G1 F900 X108.834 Y121.674 E5.42078
G1 X108.964 Y122.205 E5.44078
G1 X109.015 Y122.749 E5.46077
G1 X108.987 Y123.295 E5.48077
G1 X108.882 Y123.819 E5.50033
G1 X108.377 Y125.654 E5.56996
G1 X108.534 Y125.895 E5.58048
G1 X108.845 Y126.646 E5.61022
G1 X109.035 Y127.297 E5.63503
G1 X109.15 Y127.832 E5.65505
G1 X109.185 Y128.377 E5.67503
G1 X109.14 Y128.922 E5.69504
G1 X109.017 Y129.454 E5.71502
G1 X108.918 Y129.732 E5.72581
G1 X108.477 Y130.836 E5.76931
G1 X108.459 Y131.188 E5.7822
G1 X108.451 Y131.222 E5.78348
G1 X108.473 Y131.456 E5.79208
G1 X108.452 Y131.86 E5.80688
G1 X108.572 Y132.311 E5.82396
G1 X108.674 Y132.848 E5.84395
G1 X108.697 Y133.394 E5.86395
G1 X108.64 Y133.938 E5.88396
G1 X108.607 Y134.078 E5.88922
G1 X108.731 Y134.459 E5.90388
G1 X108.861 Y134.99 E5.92388
G1 X108.911 Y135.51 E5.94299
G1 X109.325 Y135.766 E5.9608
G1 X109.944 Y136.245 E5.98944
G1 X110.564 Y136.839 E6.02085
G1 X110.93 Y137.245 E6.04085
G1 X111.146 Y137.594 E6.05587
G1 X111.384 Y137.797 E6.06731
G1 X111.745 Y138.207 E6.0873
G1 X112.043 Y138.666 E6.10732
G1 X112.202 Y139.035 E6.12202
G1 X112.402 Y138.68 E6.13693
G1 X112.875 Y138.101 E6.16428
G1 X113.004 Y137.972 E6.17096
G1 X113.418 Y137.615 E6.19096
G1 X113.88 Y137.322 E6.21097
G1 X114.379 Y137.099 E6.23097
G1 X114.905 Y136.952 E6.25095
G1 X115.644 Y136.877 E6.27813
G1 X123.64 Y136.866 E6.57067
G1 X109.839 Y118.494 E7.41135
G1 X109.798 Y118.578 E7.41477
G1 X109.489 Y119.029 E7.43477
G1 X109.119 Y119.431 E7.45476
G1 X108.769 Y119.72 E7.47137
G1 X108.696 Y119.773 E7.47467
G1 X108.518 Y120.32 E7.49572
G1 X108.491 Y120.384 E7.49826
G0 F810 X108.42 Y120.56
G0 X108.633 Y121.054
M204 S5000
M205 X30 Y30
G0 F7200 X108.214 Y121.189
M204 S500
M205 X20 Y20
G1 F6000 E7.52486
G1 F900 X108.415 Y121.809 E7.5487
G1 X108.535 Y122.309 E7.56751
G1 X108.576 Y122.82 E7.58627
G1 X108.537 Y123.332 E7.60506
G1 X108.458 Y123.702 E7.6189
G1 X107.901 Y125.726 E7.6957
G1 X107.923 Y125.752 E7.69695
G1 X108.192 Y126.189 E7.71572
G1 X108.423 Y126.769 E7.73856
G1 X108.613 Y127.42 E7.76337
G1 X108.718 Y127.923 E7.78217
G1 X108.744 Y128.436 E7.80097
G1 X108.69 Y128.946 E7.81973
G1 X108.51 Y129.569 E7.84345
G1 X108.047 Y130.728 E7.88912
G1 X108.01 Y131.216 E7.90702
G1 X108.034 Y131.527 E7.91843
G1 X108.006 Y131.896 E7.93197
G1 X108.147 Y132.424 E7.95197
G1 X108.241 Y132.929 E7.97076
G1 X108.255 Y133.442 E7.98954
G1 X108.189 Y133.952 E8.00835
G1 X108.151 Y134.101 E8.01398
G1 X108.312 Y134.595 E8.03299
G1 X108.433 Y135.094 E8.05177
G1 X108.474 Y135.606 E8.07056
G1 X108.463 Y135.75 E8.07585
G1 X109.093 Y136.14 E8.10296
G1 X109.64 Y136.563 E8.12825
G1 X110.26 Y137.157 E8.15967
G1 X110.602 Y137.54 E8.17845
G1 X110.817 Y137.892 E8.19354
G1 X111.098 Y138.132 E8.20706
G1 X111.432 Y138.523 E8.22588
G1 X111.701 Y138.96 E8.24465
G1 X111.903 Y139.446 E8.26391
G1 X112.104 Y140.065 E8.28772
G1 X112.224 Y140.564 E8.3065
G1 X112.229 Y140.629 E8.30888
G1 X112.26 Y140.234 E8.32338
G1 X112.379 Y139.735 E8.34215
G1 X112.574 Y139.26 E8.36093
G1 X112.84 Y138.821 E8.37971
G1 X113.187 Y138.413 E8.39931
G1 X113.316 Y138.284 E8.40598
G1 X113.706 Y137.95 E8.42477
G1 X114.143 Y137.681 E8.44354
G1 X114.617 Y137.483 E8.46234
G1 X115.115 Y137.36 E8.4811
G1 X115.644 Y137.317 E8.50052
G1 X124.518 Y137.304 E8.82519
G1 X109.731 Y117.619 E9.72595
G1 X109.726 Y117.644 E9.72688
G1 X109.541 Y118.123 E9.74567
G1 X109.284 Y118.568 E9.76447
G1 X108.961 Y118.967 E9.78325
G1 X108.51 Y119.364 E9.80523
G1 X108.41 Y119.437 E9.80976
G1 X108.315 Y119.495 E9.81383
G1 X108.3 Y119.566 E9.81649
G1 X108.099 Y120.184 E9.84026
G1 X107.957 Y120.528 E9.85388
G0 F810 X107.936 Y120.578
G0 X108.012 Y120.702
G0 X108.214 Y121.189
M204 S5000
M205 X30 Y30
G0 F7200 X107.796 Y121.325
M204 S500
M205 X20 Y20
G1 F6000 E9.88048
G1 F900 X107.997 Y121.945 E9.90432
G1 X108.105 Y122.41 E9.92179
G1 X108.135 Y122.887 E9.93927
G1 X108.034 Y123.585 E9.96508
G1 X107.415 Y125.835 E10.05045
G1 X107.605 Y126.065 E10.06137
G1 X107.844 Y126.479 E10.07886
G1 X108 Y126.893 E10.09504
G1 X108.19 Y127.544 E10.11986
G1 X108.286 Y128.012 E10.13733
G1 X108.301 Y128.49 E10.15483
G1 X108.237 Y128.963 E10.17229
G1 X108.101 Y129.405 E10.18921
G1 X107.599 Y130.661 E10.2387
G1 X107.607 Y130.781 E10.2431
G1 X107.567 Y131.168 E10.25733
G1 X107.593 Y131.594 E10.27295
G1 X107.558 Y131.924 E10.28509
G1 X107.722 Y132.538 E10.30834
G1 X107.806 Y133.008 E10.32581
G1 X107.811 Y133.486 E10.3433
G1 X107.703 Y134.083 E10.3655
G1 X107.694 Y134.115 E10.36671
G1 X107.894 Y134.731 E10.39041
G1 X108.003 Y135.197 E10.40792
G1 X108.033 Y135.674 E10.4254
G1 X108.001 Y135.981 E10.4367
G1 X108.862 Y136.514 E10.47374
G1 X109.336 Y136.881 E10.49568
G1 X109.956 Y137.475 E10.52709
G1 X110.272 Y137.833 E10.54456
G1 X110.485 Y138.185 E10.55961
G1 X110.81 Y138.467 E10.57535
G1 X111.114 Y138.836 E10.59285
G1 X111.353 Y139.25 E10.61034
G1 X111.484 Y139.582 E10.62339
G1 X111.685 Y140.201 E10.6472
G1 X111.794 Y140.666 E10.66468
G1 X111.824 Y141.143 E10.68216
G1 X111.775 Y141.618 E10.69964
G1 X111.685 Y141.967 E10.71282
G1 X111.484 Y142.586 E10.73663
G1 X111.299 Y143.027 E10.75413
G1 X111.043 Y143.431 E10.77163
G1 X110.724 Y143.786 E10.78909
G1 X110.449 Y144.014 E10.80216
G1 X109.921 Y144.399 E10.82607
G1 X109.513 Y144.647 E10.84353
G1 X109.069 Y144.824 E10.86102
G1 X108.601 Y144.925 E10.87854
G1 X108.236 Y144.948 E10.89192
G1 X107.584 Y144.948 E10.91577
G1 X107.108 Y144.908 E10.93325
G1 X106.645 Y144.789 E10.95074
G1 X106.208 Y144.595 E10.96823
G1 X105.899 Y144.399 E10.98162
G1 X105.371 Y144.014 E11.00553
G1 X105.01 Y143.701 E11.02301
G1 X104.706 Y143.332 E11.0405
G1 X104.599 Y143.149 E11.04826
G1 X104.421 Y143.167 E11.0548
G1 X103.769 Y143.167 E11.07866
G1 X103.293 Y143.127 E11.09613
G1 X102.83 Y143.008 E11.11362
G1 X102.393 Y142.814 E11.13111
G1 X102.155 Y142.663 E11.14143
G1 X101.9 Y142.718 E11.15097
G1 X101.535 Y142.741 E11.16435
G1 X101.228 Y142.741 E11.17558
G1 X101.121 Y142.8 E11.18005
G1 X100.67 Y142.959 E11.19755
G1 X100.199 Y143.04 E11.21503
G1 X99.95 Y143.051 E11.22415
G1 X99.299 Y143.051 E11.24797
G1 X98.823 Y143.011 E11.26545
G1 X98.36 Y142.892 E11.28294
G1 X98.339 Y142.882 E11.28379
G1 X98.262 Y142.929 E11.28709
G1 X97.818 Y143.106 E11.30458
G1 X97.35 Y143.207 E11.32209
G1 X96.873 Y143.228 E11.33956
G1 X96.399 Y143.169 E11.35704
G1 X96.134 Y143.101 E11.36705
G1 X95.725 Y142.974 E11.38271
G1 X95.464 Y144.116 E11.42557
G1 X95.319 Y144.571 E11.44304
G1 X95.309 Y144.591 E11.44386
G1 X95.41 Y144.714 E11.44969
G1 X95.649 Y145.128 E11.46718
G1 X95.78 Y145.46 E11.48023
G1 X95.981 Y146.079 E11.50404
G1 X96.09 Y146.544 E11.52152
G1 X96.12 Y147.021 E11.539
G1 X96.071 Y147.496 E11.55647
G1 X95.93 Y147.989 E11.57523
G1 X95.678 Y148.644 E11.60091
G1 X95.6 Y148.805 E11.60746
G1 X95.784 Y149.371 E11.62923
G1 X95.893 Y149.836 E11.6467
G1 X95.923 Y150.313 E11.66419
G1 X95.874 Y150.788 E11.68166
G1 X95.769 Y151.133 E11.69485
G1 X95.839 Y151.3 E11.70148
G1 X95.947 Y151.766 E11.71898
G1 X95.976 Y152.243 E11.73646
G1 X95.926 Y152.718 E11.75394
G1 X95.837 Y153.061 E11.7669
G1 X95.636 Y153.68 E11.79071
G1 X95.451 Y154.121 E11.80821
G1 X95.435 Y154.146 E11.8093
G1 X95.485 Y154.362 E11.81741
G1 X95.515 Y154.839 E11.83489
G1 X95.465 Y155.315 E11.85241
G1 X95.385 Y155.625 E11.86412
G1 X95.537 Y156.092 E11.88209
G1 X95.646 Y156.557 E11.89956
G1 X95.676 Y157.034 E11.91705
G1 X95.627 Y157.509 E11.93452
G1 X95.618 Y157.542 E11.93577
G1 X95.659 Y157.637 E11.93955
G1 X95.86 Y158.256 E11.96337
G1 X95.969 Y158.721 E11.98084
G1 X95.999 Y159.198 E11.99832
G1 X95.95 Y159.673 E12.0158
G1 X95.86 Y160.022 E12.02898
G1 X95.659 Y160.641 E12.05279
G1 X95.474 Y161.082 E12.07029
G1 X95.218 Y161.486 E12.08779
G1 X94.899 Y161.841 E12.10525
G1 X94.624 Y162.069 E12.11832
G1 X94.096 Y162.454 E12.14223
G1 X93.688 Y162.702 E12.15969
G1 X93.244 Y162.879 E12.17718
G1 X92.776 Y162.98 E12.1947
G1 X92.299 Y163.001 E12.21217
G1 X91.932 Y162.963 E12.22567
G1 X90.825 Y162.775 E12.26675
G1 X90.362 Y162.656 E12.28424
G1 X90.132 Y162.562 E12.29333
G1 X89.813 Y162.582 E12.30502
G1 X89.161 Y162.582 E12.32888
G1 X88.685 Y162.542 E12.34635
G1 X88.222 Y162.423 E12.36384
G1 X87.62 Y162.132 E12.3883
G1 X86.502 Y161.417 E12.43686
G1 X86.026 Y161.461 E12.45435
G1 X84.974 Y161.465 E12.49284
G1 X84.497 Y161.427 E12.51034
G1 X84.034 Y161.31 E12.52781
G1 X83.597 Y161.118 E12.54528
G1 X83.297 Y160.929 E12.55825
G1 X82.76 Y160.544 E12.58242
G1 X82.396 Y160.234 E12.59992
G1 X82.089 Y159.868 E12.61739
G1 X81.847 Y159.456 E12.63488
G1 X81.705 Y159.102 E12.64883
G1 X81.703 Y159.096 E12.64906
G1 X81.289 Y158.806 E12.66756
G1 X80.922 Y158.5 E12.68504
G1 X80.611 Y158.137 E12.70253
G1 X80.364 Y157.728 E12.72001
G1 X80.209 Y157.346 E12.73509
G1 X80.115 Y157.056 E12.74624
G1 X80.105 Y157.053 E12.74662
G1 X79.668 Y156.859 E12.76412
G1 X79.132 Y156.479 E12.78816
G1 X78.566 Y155.97 E12.81601
G1 X78.238 Y155.621 E12.83353
G1 X78.03 Y155.287 E12.84792
G1 X77.954 Y155.234 E12.85131
G1 X77.395 Y154.751 E12.87834
G1 X77.061 Y154.41 E12.89581
G1 X76.788 Y154.017 E12.91331
G1 X76.619 Y153.671 E12.9274
G1 X76.342 Y152.995 E12.95413
G1 X76.198 Y152.54 E12.97159
G1 X76.132 Y152.066 E12.9891
G1 X76.146 Y151.589 E13.00656
G1 X76.179 Y151.439 E13.01218
G1 X76.052 Y151.168 E13.02313
G1 X75.851 Y150.548 E13.04697
G1 X75.743 Y150.083 E13.06444
G1 X75.713 Y149.606 E13.08192
G1 X75.75 Y149.253 E13.09491
G1 X75.707 Y149.193 E13.09761
G1 X75.554 Y148.9 E13.1097
G1 X75.216 Y148.154 E13.13967
G1 X75.023 Y147.565 E13.16234
G1 X74.729 Y146.172 E13.21443
G1 X74.669 Y145.697 E13.23195
G1 X74.69 Y145.22 E13.24942
G1 X74.795 Y144.736 E13.26754
G1 X74.991 Y144.102 E13.29181
G1 X75.169 Y143.659 E13.30928
G1 X75.283 Y143.475 E13.3172
G1 X75.142 Y143.008 E13.33505
G1 X75.042 Y142.54 E13.35256
G1 X75.023 Y142.063 E13.37002
G1 X75.082 Y141.589 E13.3875
G1 X75.191 Y141.208 E13.402
G1 X75.946 Y139.126 E13.48302
G1 X76.146 Y138.692 E13.50051
G1 X76.416 Y138.297 E13.51801
G1 X76.424 Y138.289 E13.51842
G1 X76.538 Y138.017 E13.52921
G1 X76.794 Y137.613 E13.54671
G1 X77.126 Y137.246 E13.56482
G1 X77.718 Y136.696 E13.59438
G1 X77.736 Y136.648 E13.59626
G1 X77.943 Y136.217 E13.61375
G1 X78.22 Y135.827 E13.63125
G1 X78.62 Y135.455 E13.65124
G1 X78.582 Y135.027 E13.66696
G1 X78.582 Y134.37 E13.691
G1 X78.622 Y133.894 E13.70847
G1 X78.741 Y133.431 E13.72596
G1 X78.844 Y133.173 E13.73613
G1 X78.94 Y132.965 E13.74451
G1 X78.921 Y132.297 E13.76896
G1 X78.756 Y131.889 E13.78506
G1 X78.615 Y131.432 E13.80256
G1 X78.551 Y130.959 E13.82002
G1 X78.568 Y130.481 E13.83752
G1 X78.61 Y130.229 E13.84686
G1 X78.701 Y129.797 E13.86302
G1 X78.614 Y129.358 E13.87939
G1 X78.613 Y128.726 E13.90251
G1 X78.714 Y127.799 E13.93663
G1 X78.709 Y127.785 E13.93717
G1 X78.58 Y127.325 E13.95465
