;FLAVOR:Marlin
;TIME:6845
;Filament used: 7.96398m
;Layer height: 0.2
;Generated with Cura_SteamEngine 3.6.0
M140 S70
M105
M190 S70
M104 S215
M105
M109 S215
M82 ;absolute extrusion mode
G28 ; home all axes
M117 Purge extruder
G92 E0 ; reset extruder
G1 Z1.0 F3000 ; move z up little to prevent scratching of surface
G1 X0.1 Y20 Z0.3 F5000.0 ; move to start-line position G1 X0.1 Y200.0 Z0.3 F1500.0 E15 ; draw 1st line
G1 X0.4 Y200.0 Z0.3 F5000.0 ; move to side a little
G1 X0.4 Y20 Z0.3 F1500.0 E30 ; draw 2nd line
G92 E0 ; reset extruder
G1 Z1.0 F3000 ; move z up little to prevent scratching of surface
M117 All systems go!
G92 E0
G1 F6000 E-5
;LAYER_COUNT:219
;LAYER:0
M107
M204 S5000
M205 X30 Y30
G0 F7200 X89.292 Y156.864 Z0.2
M204 S500
M205 X20 Y20
;TYPE:SKIRT
G1 F6000 E0
G1 F900 X89.85 Y156.558 E0.02328
G1 X90.441 Y156.324 E0.04654
G1 X91.057 Y156.167 E0.0698
G1 X91.998 Y156.078 E0.10438
G1 X135.747 Y156.056 E1.70499
G1 X135.943 Y155.984 E1.71262
G1 X136.563 Y155.839 E1.73592
G1 X137.404 Y155.768 E1.7668
G1 X142.999 Y155.767 E1.9715
G1 X143.634 Y155.807 E1.99478
G1 X144.258 Y155.926 E2.01802
G1 X144.863 Y156.123 E2.0413
G1 X145.439 Y156.393 E2.06457
G1 X145.975 Y156.734 E2.08781
G1 X146.465 Y157.14 E2.11109
G1 X146.9 Y157.604 E2.13436
G1 X147.274 Y158.118 E2.15762
G1 X147.58 Y158.676 E2.1809
G1 X147.814 Y159.267 E2.20416
G1 X147.971 Y159.883 E2.22742
G1 X148.06 Y160.827 E2.26211
G1 X148.06 Y170.138 E2.60276
G1 X148.02 Y170.773 E2.62604
G1 X147.901 Y171.397 E2.64928
G1 X147.704 Y172.002 E2.67256
G1 X147.433 Y172.577 E2.69581
G1 X147.092 Y173.114 E2.71909
G1 X146.687 Y173.604 E2.74235
G1 X146.223 Y174.039 E2.76562
G1 X145.708 Y174.412 E2.78888
G1 X145.15 Y174.718 E2.81216
G1 X144.559 Y174.952 E2.83542
G1 X143.943 Y175.109 E2.85868
G1 X143 Y175.198 E2.89333
G1 X92 Y175.198 E4.75922
G1 X91.365 Y175.158 E4.7825
G1 X90.741 Y175.039 E4.80574
G1 X90.136 Y174.842 E4.82902
G1 X89.561 Y174.571 E4.85228
G1 X89.024 Y174.23 E4.87555
G1 X88.534 Y173.825 E4.89881
G1 X88.099 Y173.361 E4.92208
G1 X87.726 Y172.846 E4.94534
G1 X87.42 Y172.288 E4.96863
G1 X87.186 Y171.697 E4.99188
G1 X87.029 Y171.081 E5.01514
G1 X86.94 Y170.138 E5.04979
G1 X86.94 Y161.138 E5.37907
G1 X86.98 Y160.503 E5.40235
G1 X87.099 Y159.879 E5.42559
G1 X87.296 Y159.274 E5.44887
G1 X87.567 Y158.699 E5.47212
G1 X87.908 Y158.162 E5.4954
G1 X88.313 Y157.672 E5.51866
G1 X88.71 Y157.299 E5.53859
G0 F810 X88.777 Y157.237
G0 X89.292 Y156.864
M204 S5000
M205 X30 Y30
G0 F7200 X89.713 Y157.124
M204 S500
M205 X20 Y20
G1 F6000 E5.56518
G1 F900 X90.259 Y156.858 E5.5874
G1 X90.836 Y156.667 E5.60964
G1 X91.433 Y156.553 E5.63188
G1 X91.998 Y156.518 E5.65259
G1 X135.826 Y156.496 E7.25609
G1 X136.096 Y156.397 E7.26661
G1 X136.689 Y156.264 E7.28884
G1 X137.404 Y156.208 E7.31508
G1 X142.999 Y156.207 E7.51978
G1 X143.605 Y156.247 E7.542
G1 X144.201 Y156.366 E7.56424
G1 X144.776 Y156.562 E7.58646
G1 X145.321 Y156.832 E7.60871
G1 X145.825 Y157.171 E7.63094
G1 X146.28 Y157.574 E7.65317
G1 X146.679 Y158.032 E7.6754
G1 X147.014 Y158.539 E7.69763
G1 X147.279 Y159.086 E7.71987
G1 X147.471 Y159.662 E7.74208
G1 X147.585 Y160.259 E7.76432
G1 X147.62 Y160.827 E7.78514
G1 X147.62 Y170.138 E8.12579
G1 X147.58 Y170.744 E8.14801
G1 X147.461 Y171.34 E8.17025
G1 X147.265 Y171.915 E8.19247
G1 X146.994 Y172.459 E8.21471
G1 X146.655 Y172.964 E8.23696
G1 X146.253 Y173.419 E8.25917
G1 X145.794 Y173.817 E8.2814
G1 X145.287 Y174.152 E8.30363
G1 X144.741 Y174.418 E8.32585
G1 X144.164 Y174.609 E8.34809
G1 X143.567 Y174.723 E8.37033
G1 X143 Y174.758 E8.39111
G1 X92 Y174.758 E10.257
G1 X91.394 Y174.718 E10.27922
G1 X90.798 Y174.599 E10.30146
G1 X90.223 Y174.403 E10.32369
G1 X89.679 Y174.132 E10.34592
G1 X89.174 Y173.793 E10.36817
G1 X88.719 Y173.391 E10.39039
G1 X88.321 Y172.932 E10.41261
G1 X87.986 Y172.425 E10.43485
G1 X87.72 Y171.879 E10.45707
G1 X87.529 Y171.302 E10.4793
G1 X87.415 Y170.705 E10.50154
G1 X87.38 Y170.138 E10.52232
G1 X87.38 Y161.138 E10.8516
G1 X87.42 Y160.532 E10.87382
G1 X87.539 Y159.936 E10.89606
G1 X87.735 Y159.361 E10.91828
G1 X88.006 Y158.817 E10.94052
G1 X88.345 Y158.312 E10.96277
G1 X88.747 Y157.857 E10.98498
G1 X89.116 Y157.537 E11.00285
G0 F810 X89.206 Y157.459
G0 X89.713 Y157.124
M204 S5000
M205 X30 Y30
G0 F7200 X89.632 Y157.693
M204 S500
M205 X20 Y20
G1 F6000 E11.02945
G1 F900 X90.13 Y157.4 E11.05059
G1 X90.663 Y157.177 E11.07173
G1 X91.223 Y157.031 E11.0929
G1 X91.998 Y156.958 E11.12138
G1 X135.904 Y156.936 E12.72773
G1 X136.248 Y156.811 E12.74112
G1 X136.813 Y156.69 E12.76226
G1 X137.404 Y156.648 E12.78394
G1 X142.999 Y156.647 E12.98864
G1 X143.576 Y156.687 E13.0098
G1 X144.141 Y156.806 E13.03093
G1 X144.685 Y157.002 E13.05208
G1 X145.197 Y157.271 E13.07324
G1 X145.666 Y157.608 E13.09437
G1 X146.085 Y158.006 E13.11551
G1 X146.444 Y158.459 E13.13666
G1 X146.738 Y158.956 E13.15779
G1 X146.96 Y159.49 E13.17894
G1 X147.107 Y160.049 E13.20009
G1 X147.18 Y160.827 E13.22868
G1 X147.18 Y170.138 E13.56933
G1 X147.14 Y170.715 E13.5905
G1 X147.021 Y171.28 E13.61162
G1 X146.825 Y171.824 E13.63278
G1 X146.556 Y172.335 E13.6539
G1 X146.219 Y172.805 E13.67506
G1 X145.82 Y173.223 E13.6962
G1 X145.368 Y173.583 E13.71735
G1 X144.87 Y173.876 E13.73848
G1 X144.337 Y174.099 E13.75962
G1 X143.777 Y174.245 E13.7808
G1 X143 Y174.318 E13.80935
G1 X92 Y174.318 E15.67524
G1 X91.423 Y174.278 E15.6964
G1 X90.858 Y174.159 E15.71753
G1 X90.314 Y173.963 E15.73868
G1 X89.803 Y173.694 E15.75981
G1 X89.333 Y173.357 E15.78097
G1 X88.915 Y172.958 E15.80211
G1 X88.555 Y172.506 E15.82325
G1 X88.262 Y172.008 E15.84439
G1 X88.039 Y171.475 E15.86553
G1 X87.893 Y170.915 E15.8867
G1 X87.82 Y170.138 E15.91526
G1 X87.82 Y161.138 E16.24453
G1 X87.86 Y160.561 E16.26569
G1 X87.979 Y159.996 E16.28682
G1 X88.175 Y159.452 E16.30797
G1 X88.444 Y158.941 E16.3291
G1 X88.781 Y158.471 E16.35026
G1 X89.077 Y158.161 E16.36594
G0 F810 X89.18 Y158.053
G0 X89.632 Y157.693
M204 S5000
M205 X30 Y30
G0 F7200 X90.055 Y157.943
M204 S500
M205 X20 Y20
G1 F6000 E16.39254
G1 F900 X90.542 Y157.694 E16.41255
G1 X91.059 Y157.518 E16.43253
G1 X91.597 Y157.42 E16.45254
G1 X91.998 Y157.398 E16.46723
G1 X135.98 Y157.376 E18.07636
G1 X136.398 Y157.226 E18.09261
G1 X136.934 Y157.118 E18.11262
G1 X137.404 Y157.088 E18.12985
G1 X142.999 Y157.087 E18.33455
G1 X143.545 Y157.127 E18.35458
G1 X144.078 Y157.246 E18.37456
G1 X144.589 Y157.441 E18.39457
G1 X145.065 Y157.709 E18.41455
G1 X145.498 Y158.043 E18.43456
G1 X145.877 Y158.437 E18.45456
G1 X146.194 Y158.882 E18.47455
G1 X146.444 Y159.368 E18.49455
G1 X146.62 Y159.886 E18.51456
G1 X146.718 Y160.423 E18.53453
G1 X146.74 Y160.827 E18.54934
G1 X146.74 Y170.138 E18.88999
G1 X146.7 Y170.683 E18.90998
G1 X146.581 Y171.217 E18.93
G1 X146.386 Y171.727 E18.94997
G1 X146.118 Y172.204 E18.96999
G1 X145.783 Y172.636 E18.98999
G1 X145.39 Y173.015 E19.00997
G1 X144.945 Y173.333 E19.02998
G1 X144.458 Y173.582 E19.04999
G1 X143.941 Y173.758 E19.06997
G1 X143.403 Y173.856 E19.08998
G1 X143 Y173.878 E19.10474
G1 X92 Y173.878 E20.97064
G1 X91.455 Y173.838 E20.99063
G1 X90.921 Y173.719 E21.01065
G1 X90.411 Y173.524 E21.03062
G1 X89.934 Y173.256 E21.05064
G1 X89.502 Y172.921 E21.07064
G1 X89.123 Y172.528 E21.09062
G1 X88.805 Y172.083 E21.11063
G1 X88.556 Y171.596 E21.13064
G1 X88.38 Y171.079 E21.15062
G1 X88.282 Y170.541 E21.17063
G1 X88.26 Y170.138 E21.18539
G1 X88.26 Y161.138 E21.51467
G1 X88.3 Y160.593 E21.53466
G1 X88.419 Y160.059 E21.55468
G1 X88.614 Y159.549 E21.57465
G1 X88.882 Y159.072 E21.59467
G1 X89.217 Y158.64 E21.61467
G1 X89.48 Y158.386 E21.62805
G0 F810 X89.61 Y158.261
G0 X90.055 Y157.943
M204 S5000
M205 X30 Y30
G0 F7200 X90.039 Y158.484
M204 S500
M205 X20 Y20
G1 F6000 E21.65465
G1 F900 X90.474 Y158.212 E21.67342
G1 X90.947 Y158.011 E21.69222
G1 X91.444 Y157.885 E21.71098
G1 X91.998 Y157.838 E21.73132
G1 X136.055 Y157.816 E23.3432
G1 X136.063 Y157.813 E23.34351
G1 X136.547 Y157.642 E23.36229
G1 X137.052 Y157.547 E23.38109
G1 X137.404 Y157.528 E23.39399
G1 X142.999 Y157.527 E23.59869
G1 X143.511 Y157.567 E23.61748
G1 X144.011 Y157.686 E23.63628
G1 X144.486 Y157.88 E23.65505
G1 X144.925 Y158.147 E23.67385
G1 X145.317 Y158.478 E23.69262
G1 X145.654 Y158.865 E23.7114
G1 X145.926 Y159.301 E23.7302
G1 X146.127 Y159.773 E23.74897
G1 X146.253 Y160.271 E23.76776
G1 X146.3 Y160.827 E23.78817
G1 X146.3 Y170.138 E24.12883
G1 X146.26 Y170.65 E24.14762
G1 X146.141 Y171.149 E24.16639
G1 X145.946 Y171.624 E24.18517
G1 X145.68 Y172.063 E24.20395
G1 X145.349 Y172.456 E24.22275
G1 X144.961 Y172.792 E24.24153
G1 X144.526 Y173.064 E24.2603
G1 X144.053 Y173.265 E24.2791
G1 X143.556 Y173.391 E24.29786
G1 X143 Y173.438 E24.31827
G1 X92 Y173.438 E26.18417
G1 X91.488 Y173.398 E26.20296
G1 X90.989 Y173.279 E26.22173
G1 X90.514 Y173.084 E26.24051
G1 X90.075 Y172.818 E26.25929
G1 X89.682 Y172.487 E26.27809
G1 X89.346 Y172.099 E26.29687
G1 X89.074 Y171.664 E26.31564
G1 X88.873 Y171.191 E26.33444
G1 X88.747 Y170.694 E26.3532
G1 X88.7 Y170.138 E26.37361
G1 X88.7 Y161.138 E26.70289
G1 X88.74 Y160.626 E26.72168
G1 X88.859 Y160.127 E26.74045
G1 X89.054 Y159.652 E26.75923
G1 X89.32 Y159.213 E26.77801
G1 X89.513 Y158.983 E26.789
G0 F810 X89.651 Y158.82
G0 X90.039 Y158.484
M204 S5000
M205 X30 Y30
G0 F7200 X90.464 Y158.726
M204 S500
M205 X20 Y20
G1 F6000 E26.8156
G1 F900 X90.887 Y158.503 E26.83309
G1 X91.341 Y158.355 E26.85056
G1 X91.999 Y158.278 E26.8748
G1 X136.149 Y158.256 E28.49008
G1 X136.242 Y158.215 E28.4938
G1 X136.693 Y158.058 E28.51127
G1 X137.164 Y157.978 E28.52875
G1 X137.404 Y157.968 E28.53753
G1 X142.999 Y157.967 E28.74223
G1 X143.476 Y158.007 E28.75975
G1 X143.939 Y158.125 E28.77723
G1 X144.375 Y158.319 E28.79469
G1 X144.774 Y158.584 E28.81221
G1 X145.123 Y158.91 E28.82968
G1 X145.412 Y159.29 E28.84715
G1 X145.634 Y159.714 E28.86466
G1 X145.783 Y160.168 E28.88214
G1 X145.86 Y160.827 E28.90642
G1 X145.86 Y170.138 E29.24707
G1 X145.82 Y170.614 E29.26455
G1 X145.701 Y171.077 E29.28204
G1 X145.507 Y171.514 E29.29953
G1 X145.243 Y171.912 E29.317
G1 X144.916 Y172.261 E29.3345
G1 X144.536 Y172.55 E29.35197
G1 X144.113 Y172.773 E29.36946
G1 X143.659 Y172.921 E29.38693
G1 X143 Y172.998 E29.41121
G1 X92 Y172.998 E31.2771
G1 X91.524 Y172.958 E31.29458
G1 X91.061 Y172.839 E31.31207
G1 X90.624 Y172.645 E31.32956
G1 X90.226 Y172.381 E31.34703
G1 X89.877 Y172.054 E31.36453
G1 X89.588 Y171.674 E31.382
G1 X89.365 Y171.251 E31.39949
G1 X89.217 Y170.797 E31.41696
G1 X89.14 Y170.138 E31.44124
G1 X89.14 Y161.138 E31.77051
G1 X89.18 Y160.662 E31.78799
G1 X89.299 Y160.199 E31.80548
G1 X89.493 Y159.762 E31.82297
G1 X89.757 Y159.364 E31.84044
G1 X89.913 Y159.197 E31.84881
G0 F810 X90.084 Y159.015
G0 X90.464 Y158.726
M204 S5000
M205 X30 Y30
G0 F7200 X90.884 Y158.991
M204 S500
M205 X20 Y20
G1 F6000 E31.8754
G1 F900 X91.29 Y158.824 E31.89147
G1 X91.721 Y158.734 E31.90757
G1 X91.999 Y158.718 E31.91776
G1 X136.243 Y158.696 E33.53648
G1 X136.421 Y158.617 E33.5436
G1 X136.837 Y158.476 E33.55967
G1 X137.405 Y158.408 E33.5806
G1 X143 Y158.407 E33.7853
G1 X143.437 Y158.447 E33.80136
G1 X143.861 Y158.565 E33.81746
G1 X144.256 Y158.758 E33.83354
G1 X144.609 Y159.019 E33.84961
G1 X144.909 Y159.34 E33.86568
G1 X145.147 Y159.71 E33.88178
G1 X145.313 Y160.117 E33.89786
G1 X145.404 Y160.547 E33.91394
G1 X145.42 Y160.827 E33.9242
G1 X145.42 Y170.138 E34.26485
G1 X145.38 Y170.576 E34.28094
G1 X145.262 Y170.999 E34.29701
G1 X145.069 Y171.394 E34.3131
G1 X144.807 Y171.747 E34.32918
G1 X144.486 Y172.048 E34.34528
G1 X144.116 Y172.285 E34.36135
G1 X143.71 Y172.452 E34.37742
G1 X143.279 Y172.542 E34.39352
G1 X143 Y172.558 E34.40375
G1 X92 Y172.558 E36.26964
G1 X91.562 Y172.518 E36.28573
G1 X91.139 Y172.4 E36.3018
G1 X90.744 Y172.207 E36.31789
G1 X90.391 Y171.945 E36.33397
G1 X90.09 Y171.624 E36.35007
G1 X89.853 Y171.254 E36.36614
G1 X89.686 Y170.848 E36.38221
G1 X89.596 Y170.417 E36.39831
G1 X89.58 Y170.138 E36.40854
G1 X89.58 Y161.138 E36.73781
G1 X89.62 Y160.7 E36.75391
G1 X89.738 Y160.277 E36.76997
G1 X89.931 Y159.882 E36.78606
G1 X90.193 Y159.529 E36.80214
G1 X90.304 Y159.425 E36.80771
G0 F810 X90.514 Y159.228
G0 X90.884 Y158.991
M204 S5000
M205 X30 Y30
G0 F7200 X90.939 Y159.466
M204 S500
M205 X20 Y20
G1 F6000 E36.8343
G1 F900 X91.295 Y159.288 E36.84887
G1 X91.678 Y159.184 E36.86339
G1 X91.999 Y159.158 E36.87517
G1 X136.337 Y159.136 E38.49732
G1 X136.6 Y159.019 E38.50786
G1 X136.977 Y158.895 E38.52238
G1 X137.405 Y158.848 E38.53813
G1 X143 Y158.847 E38.74283
G1 X143.395 Y158.887 E38.75735
G1 X143.775 Y159.005 E38.77191
G1 X144.123 Y159.196 E38.78644
G1 X144.426 Y159.453 E38.80097
G1 X144.672 Y159.766 E38.81554
G1 X144.85 Y160.121 E38.83007
G1 X144.954 Y160.505 E38.84462
G1 X144.98 Y160.827 E38.85644
G1 X144.98 Y170.138 E39.19709
G1 X144.94 Y170.533 E39.21162
G1 X144.822 Y170.913 E39.22618
G1 X144.63 Y171.261 E39.24072
G1 X144.373 Y171.564 E39.25525
G1 X144.061 Y171.81 E39.26979
G1 X143.705 Y171.988 E39.28435
G1 X143.322 Y172.092 E39.29887
G1 X143 Y172.118 E39.31069
G1 X92 Y172.118 E41.17658
G1 X91.605 Y172.078 E41.19111
G1 X91.225 Y171.96 E41.20567
G1 X90.877 Y171.768 E41.22021
G1 X90.574 Y171.511 E41.23475
G1 X90.328 Y171.199 E41.24928
G1 X90.15 Y170.843 E41.26384
G1 X90.046 Y170.46 E41.27836
G1 X90.02 Y170.138 E41.29018
G1 X90.02 Y161.138 E41.61946
G1 X90.06 Y160.743 E41.63398
G1 X90.178 Y160.363 E41.64854
G1 X90.37 Y160.015 E41.66308
G1 X90.414 Y159.963 E41.66557
G0 F810 X90.627 Y159.712
G0 X90.939 Y159.466
M204 S5000
M205 X30 Y30
G0 F7200 X91.057 Y159.92
M204 S500
M205 X20 Y20
G1 F6000 E41.69217
G1 F900 X91.357 Y159.739 E41.70499
G1 X91.69 Y159.629 E41.71782
G1 X91.999 Y159.598 E41.72918
G1 X136.43 Y159.576 E43.35474
G1 X136.779 Y159.421 E43.36871
G1 X137.113 Y159.316 E43.38152
G1 X137.405 Y159.288 E43.39226
G1 X143 Y159.287 E43.59696
G1 X143.348 Y159.327 E43.60977
G1 X143.678 Y159.444 E43.62258
G1 X143.973 Y159.633 E43.6354
G1 X144.218 Y159.884 E43.64823
G1 X144.399 Y160.184 E43.66105
G1 X144.508 Y160.517 E43.67387
G1 X144.54 Y160.827 E43.68527
G1 X144.54 Y170.138 E44.02593
G1 X144.5 Y170.486 E44.03874
G1 X144.383 Y170.816 E44.05155
G1 X144.193 Y171.111 E44.06439
G1 X143.943 Y171.356 E44.0772
G1 X143.643 Y171.537 E44.09001
G1 X143.31 Y171.647 E44.10284
G1 X143 Y171.678 E44.11424
G1 X92 Y171.678 E45.98014
G1 X91.652 Y171.638 E45.99295
G1 X91.322 Y171.521 E46.00576
G1 X91.027 Y171.331 E46.0186
G1 X90.782 Y171.081 E46.03141
G1 X90.601 Y170.781 E46.04423
G1 X90.491 Y170.448 E46.05706
G1 X90.46 Y170.138 E46.06845
G1 X90.46 Y161.138 E46.39773
G1 X90.5 Y160.79 E46.41055
G1 X90.608 Y160.485 E46.42238
G0 F810 X90.617 Y160.46
G0 X90.807 Y160.165
G0 X91.057 Y159.92
M204 S5000
M205 X30 Y30
G0 F7200 X91.481 Y160.168
M204 S500
M205 X20 Y20
G1 F6000 E46.44898
G1 F900 X91.758 Y160.065 E46.45979
G1 X91.999 Y160.038 E46.46867
G1 X136.524 Y160.016 E48.09766
G1 X136.958 Y159.823 E48.11504
G1 X137.242 Y159.74 E48.12587
G1 X137.405 Y159.728 E48.13185
G1 X143 Y159.727 E48.33655
G1 X143.293 Y159.767 E48.34737
G1 X143.565 Y159.883 E48.35818
G1 X143.796 Y160.068 E48.36901
G1 X143.97 Y160.308 E48.37986
G1 X144.073 Y160.585 E48.39067
G1 X144.1 Y160.827 E48.39958
G1 X144.1 Y170.138 E48.74023
G1 X144.06 Y170.431 E48.75105
G1 X143.944 Y170.703 E48.76187
G1 X143.759 Y170.934 E48.7727
G1 X143.519 Y171.108 E48.78354
G1 X143.242 Y171.211 E48.79436
G1 X143 Y171.238 E48.80326
G1 X92 Y171.238 E50.66916
G1 X91.707 Y171.198 E50.67998
G1 X91.435 Y171.082 E50.6908
G1 X91.204 Y170.897 E50.70162
G1 X91.03 Y170.657 E50.71247
G1 X90.927 Y170.38 E50.72328
G1 X90.9 Y170.138 E50.73219
G1 X90.9 Y161.138 E51.06147
G1 X90.94 Y160.845 E51.07228
G1 X91.003 Y160.698 E51.07814
G0 F810 X91.056 Y160.573
G0 X91.241 Y160.342
G0 X91.481 Y160.168
M204 S5000
M205 X30 Y30
G0 F7200 X91.669 Y160.567
M204 S500
M205 X20 Y20
G1 F6000 E51.10473
G1 F900 X91.884 Y160.488 E51.11311
G1 X92 Y160.478 E51.11737
G1 X136.618 Y160.456 E52.74977
G1 X137.137 Y160.225 E52.77056
G1 X137.405 Y160.168 E52.78058
G1 X143 Y160.167 E52.98528
G1 X143.225 Y160.207 E52.99364
G1 X143.424 Y160.321 E53.00203
G1 X143.571 Y160.496 E53.0104
G1 X143.65 Y160.711 E53.01878
G1 X143.66 Y160.827 E53.02304
G1 X143.66 Y170.138 E53.36369
