;FLAVOR:Marlin
;TIME:8596
;Filament used: 9.94355m
;Layer height: 0.2
;Generated with Cura_SteamEngine 3.6.0
M140 S70
M105
M190 S70
M104 S215
M105
M109 S215
M82 ;absolute extrusion mode
G28 ; home all axes
M117 Purge extruder
G92 E0 ; reset extruder
G1 Z1.0 F3000 ; move z up little to prevent scratching of surface
G1 X0.1 Y20 Z0.3 F5000.0 ; move to start-line position G1 X0.1 Y200.0 Z0.3 F1500.0 E15 ; draw 1st line
G1 X0.4 Y200.0 Z0.3 F5000.0 ; move to side a little
G1 X0.4 Y20 Z0.3 F1500.0 E30 ; draw 2nd line
G92 E0 ; reset extruder
G1 Z1.0 F3000 ; move z up little to prevent scratching of surface
M117 All systems go!
G92 E0
G1 F6000 E-5
;LAYER_COUNT:219
;LAYER:0
M107
M204 S5000
M205 X30 Y30
G0 F7200 X100.708 Y65.4 Z0.2
M204 S500
M205 X20 Y20
;TYPE:SKIRT
G1 F6000 E0
G1 F900 X101.222 Y64.798 E0.02896
G1 X101.612 Y64.408 E0.04914
G1 X102.089 Y63.988 E0.07239
G1 X102.615 Y63.63 E0.09567
G1 X103.182 Y63.342 E0.11894
G1 X103.78 Y63.126 E0.1422
G1 X104.3 Y63.01 E0.16169
G1 X104.316 Y62.973 E0.16317
G1 X104.6 Y62.403 E0.18647
G1 X104.952 Y61.874 E0.20971
G1 X105.368 Y61.393 E0.23298
G1 X105.841 Y60.968 E0.25624
G1 X106.364 Y60.606 E0.27952
G1 X106.928 Y60.312 E0.30279
G1 X107.525 Y60.092 E0.32606
G1 X108.144 Y59.947 E0.34932
G1 X108.979 Y59.878 E0.37998
G1 X113.662 Y59.878 E0.55131
G1 X114.297 Y59.918 E0.57459
G1 X114.921 Y60.037 E0.59783
G1 X115.526 Y60.234 E0.62111
G1 X116.101 Y60.505 E0.64436
G1 X116.638 Y60.846 E0.66764
G1 X117.128 Y61.251 E0.6909
G1 X117.563 Y61.715 E0.71416
G1 X117.717 Y61.927 E0.72375
G1 X120.472 Y61.927 E0.82455
G1 X120.473 Y61.926 E0.8246
G1 X120.883 Y61.44 E0.84786
G1 X121.35 Y61.009 E0.87111
G1 X121.868 Y60.64 E0.89438
G1 X122.428 Y60.339 E0.91764
G1 X123.022 Y60.11 E0.94093
G1 X123.639 Y59.958 E0.96418
G1 X124.54 Y59.877 E0.99728
G1 X129.229 Y59.877 E1.16883
G1 X129.864 Y59.917 E1.19211
G1 X130.488 Y60.036 E1.21535
G1 X131.093 Y60.233 E1.23863
G1 X131.668 Y60.504 E1.26188
G1 X132.205 Y60.845 E1.28516
G1 X132.695 Y61.25 E1.30842
G1 X133.13 Y61.714 E1.33168
G1 X133.503 Y62.229 E1.35495
G1 X133.863 Y62.933 E1.38388
G1 X142.951 Y62.928 E1.71637
G1 X143.586 Y62.968 E1.73965
G1 X144.211 Y63.087 E1.76293
G1 X144.815 Y63.283 E1.78616
G1 X145.391 Y63.553 E1.80944
G1 X145.928 Y63.894 E1.83271
G1 X146.532 Y64.41 E1.86177
G1 X146.778 Y64.656 E1.8745
G1 X147.198 Y65.133 E1.89775
G1 X147.556 Y65.659 E1.92103
G1 X147.844 Y66.226 E1.9443
G1 X148.06 Y66.824 E1.96756
G1 X148.198 Y67.445 E1.99083
G1 X148.26 Y68.234 E2.01979
G1 X148.26 Y155.567 E5.21497
G1 X148.22 Y156.202 E5.23825
G1 X148.101 Y156.826 E5.26149
G1 X147.904 Y157.431 E5.28477
G1 X147.633 Y158.006 E5.30802
G1 X147.373 Y158.415 E5.32575
G1 X147.644 Y158.948 E5.34763
G1 X147.86 Y159.546 E5.37089
G1 X147.998 Y160.167 E5.39417
G1 X148.06 Y160.956 E5.42312
G1 X148.06 Y170.009 E5.75434
G1 X148.02 Y170.644 E5.77761
G1 X147.901 Y171.268 E5.80086
G1 X147.704 Y171.873 E5.82413
G1 X147.433 Y172.448 E5.84739
G1 X147.092 Y172.985 E5.87066
G1 X146.578 Y173.587 E5.89963
G1 X146.449 Y173.716 E5.9063
G1 X145.972 Y174.136 E5.92955
G1 X145.446 Y174.494 E5.95283
G1 X144.879 Y174.782 E5.9761
G1 X144.281 Y174.998 E5.99936
G1 X143.66 Y175.136 E6.02263
G1 X142.871 Y175.198 E6.05159
G1 X92.129 Y175.198 E7.90804
G1 X91.494 Y175.158 E7.93132
G1 X90.87 Y175.039 E7.95456
G1 X90.265 Y174.842 E7.97784
G1 X89.69 Y174.571 E8.0011
G1 X89.153 Y174.23 E8.02437
G1 X88.551 Y173.716 E8.05333
G1 X88.422 Y173.587 E8.06001
G1 X88.002 Y173.11 E8.08326
G1 X87.644 Y172.584 E8.10654
G1 X87.356 Y172.017 E8.1298
G1 X87.14 Y171.419 E8.15307
G1 X87.002 Y170.798 E8.17634
G1 X86.94 Y170.009 E8.2053
G1 X86.94 Y161.267 E8.52513
G1 X86.98 Y160.632 E8.54841
G1 X87.099 Y160.008 E8.57165
G1 X87.296 Y159.403 E8.59493
G1 X87.567 Y158.828 E8.61819
G1 X87.908 Y158.291 E8.64146
G1 X88.422 Y157.689 E8.67042
G1 X88.551 Y157.56 E8.6771
G1 X89.028 Y157.14 E8.70035
G1 X89.554 Y156.782 E8.72363
G1 X90.121 Y156.494 E8.74689
G1 X90.719 Y156.278 E8.77016
G1 X91.34 Y156.14 E8.79343
G1 X92.127 Y156.078 E8.82231
G1 X132.787 Y156.059 E10.30991
G1 X132.74 Y155.545 E10.32879
G1 X132.779 Y87.405 E12.82177
G1 X132.728 Y86.255 E12.86389
G1 X132.406 Y86.557 E12.88004
G1 X131.891 Y86.93 E12.9033
G1 X131.333 Y87.236 E12.92658
G1 X130.786 Y87.452 E12.9481
G1 X130.668 Y87.522 E12.95312
G1 X130.083 Y87.773 E12.97641
G1 X129.472 Y87.948 E12.99966
G1 X128.844 Y88.046 E13.02292
G1 X128.317 Y88.067 E13.04221
G1 X125.317 Y88.028 E13.15198
G1 X124.683 Y87.979 E13.17525
G1 X124.06 Y87.852 E13.19851
G1 X123.458 Y87.648 E13.22176
G1 X123.172 Y87.509 E13.2334
G1 X122.719 Y87.361 E13.25083
G1 X122.144 Y87.09 E13.27409
G1 X121.607 Y86.749 E13.29736
G1 X121.117 Y86.344 E13.32062
G1 X120.682 Y85.88 E13.34389
G1 X120.309 Y85.365 E13.36715
G1 X120.149 Y85.074 E13.3793
G1 X117.947 Y85.074 E13.45987
G1 X117.714 Y85.441 E13.47577
G1 X117.309 Y85.931 E13.49903
G1 X116.845 Y86.366 E13.5223
G1 X116.33 Y86.739 E13.54556
G1 X116.078 Y86.877 E13.55608
G1 X116.045 Y86.908 E13.55773
G1 X115.53 Y87.281 E13.581
G1 X114.972 Y87.587 E13.60428
G1 X114.381 Y87.821 E13.62754
G1 X113.765 Y87.978 E13.65079
G1 X113.134 Y88.057 E13.67406
G1 X112.756 Y88.067 E13.68789
G1 X109.756 Y88.028 E13.79766
G1 X109.122 Y87.979 E13.82093
G1 X108.499 Y87.852 E13.84419
G1 X107.897 Y87.648 E13.86744
G1 X107.611 Y87.509 E13.87908
G1 X107.158 Y87.361 E13.89651
G1 X106.583 Y87.09 E13.91977
G1 X106.046 Y86.749 E13.94304
G1 X105.556 Y86.344 E13.9663
G1 X105.121 Y85.88 E13.98957
G1 X104.748 Y85.365 E14.01284
G1 X104.573 Y85.046 E14.02615
G1 X104.414 Y85.036 E14.03198
G1 X103.789 Y84.917 E14.05525
G1 X103.185 Y84.721 E14.07849
G1 X102.609 Y84.451 E14.10176
G1 X102.072 Y84.11 E14.12503
G1 X101.468 Y83.594 E14.1541
G1 X101.222 Y83.348 E14.16682
G1 X100.802 Y82.871 E14.19008
G1 X100.444 Y82.345 E14.21336
G1 X100.156 Y81.778 E14.23662
G1 X99.94 Y81.18 E14.25988
G1 X99.802 Y80.559 E14.28316
G1 X99.74 Y79.77 E14.31211
G1 X99.74 Y68.376 E14.72898
G1 X99.78 Y67.741 E14.75226
G1 X99.899 Y67.117 E14.7755
G1 X100.096 Y66.512 E14.79878
G1 X100.329 Y66.019 E14.81873
G0 F810 X100.367 Y65.937
G0 X100.708 Y65.4
M204 S5000
M205 X30 Y30
G0 F7200 X101.145 Y65.55
M204 S500
M205 X20 Y20
G1 F6000 E14.84532
G1 F900 X101.533 Y65.109 E14.86681
G1 X101.923 Y64.719 E14.88699
G1 X102.38 Y64.319 E14.90921
G1 X102.886 Y63.982 E14.93145
G1 X103.431 Y63.714 E14.95367
G1 X104.007 Y63.52 E14.97591
G1 X104.603 Y63.403 E14.99813
G1 X104.613 Y63.402 E14.9985
G1 X104.722 Y63.143 E15.00878
G1 X104.994 Y62.6 E15.031
G1 X105.335 Y62.098 E15.0532
G1 X105.74 Y61.644 E15.07546
G1 X106.2 Y61.247 E15.09769
G1 X106.708 Y60.914 E15.11992
G1 X107.256 Y60.651 E15.14215
G1 X107.833 Y60.462 E15.16437
G1 X108.431 Y60.351 E15.18662
G1 X108.979 Y60.318 E15.20671
G1 X113.662 Y60.318 E15.37804
G1 X114.268 Y60.358 E15.40026
G1 X114.864 Y60.477 E15.42249
G1 X115.439 Y60.673 E15.44472
G1 X115.983 Y60.944 E15.46696
G1 X116.488 Y61.283 E15.48921
G1 X116.943 Y61.685 E15.51142
G1 X117.341 Y62.144 E15.53365
G1 X117.488 Y62.367 E15.54342
G1 X120.713 Y62.367 E15.66141
G1 X120.859 Y62.145 E15.67113
G1 X121.258 Y61.686 E15.69338
G1 X121.713 Y61.283 E15.71562
G1 X122.216 Y60.944 E15.73781
G1 X122.761 Y60.673 E15.76008
G1 X123.336 Y60.477 E15.78231
G1 X123.931 Y60.357 E15.80451
G1 X124.54 Y60.317 E15.82684
G1 X129.229 Y60.317 E15.9984
G1 X129.835 Y60.357 E16.02061
G1 X130.431 Y60.476 E16.04285
G1 X131.006 Y60.672 E16.06508
G1 X131.55 Y60.943 E16.08731
G1 X132.055 Y61.282 E16.10956
G1 X132.51 Y61.684 E16.13178
G1 X132.908 Y62.143 E16.154
G1 X133.243 Y62.65 E16.17624
G1 X133.521 Y63.228 E16.1997
G1 X133.579 Y63.373 E16.20542
G1 X142.951 Y63.368 E16.5483
G1 X143.558 Y63.408 E16.57056
G1 X144.154 Y63.526 E16.59279
G1 X144.729 Y63.722 E16.61501
G1 X145.273 Y63.992 E16.63723
G1 X145.778 Y64.331 E16.65948
G1 X146.221 Y64.721 E16.68108
G1 X146.467 Y64.967 E16.69381
G1 X146.867 Y65.424 E16.71603
G1 X147.204 Y65.93 E16.73827
G1 X147.472 Y66.475 E16.76049
G1 X147.666 Y67.051 E16.78273
G1 X147.783 Y67.647 E16.80495
G1 X147.82 Y68.234 E16.82647
G1 X147.82 Y155.567 E20.02164
G1 X147.78 Y156.173 E20.04386
G1 X147.661 Y156.769 E20.0661
G1 X147.465 Y157.344 E20.08832
G1 X147.194 Y157.888 E20.11056
G1 X146.855 Y158.393 E20.13281
G1 X146.842 Y158.408 E20.13354
G1 X147.004 Y158.652 E20.14425
G1 X147.272 Y159.197 E20.16647
G1 X147.466 Y159.773 E20.18871
G1 X147.583 Y160.369 E20.21093
G1 X147.62 Y160.956 E20.23245
G1 X147.62 Y170.009 E20.56367
G1 X147.58 Y170.615 E20.58589
G1 X147.461 Y171.211 E20.60812
G1 X147.265 Y171.786 E20.63035
G1 X146.994 Y172.33 E20.65258
G1 X146.655 Y172.835 E20.67484
G1 X146.267 Y173.276 E20.69633
G1 X146.138 Y173.405 E20.703
G1 X145.681 Y173.805 E20.72522
G1 X145.175 Y174.142 E20.74746
G1 X144.63 Y174.41 E20.76968
G1 X144.054 Y174.604 E20.79192
G1 X143.458 Y174.721 E20.81414
G1 X142.871 Y174.758 E20.83566
G1 X92.129 Y174.758 E22.69211
G1 X91.523 Y174.718 E22.71433
G1 X90.927 Y174.599 E22.73657
G1 X90.352 Y174.403 E22.75879
G1 X89.808 Y174.132 E22.78103
G1 X89.303 Y173.793 E22.80328
G1 X88.862 Y173.405 E22.82477
G1 X88.733 Y173.276 E22.83145
G1 X88.333 Y172.819 E22.85367
G1 X87.996 Y172.313 E22.87591
G1 X87.728 Y171.768 E22.89813
G1 X87.534 Y171.192 E22.92037
G1 X87.417 Y170.596 E22.94259
G1 X87.38 Y170.009 E22.96411
G1 X87.38 Y161.267 E23.28394
G1 X87.42 Y160.661 E23.30616
G1 X87.539 Y160.065 E23.3284
G1 X87.735 Y159.49 E23.35062
G1 X88.006 Y158.946 E23.37286
G1 X88.345 Y158.441 E23.39511
G1 X88.733 Y158 E23.4166
G1 X88.862 Y157.871 E23.42328
G1 X89.319 Y157.471 E23.4455
G1 X89.825 Y157.134 E23.46774
G1 X90.37 Y156.866 E23.48996
G1 X90.946 Y156.672 E23.5122
G1 X91.542 Y156.555 E23.53442
G1 X92.127 Y156.518 E23.55586
G1 X133.288 Y156.499 E25.06179
G1 X133.213 Y156.099 E25.07668
G1 X133.18 Y155.545 E25.09698
G1 X133.219 Y87.408 E27.58985
G1 X133.138 Y85.577 E27.65691
G1 X133.088 Y85.239 E27.66941
G1 X133.06 Y85.151 E27.67279
G1 X132.838 Y85.482 E27.68737
G1 X132.436 Y85.937 E27.70958
G1 X131.977 Y86.335 E27.73181
G1 X131.47 Y86.67 E27.75404
G1 X130.924 Y86.936 E27.77626
G1 X130.626 Y87.035 E27.78775
G1 X130.396 Y87.165 E27.79742
G1 X129.833 Y87.393 E27.81964
G1 X129.245 Y87.546 E27.84187
G1 X128.642 Y87.62 E27.86409
G1 X128.323 Y87.627 E27.87577
G1 X125.323 Y87.588 E27.98554
G1 X124.717 Y87.54 E28.00778
G1 X124.123 Y87.413 E28.03
G1 X123.551 Y87.209 E28.05222
G1 X123.358 Y87.11 E28.06015
G1 X122.806 Y86.922 E28.08149
G1 X122.262 Y86.651 E28.10372
G1 X121.757 Y86.312 E28.12598
G1 X121.302 Y85.91 E28.14819
G1 X120.904 Y85.451 E28.17042
G1 X120.569 Y84.944 E28.19265
G1 X120.418 Y84.633 E28.2053
G1 X117.691 Y84.635 E28.30507
G1 X117.616 Y84.786 E28.31124
G1 X117.277 Y85.291 E28.33349
G1 X116.875 Y85.746 E28.3557
G1 X116.416 Y86.144 E28.37793
G1 X115.909 Y86.479 E28.40016
G1 X115.785 Y86.539 E28.4052
G1 X115.616 Y86.686 E28.4134
G1 X115.109 Y87.021 E28.43563
G1 X114.563 Y87.287 E28.45785
G1 X113.986 Y87.478 E28.48009
G1 X113.389 Y87.592 E28.50232
G1 X112.762 Y87.627 E28.5253
G1 X109.762 Y87.588 E28.63507
G1 X109.156 Y87.54 E28.65731
G1 X108.562 Y87.413 E28.67953
G1 X107.99 Y87.209 E28.70175
G1 X107.797 Y87.11 E28.70969
G1 X107.245 Y86.922 E28.73102
G1 X106.701 Y86.651 E28.75326
G1 X106.196 Y86.312 E28.77551
G1 X105.741 Y85.91 E28.79772
G1 X105.343 Y85.451 E28.81995
G1 X105.008 Y84.944 E28.84218
G1 X104.852 Y84.623 E28.85524
G1 X104.442 Y84.596 E28.87027
G1 X103.846 Y84.478 E28.8925
G1 X103.271 Y84.281 E28.91474
G1 X102.727 Y84.012 E28.93694
G1 X102.222 Y83.673 E28.95919
G1 X101.779 Y83.283 E28.98079
G1 X101.533 Y83.037 E28.99352
G1 X101.133 Y82.58 E29.01574
G1 X100.796 Y82.074 E29.03798
G1 X100.528 Y81.529 E29.0602
G1 X100.334 Y80.953 E29.08244
G1 X100.217 Y80.357 E29.10466
G1 X100.18 Y79.77 E29.12618
G1 X100.18 Y68.376 E29.54304
G1 X100.22 Y67.77 E29.56526
G1 X100.339 Y67.174 E29.58749
G1 X100.535 Y66.599 E29.60972
G1 X100.753 Y66.161 E29.62762
G0 F810 X100.806 Y66.055
G0 X101.145 Y65.55
M204 S5000
M205 X30 Y30
G0 F7200 X101.581 Y65.709
M204 S500
M205 X20 Y20
G1 F6000 E29.65422
G1 F900 X101.844 Y65.42 E29.66851
G1 X102.234 Y65.03 E29.68869
G1 X102.67 Y64.651 E29.70983
G1 X103.154 Y64.335 E29.73098
G1 X103.677 Y64.089 E29.75212
G1 X104.229 Y63.918 E29.77326
G1 X104.8 Y63.824 E29.79444
G1 X104.93 Y63.818 E29.7992
G1 X104.99 Y63.639 E29.8061
G1 X105.127 Y63.314 E29.81901
G1 X105.388 Y62.799 E29.84013
G1 X105.717 Y62.324 E29.86127
G1 X106.109 Y61.899 E29.88242
G1 X106.556 Y61.532 E29.90358
G1 X107.049 Y61.23 E29.92474
G1 X107.579 Y61 E29.94587
G1 X108.135 Y60.844 E29.967
G1 X108.979 Y60.758 E29.99804
G1 X113.662 Y60.758 E30.16937
G1 X114.239 Y60.798 E30.19053
G1 X114.804 Y60.917 E30.21166
G1 X115.348 Y61.113 E30.23281
G1 X115.859 Y61.382 E30.25394
G1 X116.329 Y61.719 E30.2751
G1 X116.747 Y62.118 E30.29624
G1 X117.107 Y62.57 E30.31738
G1 X117.236 Y62.807 E30.32726
G1 X120.947 Y62.807 E30.46303
G1 X121.244 Y62.366 E30.48248
G1 X121.63 Y61.936 E30.50362
G1 X122.072 Y61.563 E30.52478
G1 X122.561 Y61.255 E30.54592
G1 X123.088 Y61.017 E30.56708
G1 X123.642 Y60.855 E30.5882
G1 X124.214 Y60.77 E30.60935
G1 X124.54 Y60.757 E30.62129
G1 X129.229 Y60.757 E30.79284
G1 X129.806 Y60.797 E30.814
G1 X130.371 Y60.916 E30.83513
G1 X130.915 Y61.112 E30.85628
G1 X131.426 Y61.381 E30.87741
G1 X131.896 Y61.718 E30.89857
G1 X132.314 Y62.117 E30.91971
G1 X132.674 Y62.569 E30.94085
G1 X132.967 Y63.067 E30.96199
G1 X133.113 Y63.391 E30.97499
G1 X133.242 Y63.715 E30.98775
G1 X133.273 Y63.813 E30.99151
G1 X142.952 Y63.808 E31.34563
G1 X143.528 Y63.848 E31.36676
G1 X144.094 Y63.966 E31.38791
G1 X144.638 Y64.162 E31.40906
G1 X145.149 Y64.431 E31.43019
G1 X145.619 Y64.768 E31.45135
G1 X145.91 Y65.032 E31.46573
G1 X146.156 Y65.278 E31.47845
G1 X146.535 Y65.714 E31.49959
G1 X146.851 Y66.198 E31.52074
G1 X147.097 Y66.721 E31.54188
G1 X147.268 Y67.273 E31.56302
G1 X147.362 Y67.844 E31.5842
G1 X147.38 Y68.234 E31.59848
G1 X147.38 Y155.567 E34.79366
G1 X147.34 Y156.144 E34.81482
G1 X147.221 Y156.709 E34.83594
G1 X147.025 Y157.253 E34.8571
G1 X146.756 Y157.764 E34.87823
G1 X146.419 Y158.234 E34.89939
G1 X146.283 Y158.376 E34.90658
G1 X146.335 Y158.436 E34.90948
G1 X146.651 Y158.92 E34.93063
G1 X146.897 Y159.443 E34.95178
G1 X147.068 Y159.995 E34.97292
G1 X147.162 Y160.566 E34.99409
G1 X147.18 Y160.956 E35.00838
G1 X147.18 Y170.009 E35.33959
G1 X147.14 Y170.586 E35.36075
G1 X147.021 Y171.151 E35.38188
G1 X146.825 Y171.695 E35.40303
G1 X146.556 Y172.206 E35.42416
G1 X146.219 Y172.676 E35.44532
G1 X145.956 Y172.965 E35.45961
G1 X145.827 Y173.094 E35.46629
G1 X145.391 Y173.473 E35.48742
G1 X144.907 Y173.789 E35.50857
G1 X144.384 Y174.035 E35.52972
G1 X143.832 Y174.206 E35.55086
G1 X143.261 Y174.3 E35.57203
G1 X142.871 Y174.318 E35.58632
G1 X92.129 Y174.318 E37.44277
G1 X91.552 Y174.278 E37.46393
G1 X90.987 Y174.159 E37.48506
G1 X90.443 Y173.963 E37.50621
G1 X89.932 Y173.694 E37.52734
G1 X89.462 Y173.357 E37.5485
G1 X89.173 Y173.094 E37.56279
G1 X89.044 Y172.965 E37.56947
G1 X88.665 Y172.529 E37.5906
G1 X88.349 Y172.045 E37.61175
G1 X88.103 Y171.522 E37.6329
G1 X87.932 Y170.97 E37.65404
G1 X87.838 Y170.399 E37.67521
G1 X87.82 Y170.009 E37.6895
G1 X87.82 Y161.267 E38.00933
G1 X87.86 Y160.69 E38.03049
G1 X87.979 Y160.125 E38.05162
G1 X88.175 Y159.581 E38.07277
G1 X88.444 Y159.07 E38.0939
G1 X88.781 Y158.6 E38.11506
G1 X89.044 Y158.311 E38.12936
G1 X89.173 Y158.182 E38.13603
G1 X89.609 Y157.803 E38.15717
G1 X90.093 Y157.487 E38.17831
G1 X90.616 Y157.241 E38.19946
G1 X91.168 Y157.07 E38.2206
G1 X91.739 Y156.976 E38.24177
G1 X92.127 Y156.958 E38.25598
G1 X133.863 Y156.938 E39.78294
G1 X133.835 Y156.871 E39.7856
G1 X133.69 Y156.311 E39.80676
G1 X133.62 Y155.546 E39.83487
G1 X133.659 Y87.389 E42.32847
G1 X133.578 Y85.542 E42.39611
G1 X133.518 Y85.138 E42.41105
G1 X133.279 Y84.395 E42.43961
G1 X132.992 Y84.389 E42.45011
G1 X132.984 Y84.388 E42.45041
G1 X132.739 Y84.853 E42.46964
G1 X132.402 Y85.323 E42.4908
G1 X132.003 Y85.741 E42.51194
G1 X131.551 Y86.101 E42.53308
G1 X131.053 Y86.394 E42.55422
G1 X130.52 Y86.617 E42.57536
G1 X130.428 Y86.641 E42.57884
G1 X130.128 Y86.805 E42.59134
G1 X129.587 Y87.01 E42.61251
G1 X129.024 Y87.138 E42.63363
G1 X128.329 Y87.187 E42.65912
