;FLAVOR:Marlin
;TIME:7380
;Filament used: 6.17875m
;Layer height: 0.16
;Generated with Cura_SteamEngine 3.6.0
M140 S70
M105
M190 S70
M104 S215
M105
M109 S215
M82 ;absolute extrusion mode
G28 ; home all axes
M117 Purge extruder
G92 E0 ; reset extruder
G1 Z1.0 F3000 ; move z up little to prevent scratching of surface
G1 X0.1 Y20 Z0.3 F5000.0 ; move to start-line position G1 X0.1 Y200.0 Z0.3 F1500.0 E15 ; draw 1st line
G1 X0.4 Y200.0 Z0.3 F5000.0 ; move to side a little
G1 X0.4 Y20 Z0.3 F1500.0 E30 ; draw 2nd line
G92 E0 ; reset extruder
G1 Z1.0 F3000 ; move z up little to prevent scratching of surface
M117 All systems go!
G92 E0
G1 F6000 E-5
;LAYER_COUNT:98
;LAYER:0
M107
M204 S5000
M205 X30 Y30
G0 F7200 X72.664 Y96.255 Z0.2
M204 S500
M205 X20 Y20
;TYPE:SKIRT
G1 F6000 E0
G1 F900 X73.62 Y95.544 E0.04359
G1 X74.107 Y95.223 E0.06493
G1 X75.726 Y94.287 E0.13335
G1 X76.262 Y94.019 E0.15527
G1 X77.498 Y93.488 E0.20449
G1 X77.963 Y93.314 E0.22265
G1 X82.617 Y91.836 E0.40131
G1 X82.987 Y91.734 E0.41535
G1 X86.735 Y90.85 E0.55624
G1 X86.925 Y90.809 E0.56335
G1 X89.264 Y90.351 E0.65055
G1 X89.479 Y90.314 E0.65853
G1 X93.737 Y89.67 E0.81608
G1 X94.146 Y89.625 E0.83114
G1 X99.684 Y89.243 E1.03423
G1 X100.029 Y89.231 E1.04686
G1 X109.405 Y89.226 E1.3899
G1 X109.547 Y89.228 E1.39509
G1 X115.071 Y89.38 E1.59727
G1 X115.206 Y89.385 E1.60221
G1 X126.407 Y89.993 E2.01262
G1 X126.528 Y90.001 E2.01705
G1 X131.357 Y90.379 E2.19427
G1 X131.476 Y90.39 E2.19864
G1 X143.892 Y91.659 E2.65526
G1 X143.97 Y91.668 E2.65813
G1 X149.856 Y92.361 E2.87497
G1 X149.977 Y92.377 E2.87943
G1 X161.825 Y94.064 E3.31728
G1 X162.448 Y94.193 E3.34055
G1 X163.05 Y94.399 E3.36383
G1 X163.604 Y94.669 E3.38638
G1 X164.462 Y95.155 E3.42246
G1 X165.1 Y95.353 E3.4469
G1 X165.694 Y95.58 E3.47016
G1 X166.519 Y96.054 E3.50497
G1 X167.441 Y96.706 E3.54629
G1 X167.936 Y97.105 E3.56955
G1 X168.491 Y97.702 E3.59937
G1 X169.207 Y98.609 E3.64165
G1 X169.569 Y99.132 E3.66492
G1 X169.862 Y99.696 E3.68817
G1 X170.082 Y100.292 E3.71142
G1 X170.226 Y100.912 E3.7347
G1 X170.295 Y101.739 E3.76507
G1 X170.326 Y133.187 E4.91563
G1 X170.287 Y133.822 E4.9389
G1 X170.168 Y134.446 E4.96214
G1 X169.972 Y135.051 E4.98541
G1 X169.702 Y135.627 E5.00869
G1 X169.357 Y136.17 E5.03222
G1 X168.768 Y136.979 E5.06883
G1 X168.362 Y137.469 E5.09212
G1 X167.652 Y138.094 E5.12672
G1 X166.667 Y138.81 E5.17127
G1 X166.13 Y139.151 E5.19455
G1 X165.409 Y139.477 E5.2235
G1 X164.524 Y139.796 E5.25792
G1 X163.661 Y140.266 E5.29387
G1 X163.084 Y140.534 E5.31714
G1 X162.478 Y140.728 E5.34042
G1 X162.059 Y140.815 E5.35608
G1 X157.07 Y141.631 E5.54103
G1 X156.896 Y141.656 E5.54747
G1 X144.165 Y143.288 E6.01706
G1 X144.036 Y143.303 E6.02181
G1 X133.932 Y144.335 E6.3934
G1 X133.864 Y144.341 E6.39589
G1 X127.773 Y144.88 E6.61961
G1 X127.636 Y144.891 E6.62464
G1 X118.333 Y145.46 E6.96564
G1 X118.201 Y145.466 E6.97047
G1 X109.652 Y145.766 E7.28344
G1 X109.478 Y145.769 E7.28981
G1 X100.809 Y145.774 E7.60697
G1 X100.533 Y145.767 E7.61707
G1 X96.982 Y145.575 E7.74718
G1 X96.763 Y145.558 E7.75522
G1 X92.816 Y145.172 E7.90031
G1 X92.475 Y145.127 E7.91289
G1 X87.441 Y144.287 E8.09962
G1 X87.05 Y144.206 E8.11422
G1 X81.372 Y142.79 E8.32832
G1 X81.086 Y142.71 E8.33919
G1 X79.029 Y142.067 E8.41804
G1 X78.654 Y141.933 E8.43261
G1 X76.404 Y141.03 E8.52131
G1 X75.71 Y140.687 E8.54963
G1 X74.066 Y139.713 E8.61954
G1 X73.601 Y139.402 E8.64001
G1 X72.146 Y138.306 E8.70665
G1 X71.509 Y137.736 E8.73793
G1 X69.784 Y135.907 E8.82991
G1 X69.378 Y135.418 E8.85316
G1 X69.036 Y134.881 E8.87646
G1 X68.764 Y134.307 E8.89969
G1 X68.583 Y133.755 E8.92095
G1 X68.188 Y133.569 E8.93692
G1 X67.651 Y133.228 E8.96019
G1 X67.049 Y132.714 E8.98916
G1 X66.92 Y132.585 E8.99583
G1 X66.5 Y132.108 E9.01908
G1 X66.416 Y131.985 E9.02453
G1 X66.285 Y131.873 E9.03084
G1 X66.156 Y131.744 E9.03751
G1 X65.736 Y131.267 E9.06076
G1 X65.378 Y130.741 E9.08404
G1 X65.09 Y130.174 E9.10731
G1 X64.874 Y129.576 E9.13057
G1 X64.736 Y128.955 E9.15385
G1 X64.674 Y128.166 E9.1828
G1 X64.674 Y127.392 E9.21112
G1 X64.714 Y126.757 E9.2344
G1 X64.833 Y126.133 E9.25764
G1 X65.03 Y125.528 E9.28092
G1 X65.301 Y124.953 E9.30417
G1 X65.642 Y124.416 E9.32745
G1 X66.156 Y123.814 E9.35641
G1 X66.285 Y123.685 E9.36308
G1 X66.762 Y123.265 E9.38634
G1 X67.122 Y123.02 E9.40227
G1 X67.123 Y111.979 E9.80621
G1 X66.887 Y111.829 E9.81645
G1 X66.285 Y111.315 E9.84541
G1 X66.156 Y111.186 E9.85208
G1 X65.736 Y110.709 E9.87533
G1 X65.378 Y110.183 E9.89861
G1 X65.09 Y109.616 E9.92188
G1 X64.874 Y109.018 E9.94514
G1 X64.736 Y108.397 E9.96842
G1 X64.674 Y107.608 E9.99737
G1 X64.674 Y106.834 E10.02569
G1 X64.714 Y106.199 E10.04897
G1 X64.833 Y105.575 E10.07221
G1 X65.03 Y104.97 E10.09549
G1 X65.301 Y104.395 E10.11874
G1 X65.642 Y103.858 E10.14202
G1 X66.156 Y103.256 E10.17098
G1 X66.285 Y103.127 E10.17765
G1 X66.346 Y103.073 E10.18063
G1 X66.406 Y102.979 E10.18471
G1 X66.92 Y102.377 E10.21367
G1 X67.049 Y102.248 E10.22035
G1 X67.526 Y101.828 E10.2436
G1 X68.052 Y101.47 E10.26688
G1 X68.619 Y101.182 E10.29015
G1 X68.627 Y101.179 E10.29046
G1 X68.798 Y100.664 E10.31031
G1 X69.072 Y100.091 E10.33355
G1 X69.417 Y99.556 E10.35684
G1 X69.624 Y99.294 E10.36906
G1 X70.578 Y98.164 E10.42316
G1 X71.064 Y97.662 E10.44872
G1 X72.304 Y96.549 E10.50969
G1 X72.664 Y96.255 E10.52669
M204 S5000
M205 X30 Y30
G0 F7200 X72.927 Y96.608
M204 S500
M205 X20 Y20
G1 F900 X73.883 Y95.897 E10.57028
G1 X74.328 Y95.604 E10.58977
G1 X75.947 Y94.668 E10.65819
G1 X76.435 Y94.423 E10.67817
G1 X77.671 Y93.892 E10.72739
G1 X78.097 Y93.734 E10.74401
G1 X82.751 Y92.256 E10.92266
G1 X83.088 Y92.162 E10.93546
G1 X86.836 Y91.278 E11.07635
G1 X87.009 Y91.241 E11.08282
G1 X89.348 Y90.783 E11.17002
G1 X89.545 Y90.749 E11.17734
G1 X93.803 Y90.105 E11.33489
G1 X94.176 Y90.064 E11.34862
G1 X99.714 Y89.682 E11.55172
G1 X100.03 Y89.671 E11.56329
G1 X109.406 Y89.666 E11.90632
G1 X109.535 Y89.668 E11.91104
G1 X115.059 Y89.82 E12.11322
G1 X115.182 Y89.825 E12.11772
G1 X126.383 Y90.433 E12.52812
G1 X126.494 Y90.44 E12.53219
G1 X131.323 Y90.818 E12.70941
G1 X131.432 Y90.828 E12.71341
G1 X143.848 Y92.097 E13.17003
G1 X143.918 Y92.105 E13.17261
G1 X149.804 Y92.798 E13.38944
G1 X149.915 Y92.812 E13.39354
G1 X161.763 Y94.499 E13.83138
G1 X162.358 Y94.624 E13.85363
G1 X162.931 Y94.826 E13.87585
G1 X163.387 Y95.052 E13.89447
G1 X164.29 Y95.563 E13.93243
G1 X164.969 Y95.774 E13.95845
G1 X165.536 Y95.992 E13.98067
G1 X166.264 Y96.413 E14.01144
G1 X167.186 Y97.065 E14.05276
G1 X167.658 Y97.448 E14.07499
G1 X168.145 Y97.974 E14.10122
G1 X168.861 Y98.881 E14.1435
G1 X169.206 Y99.382 E14.16575
G1 X169.481 Y99.924 E14.18799
G1 X169.683 Y100.497 E14.21022
G1 X169.809 Y101.091 E14.23243
G1 X169.855 Y101.739 E14.2562
G1 X169.886 Y133.187 E15.40676
G1 X169.847 Y133.794 E15.42902
G1 X169.728 Y134.39 E15.45125
G1 X169.532 Y134.965 E15.47348
G1 X169.263 Y135.509 E15.49568
G1 X169.001 Y135.911 E15.51324
G1 X168.412 Y136.72 E15.54985
G1 X168.023 Y137.187 E15.57208
G1 X167.393 Y137.738 E15.60271
G1 X166.408 Y138.454 E15.64726
G1 X165.895 Y138.778 E15.66946
G1 X165.26 Y139.063 E15.69492
G1 X164.339 Y139.395 E15.73074
G1 X163.45 Y139.879 E15.76777
G1 X162.899 Y140.134 E15.78999
G1 X162.318 Y140.314 E15.81224
G1 X161.988 Y140.38 E15.82455
G1 X156.999 Y141.196 E16.00951
G1 X156.84 Y141.22 E16.01539
G1 X144.109 Y142.852 E16.48498
G1 X143.991 Y142.865 E16.48932
G1 X133.887 Y143.897 E16.86091
G1 X133.825 Y143.903 E16.86319
G1 X127.734 Y144.442 E17.08691
G1 X127.609 Y144.451 E17.09149
G1 X118.306 Y145.02 E17.43249
G1 X118.186 Y145.026 E17.43688
G1 X109.637 Y145.326 E17.74985
G1 X109.478 Y145.329 E17.75567
G1 X100.809 Y145.334 E18.07284
G1 X100.557 Y145.327 E18.08206
G1 X97.006 Y145.135 E18.21217
G1 X96.805 Y145.12 E18.21954
G1 X92.858 Y144.734 E18.36464
G1 X92.548 Y144.693 E18.37608
G1 X87.514 Y143.853 E18.5628
G1 X87.156 Y143.779 E18.57617
G1 X81.478 Y142.363 E18.79027
G1 X81.218 Y142.29 E18.80015
G1 X79.161 Y141.647 E18.879
G1 X78.818 Y141.525 E18.89232
G1 X76.568 Y140.622 E18.98102
G1 X75.934 Y140.309 E19.00689
G1 X74.29 Y139.335 E19.0768
G1 X73.865 Y139.05 E19.09552
G1 X72.41 Y137.954 E19.16217
G1 X71.829 Y137.434 E19.19069
G1 X70.104 Y135.605 E19.28268
G1 X69.717 Y135.136 E19.30492
G1 X69.395 Y134.621 E19.32714
G1 X69.143 Y134.068 E19.34938
G1 X68.966 Y133.487 E19.3716
G1 X68.958 Y133.438 E19.37341
G1 X68.85 Y133.401 E19.37759
G1 X68.306 Y133.13 E19.39983
G1 X67.801 Y132.791 E19.42208
G1 X67.36 Y132.403 E19.44357
G1 X67.231 Y132.274 E19.45024
G1 X66.831 Y131.817 E19.47246
G1 X66.753 Y131.7 E19.47761
G1 X66.596 Y131.562 E19.48526
G1 X66.467 Y131.433 E19.49193
G1 X66.067 Y130.976 E19.51415
G1 X65.73 Y130.47 E19.53639
G1 X65.462 Y129.925 E19.55861
G1 X65.268 Y129.349 E19.58085
G1 X65.151 Y128.753 E19.60307
G1 X65.114 Y128.166 E19.62459
G1 X65.114 Y127.392 E19.65291
G1 X65.154 Y126.786 E19.67513
G1 X65.273 Y126.19 E19.69736
G1 X65.469 Y125.615 E19.71959
G1 X65.74 Y125.071 E19.74182
G1 X66.079 Y124.566 E19.76408
G1 X66.467 Y124.125 E19.78557
G1 X66.596 Y123.996 E19.79224
G1 X67.053 Y123.596 E19.81446
G1 X67.559 Y123.259 E19.8367
G1 X67.562 Y123.257 E19.83684
G1 X67.563 Y111.741 E20.25816
G1 X67.542 Y111.731 E20.25901
G1 X67.037 Y111.392 E20.28127
G1 X66.596 Y111.004 E20.30276
G1 X66.467 Y110.875 E20.30943
G1 X66.067 Y110.418 E20.33165
G1 X65.73 Y109.912 E20.35389
G1 X65.462 Y109.367 E20.37611
G1 X65.268 Y108.791 E20.39835
G1 X65.151 Y108.195 E20.42057
G1 X65.114 Y107.608 E20.44209
G1 X65.114 Y106.834 E20.47041
G1 X65.154 Y106.228 E20.49263
G1 X65.273 Y105.632 E20.51486
G1 X65.469 Y105.057 E20.53709
G1 X65.74 Y104.513 E20.55933
G1 X66.079 Y104.008 E20.58158
G1 X66.467 Y103.567 E20.60307
G1 X66.596 Y103.438 E20.60974
G1 X66.692 Y103.354 E20.61441
G1 X66.843 Y103.129 E20.62432
G1 X67.231 Y102.688 E20.64581
G1 X67.36 Y102.559 E20.65249
G1 X67.817 Y102.159 E20.67471
G1 X68.323 Y101.822 E20.69695
G1 X68.868 Y101.554 E20.71917
G1 X69 Y101.51 E20.72426
G1 X69.044 Y101.302 E20.73204
G1 X69.247 Y100.729 E20.75428
G1 X69.524 Y100.188 E20.77652
G1 X69.96 Y99.578 E20.80395
G1 X70.914 Y98.448 E20.85805
G1 X71.358 Y97.99 E20.88139
G1 X72.598 Y96.877 E20.94235
G1 X72.927 Y96.608 E20.9579
M204 S5000
M205 X30 Y30
G0 F7200 X73.189 Y96.961
M204 S500
M205 X20 Y20
G1 F900 X74.145 Y96.25 E21.00149
G1 X74.548 Y95.985 E21.01914
G1 X76.167 Y95.049 E21.08756
G1 X76.609 Y94.827 E21.10565
G1 X77.845 Y94.296 E21.15487
G1 X78.23 Y94.153 E21.1699
G1 X82.884 Y92.675 E21.34855
G1 X83.189 Y92.591 E21.36012
G1 X86.937 Y91.707 E21.50101
G1 X87.094 Y91.673 E21.50689
G1 X89.433 Y91.215 E21.59409
G1 X89.611 Y91.184 E21.6007
G1 X93.869 Y90.54 E21.75825
G1 X94.206 Y90.503 E21.77066
G1 X99.744 Y90.121 E21.97375
G1 X100.03 Y90.111 E21.98422
G1 X109.406 Y90.106 E22.32725
G1 X109.523 Y90.108 E22.33154
G1 X115.047 Y90.26 E22.53371
G1 X115.159 Y90.264 E22.53781
G1 X126.36 Y90.872 E22.94822
G1 X126.459 Y90.879 E22.95185
G1 X131.288 Y91.257 E23.12906
G1 X131.387 Y91.266 E23.1327
G1 X143.803 Y92.535 E23.58932
G1 X143.867 Y92.542 E23.59168
G1 X149.753 Y93.235 E23.80851
G1 X149.853 Y93.248 E23.8122
G1 X161.701 Y94.935 E24.25004
G1 X162.266 Y95.056 E24.27118
G1 X162.809 Y95.253 E24.29232
G1 X163.17 Y95.435 E24.30711
G1 X164.112 Y95.968 E24.34671
G1 X164.839 Y96.194 E24.37456
G1 X165.377 Y96.403 E24.39568
G1 X166.01 Y96.772 E24.42248
G1 X166.932 Y97.424 E24.4638
G1 X167.38 Y97.79 E24.48496
G1 X167.8 Y98.247 E24.50767
G1 X168.516 Y99.154 E24.54995
G1 X168.842 Y99.631 E24.57109
G1 X169.099 Y100.149 E24.59224
G1 X169.282 Y100.697 E24.61338
G1 X169.387 Y101.265 E24.63451
G1 X169.415 Y101.74 E24.65192
G1 X169.446 Y133.188 E25.80248
G1 X169.407 Y133.764 E25.82361
G1 X169.288 Y134.33 E25.84477
G1 X169.093 Y134.874 E25.86591
G1 X168.824 Y135.386 E25.88707
G1 X168.645 Y135.652 E25.8988
G1 X168.056 Y136.461 E25.93541
G1 X167.685 Y136.904 E25.95655
G1 X167.135 Y137.382 E25.98321
G1 X166.15 Y138.098 E26.02776
G1 X165.66 Y138.405 E26.04892
G1 X165.111 Y138.649 E26.0709
G1 X164.161 Y138.992 E26.10785
G1 X163.24 Y139.493 E26.14621
G1 X162.714 Y139.733 E26.16736
G1 X161.917 Y139.946 E26.19755
G1 X156.928 Y140.762 E26.3825
G1 X156.784 Y140.783 E26.38783
G1 X144.053 Y142.415 E26.85741
G1 X143.947 Y142.427 E26.86132
G1 X133.843 Y143.459 E27.23291
G1 X133.786 Y143.465 E27.235
G1 X127.695 Y144.004 E27.45872
G1 X127.582 Y144.012 E27.46287
G1 X118.279 Y144.581 E27.80386
G1 X118.171 Y144.586 E27.80782
G1 X109.622 Y144.886 E28.12079
G1 X109.477 Y144.889 E28.12609
G1 X100.808 Y144.894 E28.44326
G1 X100.58 Y144.888 E28.4516
G1 X97.029 Y144.696 E28.58171
G1 X96.848 Y144.682 E28.58835
G1 X92.901 Y144.296 E28.73345
G1 X92.62 Y144.259 E28.74381
G1 X87.586 Y143.419 E28.93054
G1 X87.263 Y143.352 E28.9426
G1 X81.585 Y141.936 E29.1567
G1 X81.349 Y141.87 E29.16567
G1 X79.292 Y141.227 E29.24452
G1 X78.982 Y141.116 E29.25656
G1 X76.732 Y140.213 E29.34527
G1 X76.158 Y139.93 E29.36868
G1 X74.514 Y138.956 E29.43859
G1 X74.13 Y138.699 E29.4555
G1 X72.675 Y137.603 E29.52214
G1 X72.149 Y137.132 E29.54797
G1 X70.424 Y135.303 E29.63996
G1 X70.058 Y134.856 E29.66109
G1 X69.756 Y134.363 E29.68225
G1 X69.526 Y133.833 E29.70338
G1 X69.371 Y133.276 E29.72454
G1 X69.348 Y133.108 E29.73074
G1 X68.941 Y132.961 E29.74657
G1 X68.43 Y132.692 E29.7677
G1 X67.96 Y132.355 E29.78886
G1 X67.671 Y132.092 E29.80315
G1 X67.542 Y131.963 E29.80983
G1 X67.163 Y131.527 E29.83096
G1 X67.094 Y131.421 E29.83559
G1 X66.907 Y131.251 E29.84484
G1 X66.778 Y131.122 E29.85151
G1 X66.399 Y130.686 E29.87265
G1 X66.083 Y130.202 E29.8938
G1 X65.837 Y129.679 E29.91494
G1 X65.666 Y129.127 E29.93608
G1 X65.572 Y128.556 E29.95726
G1 X65.554 Y128.166 E29.97154
G1 X65.554 Y127.392 E29.99986
G1 X65.594 Y126.815 E30.02102
G1 X65.713 Y126.25 E30.04214
G1 X65.909 Y125.706 E30.0633
G1 X66.178 Y125.195 E30.08443
G1 X66.515 Y124.725 E30.10559
G1 X66.778 Y124.436 E30.11988
G1 X66.907 Y124.307 E30.12656
G1 X67.343 Y123.928 E30.14769
G1 X67.827 Y123.612 E30.16884
G1 X68.002 Y123.53 E30.17591
G1 X68.003 Y111.47 E30.61714
G1 X67.666 Y111.293 E30.63107
G1 X67.196 Y110.956 E30.65222
G1 X66.907 Y110.693 E30.66652
G1 X66.778 Y110.564 E30.6732
G1 X66.399 Y110.128 E30.69433
G1 X66.083 Y109.644 E30.71548
G1 X65.837 Y109.121 E30.73662
G1 X65.666 Y108.569 E30.75777
G1 X65.572 Y107.998 E30.77894
G1 X65.554 Y107.608 E30.79322
G1 X65.554 Y106.834 E30.82154
G1 X65.594 Y106.257 E30.8427
G1 X65.713 Y105.692 E30.86383
G1 X65.909 Y105.148 E30.88498
G1 X66.178 Y104.637 E30.90611
G1 X66.515 Y104.167 E30.92727
G1 X66.778 Y103.878 E30.94156
G1 X66.907 Y103.749 E30.94824
G1 X67.017 Y103.653 E30.95358
G1 X67.279 Y103.288 E30.97002
G1 X67.542 Y102.999 E30.98431
G1 X67.671 Y102.87 E30.99099
G1 X68.107 Y102.491 E31.01212
G1 X68.591 Y102.175 E31.03327
G1 X69.114 Y101.929 E31.05442
G1 X69.375 Y101.848 E31.06442
G1 X69.491 Y101.34 E31.08348
G1 X69.698 Y100.8 E31.10464
G1 X69.976 Y100.294 E31.12576
G1 X70.296 Y99.862 E31.14543
G1 X71.25 Y98.732 E31.19954
G1 X71.652 Y98.317 E31.22067
G1 X72.892 Y97.204 E31.28164
G1 X73.189 Y96.961 E31.29568
M204 S5000
M205 X30 Y30
G0 F7200 X73.452 Y97.314
M204 S500
M205 X20 Y20
G1 F900 X74.408 Y96.603 E31.33927
G1 X74.768 Y96.366 E31.35503
G1 X76.387 Y95.43 E31.42345
G1 X76.783 Y95.232 E31.43965
G1 X78.019 Y94.701 E31.48887
G1 X78.363 Y94.572 E31.50231
G1 X83.017 Y93.094 E31.68096
G1 X83.29 Y93.019 E31.69132
G1 X87.038 Y92.135 E31.83221
G1 X87.178 Y92.105 E31.83745
G1 X89.517 Y91.647 E31.92465
G1 X89.677 Y91.619 E31.93059
G1 X93.935 Y90.975 E32.08814
G1 X94.237 Y90.942 E32.09926
G1 X99.775 Y90.56 E32.30235
G1 X100.03 Y90.551 E32.31169
G1 X109.406 Y90.546 E32.65472
G1 X109.511 Y90.547 E32.65856
G1 X115.035 Y90.699 E32.86074
G1 X115.135 Y90.703 E32.8644
G1 X126.336 Y91.311 E33.27481
G1 X126.425 Y91.317 E33.27807
G1 X131.254 Y91.695 E33.45529
G1 X131.342 Y91.703 E33.45852
G1 X143.758 Y92.972 E33.91514
G1 X143.815 Y92.979 E33.91724
G1 X149.701 Y93.672 E34.13407
G1 X149.791 Y93.683 E34.13739
G1 X161.639 Y95.37 E34.57524
G1 X162.173 Y95.487 E34.59524
G1 X162.685 Y95.68 E34.61526
G1 X162.954 Y95.818 E34.62632
G1 X163.937 Y96.374 E34.66764
G1 X164.708 Y96.614 E34.69718
G1 X165.217 Y96.814 E34.71719
