;FLAVOR:Marlin
;TIME:3832
;Filament used: 3.05075m
;Layer height: 0.16
;Generated with Cura_SteamEngine 3.6.0
M140 S70
M105
M190 S70
M104 S215
M105
M109 S215
M82 ;absolute extrusion mode
G28 ; home all axes
M117 Purge extruder
G92 E0 ; reset extruder
G1 Z1.0 F3000 ; move z up little to prevent scratching of surface
G1 X0.1 Y20 Z0.3 F5000.0 ; move to start-line position G1 X0.1 Y200.0 Z0.3 F1500.0 E15 ; draw 1st line
G1 X0.4 Y200.0 Z0.3 F5000.0 ; move to side a little
G1 X0.4 Y20 Z0.3 F1500.0 E30 ; draw 2nd line
G92 E0 ; reset extruder
G1 Z1.0 F3000 ; move z up little to prevent scratching of surface
M117 All systems go!
G92 E0
G1 F6000 E-5
;LAYER_COUNT:238
;LAYER:0
M107
M204 S5000
M205 X30 Y30
G0 F7200 X105.48 Y105.583 Z0.2
M204 S500
M205 X20 Y20
;TYPE:SKIRT
G1 F6000 E0
G1 F900 X106.035 Y105.092 E0.02711
G1 X108.495 Y103.22 E0.14021
G1 X109.024 Y102.868 E0.16346
G1 X109.615 Y102.575 E0.18759
G1 X112.465 Y101.389 E0.30053
G1 X113.066 Y101.182 E0.32378
G1 X113.733 Y101.046 E0.34869
G1 X116.802 Y100.632 E0.46199
G1 X117.436 Y100.587 E0.48524
G1 X118.143 Y100.631 E0.51116
G1 X121.214 Y101.038 E0.6245
G1 X121.838 Y101.161 E0.64777
G1 X122.483 Y101.378 E0.67267
G1 X125.336 Y102.558 E0.78562
G1 X125.907 Y102.838 E0.80889
G1 X126.456 Y103.199 E0.83293
G1 X128.919 Y105.063 E0.94594
G1 X129.4 Y105.478 E0.96918
G1 X129.881 Y106.019 E0.99566
G1 X131.77 Y108.483 E1.10926
G1 X132.124 Y109.011 E1.13251
G1 X132.425 Y109.618 E1.1573
G1 X133.61 Y112.465 E1.27012
G1 X133.817 Y113.066 E1.29338
G1 X133.957 Y113.757 E1.31917
G1 X134.356 Y116.827 E1.43244
G1 X134.398 Y117.461 E1.45569
G1 X134.357 Y118.118 E1.47977
G1 X133.966 Y121.188 E1.593
G1 X133.847 Y121.813 E1.61627
G1 X133.623 Y122.483 E1.64212
G1 X132.444 Y125.334 E1.75499
G1 X132.164 Y125.905 E1.77826
G1 X131.79 Y126.47 E1.80305
G1 X129.908 Y128.936 E1.91654
G1 X129.492 Y129.416 E1.93978
G1 X128.964 Y129.882 E1.96555
G1 X126.502 Y131.769 E2.07904
G1 X125.974 Y132.123 E2.1023
G1 X125.369 Y132.424 E2.12702
G1 X122.521 Y133.61 E2.23989
G1 X121.92 Y133.817 E2.26314
G1 X121.228 Y133.957 E2.28898
G1 X118.158 Y134.356 E2.40224
G1 X117.524 Y134.398 E2.42549
G1 X116.867 Y134.357 E2.44957
G1 X113.797 Y133.966 E2.5628
G1 X113.172 Y133.847 E2.58607
G1 X112.501 Y133.623 E2.61195
G1 X109.649 Y132.443 E2.72488
G1 X109.078 Y132.163 E2.74814
G1 X108.514 Y131.789 E2.7729
G1 X106.048 Y129.907 E2.8864
G1 X105.568 Y129.491 E2.90964
G1 X105.091 Y128.949 E2.93605
G1 X103.219 Y126.489 E3.04915
G1 X102.867 Y125.96 E3.0724
G1 X102.574 Y125.368 E3.09656
G1 X101.389 Y122.519 E3.20945
G1 X101.182 Y121.918 E3.23271
G1 X101.046 Y121.252 E3.25758
G1 X100.632 Y118.183 E3.37088
G1 X100.587 Y117.549 E3.39413
G1 X100.631 Y116.842 E3.42005
G1 X101.038 Y113.771 E3.53339
G1 X101.161 Y113.147 E3.55666
G1 X101.378 Y112.503 E3.58152
G1 X102.557 Y109.651 E3.69443
G1 X102.836 Y109.08 E3.71768
G1 X103.199 Y108.53 E3.74179
G1 X105.065 Y106.065 E3.8549
G1 X105.48 Y105.583 E3.87817
M204 S5000
M205 X30 Y30
G0 F7200 X105.813 Y105.871
M204 S500
M205 X20 Y20
G1 F900 X106.301 Y105.442 E3.90194
G1 X108.761 Y103.57 E4.01504
G1 X109.268 Y103.235 E4.03727
G1 X109.784 Y102.982 E4.0583
G1 X112.634 Y101.796 E4.17124
G1 X113.209 Y101.6 E4.19346
G1 X113.791 Y101.482 E4.21519
G1 X116.86 Y101.068 E4.32849
G1 X117.467 Y101.027 E4.35075
G1 X118.085 Y101.067 E4.37341
G1 X121.156 Y101.474 E4.48674
G1 X121.752 Y101.593 E4.50898
G1 X122.315 Y101.785 E4.53074
G1 X125.168 Y102.965 E4.6437
G1 X125.713 Y103.233 E4.66592
G1 X126.19 Y103.55 E4.68687
G1 X128.653 Y105.414 E4.79988
G1 X129.112 Y105.812 E4.82211
G1 X129.532 Y106.287 E4.84531
G1 X131.421 Y108.751 E4.9589
G1 X131.758 Y109.257 E4.98114
G1 X132.019 Y109.787 E5.00275
G1 X133.204 Y112.634 E5.11558
G1 X133.4 Y113.209 E5.1378
G1 X133.52 Y113.814 E5.16037
G1 X133.919 Y116.884 E5.27363
G1 X133.958 Y117.49 E5.29585
G1 X133.921 Y118.063 E5.31686
G1 X133.53 Y121.133 E5.43008
G1 X133.414 Y121.729 E5.4523
G1 X133.216 Y122.315 E5.47493
G1 X132.037 Y125.166 E5.5878
G1 X131.769 Y125.711 E5.61002
G1 X131.441 Y126.203 E5.63166
G1 X129.559 Y128.669 E5.74515
G1 X129.159 Y129.127 E5.7674
G1 X128.696 Y129.533 E5.78993
G1 X126.234 Y131.42 E5.90342
G1 X125.729 Y131.757 E5.92563
G1 X125.2 Y132.018 E5.94721
G1 X122.352 Y133.204 E6.06008
G1 X121.777 Y133.4 E6.08231
G1 X121.171 Y133.52 E6.10491
G1 X118.101 Y133.919 E6.21817
G1 X117.495 Y133.958 E6.24039
G1 X116.922 Y133.921 E6.2614
G1 X113.852 Y133.53 E6.37462
G1 X113.256 Y133.414 E6.39684
G1 X112.67 Y133.216 E6.41947
G1 X109.818 Y132.036 E6.53239
G1 X109.273 Y131.767 E6.55463
G1 X108.781 Y131.44 E6.57624
G1 X106.315 Y129.558 E6.68974
G1 X105.857 Y129.158 E6.71198
G1 X105.441 Y128.683 E6.73508
G1 X103.569 Y126.223 E6.84818
G1 X103.234 Y125.716 E6.87041
G1 X102.98 Y125.199 E6.89149
G1 X101.795 Y122.35 E7.00438
G1 X101.599 Y121.775 E7.02661
G1 X101.482 Y121.194 E7.04829
G1 X101.068 Y118.125 E7.16159
G1 X101.027 Y117.518 E7.18385
G1 X101.067 Y116.9 E7.2065
G1 X101.474 Y113.829 E7.31984
G1 X101.593 Y113.233 E7.34208
G1 X101.784 Y112.671 E7.36379
G1 X102.963 Y109.819 E7.4767
G1 X103.232 Y109.274 E7.49894
G1 X103.549 Y108.796 E7.51992
G1 X105.415 Y106.331 E7.63303
G1 X105.813 Y105.871 E7.65529
M204 S5000
M205 X30 Y30
G0 F7200 X106.146 Y106.161
M204 S500
M205 X20 Y20
G1 F900 X106.568 Y105.793 E7.67577
G1 X109.028 Y103.921 E7.78887
G1 X109.511 Y103.603 E7.81003
G1 X109.953 Y103.388 E7.82801
G1 X112.803 Y102.202 E7.94095
G1 X113.351 Y102.017 E7.96211
G1 X113.85 Y101.919 E7.98072
G1 X116.919 Y101.505 E8.09402
G1 X117.496 Y101.467 E8.11517
G1 X118.027 Y101.503 E8.13464
G1 X121.098 Y101.91 E8.24798
G1 X121.664 Y102.026 E8.26912
G1 X122.147 Y102.191 E8.28779
G1 X125 Y103.371 E8.40075
G1 X125.517 Y103.629 E8.42189
G1 X125.924 Y103.901 E8.4398
G1 X128.387 Y105.765 E8.55281
G1 X128.823 Y106.145 E8.57397
G1 X129.182 Y106.555 E8.59391
G1 X131.071 Y109.019 E8.7075
G1 X131.39 Y109.501 E8.72864
G1 X131.613 Y109.956 E8.74718
G1 X132.798 Y112.803 E8.86001
G1 X132.983 Y113.35 E8.88113
G1 X133.084 Y113.87 E8.90051
G1 X133.483 Y116.94 E9.01378
G1 X133.518 Y117.517 E9.03493
G1 X133.485 Y118.007 E9.05289
G1 X133.094 Y121.077 E9.16612
G1 X132.981 Y121.644 E9.18727
G1 X132.81 Y122.146 E9.20668
G1 X131.631 Y124.997 E9.31955
G1 X131.373 Y125.515 E9.34072
G1 X131.091 Y125.936 E9.35926
G1 X129.209 Y128.402 E9.47276
G1 X128.827 Y128.836 E9.49391
G1 X128.429 Y129.184 E9.51325
G1 X125.967 Y131.071 E9.62674
G1 X125.485 Y131.39 E9.64789
G1 X125.031 Y131.612 E9.66638
G1 X122.183 Y132.798 E9.77925
G1 X121.635 Y132.983 E9.80041
G1 X121.115 Y133.084 E9.81979
G1 X118.045 Y133.483 E9.93305
G1 X117.468 Y133.518 E9.9542
G1 X116.978 Y133.485 E9.97217
G1 X113.908 Y133.094 E10.0854
G1 X113.341 Y132.981 E10.10655
G1 X112.838 Y132.809 E10.126
G1 X109.986 Y131.629 E10.23892
G1 X109.468 Y131.372 E10.26008
G1 X109.048 Y131.09 E10.27858
G1 X106.582 Y129.208 E10.39208
G1 X106.148 Y128.826 E10.41323
G1 X105.792 Y128.416 E10.4331
G1 X103.92 Y125.956 E10.5462
G1 X103.602 Y125.473 E10.56735
G1 X103.387 Y125.03 E10.58537
G1 X102.202 Y122.181 E10.69826
G1 X102.017 Y121.634 E10.71939
G1 X101.919 Y121.135 E10.73799
G1 X101.505 Y118.066 E10.85129
G1 X101.467 Y117.489 E10.87245
G1 X101.503 Y116.958 E10.89192
G1 X101.91 Y113.887 E11.00526
G1 X102.026 Y113.321 E11.02639
G1 X102.191 Y112.839 E11.04503
G1 X103.37 Y109.987 E11.15794
G1 X103.627 Y109.47 E11.17907
G1 X103.9 Y109.061 E11.19706
G1 X105.766 Y106.596 E11.31017
G1 X106.146 Y106.161 E11.3313
M204 S5000
M205 X30 Y30
G0 F7200 X106.478 Y106.451
M204 S500
M205 X20 Y20
G1 F900 X106.834 Y106.143 E11.34852
G1 X109.294 Y104.271 E11.46162
G1 X109.752 Y103.972 E11.48163
G1 X110.122 Y103.794 E11.49665
G1 X112.972 Y102.608 E11.60959
G1 X113.491 Y102.435 E11.62961
G1 X113.909 Y102.355 E11.64518
G1 X116.978 Y101.941 E11.75848
G1 X117.524 Y101.907 E11.77849
G1 X117.969 Y101.939 E11.79481
G1 X121.04 Y102.346 E11.90815
G1 X121.576 Y102.458 E11.92819
G1 X121.978 Y102.598 E11.94376
G1 X124.831 Y103.778 E12.05672
G1 X125.32 Y104.023 E12.07673
G1 X125.659 Y104.252 E12.09169
G1 X128.122 Y106.116 E12.2047
G1 X128.533 Y106.477 E12.22472
G1 X128.833 Y106.823 E12.24147
G1 X130.722 Y109.287 E12.35506
G1 X131.022 Y109.743 E12.37503
G1 X131.207 Y110.125 E12.39056
G1 X132.392 Y112.972 E12.50339
G1 X132.564 Y113.49 E12.52335
G1 X132.648 Y113.927 E12.53963
G1 X133.047 Y116.997 E12.6529
G1 X133.077 Y117.543 E12.67291
G1 X133.048 Y117.952 E12.68791
G1 X132.657 Y121.022 E12.80113
G1 X132.549 Y121.557 E12.8211
G1 X132.403 Y121.978 E12.8374
G1 X131.224 Y124.829 E12.95028
G1 X130.979 Y125.318 E12.97029
G1 X130.741 Y125.669 E12.9858
G1 X128.859 Y128.135 E13.0993
G1 X128.497 Y128.544 E13.11928
G1 X128.161 Y128.834 E13.13552
G1 X125.699 Y130.721 E13.24901
G1 X125.242 Y131.021 E13.26901
G1 X124.862 Y131.206 E13.28447
G1 X122.014 Y132.392 E13.39734
G1 X121.495 Y132.564 E13.41735
G1 X121.058 Y132.648 E13.43363
G1 X117.988 Y133.047 E13.54689
G1 X117.442 Y133.077 E13.5669
G1 X117.033 Y133.048 E13.5819
G1 X113.963 Y132.657 E13.69513
G1 X113.428 Y132.549 E13.7151
G1 X113.006 Y132.403 E13.73143
G1 X110.154 Y131.223 E13.84435
G1 X109.666 Y130.978 E13.86433
G1 X109.315 Y130.74 E13.87985
G1 X106.849 Y128.858 E13.99334
G1 X106.44 Y128.496 E14.01333
G1 X106.142 Y128.15 E14.03003
G1 X104.27 Y125.69 E14.14313
G1 X103.971 Y125.232 E14.16314
G1 X103.793 Y124.861 E14.1782
G1 X102.608 Y122.012 E14.29109
G1 X102.435 Y121.494 E14.31107
G1 X102.355 Y121.076 E14.32664
G1 X101.941 Y118.007 E14.43994
G1 X101.907 Y117.461 E14.45995
G1 X101.939 Y117.016 E14.47628
G1 X102.346 Y113.945 E14.58961
G1 X102.458 Y113.409 E14.60965
G1 X102.598 Y113.007 E14.62522
G1 X103.777 Y110.155 E14.73813
G1 X104.022 Y109.667 E14.75811
G1 X104.251 Y109.327 E14.77311
G1 X106.117 Y106.862 E14.88622
G1 X106.478 Y106.451 E14.90623
M204 S5000
M205 X30 Y30
G0 F7200 X106.809 Y106.743
M204 S500
M205 X20 Y20
G1 F900 X107.101 Y106.493 E14.92029
G1 X109.561 Y104.621 E15.03339
G1 X109.992 Y104.343 E15.05216
G1 X110.291 Y104.2 E15.06428
G1 X113.141 Y103.014 E15.17722
G1 X113.629 Y102.854 E15.19601
G1 X113.968 Y102.791 E15.20862
G1 X117.037 Y102.377 E15.32192
G1 X117.549 Y102.348 E15.34069
G1 X117.912 Y102.376 E15.35401
G1 X120.983 Y102.783 E15.46735
G1 X121.485 Y102.889 E15.48612
G1 X121.81 Y103.005 E15.49874
G1 X124.663 Y104.185 E15.6117
G1 X125.121 Y104.417 E15.63048
G1 X125.393 Y104.603 E15.64254
G1 X127.856 Y106.467 E15.75555
G1 X128.24 Y106.807 E15.77431
G1 X128.484 Y107.09 E15.78798
G1 X130.373 Y109.554 E15.90157
G1 X130.653 Y109.985 E15.92038
G1 X130.801 Y110.294 E15.93291
G1 X131.986 Y113.141 E16.04573
G1 X132.145 Y113.629 E16.06451
G1 X132.211 Y113.984 E16.07772
G1 X132.61 Y117.054 E16.19099
G1 X132.637 Y117.566 E16.20975
G1 X132.612 Y117.896 E16.22185
G1 X132.221 Y120.966 E16.33508
G1 X132.116 Y121.469 E16.35388
G1 X131.997 Y121.81 E16.36709
G1 X130.818 Y124.661 E16.47997
G1 X130.585 Y125.119 E16.49877
G1 X130.391 Y125.402 E16.51132
G1 X128.509 Y127.868 E16.62482
G1 X128.167 Y128.251 E16.6436
G1 X127.893 Y128.485 E16.65678
G1 X125.431 Y130.372 E16.77027
G1 X125.001 Y130.652 E16.78905
G1 X124.693 Y130.799 E16.80153
G1 X121.845 Y131.985 E16.9144
G1 X121.357 Y132.145 E16.93319
G1 X121.001 Y132.211 E16.94644
G1 X117.931 Y132.61 E17.0597
G1 X117.419 Y132.637 E17.07846
G1 X117.089 Y132.612 E17.09057
G1 X114.019 Y132.221 E17.2038
G1 X113.516 Y132.116 E17.2226
G1 X113.174 Y131.996 E17.23586
G1 X110.322 Y130.816 E17.34878
G1 X109.865 Y130.584 E17.36753
G1 X109.582 Y130.39 E17.38008
G1 X107.116 Y128.508 E17.49358
G1 X106.733 Y128.166 E17.51236
G1 X106.492 Y127.883 E17.52596
G1 X104.62 Y125.423 E17.63906
G1 X104.342 Y124.992 E17.65782
G1 X104.199 Y124.692 E17.66998
G1 X103.014 Y121.843 E17.78287
G1 X102.854 Y121.355 E17.80166
G1 X102.791 Y121.017 E17.81424
G1 X102.377 Y117.948 E17.92754
G1 X102.348 Y117.436 E17.9463
G1 X102.376 Y117.073 E17.95963
G1 X102.783 Y114.002 E18.07296
G1 X102.889 Y113.5 E18.09173
G1 X103.004 Y113.175 E18.10435
G1 X104.183 Y110.323 E18.21726
G1 X104.416 Y109.865 E18.23606
G1 X104.602 Y109.592 E18.24814
G1 X106.468 Y107.127 E18.36125
G1 X106.809 Y106.743 E18.38004
M204 S5000
M205 X30 Y30
G0 F7200 X107.138 Y107.037
M204 S500
M205 X20 Y20
G1 F900 X107.367 Y106.843 E18.39102
G1 X109.827 Y104.971 E18.50412
G1 X110.23 Y104.714 E18.52161
G1 X110.46 Y104.607 E18.53089
G1 X113.31 Y103.421 E18.64383
G1 X113.765 Y103.274 E18.66132
G1 X114.027 Y103.227 E18.67106
G1 X117.096 Y102.813 E18.78436
G1 X117.573 Y102.789 E18.80183
G1 X117.854 Y102.812 E18.81215
G1 X120.925 Y103.219 E18.92549
G1 X121.392 Y103.321 E18.94297
G1 X121.642 Y103.411 E18.9527
G1 X124.495 Y104.591 E19.06565
G1 X124.92 Y104.81 E19.08314
G1 X125.128 Y104.953 E19.09238
G1 X127.591 Y106.817 E19.20539
G1 X127.947 Y107.137 E19.2229
G1 X128.135 Y107.358 E19.23352
G1 X130.024 Y109.822 E19.34711
G1 X130.282 Y110.224 E19.36458
G1 X130.394 Y110.463 E19.37424
G1 X131.579 Y113.31 E19.48706
G1 X131.726 Y113.765 E19.50456
G1 X131.775 Y114.04 E19.51478
G1 X132.174 Y117.11 E19.62804
G1 X132.196 Y117.588 E19.64555
G1 X132.175 Y117.84 E19.6548
G1 X131.784 Y120.91 E19.76803
G1 X131.684 Y121.378 E19.78554
G1 X131.59 Y121.642 E19.79579
G1 X130.411 Y124.493 E19.90866
G1 X130.192 Y124.918 E19.92615
G1 X130.042 Y125.135 E19.93581
G1 X128.16 Y127.601 E20.0493
G1 X127.839 Y127.955 E20.06678
G1 X127.626 Y128.136 E20.07701
G1 X125.164 Y130.023 E20.1905
G1 X124.762 Y130.281 E20.20797
G1 X124.523 Y130.393 E20.21763
G1 X121.675 Y131.579 E20.3305
G1 X121.22 Y131.725 E20.34799
G1 X120.945 Y131.775 E20.35821
G1 X117.875 Y132.174 E20.47148
G1 X117.397 Y132.196 E20.48898
G1 X117.145 Y132.175 E20.49823
G1 X114.075 Y131.784 E20.61146
G1 X113.607 Y131.684 E20.62897
G1 X113.343 Y131.59 E20.63922
G1 X110.491 Y130.41 E20.75214
G1 X110.066 Y130.191 E20.76964
G1 X109.849 Y130.041 E20.77929
G1 X107.383 Y128.159 E20.89278
G1 X107.029 Y127.838 E20.91027
G1 X106.842 Y127.617 E20.92086
G1 X104.97 Y125.157 E21.03395
G1 X104.713 Y124.754 E21.05144
G1 X104.605 Y124.523 E21.06077
G1 X103.42 Y121.674 E21.17366
G1 X103.274 Y121.219 E21.19114
G1 X103.227 Y120.958 E21.20085
G1 X102.813 Y117.889 E21.31415
G1 X102.789 Y117.412 E21.33162
G1 X102.812 Y117.131 E21.34194
G1 X103.219 Y114.06 E21.45527
G1 X103.321 Y113.593 E21.47276
G1 X103.411 Y113.343 E21.48248
G1 X104.59 Y110.491 E21.59539
G1 X104.809 Y110.067 E21.61285
G1 X104.953 Y109.858 E21.62214
G1 X106.819 Y107.393 E21.73525
G1 X107.138 Y107.037 E21.75274
M204 S5000
M205 X30 Y30
G0 F7200 X107.17 Y107.658
M204 S500
M205 X20 Y20
G1 F900 X107.634 Y107.193 E21.77677
G1 X110.094 Y105.321 E21.88987
G1 X110.629 Y105.013 E21.91245
G1 X113.479 Y103.827 E22.02539
G1 X114.085 Y103.663 E22.04836
G1 X117.154 Y103.249 E22.16166
G1 X117.796 Y103.248 E22.18515
G1 X120.867 Y103.655 E22.29849
G1 X121.474 Y103.818 E22.32148
G1 X124.327 Y104.998 E22.43444
G1 X124.862 Y105.304 E22.45699
G1 X127.325 Y107.168 E22.57
G1 X127.786 Y107.626 E22.59377
G1 X129.675 Y110.09 E22.70736
G1 X129.988 Y110.632 E22.73026
G1 X131.173 Y113.479 E22.84308
G1 X131.339 Y114.097 E22.8665
G1 X131.738 Y117.167 E22.97976
G1 X131.739 Y117.785 E23.00237
G1 X131.348 Y120.855 E23.1156
G1 X131.183 Y121.474 E23.13904
G1 X130.004 Y124.325 E23.25191
G1 X129.692 Y124.868 E23.27482
G1 X127.81 Y127.334 E23.38832
G1 X127.358 Y127.787 E23.41173
G1 X124.896 Y129.674 E23.52522
G1 X124.354 Y129.987 E23.54812
G1 X121.506 Y131.173 E23.66099
G1 X120.888 Y131.339 E23.6844
G1 X117.818 Y131.738 E23.79766
G1 X117.2 Y131.739 E23.82027
G1 X114.13 Y131.348 E23.9335
G1 X113.511 Y131.183 E23.95694
G1 X110.659 Y130.003 E24.06986
G1 X110.116 Y129.691 E24.09277
G1 X107.65 Y127.809 E24.20627
G1 X107.192 Y127.35 E24.22999
G1 X105.32 Y124.89 E24.34309
G1 X105.012 Y124.354 E24.3657
G1 X103.827 Y121.505 E24.4786
G1 X103.663 Y120.9 E24.50153
G1 X103.249 Y117.831 E24.61483
G1 X103.248 Y117.189 E24.63832
G1 X103.655 Y114.118 E24.75166
G1 X103.818 Y113.511 E24.77465
G1 X104.997 Y110.659 E24.88756
G1 X105.304 Y110.123 E24.91016
G1 X107.17 Y107.658 E25.02327
M204 S5000
M205 X30 Y30
G0 F7200 X107.52 Y107.924
M204 S500
M205 X20 Y20
G1 F900 X107.9 Y107.543 E25.04296
G1 X110.36 Y105.671 E25.15605
G1 X110.798 Y105.419 E25.17454
G1 X113.648 Y104.233 E25.28748
