;FLAVOR:Marlin
;TIME:7112
;Filament used: 8.64941m
;Layer height: 0.25
;Generated with Cura_SteamEngine 3.6.0
M140 S70
M105
M190 S70
M104 S215
M105
M109 S215
M82 ;absolute extrusion mode
; Ender 3 Custom Start G-code
G28 ; Home all axes
G92 E0 ; Reset Extruder
G1 Z2.0 F3000 ; Move Z Axis up little to prevent scratching of Heat Bed
G1 X0.1 Y20 Z0.3 F5000.0 ; Move to start position
G1 X0.1 Y200.0 Z0.3 F1500.0 E15 ; Draw the first line
G1 X0.4 Y200.0 Z0.3 F5000.0 ; Move to side a little
G1 X0.4 Y20 Z0.3 F1500.0 E30 ; Draw the second line
G92 E0 ; Reset Extruder
G1 Z2.0 F3000 ; Move Z Axis up little to prevent scratching of Heat Bed
; End of custom start GCode
G92 E0
G1 F6000 E-5
;LAYER_COUNT:144
;LAYER:0
M107
M204 S5000
M205 X30 Y30
G0 F7200 X86.771 Y57.62 Z0.25
M204 S500
M205 X20 Y20
;TYPE:SKIRT
G1 F6000 E0
G1 F900 X97.153 Y38.048 E1.15138
G1 X99.147 Y34.08 E1.38216
G1 X99.579 Y33.309 E1.42809
G1 X100.079 Y32.582 E1.47395
G1 X100.642 Y31.902 E1.51983
G1 X101.265 Y31.276 E1.56572
G1 X101.942 Y30.709 E1.61162
G1 X102.419 Y30.367 E1.64212
G1 X104.595 Y28.904 E1.77839
G1 X105.349 Y28.445 E1.82426
G1 X106.142 Y28.056 E1.87016
G1 X106.967 Y27.74 E1.91608
G1 X107.816 Y27.501 E1.96191
G1 X108.529 Y27.362 E1.99966
G1 X128.571 Y24.228 E3.05388
G1 X129.448 Y24.131 E3.09974
G1 X130.331 Y24.114 E3.14563
G1 X131.057 Y24.16 E3.18344
G1 X132.997 Y24.356 E3.28477
G1 X133.871 Y24.485 E3.33069
G1 X134.729 Y24.692 E3.37655
G1 X135.565 Y24.976 E3.42244
G1 X136.372 Y25.334 E3.46832
G1 X137.072 Y25.72 E3.50986
G1 X142.322 Y28.903 E3.82893
G1 X143.055 Y29.394 E3.87478
G1 X143.724 Y29.935 E3.91949
G1 X155.804 Y40.612 E4.75734
G1 X156.438 Y41.226 E4.80321
G1 X157.015 Y41.895 E4.84912
G1 X157.528 Y42.613 E4.89498
G1 X157.974 Y43.375 E4.94087
G1 X158.201 Y43.834 E4.96748
G1 X161.104 Y50.129 E5.32773
G1 X161.437 Y50.947 E5.37363
G1 X161.695 Y51.791 E5.4195
G1 X161.875 Y52.656 E5.46541
G1 X161.976 Y53.533 E5.51129
G1 X162 Y54.137 E5.5427
G1 X162.063 Y62.286 E5.96621
G1 X162.03 Y63.168 E6.01208
G1 X161.917 Y64.044 E6.05798
G1 X161.725 Y64.906 E6.10388
G1 X161.449 Y65.767 E6.15087
G1 X154.742 Y83.758 E7.1487
G1 X154.396 Y84.57 E7.19457
G1 X153.793 Y85.647 E7.25871
G1 X150.063 Y91.414 E7.61564
G1 X149.55 Y92.133 E7.66154
G1 X148.975 Y92.803 E7.70743
G1 X148.341 Y93.417 E7.7533
G1 X147.654 Y93.972 E7.79919
G1 X146.92 Y94.463 E7.84509
G1 X146.145 Y94.885 E7.89095
G1 X145.334 Y95.235 E7.93685
G1 X144.904 Y95.387 E7.96055
G1 X141.724 Y96.426 E8.13441
G1 X140.873 Y96.662 E8.1803
G1 X140.005 Y96.82 E8.22616
G1 X138.902 Y96.906 E8.28365
G1 X113.567 Y97.441 E9.60058
G1 X112.684 Y97.419 E9.64648
G1 X111.807 Y97.318 E9.69236
G1 X110.943 Y97.138 E9.73822
G1 X110.049 Y96.863 E9.78683
G1 X107.79 Y96.047 E9.91166
G1 X106.974 Y95.71 E9.95754
G1 X106.191 Y95.3 E10.00347
G1 X105.45 Y94.821 E10.04932
G1 X104.754 Y94.277 E10.09523
G1 X104.065 Y93.626 E10.14449
G1 X102.329 Y91.816 E10.27483
G1 X101.712 Y91.106 E10.32371
G1 X89.915 Y76.154 E11.31349
G1 X89.4 Y75.437 E11.35936
G1 X88.952 Y74.676 E11.40526
G1 X88.574 Y73.878 E11.45115
G1 X88.17 Y72.706 E11.51557
G1 X85.985 Y64.78 E11.94284
G1 X85.789 Y63.919 E11.98873
G1 X85.672 Y63.044 E12.03461
G1 X85.634 Y62.162 E12.08049
G1 X85.676 Y61.28 E12.12638
G1 X85.799 Y60.406 E12.17225
G1 X85.999 Y59.546 E12.21813
G1 X86.277 Y58.708 E12.26402
G1 X86.56 Y58.086 E12.29953
G0 F810 X86.771 Y57.62
M204 S5000
M205 X30 Y30
G0 F7200 X87.212 Y57.854
M204 S500
M205 X20 Y20
G1 F6000 E12.32614
G1 F900 X97.612 Y38.247 E13.47956
G1 X99.594 Y34.304 E13.7089
G1 X100.016 Y33.555 E13.75358
G1 X100.505 Y32.847 E13.7983
G1 X101.058 Y32.189 E13.84297
G1 X101.669 Y31.584 E13.88765
G1 X102.335 Y31.039 E13.93238
G1 X102.698 Y30.782 E13.95549
G1 X104.874 Y29.319 E14.09176
G1 X105.609 Y28.873 E14.13644
G1 X106.383 Y28.497 E14.18116
G1 X107.188 Y28.194 E14.22586
G1 X108.017 Y27.968 E14.27051
G1 X108.606 Y27.856 E14.30167
G1 X128.648 Y24.722 E15.35589
G1 X129.503 Y24.629 E15.40058
G1 X130.363 Y24.615 E15.44528
G1 X131.007 Y24.658 E15.47883
G1 X132.947 Y24.854 E15.58016
G1 X133.798 Y24.98 E15.62487
G1 X134.633 Y25.185 E15.66955
G1 X135.446 Y25.466 E15.71425
G1 X136.229 Y25.821 E15.75893
G1 X136.813 Y26.147 E15.79369
G1 X142.063 Y29.33 E16.11276
G1 X142.776 Y29.81 E16.15742
G1 X143.393 Y30.309 E16.19866
G1 X155.473 Y40.986 E17.03652
G1 X156.09 Y41.585 E17.08121
G1 X156.649 Y42.239 E17.12592
G1 X157.145 Y42.941 E17.17059
G1 X157.747 Y44.043 E17.23584
G1 X160.65 Y50.338 E17.5961
G1 X160.973 Y51.135 E17.64079
G1 X161.221 Y51.959 E17.68551
G1 X161.392 Y52.802 E17.73021
G1 X161.483 Y53.657 E17.7749
G1 X161.5 Y54.14 E17.80001
G1 X161.563 Y62.289 E18.22352
G1 X161.529 Y63.149 E18.26825
G1 X161.416 Y64.001 E18.31292
G1 X161.225 Y64.84 E18.35763
G1 X160.98 Y65.592 E18.39874
G1 X154.273 Y83.583 E19.39657
G1 X153.936 Y84.374 E19.44125
G1 X153.373 Y85.376 E19.50098
G1 X149.643 Y91.143 E19.85791
G1 X149.143 Y91.842 E19.90257
G1 X148.58 Y92.492 E19.94726
G1 X147.959 Y93.087 E19.99196
G1 X147.286 Y93.622 E20.03664
G1 X146.565 Y94.092 E20.08136
G1 X145.805 Y94.493 E20.12602
G1 X144.749 Y94.912 E20.18506
G1 X141.569 Y95.951 E20.35892
G1 X140.74 Y96.179 E20.4036
G1 X139.893 Y96.33 E20.44831
G1 X138.891 Y96.406 E20.50054
G1 X113.556 Y96.941 E21.81746
G1 X112.697 Y96.919 E21.86212
G1 X111.843 Y96.818 E21.90681
G1 X111.002 Y96.637 E21.95152
G1 X110.218 Y96.393 E21.99419
G1 X107.959 Y95.577 E22.11901
G1 X107.165 Y95.247 E22.1637
G1 X106.405 Y94.846 E22.20835
G1 X105.685 Y94.375 E22.25307
G1 X105.012 Y93.839 E22.29778
G1 X104.426 Y93.28 E22.33987
G1 X102.69 Y91.47 E22.4702
G1 X102.104 Y90.797 E22.51658
G1 X90.307 Y75.845 E23.50635
G1 X89.806 Y75.145 E23.55109
G1 X89.373 Y74.403 E23.59573
G1 X89.01 Y73.623 E23.64045
G1 X88.652 Y72.573 E23.6981
G1 X86.467 Y64.647 E24.12537
G1 X86.277 Y63.808 E24.17007
G1 X86.166 Y62.956 E24.21473
G1 X86.134 Y62.096 E24.25945
G1 X86.183 Y61.238 E24.30411
G1 X86.311 Y60.387 E24.34884
G1 X86.518 Y59.552 E24.39354
G1 X86.801 Y58.74 E24.43823
G1 X86.997 Y58.318 E24.46241
G0 F810 X87.212 Y57.854
M204 S5000
M205 X30 Y30
G0 F7200 X87.654 Y58.089
M204 S500
M205 X20 Y20
G1 F6000 E24.48902
G1 F900 X98.054 Y38.483 E25.6424
G1 X100.041 Y34.529 E25.87237
G1 X100.452 Y33.8 E25.91586
G1 X100.93 Y33.114 E25.95931
G1 X101.472 Y32.477 E26.00278
G1 X102.073 Y31.895 E26.04626
G1 X102.977 Y31.197 E26.10561
G1 X105.153 Y29.734 E26.24188
G1 X105.869 Y29.301 E26.28536
G1 X106.622 Y28.938 E26.32881
G1 X107.407 Y28.649 E26.37228
G1 X108.216 Y28.436 E26.41575
G1 X108.683 Y28.35 E26.44043
G1 X128.725 Y25.216 E27.49465
G1 X129.557 Y25.126 E27.53814
G1 X130.393 Y25.117 E27.58159
G1 X130.957 Y25.155 E27.61097
G1 X132.897 Y25.351 E27.7123
G1 X133.724 Y25.475 E27.75576
G1 X134.535 Y25.677 E27.79919
G1 X135.324 Y25.956 E27.84269
G1 X136.082 Y26.309 E27.88614
G1 X136.553 Y26.575 E27.91425
G1 X141.803 Y29.758 E28.23332
G1 X142.497 Y30.225 E28.27679
G1 X143.062 Y30.684 E28.31462
G1 X155.142 Y41.361 E29.15247
G1 X155.741 Y41.944 E29.19591
G1 X156.282 Y42.582 E29.23938
G1 X156.76 Y43.268 E29.28284
G1 X157.293 Y44.253 E29.34104
G1 X160.196 Y50.548 E29.70129
G1 X160.509 Y51.323 E29.74473
G1 X160.747 Y52.125 E29.78821
G1 X160.908 Y52.946 E29.83169
G1 X161 Y54.144 E29.89413
G1 X161.063 Y62.293 E30.31764
G1 X161.029 Y63.129 E30.36112
G1 X160.916 Y63.958 E30.4046
G1 X160.724 Y64.772 E30.44806
G1 X160.512 Y65.417 E30.48335
G1 X153.805 Y83.408 E31.48118
G1 X153.476 Y84.177 E31.52465
G1 X152.953 Y85.104 E31.57996
G1 X149.223 Y90.871 E31.93689
G1 X148.736 Y91.551 E31.98036
G1 X148.186 Y92.181 E32.02382
G1 X147.578 Y92.756 E32.06731
G1 X146.918 Y93.27 E32.11078
G1 X146.213 Y93.719 E32.15422
G1 X145.467 Y94.098 E32.1977
G1 X144.594 Y94.436 E32.24635
G1 X141.414 Y95.475 E32.42021
G1 X140.607 Y95.697 E32.46371
G1 X139.783 Y95.84 E32.50717
G1 X138.881 Y95.906 E32.55417
G1 X113.546 Y96.441 E33.8711
G1 X112.71 Y96.419 E33.91456
G1 X111.879 Y96.317 E33.95807
G1 X111.063 Y96.136 E34.00151
G1 X110.388 Y95.923 E34.03829
G1 X108.129 Y95.107 E34.16312
G1 X107.357 Y94.785 E34.20659
G1 X106.619 Y94.391 E34.25006
G1 X105.922 Y93.929 E34.29352
G1 X105.272 Y93.402 E34.33701
G1 X104.787 Y92.934 E34.37203
G1 X103.051 Y91.124 E34.50237
G1 X102.497 Y90.487 E34.54624
G1 X90.7 Y75.535 E35.53602
G1 X90.214 Y74.854 E35.5795
G1 X89.795 Y74.13 E35.62297
G1 X89.447 Y73.37 E35.66641
G1 X89.134 Y72.44 E35.7174
G1 X86.949 Y64.514 E36.14467
G1 X86.765 Y63.698 E36.18814
G1 X86.66 Y62.869 E36.23157
G1 X86.635 Y62.032 E36.27509
G1 X86.69 Y61.198 E36.31853
G1 X86.825 Y60.372 E36.36202
G1 X87.037 Y59.563 E36.40548
G1 X87.326 Y58.778 E36.44896
G1 X87.434 Y58.551 E36.46202
G0 F810 X87.654 Y58.089
M204 S5000
M205 X30 Y30
G0 F7200 X88.096 Y58.323
M204 S500
M205 X20 Y20
G1 F6000 E36.48863
G1 F900 X98.495 Y38.718 E37.64194
G1 X100.488 Y34.753 E37.87256
G1 X100.888 Y34.046 E37.91477
G1 X101.355 Y33.382 E37.95696
G1 X101.886 Y32.767 E37.99919
G1 X102.474 Y32.208 E38.04135
G1 X103.256 Y31.612 E38.09245
G1 X105.432 Y30.149 E38.22871
G1 X106.127 Y29.729 E38.27092
G1 X106.861 Y29.38 E38.31315
G1 X107.625 Y29.105 E38.35535
G1 X108.76 Y28.844 E38.41588
G1 X128.802 Y25.71 E39.47009
G1 X129.61 Y25.624 E39.51232
G1 X130.422 Y25.618 E39.55452
G1 X130.906 Y25.653 E39.57974
G1 X132.846 Y25.849 E39.68107
G1 X133.649 Y25.97 E39.72328
G1 X134.437 Y26.17 E39.76553
G1 X135.2 Y26.446 E39.80769
G1 X135.933 Y26.796 E39.84991
G1 X136.294 Y27.002 E39.87151
G1 X141.544 Y30.185 E40.19057
G1 X142.217 Y30.64 E40.23279
G1 X142.731 Y31.058 E40.26722
G1 X154.811 Y41.735 E41.10507
G1 X155.392 Y42.303 E41.1473
G1 X155.915 Y42.924 E41.18949
G1 X156.374 Y43.594 E41.2317
G1 X156.839 Y44.462 E41.28287
G1 X159.742 Y50.757 E41.64313
G1 X160.045 Y51.51 E41.68531
G1 X160.273 Y52.29 E41.72754
G1 X160.423 Y53.088 E41.76974
G1 X160.5 Y54.148 E41.82497
G1 X160.563 Y62.297 E42.24848
G1 X160.529 Y63.109 E42.29072
G1 X160.416 Y63.913 E42.33291
G1 X160.224 Y64.702 E42.37511
G1 X160.043 Y65.243 E42.40476
G1 X153.336 Y83.234 E43.40259
G1 X153.015 Y83.98 E43.44479
G1 X152.533 Y84.832 E43.49567
G1 X148.803 Y90.599 E43.8526
G1 X148.329 Y91.259 E43.89482
G1 X147.793 Y91.868 E43.93699
G1 X147.199 Y92.422 E43.9792
G1 X146.553 Y92.915 E44.02143
G1 X145.862 Y93.342 E44.06364
G1 X145.133 Y93.699 E44.10583
G1 X144.438 Y93.961 E44.14443
G1 X141.258 Y95 E44.31828
G1 X140.475 Y95.214 E44.36047
G1 X139.674 Y95.35 E44.40269
G1 X138.87 Y95.406 E44.44458
G1 X113.535 Y95.941 E45.7615
G1 X112.723 Y95.918 E45.80372
G1 X111.918 Y95.816 E45.84589
G1 X111.126 Y95.634 E45.88812
G1 X110.558 Y95.452 E45.91912
G1 X108.299 Y94.636 E46.04394
G1 X107.55 Y94.323 E46.08613
G1 X106.835 Y93.938 E46.12833
G1 X106.161 Y93.484 E46.17056
G1 X105.536 Y92.966 E46.21275
G1 X105.148 Y92.588 E46.2409
G1 X103.412 Y90.778 E46.37123
G1 X102.889 Y90.177 E46.41264
G1 X91.092 Y75.225 E47.40241
G1 X90.621 Y74.564 E47.44459
G1 X90.217 Y73.859 E47.48682
G1 X89.885 Y73.118 E47.52902
G1 X89.616 Y72.308 E47.57337
G1 X87.431 Y64.382 E48.00064
G1 X87.254 Y63.589 E48.04287
G1 X87.155 Y62.783 E48.08507
G1 X87.137 Y61.971 E48.12728
G1 X87.198 Y61.161 E48.16949
G1 X87.339 Y60.361 E48.21171
G1 X87.558 Y59.579 E48.25391
G1 X87.852 Y58.822 E48.29612
G1 X87.871 Y58.783 E48.29837
G0 F810 X88.096 Y58.323
M204 S5000
M205 X30 Y30
G0 F7200 X88.538 Y58.557
M204 S500
M205 X20 Y20
G1 F6000 E48.32498
G1 F900 X98.927 Y38.971 E49.47717
G1 X100.934 Y34.978 E49.70942
G1 X101.323 Y34.293 E49.75036
G1 X101.779 Y33.652 E49.79124
G1 X102.298 Y33.06 E49.83216
G1 X102.874 Y32.524 E49.87305
G1 X103.535 Y32.026 E49.91606
G1 X105.711 Y30.563 E50.05232
G1 X106.386 Y30.158 E50.09323
G1 X107.098 Y29.823 E50.13412
G1 X107.841 Y29.562 E50.17505
G1 X108.838 Y29.338 E50.22816
G1 X128.88 Y26.204 E51.28237
G1 X129.663 Y26.122 E51.32329
G1 X130.45 Y26.12 E51.36419
G1 X130.856 Y26.15 E51.38535
G1 X132.796 Y26.346 E51.48668
G1 X133.574 Y26.465 E51.52758
G1 X134.336 Y26.662 E51.56848
G1 X135.074 Y26.936 E51.60939
G1 X136.035 Y27.43 E51.66555
G1 X141.285 Y30.613 E51.98461
G1 X141.936 Y31.055 E52.02551
G1 X142.399 Y31.433 E52.05657
G1 X154.479 Y42.11 E52.89442
G1 X155.042 Y42.661 E52.93536
G1 X155.546 Y43.265 E52.97624
G1 X155.986 Y43.918 E53.01716
G1 X156.385 Y44.671 E53.06145
G1 X159.288 Y50.966 E53.42171
G1 X159.581 Y51.697 E53.46263
G1 X159.798 Y52.454 E53.50356
G1 X159.937 Y53.228 E53.54443
G1 X160 Y54.152 E53.59256
G1 X160.063 Y62.301 E54.01606
G1 X160.029 Y63.088 E54.057
G1 X159.915 Y63.866 E54.09787
G1 X159.723 Y64.63 E54.1388
G1 X159.575 Y65.068 E54.16283
G1 X152.868 Y83.059 E55.16066
G1 X152.556 Y83.782 E55.20159
G1 X152.113 Y84.561 E55.24816
G1 X148.383 Y90.328 E55.60509
G1 X147.923 Y90.966 E55.64596
G1 X147.4 Y91.555 E55.6869
G1 X146.82 Y92.087 E55.7278
G1 X146.189 Y92.558 E55.76872
G1 X145.514 Y92.962 E55.8096
G1 X144.801 Y93.296 E55.85052
G1 X144.283 Y93.486 E55.87919
G1 X141.103 Y94.525 E56.05305
G1 X140.343 Y94.731 E56.09397
G1 X139.567 Y94.859 E56.13485
G1 X138.86 Y94.906 E56.17167
G1 X113.525 Y95.441 E57.4886
G1 X112.738 Y95.418 E57.52951
G1 X111.957 Y95.315 E57.57045
G1 X111.192 Y95.133 E57.61132
G1 X110.728 Y94.982 E57.63668
G1 X108.469 Y94.166 E57.7615
G1 X107.743 Y93.861 E57.80242
G1 X107.052 Y93.485 E57.84331
G1 X106.403 Y93.04 E57.8842
G1 X105.802 Y92.531 E57.92513
G1 X105.509 Y92.242 E57.94652
G1 X103.773 Y90.432 E58.07685
G1 X103.282 Y89.867 E58.11575
G1 X91.485 Y74.915 E59.10553
G1 X91.029 Y74.274 E59.14641
G1 X90.641 Y73.589 E59.18732
G1 X90.324 Y72.868 E59.22825
G1 X90.098 Y72.175 E59.26614
G1 X87.913 Y64.249 E59.69341
G1 X87.742 Y63.48 E59.73435
G1 X87.651 Y62.698 E59.77526
G1 X87.639 Y61.911 E59.81617
G1 X87.707 Y61.127 E59.85706
G1 X87.854 Y60.354 E59.89795
G1 X88.079 Y59.6 E59.93885
G1 X88.332 Y59.025 E59.97149
G0 F810 X88.538 Y58.557
M204 S5000
M205 X30 Y30
G0 F7200 X88.979 Y58.792
M204 S500
M205 X20 Y20
G1 F6000 E59.9981
G1 F900 X99.377 Y39.189 E61.15129
G1 X101.381 Y35.202 E61.38319
G1 X101.758 Y34.541 E61.42274
G1 X102.203 Y33.923 E61.46232
G1 X102.709 Y33.355 E61.50185
G1 X103.273 Y32.843 E61.54144
G1 X103.814 Y32.441 E61.57646
G1 X105.99 Y30.978 E61.71273
G1 X106.643 Y30.587 E61.75228
G1 X107.334 Y30.267 E61.79186
G1 X108.054 Y30.021 E61.8314
G1 X108.915 Y29.832 E61.87721
G1 X128.957 Y26.698 E62.93143
G1 X129.714 Y26.62 E62.97098
G1 X130.806 Y26.648 E63.02775
G1 X132.746 Y26.844 E63.12908
G1 X133.498 Y26.96 E63.16862
G1 X134.234 Y27.154 E63.20818
G1 X134.946 Y27.425 E63.24777
G1 X135.776 Y27.857 E63.2964
G1 X141.026 Y31.04 E63.61546
G1 X141.655 Y31.469 E63.65503
G1 X142.068 Y31.808 E63.6828
G1 X154.148 Y42.485 E64.52065
G1 X154.692 Y43.018 E64.56023
G1 X155.176 Y43.606 E64.59981
G1 X155.596 Y44.241 E64.63937
G1 X155.931 Y44.881 E64.67692
G1 X158.834 Y51.176 E65.03717
G1 X159.116 Y51.883 E65.07673
G1 X159.322 Y52.616 E65.1163
G1 X159.45 Y53.366 E65.15584
G1 X159.5 Y54.156 E65.19698
G1 X159.563 Y62.305 E65.62048
G1 X159.529 Y63.066 E65.66007
G1 X159.415 Y63.818 E65.6996
G1 X159.106 Y64.894 E65.75778
G1 X152.399 Y82.885 E66.75561
G1 X152.096 Y83.583 E66.79515
G1 X151.694 Y84.289 E66.83737
G1 X147.964 Y90.056 E67.1943
G1 X147.517 Y90.673 E67.2339
G1 X147.009 Y91.24 E67.27346
G1 X146.443 Y91.749 E67.31302
G1 X145.828 Y92.197 E67.35256
G1 X145.168 Y92.578 E67.39217
G1 X144.128 Y93.01 E67.45069
G1 X140.948 Y94.049 E67.62455
G1 X140.213 Y94.248 E67.66412
G1 X139.461 Y94.368 E67.7037
G1 X138.849 Y94.406 E67.73556
G1 X113.514 Y94.941 E69.05249
G1 X112.753 Y94.917 E69.09206
G1 X111.999 Y94.814 E69.13161
G1 X111.26 Y94.632 E69.17116
G1 X110.898 Y94.512 E69.19098
G1 X108.639 Y93.696 E69.3158
G1 X107.937 Y93.4 E69.3554
G1 X107.271 Y93.032 E69.39494
G1 X106.647 Y92.596 E69.4345
G1 X105.87 Y91.895 E69.48888
G1 X104.134 Y90.085 E69.61922
G1 X103.674 Y89.558 E69.65557
G1 X91.877 Y74.606 E70.64535
G1 X91.438 Y73.984 E70.68491
G1 X91.066 Y73.32 E70.72447
G1 X90.766 Y72.62 E70.76404
G1 X90.58 Y72.042 E70.7956
G1 X88.395 Y64.116 E71.22287
G1 X88.231 Y63.372 E71.26246
G1 X88.147 Y62.616 E71.30199
G1 X88.142 Y61.854 E71.3416
G1 X88.217 Y61.097 E71.38113
G1 X88.371 Y60.351 E71.42072
G1 X88.602 Y59.626 E71.46026
G1 X88.769 Y59.258 E71.48126
G0 F810 X88.979 Y58.792
M204 S5000
M205 X30 Y30
G0 F7200 X89.421 Y59.026
M204 S500
M205 X20 Y20
