;FLAVOR:Marlin
;TIME:3406
;Filament used: 4.18844m
;Layer height: 0.25
;Generated with Cura_SteamEngine 3.6.0
M140 S70
M105
M190 S70
M104 S215
M105
M109 S215
M82 ;absolute extrusion mode
; Ender 3 Custom Start G-code
G28 ; Home all axes
G92 E0 ; Reset Extruder
G1 Z2.0 F3000 ; Move Z Axis up little to prevent scratching of Heat Bed
G1 X0.1 Y20 Z0.3 F5000.0 ; Move to start position
G1 X0.1 Y200.0 Z0.3 F1500.0 E15 ; Draw the first line
G1 X0.4 Y200.0 Z0.3 F5000.0 ; Move to side a little
G1 X0.4 Y20 Z0.3 F1500.0 E30 ; Draw the second line
G92 E0 ; Reset Extruder
G1 Z2.0 F3000 ; Move Z Axis up little to prevent scratching of Heat Bed
; End of custom start GCode
G92 E0
G1 F6000 E-5
;LAYER_COUNT:73
;LAYER:0
M107
M204 S5000
M205 X30 Y30
G0 F7200 X76.586 Y34.568 Z0.25
M204 S500
M205 X20 Y20
;TYPE:SKIRT
G1 F6000 E0
G1 F900 X76.976 Y33.776 E0.04588
G1 X77.314 Y33.208 E0.08023
G1 X88.145 Y16.345 E1.12178
G1 X88.656 Y15.624 E1.1677
G1 X89.229 Y14.953 E1.21356
G1 X89.861 Y14.336 E1.25946
G1 X90.546 Y13.779 E1.30534
G1 X91.041 Y13.436 E1.33664
G1 X100.287 Y7.435 E1.90948
G1 X100.88 Y7.079 E1.94542
G1 X101.607 Y6.677 E1.9886
G1 X101.881 Y6.393 E2.0091
G1 X102.549 Y5.816 E2.05498
G1 X103.267 Y5.302 E2.10087
G1 X104.028 Y4.855 E2.14673
G1 X104.827 Y4.478 E2.19265
G1 X105.656 Y4.175 E2.23852
G1 X106.51 Y3.949 E2.28443
G1 X107.554 Y3.78 E2.33939
G1 X108.591 Y3.67 E2.39358
G1 X109.354 Y3.624 E2.43331
G1 X109.983 Y3.523 E2.46641
G1 X112.021 Y3.306 E2.57292
G1 X112.289 Y3.29 E2.58688
G1 X112.516 Y3.253 E2.59883
G1 X114.769 Y3.012 E2.71658
G1 X115.65 Y2.958 E2.76245
G1 X115.713 Y2.96 E2.76573
G1 X116.589 Y2.819 E2.81184
G1 X118.129 Y2.655 E2.89233
G1 X119.01 Y2.601 E2.9382
G1 X119.926 Y2.63 E2.98582
G1 X121.018 Y2.716 E3.04275
G1 X121.895 Y2.825 E3.08868
G1 X122.757 Y3.013 E3.13453
G1 X123.6 Y3.278 E3.18045
G1 X124.414 Y3.619 E3.22631
G1 X125.195 Y4.031 E3.2722
G1 X125.935 Y4.513 E3.3181
G1 X126.628 Y5.059 E3.36395
G1 X127.27 Y5.666 E3.40986
G1 X127.335 Y5.739 E3.41494
G1 X130.009 Y6.813 E3.5647
G1 X131.055 Y7.307 E3.62482
G1 X136.019 Y10.022 E3.91885
G1 X136.16 Y10.035 E3.92621
G1 X137.028 Y10.196 E3.97209
G1 X137.878 Y10.435 E4.01798
G1 X138.702 Y10.751 E4.06384
G1 X139.495 Y11.139 E4.10972
G1 X140.25 Y11.598 E4.15564
G1 X140.959 Y12.123 E4.20149
G1 X141.619 Y12.71 E4.24739
G1 X142.222 Y13.355 E4.29328
G1 X142.529 Y13.732 E4.31854
G1 X142.607 Y13.833 E4.32518
G1 X143.003 Y14.398 E4.36103
G1 X143.149 Y14.553 E4.3721
G1 X143.457 Y14.932 E4.39748
G1 X144.072 Y15.73 E4.44984
G1 X144.578 Y16.453 E4.4957
G1 X145.018 Y17.219 E4.54161
G1 X145.386 Y18.022 E4.58751
G1 X145.68 Y18.854 E4.63337
G1 X145.892 Y19.685 E4.67794
G1 X151.254 Y26.631 E5.13396
G1 X151.761 Y27.353 E5.17981
G1 X152.201 Y28.119 E5.22572
G1 X152.589 Y28.97 E5.27432
G1 X154.845 Y34.613 E5.59015
G1 X155.136 Y35.446 E5.636
G1 X155.349 Y36.303 E5.6819
G1 X155.485 Y37.176 E5.72781
G1 X155.54 Y38.057 E5.77369
G1 X155.516 Y38.939 E5.81954
G1 X155.412 Y39.816 E5.86544
G1 X155.23 Y40.68 E5.91132
G1 X154.969 Y41.524 E5.95723
G1 X154.683 Y42.235 E5.99706
G1 X154.181 Y43.351 E6.06066
G1 X154.276 Y44.102 E6.1
G1 X154.306 Y44.985 E6.14591
G1 X154.257 Y45.866 E6.19177
G1 X154.129 Y46.74 E6.23767
G1 X154.034 Y47.175 E6.26081
G1 X153.52 Y49.302 E6.37453
G1 X153.478 Y49.445 E6.38228
G1 X153.402 Y49.785 E6.40038
G1 X153.287 Y50.235 E6.42452
G1 X153.03 Y51.08 E6.47042
G1 X152.698 Y51.898 E6.5163
G1 X152.293 Y52.682 E6.56216
G1 X151.818 Y53.427 E6.60807
G1 X151.407 Y53.96 E6.64305
G1 X150.978 Y55.731 E6.73775
G1 X150.979 Y58.165 E6.86424
G1 X150.94 Y59.047 E6.91013
G1 X150.82 Y59.922 E6.95602
G1 X150.623 Y60.782 E7.00187
G1 X150.348 Y61.621 E7.04776
G1 X149.998 Y62.432 E7.09366
G1 X149.577 Y63.208 E7.13954
G1 X149.087 Y63.942 E7.18541
G1 X148.532 Y64.629 E7.23131
G1 X147.918 Y65.264 E7.27721
G1 X147.489 Y65.645 E7.30703
G1 X143.99 Y68.575 E7.5442
G1 X143.129 Y69.219 E7.60008
G1 X134.794 Y74.762 E8.12028
G1 X128.213 Y79.446 E8.54007
G1 X127.471 Y79.925 E8.58597
G1 X126.689 Y80.335 E8.63185
G1 X125.873 Y80.672 E8.67774
G1 X125.03 Y80.935 E8.72363
G1 X124.167 Y81.12 E8.7695
G1 X123.29 Y81.226 E8.8154
G1 X122.487 Y81.253 E8.85716
G1 X117.915 Y81.219 E9.09477
G1 X117.508 Y81.415 E9.11824
G1 X116.681 Y81.725 E9.16414
G1 X115.83 Y81.959 E9.21001
G1 X114.961 Y82.115 E9.25589
G1 X113.689 Y82.2 E9.32214
G1 X111.432 Y82.203 E9.43944
G1 X111.148 Y82.19 E9.45421
G1 X110.946 Y82.204 E9.46474
G1 X110.399 Y82.205 E9.49316
G1 X109.811 Y82.18 E9.52375
G1 X109.451 Y82.204 E9.5425
G1 X109.289 Y82.205 E9.55092
G1 X108.407 Y82.17 E9.59679
G1 X107.531 Y82.056 E9.6427
G1 X106.67 Y81.863 E9.68856
G1 X105.829 Y81.593 E9.73446
G1 X105.016 Y81.248 E9.78036
G1 X104.805 Y81.135 E9.79279
G1 X104.108 Y81.04 E9.82935
G1 X103.247 Y80.843 E9.87525
G1 X102.153 Y80.468 E9.93535
G1 X99.26 Y79.281 E10.09786
G1 X98.459 Y78.909 E10.14376
G1 X97.695 Y78.467 E10.18963
G1 X96.974 Y77.957 E10.23553
G1 X96.096 Y77.184 E10.29632
G1 X93.578 Y74.687 E10.48061
G1 X92.711 Y73.937 E10.54019
G1 X92.107 Y73.769 E10.57277
G1 X91.282 Y73.456 E10.61862
G1 X90.488 Y73.07 E10.66451
G1 X89.732 Y72.613 E10.71041
G1 X88.746 Y71.859 E10.77492
G1 X88.584 Y71.718 E10.78608
G1 X87.945 Y71.109 E10.83196
G1 X87.679 Y70.806 E10.85291
G1 X87.554 Y70.73 E10.86051
G1 X86.593 Y69.997 E10.92332
G1 X85.006 Y68.624 E11.03238
G1 X84.614 Y68.253 E11.06043
G1 X84.3 Y68.014 E11.08094
G1 X82.412 Y66.38 E11.2107
G1 X81.772 Y65.773 E11.25654
G1 X81.188 Y65.11 E11.30246
G1 X80.668 Y64.397 E11.34832
G1 X80.213 Y63.64 E11.39422
G1 X79.83 Y62.845 E11.44008
G1 X79.519 Y62.018 E11.48599
G1 X79.285 Y61.167 E11.53186
G1 X79.276 Y61.12 E11.53435
G1 X79.228 Y61.028 E11.53974
G1 X78.887 Y60.213 E11.58565
G1 X78.551 Y59.092 E11.64647
G1 X78.181 Y57.517 E11.73055
G1 X78.019 Y56.649 E11.77644
G1 X77.935 Y55.77 E11.82233
G1 X77.931 Y54.887 E11.86822
G1 X78.007 Y54.007 E11.91412
G1 X78.163 Y53.138 E11.96
G1 X78.189 Y53.043 E11.96512
G1 X76.965 Y47.831 E12.24335
G1 X76.791 Y46.876 E12.2938
G1 X75.852 Y39.751 E12.66728
G1 X75.776 Y38.871 E12.71318
G1 X75.78 Y37.988 E12.75907
G1 X75.864 Y37.109 E12.80496
G1 X76.028 Y36.242 E12.85082
G1 X76.269 Y35.392 E12.89673
G1 X76.402 Y35.046 E12.916
G0 F810 X76.586 Y34.568
M204 S5000
M205 X30 Y30
G0 F7200 X77.099 Y34.646
M204 S500
M205 X20 Y20
G1 F6000 E12.9426
G1 F900 X77.491 Y33.881 E12.98728
G1 X77.735 Y33.478 E13.01176
G1 X88.566 Y16.615 E14.05331
G1 X89.064 Y15.914 E14.09799
G1 X89.625 Y15.262 E14.14269
G1 X90.244 Y14.665 E14.18739
G1 X90.916 Y14.128 E14.23209
G1 X91.313 Y13.855 E14.25713
G1 X100.559 Y7.854 E14.82997
G1 X101.121 Y7.517 E14.86402
G1 X101.903 Y7.085 E14.91045
G1 X102.406 Y6.59 E14.94713
G1 X103.072 Y6.046 E14.99182
G1 X103.786 Y5.567 E15.0365
G1 X104.541 Y5.155 E15.0812
G1 X105.331 Y4.816 E15.12588
G1 X106.15 Y4.552 E15.17059
G1 X106.989 Y4.364 E15.21528
G1 X107.606 Y4.278 E15.24765
G1 X108.643 Y4.168 E15.30185
G1 X109.329 Y4.127 E15.33756
G1 X109.429 Y4.105 E15.34288
G1 X110.036 Y4.02 E15.37474
G1 X112.074 Y3.803 E15.48125
G1 X112.28 Y3.791 E15.49197
G1 X112.569 Y3.75 E15.50714
G1 X114.822 Y3.509 E15.62489
G1 X115.681 Y3.458 E15.66961
G1 X115.767 Y3.461 E15.67409
G1 X116.035 Y3.401 E15.68836
G1 X116.641 Y3.316 E15.72016
G1 X118.181 Y3.152 E15.80064
G1 X119.04 Y3.101 E15.84536
G1 X119.887 Y3.129 E15.88941
G1 X120.979 Y3.215 E15.94633
G1 X121.833 Y3.322 E15.99106
G1 X122.672 Y3.508 E16.03572
G1 X123.491 Y3.771 E16.08042
G1 X124.282 Y4.109 E16.12513
G1 X125.037 Y4.519 E16.16978
G1 X125.752 Y4.998 E16.2145
G1 X126.419 Y5.541 E16.2592
G1 X127.033 Y6.143 E16.30389
G1 X127.051 Y6.164 E16.30532
G1 X129.823 Y7.277 E16.46056
G1 X130.815 Y7.745 E16.51756
G1 X135.875 Y10.512 E16.81727
G1 X136.334 Y10.567 E16.8413
G1 X137.174 Y10.748 E16.88595
G1 X137.995 Y11.006 E16.93068
G1 X138.788 Y11.339 E16.97538
G1 X139.546 Y11.744 E17.02004
G1 X140.264 Y12.218 E17.06475
G1 X140.934 Y12.757 E17.10944
G1 X141.552 Y13.355 E17.15413
G1 X142.133 Y14.037 E17.20069
G1 X142.211 Y14.138 E17.20732
G1 X142.608 Y14.705 E17.24329
G1 X143.061 Y15.238 E17.27965
G1 X143.676 Y16.036 E17.332
G1 X144.168 Y16.74 E17.37664
G1 X144.594 Y17.488 E17.42137
G1 X144.947 Y18.272 E17.46606
G1 X145.227 Y19.085 E17.51074
G1 X145.424 Y19.898 E17.55422
G1 X150.858 Y26.936 E18.01631
G1 X151.351 Y27.641 E18.06101
G1 X151.777 Y28.388 E18.1057
G1 X152.125 Y29.155 E18.14948
G1 X154.381 Y34.798 E18.4653
G1 X154.663 Y35.611 E18.51002
G1 X154.868 Y36.446 E18.55471
G1 X154.995 Y37.297 E18.59942
G1 X155.042 Y38.155 E18.64408
G1 X155.009 Y39.015 E18.68881
G1 X154.896 Y39.867 E18.73347
G1 X154.705 Y40.706 E18.77819
G1 X154.437 Y41.523 E18.82287
G1 X154.227 Y42.029 E18.85134
G1 X153.659 Y43.292 E18.92331
G1 X153.723 Y43.643 E18.94185
G1 X153.799 Y44.499 E18.98651
G1 X153.795 Y45.359 E19.03121
G1 X153.711 Y46.215 E19.07591
G1 X153.548 Y47.058 E19.12053
G1 X153.034 Y49.185 E19.23425
G1 X152.967 Y49.416 E19.24675
G1 X152.918 Y49.661 E19.25973
G1 X152.803 Y50.111 E19.28387
G1 X152.552 Y50.934 E19.32859
G1 X152.225 Y51.729 E19.37326
G1 X151.826 Y52.491 E19.41796
G1 X151.357 Y53.212 E19.46266
G1 X150.947 Y53.731 E19.49703
G1 X150.478 Y55.671 E19.60076
G1 X150.479 Y58.165 E19.73037
G1 X150.439 Y59.024 E19.77506
G1 X150.32 Y59.876 E19.81976
G1 X150.123 Y60.713 E19.86445
G1 X149.848 Y61.528 E19.90915
G1 X149.499 Y62.314 E19.95384
G1 X149.078 Y63.064 E19.99854
G1 X148.59 Y63.772 E20.04323
G1 X148.038 Y64.431 E20.0879
G1 X147.168 Y65.262 E20.15043
G1 X143.669 Y68.192 E20.3876
G1 X142.852 Y68.802 E20.44059
G1 X134.533 Y74.334 E20.95978
G1 X127.923 Y79.039 E21.38143
G1 X127.2 Y79.504 E21.42611
G1 X126.437 Y79.901 E21.47081
G1 X125.64 Y80.225 E21.51552
G1 X124.817 Y80.473 E21.56019
G1 X123.974 Y80.644 E21.60489
G1 X123.119 Y80.736 E21.64958
G1 X122.49 Y80.753 E21.68228
G1 X117.815 Y80.718 E21.92524
G1 X117.105 Y81.041 E21.96578
G1 X116.292 Y81.322 E22.01048
G1 X115.457 Y81.527 E22.05516
G1 X114.606 Y81.653 E22.09987
G1 X113.688 Y81.7 E22.14764
G1 X111.431 Y81.703 E22.26494
G1 X111.183 Y81.692 E22.27784
G1 X110.945 Y81.704 E22.29022
G1 X110.398 Y81.705 E22.31865
G1 X109.877 Y81.682 E22.34575
G1 X109.448 Y81.704 E22.36807
G1 X109.286 Y81.705 E22.37649
G1 X108.427 Y81.67 E22.42117
G1 X107.574 Y81.556 E22.4659
G1 X106.736 Y81.363 E22.51059
G1 X105.92 Y81.093 E22.55525
G1 X105.132 Y80.748 E22.59996
G1 X104.959 Y80.653 E22.61021
G1 X104.153 Y80.54 E22.65251
G1 X103.316 Y80.343 E22.6972
G1 X102.343 Y80.006 E22.75071
G1 X99.45 Y78.819 E22.91322
G1 X98.67 Y78.456 E22.95793
G1 X97.928 Y78.022 E23.0026
G1 X97.229 Y77.521 E23.0473
G1 X96.448 Y76.829 E23.10152
G1 X93.911 Y74.313 E23.28721
G1 X92.959 Y73.49 E23.35261
G1 X92.918 Y73.482 E23.35478
G1 X92.094 Y73.237 E23.39946
G1 X91.296 Y72.915 E23.44418
G1 X90.532 Y72.521 E23.48885
G1 X89.807 Y72.058 E23.53356
G1 X89.074 Y71.482 E23.582
G1 X88.912 Y71.341 E23.59316
G1 X88.29 Y70.747 E23.63786
G1 X87.999 Y70.412 E23.66092
G1 X87.629 Y70.175 E23.68376
G1 X86.92 Y69.619 E23.73058
G1 X85.333 Y68.246 E23.83964
G1 X84.983 Y67.914 E23.86471
G1 X84.628 Y67.636 E23.88814
G1 X82.74 Y66.002 E24.0179
G1 X82.116 Y65.41 E24.0626
G1 X81.551 Y64.762 E24.10728
G1 X81.047 Y64.065 E24.15198
G1 X80.611 Y63.323 E24.19671
G1 X80.246 Y62.545 E24.24137
G1 X79.954 Y61.736 E24.28607
G1 X79.746 Y60.93 E24.32933
G1 X79.524 Y60.467 E24.35601
G1 X79.226 Y59.66 E24.40072
G1 X79.038 Y58.977 E24.43753
G1 X78.668 Y57.402 E24.52161
G1 X78.511 Y56.557 E24.56628
G1 X78.432 Y55.701 E24.61095
G1 X78.434 Y54.841 E24.65564
G1 X78.515 Y53.984 E24.70038
G1 X78.676 Y53.14 E24.74503
G1 X78.703 Y53.045 E24.75017
G1 X77.452 Y47.717 E25.03459
G1 X77.286 Y46.811 E25.08245
G1 X76.347 Y39.686 E25.45593
G1 X76.275 Y38.829 E25.50063
G1 X76.282 Y37.969 E25.54532
G1 X76.369 Y37.113 E25.59004
G1 X76.535 Y36.269 E25.63474
G1 X76.779 Y35.445 E25.6794
G1 X76.909 Y35.121 E25.69754
G0 F810 X77.099 Y34.646
M204 S5000
M205 X30 Y30
G0 F7200 X77.612 Y34.728
M204 S500
M205 X20 Y20
G1 F6000 E25.72415
G1 F900 X78.156 Y33.748 E25.7824
G1 X88.987 Y16.885 E26.82395
G1 X89.472 Y16.204 E26.8674
G1 X90.02 Y15.572 E26.91087
G1 X90.626 Y14.995 E26.95436
G1 X91.585 Y14.274 E27.01671
G1 X100.831 Y8.273 E27.58955
G1 X101.363 Y7.954 E27.62179
G1 X102.215 Y7.483 E27.67238
G1 X102.318 Y7.367 E27.68044
G1 X102.93 Y6.797 E27.7239
G1 X103.593 Y6.287 E27.76737
G1 X104.303 Y5.844 E27.81086
G1 X105.051 Y5.47 E27.85433
G1 X105.831 Y5.17 E27.89776
G1 X106.637 Y4.945 E27.94124
G1 X107.659 Y4.775 E27.99509
G1 X108.696 Y4.665 E28.04928
G1 X109.472 Y4.619 E28.08968
G1 X110.089 Y4.517 E28.12218
G1 X112.127 Y4.3 E28.22869
G1 X112.409 Y4.283 E28.24337
G1 X112.622 Y4.248 E28.25459
G1 X114.875 Y4.007 E28.37234
G1 X115.71 Y3.958 E28.41581
G1 X115.802 Y3.961 E28.4206
G1 X116.694 Y3.813 E28.46759
G1 X118.234 Y3.649 E28.54807
G1 X119.069 Y3.6 E28.59154
G1 X119.848 Y3.627 E28.63205
G1 X120.94 Y3.713 E28.68897
G1 X121.77 Y3.818 E28.73245
G1 X122.586 Y4.003 E28.77594
G1 X123.38 Y4.264 E28.81937
G1 X124.146 Y4.6 E28.86284
G1 X124.877 Y5.007 E28.90632
G1 X125.565 Y5.483 E28.9498
G1 X126.204 Y6.022 E28.99324
G1 X126.756 Y6.585 E29.03422
G1 X129.637 Y7.741 E29.19554
G1 X130.575 Y8.184 E29.24945
G1 X135.701 Y10.987 E29.55307
G1 X136.5 Y11.105 E29.59505
G1 X137.312 Y11.306 E29.63852
G1 X138.101 Y11.583 E29.68198
G1 X138.86 Y11.934 E29.72543
G1 X139.582 Y12.356 E29.7689
G1 X140.261 Y12.845 E29.81238
G1 X140.89 Y13.396 E29.85584
G1 X141.463 Y14.005 E29.89929
G1 X141.737 Y14.343 E29.92191
G1 X141.815 Y14.444 E29.92854
G1 X142.221 Y15.024 E29.96533
G1 X142.389 Y15.203 E29.97809
G1 X142.665 Y15.543 E30.00085
G1 X143.28 Y16.341 E30.0532
G1 X143.758 Y17.027 E30.09666
G1 X144.169 Y17.756 E30.14015
G1 X144.508 Y18.52 E30.18359
G1 X144.772 Y19.314 E30.22707
G1 X144.955 Y20.109 E30.26947
G1 X150.462 Y27.242 E30.73778
G1 X150.941 Y27.928 E30.78126
G1 X151.352 Y28.656 E30.82471
G1 X151.661 Y29.341 E30.86376
G1 X153.917 Y34.984 E31.17959
G1 X154.19 Y35.774 E31.22303
G1 X154.386 Y36.587 E31.26649
G1 X154.504 Y37.416 E31.31001
G1 X154.542 Y38.251 E31.35345
G1 X154.5 Y39.087 E31.39695
G1 X154.379 Y39.914 E31.44038
G1 X154.179 Y40.726 E31.48384
G1 X153.771 Y41.824 E31.54472
G1 X153.145 Y43.213 E31.62389
G1 X153.148 Y43.224 E31.62449
G1 X153.267 Y44.052 E31.66796
G1 X153.307 Y44.887 E31.7114
G1 X153.267 Y45.723 E31.7549
G1 X153.062 Y46.94 E31.81904
G1 X152.548 Y49.067 E31.93276
G1 X152.51 Y49.196 E31.93975
G1 X152.434 Y49.537 E31.9579
G1 X152.319 Y49.987 E31.98204
G1 X152.073 Y50.787 E32.02554
G1 X151.752 Y51.559 E32.06899
G1 X151.359 Y52.298 E32.11248
G1 X150.897 Y52.995 E32.15594
G1 X150.489 Y53.499 E32.18964
G1 X149.978 Y55.611 E32.30257
G1 X149.979 Y58.165 E32.43529
G1 X149.939 Y59.001 E32.47879
G1 X149.82 Y59.829 E32.52226
G1 X149.623 Y60.641 E32.56568
G1 X149.348 Y61.431 E32.60916
G1 X149 Y62.192 E32.65264
G1 X148.58 Y62.915 E32.6961
G1 X148.094 Y63.596 E32.73958
G1 X147.544 Y64.226 E32.78304
G1 X146.847 Y64.879 E32.83267
G1 X143.348 Y67.809 E33.06985
G1 X142.575 Y68.386 E33.11998
G1 X134.229 Y73.936 E33.64086
G1 X127.633 Y78.631 E34.06161
G1 X126.929 Y79.083 E34.10509
G1 X126.186 Y79.466 E34.14853
G1 X125.409 Y79.776 E34.19201
G1 X124.606 Y80.01 E34.23547
G1 X123.784 Y80.167 E34.27896
G1 X122.951 Y80.244 E34.32244
G1 X122.494 Y80.253 E34.34619
G1 X117.687 Y80.217 E34.59602
G1 X117.475 Y80.332 E34.60855
G1 X116.706 Y80.659 E34.65198
G1 X115.908 Y80.911 E34.69547
G1 X115.09 Y81.085 E34.73893
G1 X114.259 Y81.181 E34.7824
G1 X113.688 Y81.2 E34.81209
G1 X111.431 Y81.203 E34.92939
G1 X111.24 Y81.194 E34.93932
G1 X110.944 Y81.204 E34.95471
G1 X110.397 Y81.205 E34.98314
G1 X109.956 Y81.185 E35.00608
G1 X109.937 Y81.187 E35.00708
G1 X109.445 Y81.204 E35.03266
G1 X109.283 Y81.205 E35.04108
G1 X108.447 Y81.17 E35.08456
G1 X107.619 Y81.056 E35.128
G1 X106.805 Y80.863 E35.17148
G1 X106.013 Y80.593 E35.21496
G1 X105.251 Y80.248 E35.25843
G1 X105.101 Y80.162 E35.26742
G1 X105.028 Y80.159 E35.27121
G1 X104.2 Y80.04 E35.31469
G1 X103.387 Y79.843 E35.35816
G1 X102.533 Y79.543 E35.4052
G1 X99.64 Y78.356 E35.56771
G1 X98.882 Y78.002 E35.61119
G1 X98.161 Y77.577 E35.65468
G1 X97.485 Y77.085 E35.69813
G1 X96.8 Y76.474 E35.74583
G1 X94.252 Y73.947 E35.93233
G1 X93.182 Y73.022 E36.00583
