;FLAVOR:Marlin
;TIME:9249
;Filament used: 11.2856m
;Layer height: 0.2
;Generated with Cura_SteamEngine 3.6.0
M140 S70
M105
M190 S70
M104 S215
M105
M109 S215
M82 ;absolute extrusion mode
G28 ; home all axes
M117 Purge extruder
G92 E0 ; reset extruder
G1 Z1.0 F3000 ; move z up little to prevent scratching of surface
G1 X0.1 Y20 Z0.3 F5000.0 ; move to start-line position G1 X0.1 Y200.0 Z0.3 F1500.0 E15 ; draw 1st line
G1 X0.4 Y200.0 Z0.3 F5000.0 ; move to side a little
G1 X0.4 Y20 Z0.3 F1500.0 E30 ; draw 2nd line
G92 E0 ; reset extruder
G1 Z1.0 F3000 ; move z up little to prevent scratching of surface
M117 All systems go!
G92 E0
G1 F6000 E-5
;LAYER_COUNT:306
;LAYER:0
M107
M204 S5000
M205 X30 Y30
G0 F7200 X101.153 Y93.301 Z0.2
M204 S500
M205 X20 Y20
;TYPE:SKIRT
G1 F6000 E0
G1 F900 X102.367 Y91.973 E0.06583
G1 X102.496 Y91.844 E0.0725
G1 X103.418 Y90.978 E0.11878
G1 X104.394 Y90.172 E0.16509
G1 X105.418 Y89.429 E0.21138
G1 X106.488 Y88.752 E0.2577
G1 X107.597 Y88.145 E0.30396
G1 X108.744 Y87.608 E0.35029
G1 X109.921 Y87.145 E0.39657
G1 X111.126 Y86.758 E0.44287
G1 X112.352 Y86.447 E0.48915
G1 X113.596 Y86.215 E0.53545
G1 X114.852 Y86.061 E0.58174
G1 X116.652 Y85.98 E0.64766
G1 X118.348 Y85.98 E0.70971
G1 X119.613 Y86.02 E0.75602
G1 X120.872 Y86.14 E0.80229
G1 X122.122 Y86.339 E0.8486
G1 X123.357 Y86.617 E0.89491
G1 X124.571 Y86.972 E0.94119
G1 X125.761 Y87.403 E0.98749
G1 X126.921 Y87.908 E1.03378
G1 X128.047 Y88.486 E1.08009
G1 X129.134 Y89.134 E1.12639
G1 X130.178 Y89.849 E1.17268
G1 X131.174 Y90.628 E1.21894
G1 X132.449 Y91.789 E1.28203
G1 X132.578 Y91.917 E1.28868
G1 X133.448 Y92.836 E1.33498
G1 X134.258 Y93.808 E1.38127
G1 X135.004 Y94.83 E1.42756
G1 X135.685 Y95.896 E1.47384
G1 X136.297 Y97.004 E1.52015
G1 X136.838 Y98.148 E1.56645
G1 X137.305 Y99.324 E1.61275
G1 X137.698 Y100.527 E1.65905
G1 X138.013 Y101.752 E1.70532
G1 X138.25 Y102.995 E1.75162
G1 X138.409 Y104.251 E1.79794
G1 X138.497 Y106.119 E1.86636
G1 X138.505 Y123.862 E2.51551
G1 X138.466 Y125.127 E2.56181
G1 X138.346 Y126.386 E2.60808
G1 X138.148 Y127.636 E2.65438
G1 X137.871 Y128.871 E2.70069
G1 X137.516 Y130.086 E2.747
G1 X137.085 Y131.275 E2.79327
G1 X136.58 Y132.436 E2.83959
G1 X136.003 Y133.562 E2.88588
G1 X135.356 Y134.649 E2.93216
G1 X134.641 Y135.693 E2.97846
G1 X133.862 Y136.69 E3.02475
G1 X132.641 Y138.027 E3.09099
G1 X132.512 Y138.156 E3.09767
G1 X131.59 Y139.022 E3.14395
G1 X130.614 Y139.828 E3.19026
G1 X129.59 Y140.571 E3.23654
G1 X128.52 Y141.248 E3.28287
G1 X127.411 Y141.855 E3.32912
G1 X126.264 Y142.392 E3.37546
G1 X125.087 Y142.855 E3.42173
G1 X123.882 Y143.242 E3.46804
G1 X122.656 Y143.553 E3.51431
G1 X121.412 Y143.785 E3.56061
G1 X120.156 Y143.939 E3.6069
G1 X118.356 Y144.02 E3.67283
G1 X116.65 Y144.02 E3.73524
G1 X115.385 Y143.98 E3.78155
G1 X114.126 Y143.86 E3.82782
G1 X112.876 Y143.661 E3.87413
G1 X111.641 Y143.383 E3.92044
G1 X110.427 Y143.028 E3.96672
G1 X109.237 Y142.597 E4.01302
G1 X108.077 Y142.092 E4.05931
G1 X106.951 Y141.514 E4.10562
G1 X105.864 Y140.866 E4.15192
G1 X104.82 Y140.151 E4.19821
G1 X103.824 Y139.372 E4.24447
G1 X102.494 Y138.156 E4.3104
G1 X102.365 Y138.027 E4.31708
G1 X101.499 Y137.105 E4.36336
G1 X100.693 Y136.129 E4.40967
G1 X99.95 Y135.105 E4.45595
G1 X99.273 Y134.035 E4.50228
G1 X98.666 Y132.926 E4.54853
G1 X98.129 Y131.779 E4.59487
G1 X97.666 Y130.602 E4.64114
G1 X97.279 Y129.397 E4.68745
G1 X96.968 Y128.171 E4.73372
G1 X96.736 Y126.927 E4.78002
G1 X96.582 Y125.671 E4.82632
G1 X96.501 Y123.869 E4.89231
G1 X96.503 Y106.127 E5.54142
G1 X96.543 Y104.862 E5.58773
G1 X96.663 Y103.602 E5.63403
G1 X96.862 Y102.353 E5.68031
G1 X97.14 Y101.118 E5.72662
G1 X97.495 Y99.904 E5.7729
G1 X97.927 Y98.714 E5.81921
G1 X98.432 Y97.554 E5.8655
G1 X99.01 Y96.428 E5.91181
G1 X99.658 Y95.341 E5.95811
G1 X100.373 Y94.297 E6.0044
G1 X100.705 Y93.873 E6.02411
G0 F810 X101.153 Y93.301
M204 S5000
M205 X30 Y30
G0 F7200 X101.589 Y93.466
M204 S500
M205 X20 Y20
G1 F6000 E6.0507
G1 F900 X102.678 Y92.284 E6.1095
G1 X102.807 Y92.155 E6.11618
G1 X103.72 Y91.299 E6.16197
G1 X104.685 Y90.503 E6.20773
G1 X105.699 Y89.77 E6.25351
G1 X106.759 Y89.103 E6.29933
G1 X107.858 Y88.506 E6.34509
G1 X108.994 Y87.98 E6.39089
G1 X110.16 Y87.527 E6.43666
G1 X111.354 Y87.15 E6.48246
G1 X112.569 Y86.851 E6.52824
G1 X113.8 Y86.629 E6.57401
G1 X115.043 Y86.486 E6.61978
G1 X116.652 Y86.42 E6.6787
G1 X118.348 Y86.42 E6.74075
G1 X119.599 Y86.46 E6.78654
G1 X120.844 Y86.58 E6.8323
G1 X122.08 Y86.779 E6.87811
G1 X123.3 Y87.057 E6.92389
G1 X124.5 Y87.412 E6.96967
G1 X125.675 Y87.843 E7.01546
G1 X126.82 Y88.348 E7.06124
G1 X127.93 Y88.925 E7.10701
G1 X129.001 Y89.572 E7.15279
G1 X130.029 Y90.286 E7.19859
G1 X131.009 Y91.064 E7.24436
G1 X132.139 Y92.101 E7.30048
G1 X132.268 Y92.229 E7.30713
G1 X133.128 Y93.138 E7.35291
G1 X133.928 Y94.101 E7.39871
G1 X134.664 Y95.112 E7.44446
G1 X135.335 Y96.169 E7.49027
G1 X135.937 Y97.266 E7.53605
G1 X136.467 Y98.4 E7.58185
G1 X136.924 Y99.565 E7.62763
G1 X137.306 Y100.756 E7.67339
G1 X137.61 Y101.97 E7.71918
G1 X137.837 Y103.201 E7.76498
G1 X137.984 Y104.444 E7.81077
G1 X138.057 Y106.119 E7.87211
G1 X138.065 Y123.862 E8.52126
G1 X138.026 Y125.113 E8.56705
G1 X137.906 Y126.359 E8.61285
G1 X137.708 Y127.594 E8.65861
G1 X137.431 Y128.815 E8.70441
G1 X137.076 Y130.015 E8.7502
G1 X136.646 Y131.19 E8.79598
G1 X136.141 Y132.335 E8.84176
G1 X135.564 Y133.445 E8.88753
G1 X134.918 Y134.517 E8.93332
G1 X134.204 Y135.545 E8.97911
G1 X133.426 Y136.525 E9.02489
G1 X132.33 Y137.716 E9.08411
G1 X132.201 Y137.845 E9.09078
G1 X131.288 Y138.701 E9.13657
G1 X130.323 Y139.497 E9.18234
G1 X129.309 Y140.23 E9.22812
G1 X128.249 Y140.897 E9.27394
G1 X127.15 Y141.494 E9.31969
G1 X126.014 Y142.02 E9.36549
G1 X124.848 Y142.473 E9.41126
G1 X123.654 Y142.85 E9.45707
G1 X122.439 Y143.149 E9.50285
G1 X121.208 Y143.371 E9.54861
G1 X119.965 Y143.514 E9.59439
G1 X118.356 Y143.58 E9.65331
G1 X116.65 Y143.58 E9.71572
G1 X115.399 Y143.54 E9.76151
G1 X114.154 Y143.42 E9.80727
G1 X112.918 Y143.221 E9.85308
G1 X111.698 Y142.943 E9.89886
G1 X110.498 Y142.588 E9.94464
G1 X109.323 Y142.157 E9.99043
G1 X108.178 Y141.652 E10.03622
G1 X107.068 Y141.075 E10.08199
G1 X105.997 Y140.428 E10.12776
G1 X104.969 Y139.714 E10.17356
G1 X103.989 Y138.936 E10.21934
G1 X102.805 Y137.845 E10.27824
G1 X102.676 Y137.716 E10.28491
G1 X101.82 Y136.803 E10.3307
G1 X101.024 Y135.838 E10.37647
G1 X100.291 Y134.824 E10.42225
G1 X99.624 Y133.764 E10.46807
G1 X99.027 Y132.665 E10.51382
G1 X98.501 Y131.529 E10.55962
G1 X98.048 Y130.363 E10.60539
G1 X97.671 Y129.169 E10.6512
G1 X97.372 Y127.954 E10.69698
G1 X97.15 Y126.723 E10.74274
G1 X97.007 Y125.48 E10.78852
G1 X96.941 Y123.869 E10.84751
G1 X96.943 Y106.127 E11.49662
G1 X96.983 Y104.876 E11.54241
G1 X97.103 Y103.63 E11.58821
G1 X97.302 Y102.395 E11.63398
G1 X97.58 Y101.175 E11.67976
G1 X97.935 Y99.975 E11.72554
G1 X98.366 Y98.8 E11.77133
G1 X98.872 Y97.655 E11.81713
G1 X99.449 Y96.545 E11.8629
G1 X100.096 Y95.474 E11.90868
G1 X100.81 Y94.446 E11.95447
G1 X101.137 Y94.035 E11.97369
G0 F810 X101.589 Y93.466
M204 S5000
M205 X30 Y30
G0 F7200 X102.024 Y93.634
M204 S500
M205 X20 Y20
G1 F6000 E12.00028
G1 F900 X102.989 Y92.595 E12.05216
G1 X103.118 Y92.466 E12.05884
G1 X104.021 Y91.62 E12.10411
G1 X104.976 Y90.834 E12.14936
G1 X105.98 Y90.111 E12.19463
G1 X107.029 Y89.455 E12.23989
G1 X108.118 Y88.868 E12.28515
G1 X109.243 Y88.352 E12.33044
G1 X110.399 Y87.91 E12.37572
G1 X111.581 Y87.544 E12.42099
G1 X112.784 Y87.255 E12.46625
G1 X114.003 Y87.044 E12.51151
G1 X115.233 Y86.913 E12.55677
G1 X116.652 Y86.86 E12.60872
G1 X118.348 Y86.86 E12.67077
G1 X119.585 Y86.9 E12.71605
G1 X120.816 Y87.02 E12.7613
G1 X122.037 Y87.219 E12.80656
G1 X123.243 Y87.496 E12.85184
G1 X124.428 Y87.851 E12.89709
G1 X125.588 Y88.282 E12.94237
G1 X126.718 Y88.787 E12.98765
G1 X127.812 Y89.364 E13.0329
G1 X128.867 Y90.01 E13.07816
G1 X129.878 Y90.723 E13.12342
G1 X130.841 Y91.5 E13.1687
G1 X131.829 Y92.413 E13.21791
G1 X131.958 Y92.541 E13.22456
G1 X132.808 Y93.441 E13.26985
G1 X133.598 Y94.393 E13.31511
G1 X134.324 Y95.395 E13.36038
G1 X134.985 Y96.441 E13.40565
G1 X135.576 Y97.528 E13.45092
G1 X136.096 Y98.65 E13.49617
G1 X136.542 Y99.804 E13.54143
G1 X136.913 Y100.985 E13.58672
G1 X137.207 Y102.187 E13.63199
G1 X137.422 Y103.405 E13.67724
G1 X137.559 Y104.635 E13.72252
G1 X137.617 Y106.119 E13.77686
G1 X137.625 Y123.862 E14.42601
G1 X137.586 Y125.099 E14.47129
G1 X137.466 Y126.33 E14.51654
G1 X137.268 Y127.552 E14.56183
G1 X136.991 Y128.758 E14.6071
G1 X136.636 Y129.943 E14.65236
G1 X136.206 Y131.103 E14.69762
G1 X135.702 Y132.233 E14.74289
G1 X135.126 Y133.328 E14.78815
G1 X134.48 Y134.383 E14.83341
G1 X133.767 Y135.395 E14.87871
G1 X132.991 Y136.358 E14.92395
G1 X132.019 Y137.405 E14.97622
G1 X131.89 Y137.534 E14.9829
G1 X130.987 Y138.38 E15.02817
G1 X130.032 Y139.166 E15.07342
G1 X129.028 Y139.889 E15.11868
G1 X127.979 Y140.545 E15.16395
G1 X126.89 Y141.132 E15.20921
G1 X125.765 Y141.648 E15.25449
G1 X124.609 Y142.09 E15.29977
G1 X123.427 Y142.456 E15.34504
G1 X122.224 Y142.745 E15.39031
G1 X121.005 Y142.956 E15.43557
G1 X119.775 Y143.087 E15.48083
G1 X118.356 Y143.14 E15.53278
G1 X116.65 Y143.14 E15.59519
G1 X115.413 Y143.1 E15.64048
G1 X114.182 Y142.98 E15.68573
G1 X112.961 Y142.781 E15.73099
G1 X111.755 Y142.504 E15.77626
G1 X110.57 Y142.149 E15.82152
G1 X109.41 Y141.718 E15.86679
G1 X108.28 Y141.213 E15.91208
G1 X107.186 Y140.636 E15.95733
G1 X106.131 Y139.99 E16.00259
G1 X105.12 Y139.277 E16.04785
G1 X104.157 Y138.5 E16.09312
G1 X103.116 Y137.534 E16.14508
G1 X102.987 Y137.405 E16.15175
G1 X102.141 Y136.502 E16.19702
G1 X101.355 Y135.547 E16.24227
G1 X100.632 Y134.543 E16.28754
G1 X99.976 Y133.494 E16.33281
G1 X99.389 Y132.405 E16.37807
G1 X98.873 Y131.28 E16.42335
G1 X98.431 Y130.124 E16.46863
G1 X98.065 Y128.942 E16.5139
G1 X97.776 Y127.739 E16.55917
G1 X97.565 Y126.52 E16.60443
G1 X97.434 Y125.29 E16.64968
G1 X97.381 Y123.869 E16.70171
G1 X97.383 Y106.127 E17.35082
G1 X97.423 Y104.89 E17.3961
G1 X97.543 Y103.659 E17.44135
G1 X97.742 Y102.438 E17.48661
G1 X98.02 Y101.232 E17.53189
G1 X98.375 Y100.047 E17.57715
G1 X98.806 Y98.887 E17.62242
G1 X99.311 Y97.757 E17.66771
G1 X99.888 Y96.663 E17.71296
G1 X100.534 Y95.608 E17.75822
G1 X101.247 Y94.597 E17.80348
G1 X101.568 Y94.199 E17.82219
G0 F810 X102.024 Y93.634
M204 S5000
M205 X30 Y30
G0 F7200 X102.46 Y93.804
M204 S500
M205 X20 Y20
G1 F6000 E17.84879
G1 F900 X103.3 Y92.906 E17.89377
G1 X103.429 Y92.777 E17.90045
G1 X104.322 Y91.941 E17.9452
G1 X105.267 Y91.165 E17.98994
G1 X106.261 Y90.453 E18.03467
G1 X107.299 Y89.807 E18.0794
G1 X108.378 Y89.23 E18.12417
G1 X109.492 Y88.725 E18.16892
G1 X110.636 Y88.294 E18.21364
G1 X111.806 Y87.939 E18.25838
G1 X112.997 Y87.661 E18.30312
G1 X114.204 Y87.461 E18.34788
G1 X115.421 Y87.341 E18.39263
G1 X116.652 Y87.3 E18.43769
G1 X118.348 Y87.3 E18.49974
G1 X119.57 Y87.34 E18.54447
G1 X120.787 Y87.46 E18.58921
G1 X121.994 Y87.659 E18.63397
G1 X123.185 Y87.936 E18.6787
G1 X124.355 Y88.291 E18.72344
G1 X125.5 Y88.722 E18.7682
G1 X126.614 Y89.226 E18.81293
G1 X127.693 Y89.802 E18.85768
G1 X128.732 Y90.448 E18.90244
G1 X129.726 Y91.16 E18.94718
G1 X130.672 Y91.935 E18.99192
G1 X131.519 Y92.726 E19.03432
G1 X131.648 Y92.854 E19.04097
G1 X132.488 Y93.743 E19.08572
G1 X133.267 Y94.685 E19.13044
G1 X133.984 Y95.677 E19.17522
G1 X134.634 Y96.712 E19.21993
G1 X135.215 Y97.789 E19.2647
G1 X135.724 Y98.901 E19.30945
G1 X136.159 Y100.043 E19.35416
G1 X136.519 Y101.212 E19.39891
G1 X136.802 Y102.402 E19.44366
G1 X137.006 Y103.608 E19.48841
G1 X137.131 Y104.824 E19.53313
G1 X137.177 Y106.12 E19.58058
G1 X137.185 Y123.863 E20.22973
G1 X137.146 Y125.085 E20.27446
G1 X137.026 Y126.302 E20.3192
G1 X136.828 Y127.509 E20.36395
G1 X136.551 Y128.7 E20.40869
G1 X136.197 Y129.87 E20.45341
G1 X135.766 Y131.015 E20.49817
G1 X135.263 Y132.13 E20.54292
G1 X134.687 Y133.209 E20.58767
G1 X134.042 Y134.248 E20.63241
G1 X133.33 Y135.242 E20.67715
G1 X132.555 Y136.188 E20.72189
G1 X131.708 Y137.094 E20.76727
G1 X131.579 Y137.223 E20.77394
G1 X130.686 Y138.059 E20.81869
G1 X129.741 Y138.835 E20.86343
G1 X128.747 Y139.547 E20.90816
G1 X127.709 Y140.193 E20.95289
G1 X126.63 Y140.77 E20.99766
G1 X125.516 Y141.275 E21.04241
G1 X124.372 Y141.706 E21.08714
G1 X123.202 Y142.061 E21.13187
G1 X122.011 Y142.339 E21.17662
G1 X120.804 Y142.539 E21.22138
G1 X119.587 Y142.659 E21.26612
G1 X118.356 Y142.7 E21.31118
G1 X116.65 Y142.7 E21.3736
G1 X115.428 Y142.66 E21.41833
G1 X114.211 Y142.54 E21.46307
G1 X113.004 Y142.341 E21.50783
G1 X111.813 Y142.064 E21.55256
G1 X110.643 Y141.709 E21.5973
G1 X109.498 Y141.278 E21.64206
G1 X108.384 Y140.774 E21.68679
G1 X107.305 Y140.198 E21.73154
G1 X106.266 Y139.552 E21.7763
G1 X105.272 Y138.84 E21.82103
G1 X104.326 Y138.065 E21.86578
G1 X103.427 Y137.223 E21.91084
G1 X103.298 Y137.094 E21.91752
G1 X102.462 Y136.201 E21.96227
G1 X101.686 Y135.256 E22.00701
G1 X100.974 Y134.262 E22.05174
G1 X100.328 Y133.224 E22.09647
G1 X99.751 Y132.145 E22.14124
G1 X99.246 Y131.031 E22.18599
G1 X98.815 Y129.887 E22.23071
G1 X98.46 Y128.717 E22.27545
G1 X98.182 Y127.526 E22.32019
G1 X97.982 Y126.319 E22.36495
G1 X97.862 Y125.102 E22.40969
G1 X97.821 Y123.869 E22.45483
G1 X97.823 Y106.127 E23.10394
G1 X97.863 Y104.905 E23.14867
G1 X97.983 Y103.688 E23.19341
G1 X98.182 Y102.481 E23.23817
G1 X98.46 Y101.29 E23.28292
G1 X98.815 Y100.12 E23.32765
G1 X99.246 Y98.975 E23.37241
G1 X99.75 Y97.861 E23.41714
G1 X100.326 Y96.782 E23.46189
G1 X100.972 Y95.744 E23.50662
G1 X101.684 Y94.749 E23.55139
G1 X101.999 Y94.366 E23.56953
G0 F810 X102.46 Y93.804
M204 S5000
M205 X30 Y30
G0 F7200 X102.895 Y93.976
M204 S500
M205 X20 Y20
G1 F6000 E23.59613
G1 F900 X103.611 Y93.217 E23.6343
G1 X103.74 Y93.088 E23.64098
G1 X104.623 Y92.262 E23.68521
G1 X105.558 Y91.497 E23.72941
G1 X106.541 Y90.795 E23.77361
G1 X107.569 Y90.159 E23.81783
G1 X108.637 Y89.593 E23.86205
G1 X109.74 Y89.099 E23.90627
G1 X110.873 Y88.679 E23.95048
G1 X112.031 Y88.334 E23.99469
G1 X113.21 Y88.067 E24.03891
G1 X114.403 Y87.879 E24.0831
G1 X115.607 Y87.77 E24.12733
G1 X116.652 Y87.74 E24.16558
G1 X118.348 Y87.74 E24.22763
G1 X119.556 Y87.78 E24.27185
G1 X120.758 Y87.9 E24.31604
G1 X121.95 Y88.099 E24.36026
G1 X123.126 Y88.376 E24.40446
G1 X124.282 Y88.731 E24.4487
G1 X125.411 Y89.161 E24.4929
G1 X126.509 Y89.665 E24.53711
G1 X127.572 Y90.241 E24.58134
G1 X128.594 Y90.886 E24.62555
G1 X129.571 Y91.596 E24.66974
G1 X130.5 Y92.37 E24.71398
G1 X131.209 Y93.038 E24.74962
G1 X131.338 Y93.166 E24.75627
G1 X132.168 Y94.045 E24.8005
G1 X132.937 Y94.977 E24.84471
G1 X133.643 Y95.958 E24.88892
G1 X134.282 Y96.984 E24.93315
G1 X134.852 Y98.049 E24.97734
G1 X135.351 Y99.15 E25.02157
G1 X135.776 Y100.281 E25.06577
G1 X136.124 Y101.438 E25.10997
G1 X136.396 Y102.616 E25.15421
G1 X136.589 Y103.809 E25.19842
G1 X136.703 Y105.012 E25.24263
G1 X136.737 Y106.12 E25.28319
G1 X136.745 Y123.863 E25.93234
G1 X136.706 Y125.071 E25.97655
G1 X136.586 Y126.273 E26.02075
G1 X136.388 Y127.465 E26.06496
G1 X136.111 Y128.642 E26.1092
G1 X135.757 Y129.797 E26.15339
G1 X135.327 Y130.926 E26.19759
G1 X134.823 Y132.025 E26.24183
G1 X134.248 Y133.088 E26.28605
G1 X133.604 Y134.11 E26.33024
G1 X132.894 Y135.088 E26.37446
G1 X132.12 Y136.016 E26.41867
G1 X131.397 Y136.783 E26.45723
G1 X131.268 Y136.912 E26.46391
G1 X130.385 Y137.738 E26.50814
G1 X129.45 Y138.503 E26.55234
G1 X128.467 Y139.205 E26.59654
G1 X127.439 Y139.841 E26.64076
G1 X126.371 Y140.407 E26.68498
G1 X125.268 Y140.901 E26.7292
G1 X124.135 Y141.321 E26.77341
G1 X122.977 Y141.666 E26.81762
G1 X121.798 Y141.933 E26.86184
G1 X120.605 Y142.121 E26.90603
G1 X119.401 Y142.23 E26.95026
G1 X118.356 Y142.26 E26.98851
G1 X116.65 Y142.26 E27.05092
G1 X115.442 Y142.22 E27.09514
G1 X114.24 Y142.1 E27.13934
G1 X113.048 Y141.901 E27.18355
G1 X111.872 Y141.624 E27.22776
G1 X110.716 Y141.269 E27.272
G1 X109.587 Y140.839 E27.3162
G1 X108.489 Y140.335 E27.3604
G1 X107.426 Y139.759 E27.40463
G1 X106.404 Y139.114 E27.44885
G1 X105.427 Y138.404 E27.49304
G1 X104.498 Y137.63 E27.53728
G1 X103.738 Y136.912 E27.57553
G1 X103.609 Y136.783 E27.5822
