;FLAVOR:Marlin
;TIME:1075
;Filament used: 0.561396m
;Layer height: 0.16
;Generated with Cura_SteamEngine 3.6.0
M140 S70
M105
M190 S70
M104 S215
M105
M109 S215
M82 ;absolute extrusion mode
G28 ; home all axes
M117 Purge extruder
G92 E0 ; reset extruder
G1 Z1.0 F3000 ; move z up little to prevent scratching of surface
G1 X0.1 Y20 Z0.3 F5000.0 ; move to start-line position G1 X0.1 Y200.0 Z0.3 F1500.0 E15 ; draw 1st line
G1 X0.4 Y200.0 Z0.3 F5000.0 ; move to side a little
G1 X0.4 Y20 Z0.3 F1500.0 E30 ; draw 2nd line
G92 E0 ; reset extruder
G1 Z1.0 F3000 ; move z up little to prevent scratching of surface
M117 All systems go!
G92 E0
G1 F6000 E-5
;LAYER_COUNT:32
;LAYER:0
M107
M204 S5000
M205 X30 Y30
G0 F7200 X104.682 Y93.698 Z0.2
M204 S500
M205 X20 Y20
;TYPE:SKIRT
G1 F6000 E0
G1 F900 X105.259 Y93.172 E0.02857
G1 X105.471 Y93.007 E0.03839
G1 X105.997 Y92.649 E0.06167
G1 X106.563 Y92.359 E0.08494
G1 X107.161 Y92.143 E0.1082
G1 X107.781 Y92.003 E0.13146
G1 X108.579 Y91.94 E0.16074
G1 X114.121 Y91.94 E0.3635
G1 X114.756 Y91.98 E0.38678
G1 X115.38 Y92.099 E0.41002
G1 X115.985 Y92.296 E0.4333
G1 X116.56 Y92.567 E0.45656
G1 X117.097 Y92.908 E0.47983
G1 X117.497 Y93.249 E0.49906
G1 X117.778 Y93.002 E0.51275
G1 X118.304 Y92.644 E0.53603
G1 X118.871 Y92.356 E0.5593
G1 X119.469 Y92.14 E0.58256
G1 X120.09 Y92.002 E0.60583
G1 X120.879 Y91.94 E0.63479
G1 X126.507 Y91.94 E0.84069
G1 X127.142 Y91.98 E0.86397
G1 X127.766 Y92.099 E0.88721
G1 X128.371 Y92.296 E0.91049
G1 X128.946 Y92.567 E0.93375
G1 X129.483 Y92.908 E0.95702
G1 X130.085 Y93.422 E0.98598
G1 X130.214 Y93.551 E0.99266
G1 X130.634 Y94.028 E1.01591
G1 X130.992 Y94.554 E1.03919
G1 X131.28 Y95.121 E1.06246
G1 X131.496 Y95.719 E1.08572
G1 X131.634 Y96.34 E1.10899
G1 X131.696 Y97.127 E1.13787
G1 X131.71 Y137.069 E2.5992
G1 X131.67 Y137.704 E2.62248
G1 X131.551 Y138.329 E2.64575
G1 X131.355 Y138.933 E2.66899
G1 X131.084 Y139.509 E2.69228
G1 X130.743 Y140.046 E2.71555
G1 X130.228 Y140.649 E2.74456
G1 X130.099 Y140.778 E2.75124
G1 X129.622 Y141.198 E2.77449
G1 X129.096 Y141.556 E2.79777
G1 X128.529 Y141.844 E2.82103
G1 X127.931 Y142.06 E2.8443
G1 X127.31 Y142.198 E2.86757
G1 X126.52 Y142.26 E2.89656
G1 X108.482 Y142.256 E3.5565
G1 X107.847 Y142.216 E3.57978
G1 X107.223 Y142.097 E3.60302
G1 X106.618 Y141.9 E3.6263
G1 X106.043 Y141.629 E3.64956
G1 X105.506 Y141.288 E3.67283
G1 X104.905 Y140.774 E3.70176
G1 X104.776 Y140.645 E3.70844
G1 X104.356 Y140.168 E3.73169
G1 X103.998 Y139.642 E3.75497
G1 X103.71 Y139.075 E3.77824
G1 X103.494 Y138.477 E3.8015
G1 X103.356 Y137.856 E3.82477
G1 X103.294 Y137.065 E3.8538
G1 X103.307 Y97.163 E5.31366
G1 X103.347 Y96.529 E5.3369
G1 X103.467 Y95.904 E5.36019
G1 X103.663 Y95.299 E5.38345
G1 X103.935 Y94.724 E5.40673
G1 X104.228 Y94.264 E5.42668
G0 F810 X104.276 Y94.188
G0 X104.682 Y93.698
M204 S5000
M205 X30 Y30
G0 F7200 X105.115 Y93.883
M204 S500
M205 X20 Y20
G1 F6000 E5.45328
G1 F900 X105.529 Y93.519 E5.47345
G1 X105.741 Y93.354 E5.48328
G1 X106.244 Y93.013 E5.50551
G1 X106.788 Y92.741 E5.52776
G1 X107.362 Y92.543 E5.54998
G1 X107.958 Y92.422 E5.57223
G1 X108.579 Y92.38 E5.595
G1 X114.121 Y92.38 E5.79776
G1 X114.727 Y92.42 E5.81998
G1 X115.323 Y92.539 E5.84221
G1 X115.898 Y92.735 E5.86444
G1 X116.442 Y93.006 E5.88667
G1 X116.947 Y93.345 E5.90893
G1 X117.388 Y93.733 E5.93042
G1 X117.5 Y93.845 E5.93621
G1 X117.612 Y93.733 E5.94201
G1 X118.069 Y93.333 E5.96423
G1 X118.575 Y92.996 E5.98647
G1 X119.12 Y92.728 E6.00869
G1 X119.696 Y92.534 E6.03093
G1 X120.292 Y92.417 E6.05315
G1 X120.879 Y92.38 E6.07467
G1 X126.507 Y92.38 E6.28057
G1 X127.113 Y92.42 E6.30279
G1 X127.709 Y92.539 E6.32503
G1 X128.284 Y92.735 E6.34725
G1 X128.828 Y93.006 E6.36949
G1 X129.333 Y93.345 E6.39174
G1 X129.774 Y93.733 E6.41323
G1 X129.903 Y93.862 E6.41991
G1 X130.303 Y94.319 E6.44213
G1 X130.64 Y94.825 E6.46437
G1 X130.908 Y95.37 E6.48659
G1 X131.102 Y95.946 E6.50883
G1 X131.219 Y96.542 E6.53105
G1 X131.256 Y97.127 E6.55249
G1 X131.27 Y137.069 E8.01382
G1 X131.23 Y137.676 E8.03607
G1 X131.111 Y138.272 E8.05831
G1 X130.915 Y138.847 E8.08054
G1 X130.645 Y139.391 E8.10275
G1 X130.306 Y139.895 E8.12498
G1 X129.917 Y140.338 E8.14655
G1 X129.788 Y140.467 E8.15322
G1 X129.331 Y140.867 E8.17544
G1 X128.825 Y141.204 E8.19768
G1 X128.28 Y141.472 E8.2199
G1 X127.704 Y141.666 E8.24214
G1 X127.108 Y141.783 E8.26436
G1 X126.52 Y141.82 E8.28592
G1 X108.482 Y141.816 E8.94586
G1 X107.876 Y141.776 E8.96808
G1 X107.28 Y141.657 E8.99031
G1 X106.705 Y141.46 E9.01255
G1 X106.161 Y141.19 E9.03477
G1 X105.657 Y140.851 E9.05699
G1 X105.216 Y140.463 E9.07848
G1 X105.087 Y140.334 E9.08516
G1 X104.687 Y139.877 E9.10738
G1 X104.35 Y139.371 E9.12962
G1 X104.082 Y138.826 E9.15184
G1 X103.888 Y138.25 E9.17408
G1 X103.771 Y137.654 E9.1963
G1 X103.734 Y137.065 E9.21789
G1 X103.747 Y97.163 E10.67775
G1 X103.787 Y96.557 E10.69997
G1 X103.907 Y95.961 E10.72221
G1 X104.103 Y95.386 E10.74444
G1 X104.373 Y94.842 E10.76666
G1 X104.646 Y94.437 E10.78453
G0 F810 X104.713 Y94.338
G0 X105.115 Y93.883
M204 S5000
M205 X30 Y30
G0 F7200 X105.149 Y94.497
M204 S500
M205 X20 Y20
G1 F6000 E10.81113
G1 F900 X105.548 Y94.079 E10.83227
G1 X105.8 Y93.866 E10.84434
G1 X106.012 Y93.701 E10.85417
G1 X106.491 Y93.379 E10.87528
G1 X107.011 Y93.125 E10.89646
G1 X107.56 Y92.946 E10.91758
G1 X108.129 Y92.844 E10.93873
G1 X108.579 Y92.82 E10.95522
G1 X114.121 Y92.82 E11.15798
G1 X114.698 Y92.86 E11.17914
G1 X115.263 Y92.979 E11.20027
G1 X115.807 Y93.175 E11.22142
G1 X116.318 Y93.444 E11.24255
G1 X116.788 Y93.781 E11.26371
G1 X117.077 Y94.044 E11.278
G1 X117.206 Y94.173 E11.28468
G1 X117.498 Y94.509 E11.30097
G1 X117.531 Y94.462 E11.30307
G1 X117.794 Y94.173 E11.31736
G1 X117.923 Y94.044 E11.32404
G1 X118.359 Y93.665 E11.34517
G1 X118.843 Y93.349 E11.36632
G1 X119.366 Y93.103 E11.38747
G1 X119.918 Y92.932 E11.40861
G1 X120.489 Y92.838 E11.42978
G1 X120.879 Y92.82 E11.44406
G1 X126.507 Y92.82 E11.64997
G1 X127.084 Y92.86 E11.67113
G1 X127.649 Y92.979 E11.69226
G1 X128.193 Y93.175 E11.71341
G1 X128.704 Y93.444 E11.73454
G1 X129.174 Y93.781 E11.7557
G1 X129.463 Y94.044 E11.77
G1 X129.592 Y94.173 E11.77667
G1 X129.971 Y94.609 E11.79781
G1 X130.287 Y95.093 E11.81895
G1 X130.533 Y95.616 E11.8401
G1 X130.704 Y96.168 E11.86124
G1 X130.798 Y96.739 E11.88241
G1 X130.816 Y97.128 E11.89666
G1 X130.83 Y137.07 E13.35798
G1 X130.79 Y137.646 E13.37911
G1 X130.671 Y138.212 E13.40027
G1 X130.476 Y138.755 E13.42138
G1 X130.207 Y139.267 E13.44254
G1 X129.87 Y139.737 E13.4637
G1 X129.606 Y140.027 E13.47804
G1 X129.477 Y140.156 E13.48472
G1 X129.041 Y140.535 E13.50585
G1 X128.557 Y140.851 E13.527
G1 X128.034 Y141.097 E13.54815
G1 X127.482 Y141.268 E13.56929
G1 X126.911 Y141.362 E13.59046
G1 X126.52 Y141.38 E13.60478
G1 X108.482 Y141.376 E14.26472
G1 X107.906 Y141.336 E14.28585
G1 X107.34 Y141.217 E14.30701
G1 X106.796 Y141.021 E14.32816
G1 X106.285 Y140.751 E14.34931
G1 X105.816 Y140.414 E14.37044
G1 X105.527 Y140.152 E14.38471
G1 X105.398 Y140.023 E14.39138
G1 X105.019 Y139.587 E14.41252
G1 X104.703 Y139.103 E14.43367
G1 X104.457 Y138.58 E14.45481
G1 X104.286 Y138.028 E14.47596
G1 X104.192 Y137.457 E14.49713
G1 X104.174 Y137.066 E14.51145
G1 X104.187 Y97.164 E15.97131
G1 X104.227 Y96.587 E15.99247
G1 X104.346 Y96.022 E16.01359
G1 X104.543 Y95.478 E16.03476
G1 X104.743 Y95.098 E16.05047
G0 F810 X104.812 Y94.967
G0 X105.149 Y94.497
M204 S5000
M205 X30 Y30
G0 F7200 X105.584 Y94.666
M204 S500
M205 X20 Y20
G1 F6000 E16.07707
G1 F900 X106.07 Y94.214 E16.10135
G1 X106.282 Y94.049 E16.11118
G1 X106.737 Y93.745 E16.1312
G1 X107.231 Y93.511 E16.1512
G1 X107.754 Y93.352 E16.1712
G1 X108.294 Y93.271 E16.19118
G1 X108.579 Y93.26 E16.20161
G1 X114.121 Y93.26 E16.40437
G1 X114.666 Y93.3 E16.42437
G1 X115.2 Y93.419 E16.44438
G1 X115.71 Y93.614 E16.46436
G1 X116.187 Y93.882 E16.48438
G1 X116.766 Y94.355 E16.51173
G1 X116.895 Y94.484 E16.5184
G1 X117.252 Y94.898 E16.5384
G1 X117.503 Y95.293 E16.55553
G1 X117.632 Y95.063 E16.56517
G1 X118.105 Y94.484 E16.59253
G1 X118.234 Y94.355 E16.5992
G1 X118.648 Y93.998 E16.6192
G1 X119.11 Y93.705 E16.63922
G1 X119.609 Y93.482 E16.65921
G1 X120.135 Y93.335 E16.6792
G1 X120.879 Y93.26 E16.70655
G1 X126.507 Y93.26 E16.91246
G1 X127.052 Y93.3 E16.93245
G1 X127.586 Y93.419 E16.95247
G1 X128.096 Y93.614 E16.97245
G1 X128.573 Y93.882 E16.99246
G1 X129.152 Y94.355 E17.01982
G1 X129.281 Y94.484 E17.02649
G1 X129.638 Y94.898 E17.04649
G1 X129.931 Y95.36 E17.06651
G1 X130.154 Y95.859 E17.0865
G1 X130.301 Y96.385 E17.10649
G1 X130.376 Y97.128 E17.13381
G1 X130.39 Y137.07 E18.59513
G1 X130.35 Y137.615 E18.61513
G1 X130.231 Y138.148 E18.63511
G1 X130.036 Y138.659 E18.65512
G1 X129.769 Y139.136 E18.67512
G1 X129.295 Y139.716 E18.70252
G1 X129.166 Y139.845 E18.7092
G1 X128.752 Y140.202 E18.7292
G1 X128.29 Y140.495 E18.74921
G1 X127.791 Y140.718 E18.76921
G1 X127.265 Y140.865 E18.78919
G1 X126.52 Y140.94 E18.81658
G1 X108.482 Y140.936 E19.47652
G1 X107.937 Y140.896 E19.49652
G1 X107.404 Y140.777 E19.5165
G1 X106.893 Y140.581 E19.53652
G1 X106.417 Y140.313 E19.55651
G1 X105.838 Y139.841 E19.58384
G1 X105.709 Y139.712 E19.59051
G1 X105.352 Y139.298 E19.61051
G1 X105.059 Y138.836 E19.63053
G1 X104.836 Y138.337 E19.65052
G1 X104.689 Y137.811 E19.67051
G1 X104.614 Y137.066 E19.6979
G1 X104.627 Y97.164 E21.15776
G1 X104.667 Y96.619 E21.17775
G1 X104.786 Y96.085 E21.19777
G1 X104.982 Y95.575 E21.21776
G1 X105.162 Y95.255 E21.23119
G0 F810 X105.25 Y95.098
G0 X105.584 Y94.666
M204 S5000
M205 X30 Y30
G0 F7200 X106.019 Y94.846
M204 S500
M205 X20 Y20
G1 F6000 E21.25779
G1 F900 X106.34 Y94.561 E21.2735
G1 X106.552 Y94.396 E21.28332
G1 X106.981 Y94.113 E21.30213
G1 X107.448 Y93.9 E21.32091
G1 X107.942 Y93.762 E21.33967
G1 X108.579 Y93.7 E21.36309
G1 X114.121 Y93.7 E21.56585
G1 X114.633 Y93.74 E21.58464
G1 X115.132 Y93.859 E21.60341
G1 X115.607 Y94.054 E21.62219
G1 X116.046 Y94.32 E21.64097
G1 X116.454 Y94.667 E21.66057
G1 X116.583 Y94.796 E21.66724
G1 X116.917 Y95.186 E21.68603
G1 X117.186 Y95.623 E21.7048
G1 X117.384 Y96.097 E21.7236
G1 X117.501 Y96.571 E21.74146
G1 X117.609 Y96.118 E21.7585
G1 X117.804 Y95.643 E21.77728
G1 X118.07 Y95.204 E21.79606
G1 X118.417 Y94.796 E21.81566
G1 X118.546 Y94.667 E21.82233
G1 X118.936 Y94.333 E21.84112
G1 X119.373 Y94.064 E21.85989
G1 X119.847 Y93.866 E21.87869
G1 X120.345 Y93.743 E21.89745
G1 X120.879 Y93.7 E21.91705
G1 X126.507 Y93.7 E22.12296
G1 X127.019 Y93.74 E22.14175
G1 X127.518 Y93.859 E22.16052
G1 X127.993 Y94.054 E22.1793
G1 X128.432 Y94.32 E22.19808
G1 X128.84 Y94.667 E22.21768
G1 X128.969 Y94.796 E22.22435
G1 X129.303 Y95.186 E22.24314
G1 X129.572 Y95.623 E22.26192
G1 X129.77 Y96.097 E22.28071
G1 X129.893 Y96.595 E22.29948
G1 X129.936 Y97.128 E22.31904
G1 X129.95 Y137.07 E23.78036
G1 X129.91 Y137.582 E23.79915
G1 X129.792 Y138.081 E23.81791
G1 X129.597 Y138.556 E23.8367
G1 X129.331 Y138.995 E23.85548
G1 X128.983 Y139.404 E23.87513
G1 X128.854 Y139.533 E23.8818
G1 X128.464 Y139.867 E23.90059
G1 X128.027 Y140.136 E23.91936
G1 X127.553 Y140.334 E23.93816
G1 X127.055 Y140.457 E23.95692
G1 X126.52 Y140.5 E23.97656
G1 X108.482 Y140.496 E24.6365
G1 X107.97 Y140.456 E24.65529
G1 X107.471 Y140.337 E24.67406
G1 X106.996 Y140.142 E24.69284
G1 X106.557 Y139.876 E24.71162
G1 X106.15 Y139.529 E24.73119
G1 X106.021 Y139.4 E24.73787
G1 X105.687 Y139.01 E24.75665
G1 X105.418 Y138.573 E24.77543
G1 X105.22 Y138.099 E24.79422
G1 X105.097 Y137.601 E24.81299
G1 X105.054 Y137.066 E24.83262
G1 X105.067 Y97.164 E26.29249
G1 X105.107 Y96.652 E26.31127
G1 X105.226 Y96.153 E26.33004
G1 X105.421 Y95.678 E26.34883
G1 X105.577 Y95.422 E26.3598
G0 F810 X105.688 Y95.239
G0 X106.019 Y94.846
M204 S5000
M205 X30 Y30
G0 F7200 X106.124 Y95.39
M204 S500
M205 X20 Y20
G1 F6000 E26.38639
G1 F900 X106.61 Y94.908 E26.41144
G1 X106.822 Y94.743 E26.42127
G1 X107.223 Y94.482 E26.43877
G1 X107.661 Y94.291 E26.45625
G1 X108.125 Y94.176 E26.47374
G1 X108.579 Y94.14 E26.49041
G1 X114.121 Y94.14 E26.69317
G1 X114.597 Y94.18 E26.71064
G1 X115.06 Y94.299 E26.72813
G1 X115.497 Y94.493 E26.74562
G1 X115.895 Y94.757 E26.7631
G1 X116.143 Y94.978 E26.77525
G1 X116.272 Y95.107 E26.78193
G1 X116.581 Y95.472 E26.79942
G1 X116.824 Y95.883 E26.81689
G1 X116.996 Y96.329 E26.83438
G1 X117.091 Y96.797 E26.85185
G1 X117.11 Y97.129 E26.86402
G1 X117.11 Y109.14 E27.30345
G1 X117.89 Y109.14 E27.33199
G1 X117.89 Y97.129 E27.77143
G1 X117.93 Y96.653 E27.7889
G1 X118.049 Y96.19 E27.80639
G1 X118.243 Y95.753 E27.82389
G1 X118.507 Y95.355 E27.84136
G1 X118.728 Y95.107 E27.85351
G1 X118.857 Y94.978 E27.86019
G1 X119.222 Y94.669 E27.87768
G1 X119.633 Y94.426 E27.89515
G1 X120.079 Y94.254 E27.91264
G1 X120.547 Y94.159 E27.93011
G1 X120.879 Y94.14 E27.94228
G1 X126.507 Y94.14 E28.14819
G1 X126.983 Y94.18 E28.16566
G1 X127.446 Y94.299 E28.18315
G1 X127.883 Y94.493 E28.20065
G1 X128.281 Y94.757 E28.21812
G1 X128.529 Y94.978 E28.23027
G1 X128.658 Y95.107 E28.23695
G1 X128.967 Y95.472 E28.25444
G1 X129.21 Y95.883 E28.27191
G1 X129.382 Y96.329 E28.2894
G1 X129.477 Y96.797 E28.30687
G1 X129.496 Y97.128 E28.319
G1 X129.51 Y137.07 E29.78033
G1 X129.47 Y137.546 E29.7978
G1 X129.352 Y138.009 E29.81528
G1 X129.158 Y138.446 E29.83278
G1 X128.894 Y138.844 E29.85025
G1 X128.672 Y139.093 E29.86246
G1 X128.543 Y139.222 E29.86913
G1 X128.178 Y139.531 E29.88663
G1 X127.767 Y139.774 E29.90409
G1 X127.321 Y139.946 E29.92158
G1 X126.853 Y140.041 E29.93906
G1 X126.52 Y140.06 E29.95126
G1 X108.482 Y140.056 E30.6112
G1 X108.006 Y140.016 E30.62868
G1 X107.543 Y139.897 E30.64617
G1 X107.107 Y139.703 E30.66362
G1 X106.708 Y139.439 E30.68113
G1 X106.461 Y139.218 E30.69325
G1 X106.332 Y139.089 E30.69993
G1 X106.023 Y138.724 E30.71743
G1 X105.78 Y138.313 E30.73489
G1 X105.608 Y137.867 E30.75238
G1 X105.513 Y137.399 E30.76985
G1 X105.494 Y137.066 E30.78206
G1 X105.507 Y97.164 E32.24192
G1 X105.547 Y96.688 E32.25939
G1 X105.666 Y96.225 E32.27688
G1 X105.759 Y96.016 E32.28525
G0 F810 X105.86 Y95.788
G0 X106.124 Y95.39
M204 S5000
M205 X30 Y30
G0 F7200 X106.56 Y95.555
M204 S500
M205 X20 Y20
G1 F6000 E32.31185
G1 F900 X106.881 Y95.255 E32.32793
G1 X107.093 Y95.09 E32.33776
G1 X107.463 Y94.853 E32.35383
G1 X107.869 Y94.686 E32.36989
G1 X108.3 Y94.596 E32.386
G1 X108.579 Y94.58 E32.39623
G1 X114.121 Y94.58 E32.59899
G1 X114.559 Y94.62 E32.61508
G1 X114.982 Y94.738 E32.63114
G1 X115.377 Y94.931 E32.64723
G1 X115.832 Y95.289 E32.66841
G1 X115.961 Y95.418 E32.67509
G1 X116.242 Y95.756 E32.69117
G1 X116.458 Y96.139 E32.70725
G1 X116.601 Y96.554 E32.72331
G1 X116.67 Y97.129 E32.7445
G1 X116.67 Y109.58 E33.20004
G1 X118.33 Y109.58 E33.26077
G1 X118.33 Y97.129 E33.7163
G1 X118.37 Y96.691 E33.73239
G1 X118.488 Y96.268 E33.74846
G1 X118.681 Y95.873 E33.76455
G1 X119.039 Y95.418 E33.78573
G1 X119.168 Y95.289 E33.7924
G1 X119.506 Y95.008 E33.80848
G1 X119.889 Y94.792 E33.82457
G1 X120.304 Y94.649 E33.84063
G1 X120.879 Y94.58 E33.86182
G1 X126.507 Y94.58 E34.06772
G1 X126.945 Y94.62 E34.08382
G1 X127.368 Y94.738 E34.09988
G1 X127.763 Y94.931 E34.11597
G1 X128.218 Y95.289 E34.13715
G1 X128.347 Y95.418 E34.14382
G1 X128.628 Y95.756 E34.1599
G1 X128.844 Y96.139 E34.17599
G1 X128.987 Y96.554 E34.19205
G1 X129.056 Y97.128 E34.2132
G1 X129.07 Y137.07 E35.67453
G1 X129.03 Y137.508 E35.69062
G1 X128.912 Y137.931 E35.70669
G1 X128.719 Y138.326 E35.72277
G1 X128.361 Y138.782 E35.74398
G1 X128.232 Y138.911 E35.75065
G1 X127.894 Y139.192 E35.76674
G1 X127.511 Y139.408 E35.78282
G1 X127.096 Y139.551 E35.79888
G1 X126.52 Y139.62 E35.82011
G1 X108.482 Y139.616 E36.48005
G1 X108.045 Y139.576 E36.4961
G1 X107.621 Y139.457 E36.51221
G1 X107.227 Y139.264 E36.52827
G1 X106.772 Y138.907 E36.54943
G1 X106.643 Y138.778 E36.5561
G1 X106.362 Y138.44 E36.57218
G1 X106.146 Y138.057 E36.58827
G1 X106.003 Y137.642 E36.60433
G1 X105.934 Y137.066 E36.62555
G1 X105.947 Y97.164 E38.08541
G1 X105.987 Y96.726 E38.1015
G1 X106.106 Y96.303 E38.11758
G1 X106.173 Y96.167 E38.12313
G0 F810 X106.299 Y95.908
G0 X106.56 Y95.555
M204 S5000
M205 X30 Y30
G0 F7200 X106.994 Y95.738
M204 S500
M205 X20 Y20
G1 F6000 E38.14973
G1 F900 X107.151 Y95.602 E38.15733
