;FLAVOR:Marlin
;TIME:4248
;Filament used: 2.52672m
;Layer height: 0.16
;Generated with Cura_SteamEngine 3.6.0
M140 S70
M105
M190 S70
M104 S215
M105
M109 S215
M82 ;absolute extrusion mode
G28 ; home all axes
M117 Purge extruder
G92 E0 ; reset extruder
G1 Z1.0 F3000 ; move z up little to prevent scratching of surface
G1 X0.1 Y20 Z0.3 F5000.0 ; move to start-line position G1 X0.1 Y200.0 Z0.3 F1500.0 E15 ; draw 1st line
G1 X0.4 Y200.0 Z0.3 F5000.0 ; move to side a little
G1 X0.4 Y20 Z0.3 F1500.0 E30 ; draw 2nd line
G92 E0 ; reset extruder
G1 Z1.0 F3000 ; move z up little to prevent scratching of surface
M117 All systems go!
G92 E0
G1 F6000 E-5
;LAYER_COUNT:94
;LAYER:0
M107
M204 S5000
M205 X30 Y30
G0 F7200 X158.933 Y49.314 Z0.16
M204 S500
M205 X20 Y20
;TYPE:SKIRT
G1 F6000 E0
G1 F900 X159.293 Y48.217 E0.03072
G1 X159.486 Y47.682 E0.04585
G1 X159.95 Y46.512 E0.07934
G1 X160.488 Y45.375 E0.11281
G1 X161.097 Y44.273 E0.14632
G1 X161.775 Y43.213 E0.1798
G1 X162.518 Y42.198 E0.21327
G1 X163.325 Y41.232 E0.24676
G1 X164.192 Y40.319 E0.28026
G1 X165.114 Y39.464 E0.31372
G1 X166.231 Y38.561 E0.35194
G1 X166.427 Y38.414 E0.35845
G1 X167.457 Y37.691 E0.39194
G1 X168.531 Y37.036 E0.42541
G1 X169.645 Y36.449 E0.45892
G1 X170.793 Y35.935 E0.49238
G1 X171.972 Y35.495 E0.52587
G1 X173.177 Y35.13 E0.55937
G1 X174.402 Y34.843 E0.59285
G1 X175.643 Y34.634 E0.62633
G1 X176.894 Y34.504 E0.6598
G1 X178.27 Y34.454 E0.69644
G1 X184.723 Y34.442 E0.86814
G1 X185.981 Y34.48 E0.90163
G1 X187.234 Y34.597 E0.93511
G1 X188.477 Y34.794 E0.9686
G1 X189.705 Y35.069 E1.00208
G1 X190.913 Y35.422 E1.03557
G1 X192.096 Y35.851 E1.06905
G1 X193.451 Y36.452 E1.10849
G1 X193.582 Y36.516 E1.11237
G1 X194.695 Y37.104 E1.14587
G1 X195.768 Y37.761 E1.17934
G1 X196.797 Y38.486 E1.21284
G1 X197.778 Y39.274 E1.24632
G1 X198.707 Y40.123 E1.2798
G1 X199.58 Y41.029 E1.31328
G1 X200.394 Y41.989 E1.34677
G1 X201.145 Y42.999 E1.38026
G1 X201.73 Y43.891 E1.40864
G1 X202.004 Y44.334 E1.4225
G1 X202.632 Y45.424 E1.45598
G1 X203.189 Y46.553 E1.48947
G1 X203.673 Y47.714 E1.52294
G1 X204.083 Y48.904 E1.55643
G1 X204.416 Y50.118 E1.58993
G1 X204.671 Y51.35 E1.62341
G1 X204.832 Y52.457 E1.65317
G1 X204.899 Y53.032 E1.66857
G1 X205.005 Y54.286 E1.70206
G1 X205.031 Y55.544 E1.73554
G1 X204.977 Y56.802 E1.76904
G1 X204.75 Y58.652 E1.81864
G1 X204.632 Y59.344 E1.83732
G1 X204.381 Y60.577 E1.8708
G1 X204.053 Y61.792 E1.90428
G1 X203.648 Y62.984 E1.93778
G1 X203.168 Y64.147 E1.97126
G1 X202.615 Y65.277 E2.00473
G1 X201.991 Y66.37 E2.03822
G1 X201.299 Y67.421 E2.0717
G1 X200.611 Y68.341 E2.10227
G1 X200.339 Y68.683 E2.1139
G1 X199.524 Y69.642 E2.14738
G1 X198.651 Y70.548 E2.18086
G1 X198.649 Y70.55 E2.18094
G1 X199.325 Y71.09 E2.20396
G1 X200.257 Y71.936 E2.23745
G1 X201.133 Y72.839 E2.27093
G1 X201.949 Y73.797 E2.30441
G1 X202.704 Y74.804 E2.3379
G1 X203.325 Y75.748 E2.36796
G1 X203.599 Y76.191 E2.38182
G1 X204.227 Y77.281 E2.4153
G1 X204.784 Y78.41 E2.44879
G1 X205.268 Y79.571 E2.48226
G1 X205.678 Y80.761 E2.51575
G1 X206.011 Y81.975 E2.54925
G1 X206.266 Y83.207 E2.58272
G1 X206.427 Y84.314 E2.61249
G1 X206.494 Y84.889 E2.62789
G1 X206.6 Y86.143 E2.66138
G1 X206.626 Y87.401 E2.69486
G1 X206.572 Y88.659 E2.72836
G1 X206.345 Y90.509 E2.77796
G1 X206.227 Y91.201 E2.79664
G1 X205.976 Y92.434 E2.83012
G1 X205.648 Y93.649 E2.8636
G1 X205.243 Y94.841 E2.8971
G1 X204.763 Y96.004 E2.93058
G1 X204.21 Y97.134 E2.96405
G1 X203.586 Y98.227 E2.99754
G1 X202.894 Y99.278 E3.03102
G1 X202.206 Y100.198 E3.06159
G1 X201.934 Y100.54 E3.07322
G1 X201.119 Y101.499 E3.1067
G1 X200.246 Y102.405 E3.14018
G1 X200.022 Y102.61 E3.14826
G1 X200.033 Y102.62 E3.14866
G1 X200.909 Y103.523 E3.18213
G1 X201.725 Y104.481 E3.21562
G1 X202.48 Y105.488 E3.2491
G1 X203.101 Y106.432 E3.27917
G1 X203.375 Y106.875 E3.29303
G1 X204.003 Y107.965 E3.3265
G1 X204.56 Y109.094 E3.36
G1 X205.044 Y110.255 E3.39347
G1 X205.454 Y111.445 E3.42696
G1 X205.787 Y112.659 E3.46045
G1 X206.042 Y113.891 E3.49393
G1 X206.203 Y114.998 E3.5237
G1 X206.27 Y115.573 E3.5391
G1 X206.376 Y116.827 E3.57258
G1 X206.402 Y118.085 E3.60606
G1 X206.348 Y119.343 E3.63957
G1 X206.121 Y121.193 E3.68916
G1 X206.003 Y121.885 E3.70784
G1 X205.752 Y123.118 E3.74132
G1 X205.424 Y124.333 E3.77481
G1 X205.019 Y125.525 E3.80831
G1 X204.539 Y126.688 E3.84178
G1 X203.986 Y127.818 E3.87526
G1 X203.362 Y128.911 E3.90875
G1 X202.67 Y129.962 E3.94223
G1 X201.982 Y130.882 E3.9728
G1 X201.71 Y131.224 E3.98442
G1 X200.895 Y132.183 E4.01791
G1 X200.295 Y132.806 E4.04092
G1 X200.631 Y133.153 E4.05378
G1 X201.447 Y134.111 E4.08726
G1 X202.202 Y135.118 E4.12075
G1 X202.823 Y136.062 E4.15082
G1 X203.097 Y136.505 E4.16468
G1 X203.725 Y137.595 E4.19815
G1 X204.282 Y138.724 E4.23165
G1 X204.766 Y139.885 E4.26511
G1 X205.176 Y141.075 E4.2986
G1 X205.509 Y142.289 E4.3321
G1 X205.764 Y143.521 E4.36558
G1 X205.925 Y144.628 E4.39534
G1 X205.992 Y145.203 E4.41074
G1 X206.098 Y146.457 E4.44423
G1 X206.124 Y147.715 E4.47771
G1 X206.07 Y148.973 E4.51121
G1 X205.843 Y150.823 E4.56081
G1 X205.725 Y151.515 E4.57949
G1 X205.474 Y152.748 E4.61297
G1 X205.146 Y153.963 E4.64645
G1 X204.741 Y155.155 E4.67995
G1 X204.261 Y156.318 E4.71343
G1 X203.708 Y157.448 E4.7469
G1 X203.084 Y158.541 E4.78039
G1 X202.392 Y159.592 E4.81387
G1 X201.704 Y160.512 E4.84444
G1 X201.432 Y160.854 E4.85607
G1 X200.617 Y161.813 E4.88956
G1 X199.744 Y162.719 E4.92303
G1 X198.814 Y163.568 E4.95654
G1 X197.833 Y164.355 E4.99
G1 X196.804 Y165.079 E5.02348
G1 X195.73 Y165.736 E5.05698
G1 X194.618 Y166.324 E5.09045
G1 X193.47 Y166.839 E5.12393
G1 X192.291 Y167.281 E5.15743
G1 X191.087 Y167.647 E5.19092
G1 X189.862 Y167.936 E5.22441
G1 X188.622 Y168.146 E5.25787
G1 X187.37 Y168.277 E5.29137
G1 X186.036 Y168.329 E5.32689
G1 X179.556 Y168.362 E5.49931
G1 X178.298 Y168.328 E5.5328
G1 X177.045 Y168.215 E5.56627
G1 X175.801 Y168.022 E5.59977
G1 X174.572 Y167.751 E5.63325
G1 X173.363 Y167.402 E5.66674
G1 X172.179 Y166.977 E5.70021
G1 X171.024 Y166.477 E5.7337
G1 X169.547 Y165.705 E5.77804
G1 X169.329 Y165.579 E5.78474
G1 X168.26 Y164.915 E5.81823
G1 X167.235 Y164.184 E5.85173
G1 X166.259 Y163.39 E5.8852
G1 X165.335 Y162.535 E5.9187
G1 X164.468 Y161.624 E5.95216
G1 X163.66 Y160.659 E5.98565
G1 X162.915 Y159.645 E6.01913
G1 X162.236 Y158.585 E6.05263
G1 X161.554 Y157.345 E6.09028
G1 X161.356 Y156.952 E6.10199
G1 X160.826 Y155.811 E6.13547
G1 X160.37 Y154.638 E6.16895
G1 X159.988 Y153.439 E6.20244
G1 X159.684 Y152.218 E6.23592
G1 X159.458 Y150.98 E6.2694
G1 X159.311 Y149.73 E6.30289
G1 X159.248 Y148.636 E6.33205
G1 X159.22 Y147.701 E6.35694
G1 X159.222 Y146.442 E6.39044
G1 X159.304 Y145.187 E6.4239
G1 X159.466 Y143.939 E6.45739
G1 X159.707 Y142.703 E6.49089
G1 X160.026 Y141.486 E6.52437
G1 X160.382 Y140.4 E6.55478
G1 X160.575 Y139.864 E6.56994
G1 X161.039 Y138.694 E6.60343
G1 X161.576 Y137.556 E6.63691
G1 X162.184 Y136.455 E6.67038
G1 X162.861 Y135.394 E6.70387
G1 X163.604 Y134.378 E6.73736
G1 X164.41 Y133.412 E6.77083
G1 X165.252 Y132.524 E6.80339
G1 X164.727 Y131.971 E6.82368
G1 X163.92 Y131.005 E6.85717
G1 X163.177 Y129.99 E6.89064
G1 X162.499 Y128.93 E6.92413
G1 X161.833 Y127.714 E6.96102
G1 X161.636 Y127.323 E6.97267
G1 X161.105 Y126.182 E7.00615
G1 X160.649 Y125.009 E7.03964
G1 X160.267 Y123.81 E7.07312
G1 X159.963 Y122.589 E7.1066
G1 X159.737 Y121.351 E7.14009
G1 X159.59 Y120.101 E7.17358
G1 X159.527 Y119.007 E7.20273
G1 X159.499 Y118.072 E7.22762
G1 X159.501 Y116.813 E7.26112
G1 X159.583 Y115.558 E7.29459
G1 X159.745 Y114.31 E7.32807
G1 X159.986 Y113.074 E7.36158
G1 X160.305 Y111.857 E7.39506
G1 X160.639 Y110.833 E7.42372
G1 X160.83 Y110.297 E7.43886
G1 X161.29 Y109.125 E7.47236
G1 X161.823 Y107.986 E7.50582
G1 X162.428 Y106.882 E7.53931
G1 X163.101 Y105.819 E7.57279
G1 X163.841 Y104.801 E7.60628
G1 X164.644 Y103.832 E7.63976
G1 X165.507 Y102.916 E7.67325
G1 X166.046 Y102.412 E7.69289
G1 X165.817 Y102.2 E7.70119
G1 X164.951 Y101.287 E7.73467
G1 X164.144 Y100.321 E7.76816
G1 X163.401 Y99.306 E7.80163
G1 X162.723 Y98.246 E7.83512
G1 X162.066 Y97.048 E7.87147
G1 X161.869 Y96.658 E7.8831
G1 X161.337 Y95.518 E7.91657
G1 X160.879 Y94.345 E7.95008
G1 X160.497 Y93.147 E7.98353
G1 X160.191 Y91.926 E8.01703
G1 X159.964 Y90.688 E8.05052
G1 X159.816 Y89.438 E8.08401
G1 X159.751 Y88.323 E8.11373
G1 X159.723 Y87.387 E8.13864
G1 X159.725 Y86.129 E8.17212
G1 X159.808 Y84.873 E8.20561
G1 X159.969 Y83.625 E8.23909
G1 X160.21 Y82.39 E8.27257
G1 X160.529 Y81.172 E8.30608
G1 X160.863 Y80.149 E8.33471
G1 X161.054 Y79.613 E8.34985
G1 X161.514 Y78.441 E8.38335
G1 X162.047 Y77.302 E8.41681
G1 X162.652 Y76.198 E8.45031
G1 X163.325 Y75.135 E8.48378
G1 X164.065 Y74.117 E8.51727
G1 X164.868 Y73.148 E8.55076
G1 X165.731 Y72.232 E8.58424
G1 X166.048 Y71.936 E8.59578
G1 X165.145 Y71.199 E8.6268
G1 X164.222 Y70.343 E8.66029
G1 X163.356 Y69.43 E8.69378
G1 X162.549 Y68.464 E8.72727
G1 X161.806 Y67.449 E8.76074
G1 X161.128 Y66.389 E8.79422
G1 X160.461 Y65.173 E8.83112
G1 X160.263 Y64.78 E8.84283
G1 X159.733 Y63.639 E8.87631
G1 X159.277 Y62.466 E8.90979
G1 X158.895 Y61.267 E8.94328
G1 X158.591 Y60.046 E8.97676
G1 X158.365 Y58.808 E9.01024
G1 X158.218 Y57.558 E9.04373
G1 X158.155 Y56.464 E9.07289
G1 X158.127 Y55.529 E9.09778
G1 X158.129 Y54.27 E9.13128
G1 X158.211 Y53.015 E9.16474
G1 X158.373 Y51.767 E9.19823
G1 X158.614 Y50.531 E9.23174
G1 X158.68 Y50.281 E9.23862
G0 F810 X158.933 Y49.314
M204 S5000
M205 X30 Y30
G0 F7200 X159.334 Y49.367
M204 S500
M205 X20 Y20
G1 F6000 E9.26522
G1 F900 X159.669 Y48.353 E9.29364
G1 X159.862 Y47.818 E9.30877
G1 X160.322 Y46.66 E9.34193
G1 X160.856 Y45.535 E9.37506
G1 X161.46 Y44.446 E9.4082
G1 X162.133 Y43.397 E9.44136
G1 X162.873 Y42.395 E9.4745
G1 X163.674 Y41.442 E9.50763
G1 X164.536 Y40.542 E9.54079
G1 X165.453 Y39.699 E9.57393
G1 X166.471 Y38.881 E9.60868
G1 X166.667 Y38.734 E9.6152
G1 X167.687 Y38.019 E9.64834
G1 X168.751 Y37.371 E9.68149
G1 X169.854 Y36.792 E9.71464
G1 X170.992 Y36.286 E9.74777
G1 X172.16 Y35.854 E9.78091
G1 X173.354 Y35.497 E9.81407
G1 X174.568 Y35.218 E9.84721
G1 X175.797 Y35.017 E9.88035
G1 X177.037 Y34.896 E9.9135
G1 X178.271 Y34.854 E9.94635
G1 X184.724 Y34.842 E10.11806
G1 X185.969 Y34.88 E10.1512
G1 X187.209 Y34.997 E10.18434
G1 X188.439 Y35.194 E10.21749
G1 X189.654 Y35.469 E10.25063
G1 X190.848 Y35.822 E10.28376
G1 X192.018 Y36.251 E10.31692
G1 X193.276 Y36.811 E10.35356
G1 X193.407 Y36.875 E10.35744
G1 X194.508 Y37.457 E10.39058
G1 X195.569 Y38.109 E10.42371
G1 X196.587 Y38.828 E10.45687
G1 X197.556 Y39.61 E10.49
G1 X198.473 Y40.454 E10.52317
G1 X199.334 Y41.354 E10.55631
G1 X200.135 Y42.307 E10.58943
G1 X200.874 Y43.31 E10.62258
G1 X201.39 Y44.101 E10.64771
G1 X201.664 Y44.544 E10.66157
G1 X202.285 Y45.624 E10.69472
G1 X202.835 Y46.741 E10.72785
G1 X203.313 Y47.892 E10.76101
G1 X203.715 Y49.071 E10.79415
G1 X204.042 Y50.273 E10.8273
G1 X204.29 Y51.494 E10.86045
G1 X204.435 Y52.504 E10.8876
G1 X204.502 Y53.079 E10.903
G1 X204.606 Y54.32 E10.93614
G1 X204.63 Y55.565 E10.96927
G1 X204.575 Y56.81 E11.00243
G1 X204.356 Y58.585 E11.05002
G1 X204.238 Y59.277 E11.0687
G1 X203.989 Y60.498 E11.10186
G1 X203.663 Y61.7 E11.135
G1 X203.26 Y62.878 E11.16812
G1 X202.782 Y64.029 E11.20129
G1 X202.231 Y65.146 E11.23443
G1 X201.61 Y66.226 E11.26757
G1 X200.921 Y67.263 E11.3007
G1 X200.297 Y68.092 E11.32831
G1 X200.025 Y68.434 E11.33994
G1 X199.219 Y69.383 E11.37307
G1 X198.354 Y70.279 E11.40621
G1 X198.029 Y70.575 E11.4179
G1 X198.133 Y70.648 E11.42128
G1 X199.104 Y71.427 E11.45441
G1 X200.024 Y72.267 E11.48755
G1 X200.888 Y73.165 E11.52071
G1 X201.692 Y74.116 E11.55385
G1 X202.434 Y75.117 E11.587
G1 X202.985 Y75.958 E11.61375
G1 X203.259 Y76.401 E11.62761
G1 X203.88 Y77.481 E11.66076
G1 X204.43 Y78.598 E11.69389
G1 X204.908 Y79.749 E11.72705
G1 X205.31 Y80.928 E11.7602
G1 X205.637 Y82.13 E11.79334
G1 X205.885 Y83.351 E11.8265
G1 X206.03 Y84.361 E11.85365
G1 X206.097 Y84.936 E11.86905
G1 X206.201 Y86.177 E11.90218
G1 X206.225 Y87.422 E11.93532
G1 X206.17 Y88.667 E11.96848
G1 X205.951 Y90.442 E12.01606
G1 X205.833 Y91.134 E12.03474
G1 X205.584 Y92.355 E12.0679
G1 X205.258 Y93.557 E12.10104
G1 X204.855 Y94.735 E12.13417
G1 X204.377 Y95.886 E12.16733
G1 X203.826 Y97.003 E12.20047
G1 X203.205 Y98.083 E12.23362
G1 X202.516 Y99.12 E12.26675
G1 X201.892 Y99.949 E12.29435
G1 X201.62 Y100.291 E12.30598
G1 X200.814 Y101.24 E12.33911
G1 X199.949 Y102.136 E12.37225
G1 X199.427 Y102.61 E12.39101
G1 X199.8 Y102.951 E12.40446
G1 X200.664 Y103.849 E12.43762
G1 X201.468 Y104.8 E12.47075
G1 X202.21 Y105.801 E12.5039
G1 X202.761 Y106.642 E12.53066
G1 X203.035 Y107.085 E12.54452
G1 X203.656 Y108.165 E12.57767
G1 X204.206 Y109.282 E12.61079
G1 X204.684 Y110.433 E12.64396
G1 X205.086 Y111.612 E12.6771
G1 X205.413 Y112.814 E12.71025
G1 X205.661 Y114.035 E12.7434
G1 X205.806 Y115.045 E12.77055
G1 X205.873 Y115.62 E12.78595
G1 X205.977 Y116.861 E12.81909
G1 X206.001 Y118.106 E12.85222
G1 X205.946 Y119.351 E12.88538
G1 X205.727 Y121.126 E12.93297
G1 X205.609 Y121.818 E12.95165
G1 X205.36 Y123.039 E12.9848
G1 X205.034 Y124.241 E13.01794
G1 X204.631 Y125.419 E13.05107
G1 X204.153 Y126.57 E13.08423
G1 X203.602 Y127.687 E13.11737
G1 X202.981 Y128.767 E13.15052
G1 X202.292 Y129.804 E13.18365
G1 X201.668 Y130.633 E13.21126
G1 X201.396 Y130.975 E13.22288
G1 X200.59 Y131.924 E13.25601
G1 X199.738 Y132.806 E13.28864
G1 X200.386 Y133.479 E13.3135
G1 X201.19 Y134.43 E13.34664
G1 X201.932 Y135.431 E13.37979
G1 X202.483 Y136.272 E13.40654
G1 X202.757 Y136.715 E13.4204
G1 X203.378 Y137.795 E13.45355
G1 X203.928 Y138.912 E13.48668
G1 X204.406 Y140.063 E13.51984
G1 X204.808 Y141.242 E13.55299
G1 X205.135 Y142.444 E13.58613
G1 X205.383 Y143.665 E13.61929
G1 X205.528 Y144.675 E13.64644
G1 X205.595 Y145.25 E13.66184
G1 X205.699 Y146.491 E13.69497
G1 X205.723 Y147.736 E13.72811
G1 X205.668 Y148.981 E13.76127
G1 X205.449 Y150.756 E13.80885
G1 X205.331 Y151.448 E13.82753
G1 X205.082 Y152.669 E13.86069
G1 X204.756 Y153.871 E13.89383
G1 X204.353 Y155.049 E13.92696
G1 X203.875 Y156.2 E13.96012
G1 X203.324 Y157.317 E13.99326
G1 X202.703 Y158.397 E14.02641
G1 X202.014 Y159.434 E14.05954
G1 X201.39 Y160.263 E14.08714
G1 X201.118 Y160.605 E14.09877
G1 X200.312 Y161.554 E14.1319
G1 X199.447 Y162.45 E14.16504
G1 X198.525 Y163.288 E14.19819
G1 X197.552 Y164.066 E14.23134
G1 X196.531 Y164.78 E14.26449
G1 X195.467 Y165.426 E14.29761
G1 X194.363 Y166.003 E14.33076
G1 X193.224 Y166.508 E14.36391
G1 X192.055 Y166.938 E14.39705
G1 X190.861 Y167.293 E14.43019
G1 X189.647 Y167.571 E14.46333
G1 X188.417 Y167.77 E14.49649
G1 X187.177 Y167.889 E14.52963
G1 X186.034 Y167.929 E14.56006
G1 X179.554 Y167.962 E14.73249
G1 X178.309 Y167.928 E14.76563
G1 X177.068 Y167.815 E14.79878
G1 X175.838 Y167.622 E14.83191
G1 X174.622 Y167.35 E14.86507
G1 X173.426 Y167.001 E14.89822
G1 X172.255 Y166.577 E14.93135
G1 X171.114 Y166.077 E14.9645
G1 X169.747 Y165.358 E15.0056
G1 X169.529 Y165.232 E15.0123
G1 X168.471 Y164.575 E15.04544
G1 X167.458 Y163.851 E15.07857
G1 X166.493 Y163.063 E15.11172
G1 X165.58 Y162.215 E15.14487
G1 X164.724 Y161.31 E15.17802
G1 X163.928 Y160.352 E15.21116
G1 X163.195 Y159.345 E15.2443
G1 X162.528 Y158.293 E15.27744
G1 X161.912 Y157.165 E15.31164
G1 X161.714 Y156.772 E15.32335
G1 X161.189 Y155.642 E15.35651
G1 X160.738 Y154.481 E15.38965
G1 X160.363 Y153.293 E15.42279
G1 X160.064 Y152.084 E15.45593
G1 X159.844 Y150.858 E15.48908
G1 X159.703 Y149.62 E15.52223
G1 X159.648 Y148.624 E15.54877
G1 X159.62 Y147.689 E15.57366
G1 X159.622 Y146.443 E15.60681
G1 X159.705 Y145.2 E15.63996
G1 X159.867 Y143.965 E15.6731
G1 X160.108 Y142.743 E15.70625
G1 X160.427 Y141.539 E15.73939
G1 X160.758 Y140.536 E15.76749
G1 X160.951 Y140 E15.78265
G1 X161.411 Y138.842 E15.8158
G1 X161.943 Y137.716 E15.84894
G1 X162.547 Y136.626 E15.8821
G1 X163.22 Y135.578 E15.91524
G1 X163.958 Y134.575 E15.94837
G1 X164.76 Y133.621 E15.98153
G1 X165.621 Y132.721 E16.01468
G1 X165.816 Y132.541 E16.02174
G1 X164.984 Y131.658 E16.05402
G1 X164.189 Y130.699 E16.08716
G1 X163.457 Y129.691 E16.12031
G1 X162.792 Y128.638 E16.15345
G1 X162.19 Y127.534 E16.18691
G1 X161.993 Y127.143 E16.19856
