;FLAVOR:Marlin
;TIME:6867
;Filament used: 5.89408m
;Layer height: 0.2
;Generated with Cura_SteamEngine 3.6.0
M140 S70
M105
M190 S70
M104 S215
M105
M109 S215
M82 ;absolute extrusion mode
G28 ; home all axes
M117 Purge extruder
G92 E0 ; reset extruder
G1 Z1.0 F3000 ; move z up little to prevent scratching of surface
G1 X0.1 Y20 Z0.3 F5000.0 ; move to start-line position G1 X0.1 Y200.0 Z0.3 F1500.0 E15 ; draw 1st line
G1 X0.4 Y200.0 Z0.3 F5000.0 ; move to side a little
G1 X0.4 Y20 Z0.3 F1500.0 E30 ; draw 2nd line
G92 E0 ; reset extruder
G1 Z1.0 F3000 ; move z up little to prevent scratching of surface
M117 All systems go!
G92 E0
G1 F6000 E-5
;LAYER_COUNT:175
;LAYER:0
M107
M205 X30 Y30
G0 F1800 X87.575 Y97.083 Z0.2
M205 X20 Y20
;TYPE:SKIRT
G1 F6000 E0
G1 F900 X88.654 Y96.174 E0.05162
G1 X89.782 Y95.328 E0.1032
G1 X90.956 Y94.547 E0.15479
G1 X92.172 Y93.834 E0.20637
G1 X93.427 Y93.191 E0.25796
G1 X94.717 Y92.621 E0.30955
G1 X96.037 Y92.124 E0.36116
G1 X97.382 Y91.703 E0.41272
G1 X98.75 Y91.359 E0.46433
G1 X100.135 Y91.093 E0.51593
G1 X101.532 Y90.906 E0.56749
G1 X102.938 Y90.799 E0.61908
G1 X104.129 Y90.77 E0.66267
G1 X105.871 Y90.77 E0.7264
G1 X107.281 Y90.81 E0.77801
G1 X108.686 Y90.93 E0.8296
G1 X110.081 Y91.129 E0.88115
G1 X111.464 Y91.407 E0.93277
G1 X112.828 Y91.763 E0.98434
G1 X114.17 Y92.196 E1.03593
G1 X115.486 Y92.705 E1.08755
G1 X116.77 Y93.287 E1.13913
G1 X116.83 Y93.319 E1.14162
G1 X117.817 Y92.634 E1.18557
G1 X119.019 Y91.897 E1.23716
G1 X120.261 Y91.229 E1.28876
G1 X121.539 Y90.633 E1.34035
G1 X122.848 Y90.11 E1.39192
G1 X124.186 Y89.663 E1.44353
G1 X125.546 Y89.292 E1.49511
G1 X126.925 Y88.998 E1.54669
G1 X128.319 Y88.783 E1.5983
G1 X129.722 Y88.648 E1.64986
G1 X131.411 Y88.591 E1.71169
G1 X136.896 Y88.592 E1.91237
G1 X138.305 Y88.632 E1.96394
G1 X139.71 Y88.752 E2.01553
G1 X141.106 Y88.952 E2.06713
G1 X142.488 Y89.23 E2.1187
G1 X143.853 Y89.587 E2.17032
G1 X145.195 Y90.02 E2.22191
G1 X146.51 Y90.528 E2.27349
G1 X147.794 Y91.111 E2.32508
G1 X149.043 Y91.765 E2.37666
G1 X150.253 Y92.489 E2.42825
G1 X151.421 Y93.28 E2.47986
G1 X152.541 Y94.136 E2.53143
G1 X153.611 Y95.055 E2.58304
G1 X154.47 Y95.873 E2.62643
G1 X154.779 Y96.182 E2.64242
G1 X155.747 Y97.207 E2.694
G1 X156.656 Y98.286 E2.74562
G1 X157.502 Y99.414 E2.79721
G1 X158.283 Y100.588 E2.8488
G1 X158.996 Y101.804 E2.90037
G1 X159.639 Y103.059 E2.95196
G1 X160.209 Y104.349 E3.00356
G1 X160.706 Y105.669 E3.05516
G1 X161.127 Y107.014 E3.10672
G1 X161.471 Y108.382 E3.15833
G1 X161.737 Y109.767 E3.20993
G1 X161.924 Y111.164 E3.2615
G1 X162.031 Y112.57 E3.31309
G1 X162.06 Y113.761 E3.35667
G1 X162.06 Y121.302 E3.63257
G1 X162.02 Y122.712 E3.68418
G1 X161.9 Y124.117 E3.73577
G1 X161.701 Y125.512 E3.78732
G1 X161.423 Y126.895 E3.83893
G1 X161.067 Y128.259 E3.89051
G1 X160.634 Y129.601 E3.9421
G1 X160.125 Y130.917 E3.99372
G1 X159.543 Y132.201 E4.0453
G1 X158.89 Y133.45 E4.09686
G1 X158.166 Y134.661 E4.14848
G1 X157.375 Y135.828 E4.20006
G1 X156.519 Y136.948 E4.25164
G1 X155.6 Y138.019 E4.30327
G1 X154.779 Y138.881 E4.34682
G1 X154.533 Y139.127 E4.35955
G1 X153.508 Y140.095 E4.41113
G1 X152.429 Y141.004 E4.46275
G1 X151.301 Y141.85 E4.51433
G1 X150.127 Y142.631 E4.56592
G1 X148.911 Y143.344 E4.6175
G1 X147.656 Y143.987 E4.66909
G1 X146.366 Y144.557 E4.72068
G1 X145.046 Y145.054 E4.77229
G1 X143.701 Y145.475 E4.82385
G1 X142.333 Y145.819 E4.87546
G1 X140.948 Y146.085 E4.92706
G1 X139.551 Y146.272 E4.97862
G1 X138.145 Y146.379 E5.03021
G1 X136.954 Y146.408 E5.0738
G1 X131.406 Y146.408 E5.27678
G1 X129.996 Y146.368 E5.32839
G1 X128.591 Y146.248 E5.37998
G1 X127.196 Y146.049 E5.43153
G1 X125.813 Y145.771 E5.48314
G1 X124.449 Y145.415 E5.53472
G1 X123.107 Y144.982 E5.58631
G1 X121.791 Y144.473 E5.63793
G1 X120.507 Y143.891 E5.68951
G1 X119.258 Y143.238 E5.74107
G1 X118.047 Y142.514 E5.79269
G1 X116.88 Y141.723 E5.84427
G1 X116.824 Y141.68 E5.84686
G1 X116.573 Y141.809 E5.85718
G1 X115.283 Y142.379 E5.90878
G1 X113.963 Y142.876 E5.96038
G1 X112.618 Y143.297 E6.01195
G1 X111.25 Y143.641 E6.06355
G1 X109.865 Y143.907 E6.11515
G1 X108.468 Y144.094 E6.16672
G1 X107.062 Y144.201 E6.21831
G1 X105.871 Y144.23 E6.26189
G1 X104.129 Y144.23 E6.32563
G1 X102.719 Y144.19 E6.37723
G1 X101.314 Y144.07 E6.42883
G1 X99.919 Y143.871 E6.48038
G1 X98.536 Y143.593 E6.53199
G1 X97.172 Y143.237 E6.58357
G1 X95.83 Y142.804 E6.63516
G1 X94.514 Y142.295 E6.68678
G1 X93.23 Y141.713 E6.73836
G1 X91.981 Y141.06 E6.78992
G1 X90.77 Y140.336 E6.84154
G1 X89.603 Y139.545 E6.89312
G1 X88.483 Y138.689 E6.9447
G1 X87.412 Y137.77 E6.99633
G1 X86.55 Y136.949 E7.03988
G1 X86.421 Y136.82 E7.04655
G1 X85.453 Y135.795 E7.09813
G1 X84.544 Y134.716 E7.14975
G1 X83.698 Y133.588 E7.20134
G1 X82.917 Y132.414 E7.25293
G1 X82.204 Y131.198 E7.3045
G1 X81.561 Y129.943 E7.35609
G1 X80.991 Y128.653 E7.40769
G1 X80.494 Y127.333 E7.45929
G1 X80.073 Y125.988 E7.51086
G1 X79.729 Y124.62 E7.56246
G1 X79.463 Y123.235 E7.61406
G1 X79.276 Y121.838 E7.66563
G1 X79.169 Y120.432 E7.71722
G1 X79.14 Y119.241 E7.7608
G1 X79.14 Y115.759 E7.8882
G1 X79.18 Y114.349 E7.9398
G1 X79.3 Y112.944 E7.99139
G1 X79.499 Y111.549 E8.04295
G1 X79.777 Y110.166 E8.09456
G1 X80.133 Y108.802 E8.14614
G1 X80.566 Y107.46 E8.19773
G1 X81.075 Y106.144 E8.24935
G1 X81.657 Y104.86 E8.30093
G1 X82.31 Y103.611 E8.35249
G1 X83.034 Y102.4 E8.40411
G1 X83.825 Y101.233 E8.45569
G1 X84.681 Y100.113 E8.50726
G1 X85.6 Y99.042 E8.5589
G1 X86.421 Y98.18 E8.60245
G1 X86.55 Y98.051 E8.60912
G1 X87.047 Y97.582 E8.63413
G0 F810 X87.575 Y97.083
M205 X30 Y30
G0 F1800 X87.878 Y97.403
M205 X20 Y20
G1 F6000 E8.66072
G1 F900 X88.947 Y96.503 E8.71185
G1 X90.066 Y95.666 E8.76297
G1 X91.231 Y94.894 E8.81411
G1 X92.438 Y94.19 E8.86523
G1 X93.684 Y93.556 E8.91638
G1 X94.964 Y92.995 E8.96751
G1 X96.274 Y92.508 E9.01864
G1 X97.609 Y92.096 E9.06976
G1 X98.966 Y91.762 E9.12088
G1 X100.34 Y91.506 E9.17202
G1 X101.727 Y91.328 E9.22318
G1 X103.121 Y91.231 E9.2743
G1 X104.129 Y91.21 E9.31119
G1 X105.871 Y91.21 E9.37492
G1 X107.268 Y91.25 E9.42606
G1 X108.66 Y91.37 E9.47717
G1 X110.044 Y91.569 E9.52833
G1 X111.413 Y91.847 E9.57944
G1 X112.765 Y92.203 E9.63059
G1 X114.094 Y92.636 E9.68173
G1 X115.396 Y93.144 E9.73286
G1 X116.666 Y93.726 E9.78397
G1 X116.872 Y93.835 E9.7925
G1 X117.1 Y93.66 E9.80301
G1 X118.255 Y92.874 E9.85413
G1 X119.454 Y92.156 E9.90526
G1 X120.692 Y91.507 E9.9564
G1 X121.965 Y90.93 E10.00753
G1 X123.269 Y90.427 E10.05867
G1 X124.599 Y89.999 E10.10978
G1 X125.952 Y89.648 E10.16092
G1 X127.323 Y89.375 E10.21207
G1 X128.707 Y89.181 E10.2632
G1 X130.099 Y89.066 E10.3143
G1 X131.41 Y89.031 E10.36228
G1 X136.895 Y89.032 E10.56296
G1 X138.292 Y89.072 E10.61409
G1 X139.685 Y89.192 E10.66524
G1 X141.068 Y89.392 E10.71637
G1 X142.438 Y89.67 E10.76751
G1 X143.789 Y90.027 E10.81864
G1 X145.118 Y90.459 E10.86976
G1 X146.42 Y90.968 E10.92091
G1 X147.69 Y91.55 E10.97202
G1 X148.926 Y92.203 E11.02316
G1 X150.122 Y92.927 E11.07431
G1 X151.274 Y93.717 E11.12542
G1 X152.379 Y94.572 E11.17654
G1 X153.434 Y95.489 E11.22768
G1 X154.159 Y96.184 E11.26442
G1 X154.468 Y96.493 E11.28041
G1 X155.427 Y97.51 E11.33155
G1 X156.327 Y98.579 E11.38268
G1 X157.164 Y99.698 E11.4338
G1 X157.936 Y100.863 E11.48493
G1 X158.64 Y102.07 E11.53606
G1 X159.274 Y103.316 E11.5872
G1 X159.835 Y104.596 E11.63833
G1 X160.322 Y105.906 E11.68947
G1 X160.734 Y107.241 E11.74058
G1 X161.068 Y108.598 E11.79171
G1 X161.324 Y109.972 E11.84285
G1 X161.502 Y111.359 E11.89401
G1 X161.599 Y112.753 E11.94513
G1 X161.62 Y113.761 E11.98202
G1 X161.62 Y121.302 E12.25791
G1 X161.58 Y122.699 E12.30905
G1 X161.46 Y124.091 E12.36016
G1 X161.261 Y125.475 E12.41132
G1 X160.983 Y126.844 E12.46243
G1 X160.627 Y128.196 E12.51358
G1 X160.194 Y129.525 E12.56472
G1 X159.686 Y130.827 E12.61585
G1 X159.104 Y132.097 E12.66696
G1 X158.451 Y133.333 E12.7181
G1 X157.728 Y134.529 E12.76924
G1 X156.937 Y135.681 E12.82036
G1 X156.083 Y136.787 E12.87148
G1 X155.166 Y137.842 E12.92263
G1 X154.468 Y138.57 E12.95952
G1 X154.222 Y138.816 E12.97225
G1 X153.205 Y139.775 E13.02339
G1 X152.136 Y140.675 E13.07452
G1 X151.017 Y141.512 E13.12565
G1 X149.852 Y142.284 E13.17678
G1 X148.645 Y142.988 E13.2279
G1 X147.399 Y143.622 E13.27905
G1 X146.119 Y144.183 E13.33018
G1 X144.809 Y144.67 E13.38131
G1 X143.474 Y145.082 E13.43243
G1 X142.117 Y145.416 E13.48356
G1 X140.743 Y145.672 E13.53469
G1 X139.356 Y145.85 E13.58585
G1 X137.962 Y145.947 E13.63698
G1 X136.954 Y145.968 E13.67386
G1 X131.406 Y145.968 E13.87684
G1 X130.009 Y145.928 E13.92798
G1 X128.617 Y145.808 E13.97909
G1 X127.233 Y145.609 E14.03025
G1 X125.864 Y145.331 E14.08136
G1 X124.512 Y144.975 E14.13251
G1 X123.183 Y144.542 E14.18365
G1 X121.881 Y144.034 E14.23478
G1 X120.611 Y143.452 E14.28589
G1 X119.375 Y142.799 E14.33703
G1 X118.179 Y142.076 E14.38816
G1 X117.027 Y141.285 E14.43929
G1 X116.869 Y141.163 E14.44659
G1 X116.316 Y141.444 E14.46929
G1 X115.036 Y142.005 E14.52042
G1 X113.726 Y142.492 E14.57155
G1 X112.391 Y142.904 E14.62267
G1 X111.034 Y143.238 E14.6738
G1 X109.66 Y143.494 E14.72493
G1 X108.273 Y143.672 E14.77609
G1 X106.879 Y143.769 E14.82722
G1 X105.871 Y143.79 E14.8641
G1 X104.129 Y143.79 E14.92784
G1 X102.732 Y143.75 E14.97897
G1 X101.34 Y143.63 E15.03008
G1 X99.956 Y143.431 E15.08124
G1 X98.587 Y143.153 E15.13235
G1 X97.235 Y142.797 E15.1835
G1 X95.906 Y142.364 E15.23464
G1 X94.604 Y141.856 E15.28577
G1 X93.334 Y141.274 E15.33688
G1 X92.098 Y140.621 E15.38803
G1 X90.902 Y139.898 E15.43916
G1 X89.75 Y139.107 E15.49028
G1 X88.644 Y138.253 E15.54141
G1 X87.589 Y137.336 E15.59255
G1 X86.861 Y136.638 E15.62945
G1 X86.732 Y136.509 E15.63612
G1 X85.773 Y135.492 E15.68726
G1 X84.873 Y134.423 E15.73839
G1 X84.036 Y133.304 E15.78951
G1 X83.264 Y132.139 E15.84065
G1 X82.56 Y130.932 E15.89177
G1 X81.926 Y129.686 E15.94292
G1 X81.365 Y128.406 E15.99405
G1 X80.878 Y127.096 E16.04518
G1 X80.466 Y125.761 E16.09629
G1 X80.132 Y124.404 E16.14742
G1 X79.876 Y123.03 E16.19856
G1 X79.698 Y121.643 E16.24972
G1 X79.601 Y120.249 E16.30084
G1 X79.58 Y119.241 E16.33773
G1 X79.58 Y115.759 E16.46512
G1 X79.62 Y114.362 E16.51626
G1 X79.74 Y112.97 E16.56737
G1 X79.939 Y111.586 E16.61853
G1 X80.217 Y110.217 E16.66964
G1 X80.573 Y108.865 E16.72079
G1 X81.006 Y107.536 E16.77193
G1 X81.514 Y106.234 E16.82306
G1 X82.096 Y104.964 E16.87417
G1 X82.749 Y103.728 E16.92531
G1 X83.472 Y102.532 E16.97644
G1 X84.263 Y101.38 E17.02757
G1 X85.117 Y100.274 E17.07869
G1 X86.034 Y99.219 E17.12983
G1 X86.732 Y98.491 E17.16673
G1 X86.861 Y98.362 E17.17341
G1 X87.349 Y97.902 E17.19794
G0 F810 X87.878 Y97.403
M205 X30 Y30
G0 F1800 X88.18 Y97.723
M205 X20 Y20
G1 F6000 E17.22454
G1 F900 X89.24 Y96.832 E17.2752
G1 X90.35 Y96.004 E17.32587
G1 X91.506 Y95.241 E17.37654
G1 X92.704 Y94.547 E17.4272
G1 X93.94 Y93.922 E17.47787
G1 X95.21 Y93.37 E17.52853
G1 X96.51 Y92.892 E17.57921
G1 X97.836 Y92.491 E17.62989
G1 X99.182 Y92.166 E17.68055
G1 X100.545 Y91.919 E17.73123
G1 X101.92 Y91.752 E17.78191
G1 X103.302 Y91.664 E17.83257
G1 X104.129 Y91.65 E17.86283
G1 X105.871 Y91.65 E17.92657
G1 X107.255 Y91.69 E17.97722
G1 X108.635 Y91.81 E18.0279
G1 X110.006 Y92.009 E18.07859
G1 X111.362 Y92.287 E18.12923
G1 X112.701 Y92.643 E18.17992
G1 X114.016 Y93.076 E18.23057
G1 X115.305 Y93.584 E18.28126
G1 X116.562 Y94.165 E18.33193
G1 X116.918 Y94.355 E18.34669
G1 X117.541 Y93.886 E18.37522
G1 X118.694 Y93.118 E18.4259
G1 X119.889 Y92.418 E18.47657
G1 X121.122 Y91.788 E18.52723
G1 X122.39 Y91.23 E18.57792
G1 X123.688 Y90.747 E18.62859
G1 X125.011 Y90.339 E18.67924
G1 X126.356 Y90.009 E18.72991
G1 X127.718 Y89.756 E18.78059
G1 X129.092 Y89.583 E18.83126
G1 X130.474 Y89.489 E18.88194
G1 X131.41 Y89.471 E18.91619
G1 X136.895 Y89.472 E19.11686
G1 X138.28 Y89.512 E19.16755
G1 X139.659 Y89.632 E19.2182
G1 X141.03 Y89.832 E19.26889
G1 X142.387 Y90.11 E19.31957
G1 X143.725 Y90.466 E19.37022
G1 X145.04 Y90.899 E19.42087
G1 X146.329 Y91.407 E19.47156
G1 X147.586 Y91.989 E19.52224
G1 X148.807 Y92.642 E19.5729
G1 X149.988 Y93.365 E19.62356
G1 X151.126 Y94.154 E19.67423
G1 X152.216 Y95.008 E19.72489
G1 X153.256 Y95.924 E19.77559
G1 X153.847 Y96.496 E19.80568
G1 X154.156 Y96.805 E19.82167
G1 X155.107 Y97.812 E19.87235
G1 X155.998 Y98.872 E19.92301
G1 X156.826 Y99.982 E19.97367
G1 X157.589 Y101.138 E20.02435
G1 X158.283 Y102.336 E20.075
G1 X158.908 Y103.572 E20.12567
G1 X159.46 Y104.842 E20.17634
G1 X159.938 Y106.142 E20.22701
G1 X160.339 Y107.468 E20.2777
G1 X160.664 Y108.814 E20.32836
G1 X160.911 Y110.177 E20.37904
G1 X161.078 Y111.552 E20.42971
G1 X161.166 Y112.934 E20.48038
G1 X161.18 Y113.761 E20.51064
G1 X161.18 Y121.302 E20.78653
G1 X161.14 Y122.686 E20.83719
G1 X161.02 Y124.066 E20.88787
G1 X160.821 Y125.437 E20.93855
G1 X160.543 Y126.793 E20.9892
G1 X160.187 Y128.132 E21.03989
G1 X159.754 Y129.447 E21.09054
G1 X159.246 Y130.736 E21.14123
G1 X158.665 Y131.993 E21.19189
G1 X158.012 Y133.214 E21.24255
G1 X157.29 Y134.396 E21.29323
G1 X156.5 Y135.534 E21.34391
G1 X155.647 Y136.624 E21.39455
G1 X154.731 Y137.663 E21.44522
G1 X154.156 Y138.258 E21.4755
G1 X153.91 Y138.504 E21.48823
G1 X152.903 Y139.455 E21.5389
G1 X151.843 Y140.346 E21.58956
G1 X150.733 Y141.174 E21.64023
G1 X149.577 Y141.937 E21.6909
G1 X148.379 Y142.631 E21.74156
G1 X147.143 Y143.256 E21.79223
G1 X145.873 Y143.808 E21.84289
G1 X144.573 Y144.286 E21.89357
G1 X143.247 Y144.687 E21.94425
G1 X141.901 Y145.012 E21.99491
G1 X140.538 Y145.259 E22.04559
G1 X139.163 Y145.426 E22.09627
G1 X137.781 Y145.514 E22.14693
G1 X136.954 Y145.528 E22.17719
G1 X131.406 Y145.528 E22.38017
G1 X130.022 Y145.488 E22.43083
G1 X128.642 Y145.368 E22.48151
G1 X127.271 Y145.169 E22.53219
G1 X125.915 Y144.891 E22.58283
G1 X124.576 Y144.535 E22.63353
G1 X123.261 Y144.102 E22.68418
G1 X121.972 Y143.594 E22.73487
G1 X120.715 Y143.013 E22.78553
G1 X119.494 Y142.36 E22.83619
G1 X118.312 Y141.638 E22.88686
G1 X117.174 Y140.848 E22.93755
G1 X116.915 Y140.646 E22.94957
G1 X116.06 Y141.078 E22.98461
G1 X114.79 Y141.63 E23.03528
G1 X113.49 Y142.108 E23.08595
G1 X112.164 Y142.509 E23.13663
G1 X110.818 Y142.834 E23.18729
G1 X109.455 Y143.081 E23.23797
G1 X108.08 Y143.248 E23.28865
G1 X106.698 Y143.336 E23.33931
G1 X105.871 Y143.35 E23.36957
G1 X104.129 Y143.35 E23.43331
G1 X102.745 Y143.31 E23.48396
G1 X101.365 Y143.19 E23.53464
G1 X99.994 Y142.991 E23.58533
G1 X98.638 Y142.713 E23.63597
G1 X97.299 Y142.357 E23.68666
G1 X95.984 Y141.924 E23.73731
G1 X94.695 Y141.416 E23.788
G1 X93.438 Y140.835 E23.83867
G1 X92.217 Y140.182 E23.88933
G1 X91.035 Y139.46 E23.94
G1 X89.897 Y138.67 E23.99068
G1 X88.807 Y137.817 E24.04132
G1 X87.768 Y136.901 E24.092
G1 X87.173 Y136.326 E24.12227
G1 X87.044 Y136.197 E24.12895
G1 X86.093 Y135.19 E24.17962
G1 X85.202 Y134.13 E24.23028
G1 X84.374 Y133.02 E24.28095
G1 X83.611 Y131.864 E24.33162
G1 X82.917 Y130.666 E24.38228
G1 X82.292 Y129.43 E24.43295
G1 X81.74 Y128.16 E24.48361
G1 X81.262 Y126.86 E24.53429
G1 X80.861 Y125.534 E24.58497
G1 X80.536 Y124.188 E24.63563
G1 X80.289 Y122.825 E24.68631
G1 X80.122 Y121.45 E24.73699
G1 X80.034 Y120.068 E24.78765
G1 X80.02 Y119.241 E24.81791
G1 X80.02 Y115.759 E24.94531
G1 X80.06 Y114.375 E24.99596
G1 X80.18 Y112.995 E25.04664
G1 X80.379 Y111.624 E25.09733
G1 X80.657 Y110.268 E25.14797
G1 X81.013 Y108.929 E25.19866
G1 X81.446 Y107.614 E25.24931
G1 X81.954 Y106.325 E25.3
G1 X82.535 Y105.068 E25.35067
G1 X83.188 Y103.847 E25.40132
G1 X83.91 Y102.665 E25.452
G1 X84.7 Y101.527 E25.50268
G1 X85.553 Y100.437 E25.55332
G1 X86.469 Y99.398 E25.604
G1 X87.044 Y98.803 E25.63427
G1 X87.173 Y98.674 E25.64095
G1 X87.652 Y98.222 E25.66504
G0 F810 X88.18 Y97.723
M205 X30 Y30
G0 F1800 X88.482 Y98.043
M205 X20 Y20
G1 F6000 E25.69164
G1 F900 X89.533 Y97.161 E25.74184
G1 X90.634 Y96.342 E25.79204
G1 X91.781 Y95.589 E25.84224
G1 X92.969 Y94.903 E25.89243
G1 X94.196 Y94.288 E25.94264
G1 X95.456 Y93.746 E25.99283
G1 X96.746 Y93.278 E26.04303
G1 X98.061 Y92.885 E26.09325
G1 X99.397 Y92.571 E26.14346
G1 X100.748 Y92.334 E26.19364
G1 X102.111 Y92.177 E26.24384
G1 X104.129 Y92.09 E26.31774
G1 X105.871 Y92.09 E26.38147
G1 X107.243 Y92.13 E26.43169
G1 X108.609 Y92.25 E26.48186
