;FLAVOR:Marlin
;TIME:5680
;Filament used: 5.81943m
;Layer height: 0.2
;Generated with Cura_SteamEngine 3.6.0
M140 S70
M105
M190 S70
M104 S210
M105
M109 S210
M82 ;absolute extrusion mode
G28 ; home all axes
M117 Purge extruder
G92 E0 ; reset extruder
G1 Z1.0 F3000 ; move z up little to prevent scratching of surface
G1 X0.1 Y20 Z0.3 F5000.0 ; move to start-line position G1 X0.1 Y200.0 Z0.3 F1500.0 E15 ; draw 1st line
G1 X0.4 Y200.0 Z0.3 F5000.0 ; move to side a little
G1 X0.4 Y20 Z0.3 F1500.0 E30 ; draw 2nd line
G92 E0 ; reset extruder
G1 Z1.0 F3000 ; move z up little to prevent scratching of surface
M117 All systems go!
G92 E0
G1 F6000 E-5
;LAYER_COUNT:92
;LAYER:0
M107
M204 S5000
M205 X30 Y30
G0 F7200 X86.812 Y81.873 Z0.2
M204 S500
M205 X20 Y20
;TYPE:SKIRT
G1 F6000 E0
G1 F900 X87.058 Y81.627 E0.01273
G1 X87.714 Y81.026 E0.04528
G1 X88.422 Y80.488 E0.07781
G1 X89.176 Y80.014 E0.1104
G1 X89.969 Y79.611 E0.14294
G1 X90.795 Y79.28 E0.1755
G1 X91.647 Y79.025 E0.20803
G1 X92.519 Y78.847 E0.24059
G1 X93.403 Y78.749 E0.27313
G1 X94.058 Y78.727 E0.29711
G1 X117.966 Y78.727 E1.17181
G1 X118.855 Y78.767 E1.20437
G1 X119.736 Y78.887 E1.2369
G1 X120.604 Y79.085 E1.26947
G1 X121.45 Y79.36 E1.30202
G1 X122.268 Y79.71 E1.33457
G1 X123.051 Y80.133 E1.36713
G1 X123.793 Y80.623 E1.39966
G1 X124.488 Y81.179 E1.43223
G1 X124.966 Y81.627 E1.4562
G1 X125.212 Y81.873 E1.46892
G1 X125.813 Y82.529 E1.50147
G1 X125.95 Y82.709 E1.50975
G1 X126.618 Y82.73 E1.5342
G1 X127.449 Y82.792 E1.56469
G1 X128.332 Y82.898 E1.59723
G1 X129.202 Y83.083 E1.62977
G1 X129.769 Y83.259 E1.65149
G1 X129.771 Y83.258 E1.65157
G1 X130.484 Y83.057 E1.67867
G1 X130.794 Y82.982 E1.69034
G1 X131.667 Y82.811 E1.72289
G1 X132.552 Y82.72 E1.75544
G1 X133.202 Y82.704 E1.77923
G1 X137.015 Y82.735 E1.91873
G1 X137.904 Y82.783 E1.95131
G1 X138.785 Y82.909 E1.98387
G1 X139.65 Y83.115 E2.0164
G1 X140.302 Y83.333 E2.04155
G1 X141.966 Y83.333 E2.10243
G1 X142.855 Y83.373 E2.13499
G1 X143.736 Y83.493 E2.16752
G1 X144.604 Y83.691 E2.20009
G1 X145.45 Y83.966 E2.23264
G1 X146.268 Y84.316 E2.26519
G1 X147.051 Y84.739 E2.29775
G1 X147.793 Y85.229 E2.33028
G1 X148.488 Y85.785 E2.36284
G1 X148.966 Y86.233 E2.38681
G1 X149.212 Y86.479 E2.39954
G1 X149.813 Y87.135 E2.43209
G1 X150.351 Y87.843 E2.46462
G1 X150.825 Y88.597 E2.49721
G1 X151.228 Y89.39 E2.52975
G1 X151.559 Y90.216 E2.56231
G1 X151.814 Y91.068 E2.59485
G1 X151.992 Y91.94 E2.62741
G1 X152.09 Y92.824 E2.65995
G1 X152.112 Y93.479 E2.68393
G1 X152.112 Y115.383 E3.48531
G1 X152.072 Y116.272 E3.51787
G1 X151.952 Y117.153 E3.5504
G1 X151.754 Y118.021 E3.58297
G1 X151.479 Y118.867 E3.61552
G1 X151.129 Y119.685 E3.64807
G1 X150.706 Y120.468 E3.68063
G1 X150.216 Y121.21 E3.71316
G1 X149.66 Y121.905 E3.74572
G1 X149.212 Y122.383 E3.76969
G1 X148.966 Y122.629 E3.78242
G1 X148.78 Y122.799 E3.79164
G1 X148.942 Y122.951 E3.79977
G1 X149.188 Y123.197 E3.81249
G1 X149.789 Y123.853 E3.84504
G1 X150.327 Y124.561 E3.87758
G1 X150.801 Y125.315 E3.91016
G1 X151.204 Y126.108 E3.94271
G1 X151.535 Y126.934 E3.97526
G1 X151.79 Y127.786 E4.0078
G1 X151.968 Y128.658 E4.04036
G1 X152.066 Y129.542 E4.0729
G1 X152.088 Y130.197 E4.09688
G1 X152.088 Y130.822 E4.11974
G1 X152.048 Y131.711 E4.1523
G1 X151.928 Y132.592 E4.18483
G1 X151.73 Y133.46 E4.2174
G1 X151.455 Y134.306 E4.24995
G1 X151.105 Y135.124 E4.2825
G1 X150.682 Y135.907 E4.31506
G1 X150.412 Y136.315 E4.33296
G1 X150.601 Y136.615 E4.34593
G1 X151.004 Y137.408 E4.37848
G1 X151.335 Y138.234 E4.41104
G1 X151.59 Y139.086 E4.44357
G1 X151.768 Y139.958 E4.47613
G1 X151.866 Y140.842 E4.50867
G1 X151.888 Y141.497 E4.53265
G1 X151.888 Y146.016 E4.69798
G1 X151.848 Y146.905 E4.73054
G1 X151.728 Y147.786 E4.76307
G1 X151.53 Y148.654 E4.79565
G1 X151.255 Y149.5 E4.82819
G1 X150.905 Y150.318 E4.86074
G1 X150.482 Y151.101 E4.8933
G1 X149.992 Y151.843 E4.92584
G1 X149.436 Y152.538 E4.9584
G1 X148.988 Y153.016 E4.98237
G1 X148.859 Y153.145 E4.98904
G1 X148.203 Y153.746 E5.02159
G1 X147.495 Y154.284 E5.05412
G1 X146.741 Y154.758 E5.08671
G1 X145.948 Y155.161 E5.11925
G1 X145.122 Y155.492 E5.15181
G1 X144.27 Y155.747 E5.18435
G1 X143.398 Y155.925 E5.21691
G1 X142.514 Y156.023 E5.24945
G1 X141.859 Y156.045 E5.27343
G1 X93.117 Y156.045 E7.05671
G1 X92.228 Y156.005 E7.08927
G1 X91.347 Y155.885 E7.1218
G1 X90.479 Y155.687 E7.15437
G1 X89.633 Y155.412 E7.18691
G1 X88.815 Y155.062 E7.21947
G1 X88.032 Y154.639 E7.25203
G1 X87.29 Y154.149 E7.28456
G1 X86.595 Y153.593 E7.31712
G1 X86.117 Y153.145 E7.34109
G1 X85.988 Y153.016 E7.34776
G1 X85.387 Y152.36 E7.38031
G1 X84.849 Y151.652 E7.41285
G1 X84.375 Y150.898 E7.44543
G1 X83.972 Y150.105 E7.47798
G1 X83.641 Y149.279 E7.51053
G1 X83.386 Y148.427 E7.54307
G1 X83.208 Y147.555 E7.57563
G1 X83.11 Y146.671 E7.60817
G1 X83.088 Y146.016 E7.63215
G1 X83.088 Y141.497 E7.79748
G1 X83.128 Y140.608 E7.83004
G1 X83.248 Y139.727 E7.86257
G1 X83.446 Y138.859 E7.89514
G1 X83.721 Y138.013 E7.92769
G1 X84.071 Y137.195 E7.96024
G1 X84.494 Y136.412 E7.9928
G1 X84.556 Y136.318 E7.99692
G1 X84.517 Y136.264 E7.99936
G1 X84.062 Y135.5 E8.03189
G1 X83.678 Y134.697 E8.06445
G1 X83.367 Y133.864 E8.09699
G1 X83.132 Y133.006 E8.12953
G1 X82.975 Y132.13 E8.16209
G1 X82.888 Y130.823 E8.21002
G1 X82.888 Y130.197 E8.23292
G1 X82.928 Y129.308 E8.26548
G1 X83.048 Y128.427 E8.29801
G1 X83.246 Y127.559 E8.33058
G1 X83.521 Y126.713 E8.36313
G1 X83.871 Y125.895 E8.39568
G1 X84.294 Y125.112 E8.42824
G1 X84.784 Y124.37 E8.46077
G1 X85.34 Y123.675 E8.49333
G1 X85.788 Y123.197 E8.5173
G1 X86.034 Y122.951 E8.53003
G1 X86.22 Y122.781 E8.53925
G1 X86.058 Y122.629 E8.54738
G1 X85.812 Y122.383 E8.5601
G1 X85.211 Y121.727 E8.59265
G1 X84.673 Y121.019 E8.62519
G1 X84.199 Y120.265 E8.65777
G1 X83.796 Y119.472 E8.69032
G1 X83.465 Y118.646 E8.72287
G1 X83.21 Y117.794 E8.75541
G1 X83.032 Y116.922 E8.78797
G1 X82.934 Y116.038 E8.82051
G1 X82.912 Y115.383 E8.84449
G1 X82.912 Y93.479 E9.64587
G1 X82.952 Y92.59 E9.67843
G1 X83.072 Y91.709 E9.71096
G1 X83.27 Y90.841 E9.74353
G1 X83.545 Y89.995 E9.77608
G1 X83.895 Y89.177 E9.80863
G1 X83.912 Y89.146 E9.80992
G1 X83.912 Y88.873 E9.81991
G1 X83.952 Y87.984 E9.85247
G1 X84.072 Y87.103 E9.885
G1 X84.27 Y86.235 E9.91757
G1 X84.545 Y85.389 E9.95012
G1 X84.895 Y84.571 E9.98267
G1 X85.318 Y83.788 E10.01523
G1 X85.808 Y83.046 E10.04776
G1 X86.32 Y82.407 E10.07772
G0 F810 X86.364 Y82.351
G0 X86.812 Y81.873
M204 S5000
M205 X30 Y30
G0 F7200 X87.123 Y82.184
M204 S500
M205 X20 Y20
G1 F6000 E10.10432
G1 F900 X87.369 Y81.938 E10.11705
G1 X88.011 Y81.352 E10.14885
G1 X88.705 Y80.827 E10.18069
G1 X89.444 Y80.368 E10.21251
G1 X90.222 Y79.98 E10.24432
G1 X91.032 Y79.664 E10.27613
G1 X91.868 Y79.424 E10.30795
G1 X92.723 Y79.262 E10.33979
G1 X93.588 Y79.179 E10.37158
G1 X94.058 Y79.167 E10.38878
G1 X117.966 Y79.167 E11.26349
G1 X118.835 Y79.207 E11.29531
G1 X119.696 Y79.327 E11.32712
G1 X120.543 Y79.525 E11.35894
G1 X121.368 Y79.8 E11.39076
G1 X122.164 Y80.15 E11.42257
G1 X122.925 Y80.571 E11.45439
G1 X123.644 Y81.061 E11.48622
G1 X124.315 Y81.614 E11.51804
G1 X124.655 Y81.938 E11.53522
G1 X124.901 Y82.184 E11.54795
G1 X125.487 Y82.826 E11.57975
G1 X125.728 Y83.145 E11.59438
G1 X125.777 Y83.144 E11.59617
G1 X126.585 Y83.169 E11.62574
G1 X127.416 Y83.231 E11.65623
G1 X128.279 Y83.336 E11.68804
G1 X129.129 Y83.519 E11.71985
G1 X129.805 Y83.732 E11.74578
G1 X130.587 Y83.484 E11.77579
G1 X130.897 Y83.409 E11.78746
G1 X131.751 Y83.244 E11.81929
G1 X132.617 Y83.158 E11.85113
G1 X133.199 Y83.144 E11.87242
G1 X137.012 Y83.175 E12.01193
G1 X137.88 Y83.222 E12.04374
G1 X138.741 Y83.349 E12.07558
G1 X139.586 Y83.554 E12.10739
G1 X140.225 Y83.773 E12.1321
G1 X141.966 Y83.773 E12.1958
G1 X142.835 Y83.813 E12.22763
G1 X143.696 Y83.933 E12.25943
G1 X144.543 Y84.131 E12.29126
G1 X145.368 Y84.406 E12.32307
G1 X146.164 Y84.756 E12.35489
G1 X146.925 Y85.177 E12.3867
G1 X147.644 Y85.667 E12.41854
G1 X148.315 Y86.22 E12.45035
G1 X148.655 Y86.544 E12.46753
G1 X148.901 Y86.79 E12.48026
G1 X149.487 Y87.432 E12.51206
G1 X150.012 Y88.126 E12.5439
G1 X150.471 Y88.865 E12.57573
G1 X150.859 Y89.643 E12.60753
G1 X151.175 Y90.453 E12.63934
G1 X151.415 Y91.289 E12.67117
G1 X151.577 Y92.144 E12.703
G1 X151.66 Y93.009 E12.7348
G1 X151.672 Y93.479 E12.752
G1 X151.672 Y115.383 E13.55338
G1 X151.632 Y116.252 E13.58521
G1 X151.512 Y117.113 E13.61701
G1 X151.314 Y117.96 E13.64884
G1 X151.039 Y118.785 E13.68065
G1 X150.689 Y119.581 E13.71247
G1 X150.268 Y120.342 E13.74428
G1 X149.778 Y121.061 E13.77612
G1 X149.225 Y121.732 E13.80793
G1 X148.901 Y122.072 E13.82511
G1 X148.655 Y122.318 E13.83784
G1 X148.125 Y122.801 E13.86408
G1 X148.291 Y122.938 E13.87195
G1 X148.631 Y123.262 E13.88913
G1 X148.877 Y123.508 E13.90186
G1 X149.463 Y124.15 E13.93366
G1 X149.988 Y124.844 E13.9655
G1 X150.447 Y125.583 E13.99733
G1 X150.835 Y126.361 E14.02914
G1 X151.151 Y127.171 E14.06095
G1 X151.391 Y128.007 E14.09277
G1 X151.553 Y128.862 E14.12461
G1 X151.636 Y129.727 E14.1564
G1 X151.648 Y130.197 E14.1736
G1 X151.648 Y130.822 E14.19647
G1 X151.608 Y131.691 E14.22829
G1 X151.488 Y132.552 E14.2601
G1 X151.29 Y133.399 E14.29192
G1 X151.015 Y134.224 E14.32374
G1 X150.665 Y135.02 E14.35555
G1 X150.244 Y135.781 E14.38737
G1 X149.887 Y136.304 E14.41054
G1 X150.247 Y136.883 E14.43548
G1 X150.635 Y137.661 E14.46729
G1 X150.951 Y138.471 E14.4991
G1 X151.191 Y139.307 E14.53092
G1 X151.353 Y140.162 E14.56276
G1 X151.436 Y141.027 E14.59455
G1 X151.448 Y141.497 E14.61175
G1 X151.448 Y146.016 E14.77708
G1 X151.408 Y146.885 E14.80891
G1 X151.288 Y147.746 E14.84072
G1 X151.09 Y148.593 E14.87254
G1 X150.815 Y149.418 E14.90436
G1 X150.465 Y150.214 E14.93617
G1 X150.044 Y150.975 E14.96799
G1 X149.554 Y151.694 E14.99982
G1 X149.001 Y152.365 E15.03163
G1 X148.677 Y152.705 E15.04882
G1 X148.548 Y152.834 E15.05549
G1 X147.906 Y153.42 E15.08729
G1 X147.212 Y153.945 E15.11913
G1 X146.473 Y154.404 E15.15096
G1 X145.695 Y154.792 E15.18277
G1 X144.885 Y155.108 E15.21458
G1 X144.049 Y155.348 E15.2464
G1 X143.194 Y155.51 E15.27824
G1 X142.329 Y155.593 E15.31003
G1 X141.859 Y155.605 E15.32723
G1 X93.117 Y155.605 E17.11051
G1 X92.248 Y155.565 E17.14234
G1 X91.387 Y155.445 E17.17414
G1 X90.54 Y155.247 E17.20597
G1 X89.715 Y154.972 E17.23778
G1 X88.919 Y154.622 E17.2696
G1 X88.158 Y154.201 E17.30142
G1 X87.439 Y153.711 E17.33325
G1 X86.768 Y153.158 E17.36506
G1 X86.428 Y152.834 E17.38224
G1 X86.299 Y152.705 E17.38892
G1 X85.713 Y152.063 E17.42072
G1 X85.188 Y151.369 E17.45256
G1 X84.729 Y150.63 E17.48439
G1 X84.341 Y149.852 E17.51619
G1 X84.025 Y149.042 E17.548
G1 X83.785 Y148.206 E17.57982
G1 X83.623 Y147.351 E17.61166
G1 X83.54 Y146.486 E17.64345
G1 X83.528 Y146.016 E17.66066
G1 X83.528 Y141.497 E17.82599
G1 X83.568 Y140.628 E17.85782
G1 X83.688 Y139.767 E17.88962
G1 X83.886 Y138.92 E17.92144
G1 X84.161 Y138.095 E17.95326
G1 X84.511 Y137.299 E17.98507
G1 X84.932 Y136.538 E18.01689
G1 X85.09 Y136.306 E18.02716
G1 X84.769 Y135.841 E18.04783
G1 X84.342 Y135.084 E18.07963
G1 X83.986 Y134.29 E18.11147
G1 X83.705 Y133.467 E18.14329
G1 X83.501 Y132.622 E18.17509
G1 X83.375 Y131.761 E18.20693
G1 X83.328 Y130.823 E18.24129
G1 X83.328 Y130.197 E18.26419
G1 X83.368 Y129.328 E18.29602
G1 X83.488 Y128.467 E18.32782
G1 X83.686 Y127.62 E18.35965
G1 X83.961 Y126.795 E18.39146
G1 X84.311 Y125.999 E18.42327
G1 X84.732 Y125.238 E18.45509
G1 X85.222 Y124.519 E18.48693
G1 X85.775 Y123.848 E18.51874
G1 X86.099 Y123.508 E18.53592
G1 X86.345 Y123.262 E18.54865
G1 X86.875 Y122.779 E18.57488
G1 X86.709 Y122.642 E18.58276
G1 X86.369 Y122.318 E18.59994
G1 X86.123 Y122.072 E18.61267
G1 X85.537 Y121.43 E18.64447
G1 X85.012 Y120.736 E18.67631
G1 X84.553 Y119.997 E18.70814
G1 X84.165 Y119.219 E18.73994
G1 X83.849 Y118.409 E18.77176
G1 X83.609 Y117.573 E18.80358
G1 X83.447 Y116.718 E18.83541
G1 X83.364 Y115.853 E18.86721
G1 X83.352 Y115.383 E18.88441
G1 X83.352 Y93.479 E19.68579
G1 X83.392 Y92.61 E19.71762
G1 X83.512 Y91.749 E19.74942
G1 X83.71 Y90.902 E19.78125
G1 X83.985 Y90.077 E19.81306
G1 X84.335 Y89.281 E19.84488
G1 X84.352 Y89.25 E19.84617
G1 X84.352 Y88.873 E19.85996
G1 X84.392 Y88.004 E19.89179
G1 X84.512 Y87.143 E19.9236
G1 X84.71 Y86.296 E19.95542
G1 X84.985 Y85.471 E19.98724
G1 X85.335 Y84.675 E20.01905
G1 X85.756 Y83.914 E20.05087
G1 X86.246 Y83.195 E20.0827
G1 X86.635 Y82.723 E20.10508
G0 F810 X86.799 Y82.524
G0 X87.123 Y82.184
M204 S5000
M205 X30 Y30
G0 F7200 X87.434 Y82.495
M204 S500
M205 X20 Y20
G1 F6000 E20.13168
G1 F900 X87.68 Y82.249 E20.1444
G1 X88.308 Y81.677 E20.17548
G1 X88.987 Y81.167 E20.20655
G1 X89.711 Y80.724 E20.23761
G1 X90.474 Y80.35 E20.26869
G1 X91.268 Y80.049 E20.29976
G1 X92.087 Y79.825 E20.33083
G1 X92.924 Y79.679 E20.36191
G1 X94.058 Y79.607 E20.40348
G1 X117.966 Y79.607 E21.27818
G1 X118.814 Y79.647 E21.30924
G1 X119.655 Y79.767 E21.34032
G1 X120.481 Y79.965 E21.3714
G1 X121.284 Y80.24 E21.40245
G1 X122.058 Y80.589 E21.43352
G1 X122.796 Y81.009 E21.46458
G1 X123.491 Y81.497 E21.49565
G1 X124.344 Y82.249 E21.53726
G1 X124.59 Y82.495 E21.54999
G1 X125.162 Y83.123 E21.58106
G1 X125.51 Y83.587 E21.60228
G1 X125.782 Y83.584 E21.61224
G1 X126.552 Y83.608 E21.64042
G1 X127.383 Y83.67 E21.67091
G1 X128.226 Y83.773 E21.70198
G1 X129.056 Y83.955 E21.73307
G1 X129.778 Y84.187 E21.76081
G1 X130.691 Y83.912 E21.7957
G1 X131.001 Y83.837 E21.80737
G1 X131.835 Y83.676 E21.83844
G1 X132.68 Y83.595 E21.8695
G1 X133.195 Y83.584 E21.88835
G1 X137.008 Y83.615 E22.02786
G1 X137.856 Y83.662 E22.05893
G1 X138.696 Y83.789 E22.09001
G1 X139.52 Y83.993 E22.12107
G1 X140.145 Y84.213 E22.14531
G1 X141.966 Y84.213 E22.21193
G1 X142.814 Y84.253 E22.24299
G1 X143.655 Y84.373 E22.27407
G1 X144.481 Y84.571 E22.30515
G1 X145.284 Y84.846 E22.3362
G1 X146.058 Y85.195 E22.36726
G1 X146.796 Y85.615 E22.39833
G1 X147.491 Y86.103 E22.4294
G1 X148.344 Y86.855 E22.47101
G1 X148.59 Y87.101 E22.48373
G1 X149.162 Y87.729 E22.51481
G1 X149.672 Y88.408 E22.54588
G1 X150.115 Y89.132 E22.57693
G1 X150.489 Y89.895 E22.60802
G1 X150.79 Y90.689 E22.63909
G1 X151.014 Y91.508 E22.67015
G1 X151.16 Y92.345 E22.70124
G1 X151.232 Y93.479 E22.74281
G1 X151.232 Y115.383 E23.54419
G1 X151.192 Y116.231 E23.57525
G1 X151.072 Y117.072 E23.60633
G1 X150.874 Y117.898 E23.63741
G1 X150.599 Y118.701 E23.66846
G1 X150.25 Y119.475 E23.69953
G1 X149.83 Y120.213 E23.73059
G1 X149.342 Y120.908 E23.76166
G1 X148.59 Y121.761 E23.80327
G1 X148.344 Y122.007 E23.816
G1 X147.716 Y122.579 E23.84707
G1 X147.429 Y122.794 E23.86019
G1 X147.467 Y122.821 E23.8619
G1 X148.32 Y123.573 E23.9035
G1 X148.566 Y123.819 E23.91623
G1 X149.138 Y124.447 E23.94731
G1 X149.648 Y125.126 E23.97838
G1 X150.091 Y125.85 E24.00943
G1 X150.465 Y126.613 E24.04052
G1 X150.766 Y127.407 E24.07159
G1 X150.99 Y128.226 E24.10265
G1 X151.136 Y129.063 E24.13374
G1 X151.208 Y130.197 E24.17531
G1 X151.208 Y130.822 E24.19818
G1 X151.168 Y131.67 E24.22924
G1 X151.048 Y132.511 E24.26032
G1 X150.85 Y133.337 E24.29139
G1 X150.575 Y134.14 E24.32245
G1 X150.226 Y134.914 E24.35351
G1 X149.806 Y135.652 E24.38458
G1 X149.352 Y136.298 E24.41346
G1 X149.448 Y136.426 E24.41932
G1 X149.891 Y137.15 E24.45037
G1 X150.265 Y137.913 E24.48146
G1 X150.566 Y138.707 E24.51253
G1 X150.79 Y139.526 E24.54359
G1 X150.936 Y140.363 E24.57468
G1 X151.008 Y141.497 E24.61625
G1 X151.008 Y146.016 E24.78158
G1 X150.968 Y146.864 E24.81264
G1 X150.848 Y147.705 E24.84372
G1 X150.65 Y148.531 E24.8748
G1 X150.375 Y149.334 E24.90585
G1 X150.026 Y150.108 E24.93691
G1 X149.606 Y150.846 E24.96798
G1 X149.118 Y151.541 E24.99905
G1 X148.366 Y152.394 E25.04065
G1 X148.237 Y152.523 E25.04733
G1 X147.609 Y153.095 E25.07841
G1 X146.93 Y153.605 E25.10948
G1 X146.206 Y154.048 E25.14053
G1 X145.443 Y154.422 E25.17162
G1 X144.649 Y154.723 E25.20268
G1 X143.83 Y154.947 E25.23375
G1 X142.993 Y155.093 E25.26483
G1 X141.859 Y155.165 E25.30641
G1 X93.117 Y155.165 E27.08969
G1 X92.269 Y155.125 E27.12075
G1 X91.428 Y155.005 E27.15183
G1 X90.602 Y154.807 E27.18291
G1 X89.799 Y154.532 E27.21396
G1 X89.025 Y154.183 E27.24502
G1 X88.287 Y153.763 E27.27609
G1 X87.592 Y153.275 E27.30716
G1 X86.739 Y152.523 E27.34876
G1 X86.61 Y152.394 E27.35544
