;FLAVOR:Marlin
;TIME:1369
;Filament used: 1.2286m
;Layer height: 0.2
;Generated with Cura_SteamEngine 3.6.0
M140 S70
M105
M190 S70
M104 S210
M105
M109 S210
M82 ;absolute extrusion mode
G28 ; home all axes
M117 Purge extruder
G92 E0 ; reset extruder
G1 Z1.0 F3000 ; move z up little to prevent scratching of surface
G1 X0.1 Y20 Z0.3 F5000.0 ; move to start-line position G1 X0.1 Y200.0 Z0.3 F1500.0 E15 ; draw 1st line
G1 X0.4 Y200.0 Z0.3 F5000.0 ; move to side a little
G1 X0.4 Y20 Z0.3 F1500.0 E30 ; draw 2nd line
G92 E0 ; reset extruder
G1 Z1.0 F3000 ; move z up little to prevent scratching of surface
M117 All systems go!
G92 E0
G1 F6000 E-5
;LAYER_COUNT:85
;LAYER:0
M107
M204 S5000
M205 X30 Y30
G0 F7200 X103.224 Y104.393 Z0.2
M204 S500
M205 X20 Y20
;TYPE:SKIRT
G1 F6000 E0
G1 F900 X104.4 Y103.217 E0.06085
G1 X105.056 Y102.616 E0.0934
G1 X105.734 Y102.099 E0.12459
G1 X107.101 Y101.145 E0.18558
G1 X107.853 Y100.669 E0.21814
G1 X108.595 Y100.285 E0.24871
G1 X110.084 Y99.593 E0.30878
G1 X110.907 Y99.255 E0.34133
G1 X111.701 Y99.006 E0.37178
G1 X113.311 Y98.576 E0.43274
G1 X114.18 Y98.386 E0.46529
G1 X115.021 Y98.277 E0.49631
G1 X116.666 Y98.136 E0.55672
G1 X117.555 Y98.1 E0.58927
G1 X118.386 Y98.139 E0.61971
G1 X120.031 Y98.285 E0.68013
G1 X120.913 Y98.403 E0.71268
G1 X121.732 Y98.587 E0.7434
G1 X123.346 Y99.022 E0.80455
G1 X124.194 Y99.292 E0.83711
G1 X124.97 Y99.616 E0.86788
G1 X126.46 Y100.314 E0.92808
G1 X127.248 Y100.727 E0.96063
G1 X127.949 Y101.177 E0.9911
G1 X129.299 Y102.125 E1.05146
G1 X130.004 Y102.669 E1.08404
G1 X130.61 Y103.227 E1.11417
G1 X131.783 Y104.4 E1.17487
G1 X132.384 Y105.056 E1.20742
G1 X132.901 Y105.734 E1.23861
G1 X133.855 Y107.101 E1.2996
G1 X134.331 Y107.853 E1.33216
G1 X134.712 Y108.588 E1.36245
G1 X135.403 Y110.072 E1.42234
G1 X135.742 Y110.895 E1.4549
G1 X135.993 Y111.697 E1.48565
G1 X136.424 Y113.311 E1.54677
G1 X136.615 Y114.18 E1.57932
G1 X136.723 Y115.02 E1.61031
G1 X136.864 Y116.666 E1.67075
G1 X136.9 Y117.555 E1.7033
G1 X136.862 Y118.383 E1.73363
G1 X136.717 Y120.023 E1.79386
G1 X136.598 Y120.905 E1.82642
G1 X136.415 Y121.724 E1.85713
G1 X135.98 Y123.34 E1.91835
G1 X135.71 Y124.188 E1.95091
G1 X135.386 Y124.965 E1.98171
G1 X134.687 Y126.458 E2.04203
G1 X134.274 Y127.246 E2.07458
G1 X133.825 Y127.946 E2.105
G1 X132.88 Y129.293 E2.1652
G1 X132.337 Y129.997 E2.19773
G1 X131.776 Y130.607 E2.22805
G1 X130.6 Y131.783 E2.2889
G1 X129.944 Y132.384 E2.32145
G1 X129.267 Y132.9 E2.35259
G1 X127.902 Y133.853 E2.4135
G1 X127.151 Y134.329 E2.44603
G1 X126.408 Y134.714 E2.47664
G1 X124.917 Y135.407 E2.5368
G1 X124.094 Y135.745 E2.56935
G1 X123.299 Y135.994 E2.59983
G1 X121.689 Y136.424 E2.6608
G1 X120.82 Y136.614 E2.69334
G1 X119.979 Y136.723 E2.72437
G1 X118.334 Y136.864 E2.78477
G1 X117.445 Y136.9 E2.81732
G1 X116.614 Y136.861 E2.84776
G1 X114.969 Y136.715 E2.90818
G1 X114.087 Y136.597 E2.94074
G1 X113.268 Y136.413 E2.97145
G1 X111.654 Y135.978 E3.03261
G1 X110.806 Y135.708 E3.06517
G1 X110.03 Y135.384 E3.09593
G1 X108.538 Y134.685 E3.15621
G1 X107.75 Y134.272 E3.18876
G1 X107.047 Y133.821 E3.21932
G1 X105.699 Y132.874 E3.27959
G1 X104.995 Y132.33 E3.31214
G1 X104.39 Y131.773 E3.34223
G1 X103.217 Y130.6 E3.40292
G1 X102.616 Y129.944 E3.43547
G1 X102.097 Y129.264 E3.46677
G1 X101.142 Y127.895 E3.52784
G1 X100.667 Y127.143 E3.56038
G1 X100.284 Y126.403 E3.59086
G1 X99.592 Y124.914 E3.65094
G1 X99.254 Y124.091 E3.68349
G1 X99.005 Y123.294 E3.71404
G1 X98.576 Y121.686 E3.77492
G1 X98.385 Y120.817 E3.80748
G1 X98.277 Y119.979 E3.83839
G1 X98.136 Y118.334 E3.89879
G1 X98.1 Y117.445 E3.93135
G1 X98.138 Y116.617 E3.96167
G1 X98.283 Y114.977 E4.02191
G1 X98.402 Y114.095 E4.05447
G1 X98.585 Y113.277 E4.08513
G1 X99.02 Y111.66 E4.1464
G1 X99.289 Y110.812 E4.17895
G1 X99.615 Y110.032 E4.20988
G1 X100.314 Y108.54 E4.27016
G1 X100.727 Y107.752 E4.30271
G1 X101.175 Y107.054 E4.33305
G1 X102.12 Y105.707 E4.39325
G1 X102.663 Y105.003 E4.42578
G1 X102.732 Y104.928 E4.42951
G0 F810 X103.224 Y104.393
M204 S5000
M205 X30 Y30
G0 F7200 X103.535 Y104.704
M204 S500
M205 X20 Y20
G1 F6000 E4.4561
G1 F900 X104.711 Y103.528 E4.51695
G1 X105.353 Y102.942 E4.54875
G1 X105.986 Y102.459 E4.57788
G1 X107.353 Y101.505 E4.63887
G1 X108.088 Y101.041 E4.67067
G1 X108.78 Y100.684 E4.69916
G1 X110.269 Y99.992 E4.75923
G1 X111.074 Y99.662 E4.79106
G1 X111.815 Y99.431 E4.81946
G1 X113.425 Y99.001 E4.88043
G1 X114.275 Y98.816 E4.91226
G1 X115.058 Y98.716 E4.94114
G1 X116.703 Y98.575 E5.00154
G1 X117.572 Y98.54 E5.03336
G1 X118.347 Y98.577 E5.06175
G1 X119.992 Y98.723 E5.12217
G1 X120.854 Y98.84 E5.15399
G1 X121.618 Y99.012 E5.18265
G1 X123.232 Y99.447 E5.2438
G1 X124.06 Y99.712 E5.27561
G1 X124.783 Y100.014 E5.30428
G1 X126.273 Y100.712 E5.36447
G1 X127.043 Y101.117 E5.39631
G1 X127.696 Y101.537 E5.42471
G1 X129.046 Y102.485 E5.48506
G1 X129.735 Y103.017 E5.51691
G1 X130.299 Y103.538 E5.545
G1 X131.472 Y104.711 E5.60569
G1 X132.058 Y105.353 E5.6375
G1 X132.541 Y105.986 E5.66663
G1 X133.495 Y107.353 E5.72762
G1 X133.959 Y108.088 E5.75942
G1 X134.313 Y108.774 E5.78766
G1 X135.004 Y110.258 E5.84755
G1 X135.334 Y111.062 E5.87935
G1 X135.568 Y111.81 E5.90802
G1 X135.999 Y113.424 E5.96914
G1 X136.184 Y114.274 E6.00097
G1 X136.284 Y115.058 E6.02988
G1 X136.425 Y116.704 E6.09032
G1 X136.46 Y117.573 E6.12214
G1 X136.423 Y118.344 E6.15038
G1 X136.278 Y119.984 E6.21062
G1 X136.162 Y120.846 E6.24244
G1 X135.99 Y121.61 E6.27109
G1 X135.555 Y123.226 E6.33232
G1 X135.29 Y124.054 E6.36413
G1 X134.988 Y124.778 E6.39283
G1 X134.289 Y126.271 E6.45314
G1 X133.884 Y127.041 E6.48497
G1 X133.465 Y127.693 E6.51333
G1 X132.52 Y129.04 E6.57353
G1 X131.989 Y129.728 E6.60532
G1 X131.465 Y130.296 E6.6336
G1 X130.289 Y131.472 E6.69444
G1 X129.647 Y132.058 E6.72624
G1 X129.015 Y132.54 E6.75532
G1 X127.65 Y133.493 E6.81623
G1 X126.915 Y133.957 E6.84803
G1 X126.222 Y134.315 E6.87657
G1 X124.731 Y135.008 E6.93672
G1 X123.927 Y135.338 E6.96852
G1 X123.185 Y135.569 E6.99695
G1 X121.575 Y135.999 E7.05792
G1 X120.725 Y136.184 E7.08975
G1 X119.942 Y136.284 E7.11863
G1 X118.297 Y136.425 E7.17903
G1 X117.428 Y136.46 E7.21085
G1 X116.653 Y136.423 E7.23924
G1 X115.008 Y136.277 E7.29966
G1 X114.146 Y136.16 E7.33148
G1 X113.382 Y135.988 E7.36014
G1 X111.768 Y135.553 E7.42129
G1 X110.94 Y135.288 E7.4531
G1 X110.217 Y134.985 E7.48178
G1 X108.725 Y134.286 E7.54206
G1 X107.955 Y133.882 E7.57387
G1 X107.3 Y133.461 E7.60236
G1 X105.952 Y132.514 E7.66263
G1 X105.264 Y131.982 E7.69445
G1 X104.701 Y131.462 E7.72249
G1 X103.528 Y130.289 E7.78318
G1 X102.942 Y129.647 E7.81499
G1 X102.458 Y129.012 E7.8442
G1 X101.503 Y127.643 E7.90527
G1 X101.039 Y126.908 E7.93707
G1 X100.683 Y126.218 E7.96547
G1 X99.991 Y124.729 E8.02555
G1 X99.661 Y123.924 E8.05738
G1 X99.43 Y123.181 E8.08584
G1 X99.001 Y121.573 E8.14673
G1 X98.815 Y120.723 E8.17857
G1 X98.716 Y119.942 E8.20737
G1 X98.575 Y118.297 E8.26777
G1 X98.54 Y117.428 E8.29959
G1 X98.577 Y116.656 E8.32787
G1 X98.722 Y115.016 E8.3881
G1 X98.838 Y114.154 E8.41993
G1 X99.01 Y113.391 E8.44854
G1 X99.445 Y111.774 E8.5098
G1 X99.709 Y110.946 E8.5416
G1 X100.014 Y110.219 E8.57044
G1 X100.713 Y108.727 E8.63072
G1 X101.117 Y107.957 E8.66254
G1 X101.535 Y107.307 E8.69081
G1 X102.48 Y105.96 E8.75101
G1 X103.011 Y105.272 E8.78281
G1 X103.042 Y105.238 E8.78449
G0 F810 X103.535 Y104.704
M204 S5000
M205 X30 Y30
G0 F7200 X103.846 Y105.015
M204 S500
M205 X20 Y20
G1 F6000 E8.81109
G1 F900 X105.022 Y103.839 E8.87194
G1 X105.65 Y103.267 E8.90301
G1 X106.238 Y102.82 E8.93004
G1 X107.605 Y101.866 E8.99103
G1 X108.323 Y101.413 E9.02209
G1 X108.966 Y101.083 E9.04853
G1 X110.455 Y100.391 E9.1086
G1 X111.241 Y100.07 E9.13966
G1 X111.929 Y99.856 E9.16602
G1 X113.539 Y99.426 E9.22699
G1 X114.368 Y99.246 E9.25803
G1 X115.096 Y99.154 E9.28488
G1 X116.741 Y99.013 E9.34528
G1 X117.589 Y98.98 E9.37633
G1 X118.308 Y99.015 E9.40267
G1 X119.953 Y99.161 E9.46309
G1 X120.795 Y99.276 E9.49418
G1 X121.503 Y99.437 E9.52074
G1 X123.117 Y99.872 E9.5819
G1 X123.926 Y100.131 E9.61298
G1 X124.596 Y100.413 E9.63957
G1 X126.086 Y101.111 E9.69977
G1 X126.838 Y101.507 E9.73087
G1 X127.444 Y101.897 E9.75723
G1 X128.794 Y102.845 E9.81758
G1 X129.465 Y103.365 E9.84864
G1 X129.988 Y103.849 E9.87471
G1 X131.161 Y105.022 E9.93541
G1 X131.733 Y105.65 E9.96648
G1 X132.18 Y106.238 E9.99351
G1 X133.134 Y107.605 E10.05449
G1 X133.587 Y108.323 E10.08556
G1 X133.914 Y108.96 E10.11175
G1 X134.605 Y110.444 E10.17164
G1 X134.927 Y111.229 E10.20269
G1 X135.143 Y111.924 E10.22931
G1 X135.574 Y113.538 E10.29043
G1 X135.754 Y114.368 E10.3215
G1 X135.846 Y115.095 E10.34831
G1 X135.987 Y116.741 E10.40876
G1 X136.02 Y117.59 E10.43984
G1 X135.985 Y118.305 E10.46603
G1 X135.84 Y119.945 E10.52627
G1 X135.725 Y120.787 E10.55736
G1 X135.565 Y121.496 E10.58395
G1 X135.13 Y123.112 E10.64518
G1 X134.871 Y123.92 E10.67622
G1 X134.589 Y124.592 E10.70288
G1 X133.89 Y126.085 E10.7632
G1 X133.494 Y126.836 E10.79426
G1 X133.105 Y127.44 E10.82054
G1 X132.16 Y128.787 E10.88074
G1 X131.64 Y129.459 E10.91183
G1 X131.154 Y129.985 E10.93803
G1 X129.978 Y131.161 E10.99888
G1 X129.35 Y131.733 E11.02996
G1 X128.764 Y132.179 E11.0569
G1 X127.399 Y133.132 E11.11781
G1 X126.68 Y133.585 E11.1489
G1 X126.037 Y133.916 E11.17536
G1 X124.546 Y134.609 E11.23551
G1 X123.76 Y134.93 E11.26657
G1 X123.071 Y135.144 E11.29297
G1 X121.461 Y135.574 E11.35394
G1 X120.632 Y135.754 E11.38497
G1 X119.904 Y135.846 E11.41182
G1 X118.259 Y135.987 E11.47223
G1 X117.411 Y136.02 E11.50327
G1 X116.692 Y135.985 E11.52961
G1 X115.047 Y135.839 E11.59003
G1 X114.205 Y135.724 E11.62112
G1 X113.497 Y135.563 E11.64769
G1 X111.883 Y135.128 E11.70884
G1 X111.074 Y134.869 E11.73992
G1 X110.403 Y134.587 E11.76655
G1 X108.911 Y133.888 E11.82683
G1 X108.16 Y133.492 E11.85789
G1 X107.553 Y133.101 E11.88431
G1 X106.205 Y132.154 E11.94458
G1 X105.534 Y131.633 E11.97566
G1 X105.012 Y131.151 E12.00166
G1 X103.839 Y129.978 E12.06235
G1 X103.267 Y129.35 E12.09343
G1 X102.819 Y128.761 E12.1205
G1 X101.864 Y127.392 E12.18157
G1 X101.412 Y126.673 E12.21264
G1 X101.082 Y126.032 E12.23902
G1 X100.39 Y124.543 E12.29909
G1 X100.069 Y123.757 E12.33015
G1 X99.855 Y123.067 E12.35659
G1 X99.426 Y121.459 E12.41747
G1 X99.246 Y120.629 E12.44855
G1 X99.154 Y119.904 E12.47528
G1 X99.013 Y118.259 E12.53569
G1 X98.98 Y117.411 E12.56674
G1 X99.015 Y116.695 E12.59296
G1 X99.16 Y115.055 E12.6532
G1 X99.275 Y114.213 E12.68429
G1 X99.435 Y113.506 E12.71081
G1 X99.87 Y111.889 E12.77207
G1 X100.129 Y111.08 E12.80315
G1 X100.412 Y110.405 E12.82993
G1 X101.111 Y108.913 E12.89021
G1 X101.507 Y108.162 E12.92127
G1 X101.895 Y107.56 E12.94748
G1 X102.84 Y106.213 E13.00768
G1 X103.354 Y105.549 E13.0384
G0 F810 X103.36 Y105.541
G0 X103.846 Y105.015
M204 S5000
M205 X30 Y30
G0 F7200 X104.157 Y105.326
M204 S500
M205 X20 Y20
G1 F6000 E13.065
G1 F900 X105.333 Y104.15 E13.12584
G1 X105.946 Y103.593 E13.15615
G1 X106.49 Y103.181 E13.18111
G1 X107.857 Y102.227 E13.2421
G1 X108.558 Y101.786 E13.2724
G1 X109.151 Y101.482 E13.29678
G1 X110.64 Y100.79 E13.35685
G1 X111.407 Y100.478 E13.38715
G1 X112.042 Y100.282 E13.41146
G1 X113.652 Y99.852 E13.47243
G1 X114.462 Y99.677 E13.50275
G1 X115.133 Y99.592 E13.52749
G1 X116.778 Y99.451 E13.5879
G1 X117.606 Y99.421 E13.61821
G1 X118.27 Y99.454 E13.64253
G1 X119.915 Y99.6 E13.70296
G1 X120.735 Y99.713 E13.73324
G1 X121.389 Y99.862 E13.75778
G1 X123.003 Y100.297 E13.81894
G1 X123.791 Y100.55 E13.84922
G1 X124.41 Y100.811 E13.87379
G1 X125.9 Y101.509 E13.93399
G1 X126.632 Y101.896 E13.96429
G1 X127.191 Y102.257 E13.98863
G1 X128.541 Y103.205 E14.04898
G1 X129.195 Y103.713 E14.07928
G1 X129.677 Y104.16 E14.10333
G1 X130.85 Y105.333 E14.16402
G1 X131.407 Y105.946 E14.19433
G1 X131.819 Y106.49 E14.21929
G1 X132.773 Y107.857 E14.28028
G1 X133.214 Y108.558 E14.31058
G1 X133.515 Y109.145 E14.33472
G1 X134.206 Y110.629 E14.39461
G1 X134.519 Y111.396 E14.42492
G1 X134.718 Y112.037 E14.44947
G1 X135.149 Y113.651 E14.51059
G1 X135.323 Y114.461 E14.5409
G1 X135.408 Y115.133 E14.56568
G1 X135.549 Y116.779 E14.62613
G1 X135.579 Y117.606 E14.6564
G1 X135.547 Y118.267 E14.68061
G1 X135.402 Y119.907 E14.74085
G1 X135.289 Y120.727 E14.77113
G1 X135.14 Y121.381 E14.79567
G1 X134.705 Y122.997 E14.8569
G1 X134.451 Y123.786 E14.88723
G1 X134.191 Y124.405 E14.91179
G1 X133.492 Y125.898 E14.9721
G1 X133.105 Y126.63 E15.0024
G1 X132.745 Y127.188 E15.02669
G1 X131.8 Y128.535 E15.08689
G1 X131.292 Y129.189 E15.11719
G1 X130.843 Y129.674 E15.14137
G1 X129.667 Y130.85 E15.20222
G1 X129.054 Y131.407 E15.23252
G1 X128.512 Y131.818 E15.25741
G1 X127.147 Y132.771 E15.31831
G1 X126.445 Y133.212 E15.34865
G1 X125.851 Y133.517 E15.37307
G1 X124.36 Y134.21 E15.43323
G1 X123.593 Y134.522 E15.46352
G1 X122.958 Y134.718 E15.48784
G1 X121.348 Y135.148 E15.54881
G1 X120.538 Y135.323 E15.57912
G1 X119.867 Y135.408 E15.60387
G1 X118.222 Y135.549 E15.66427
G1 X117.394 Y135.579 E15.69459
G1 X116.73 Y135.546 E15.71891
G1 X115.085 Y135.4 E15.77933
G1 X114.265 Y135.287 E15.80962
G1 X113.611 Y135.138 E15.83416
G1 X111.997 Y134.703 E15.89531
G1 X111.209 Y134.45 E15.92559
G1 X110.59 Y134.189 E15.95017
G1 X109.098 Y133.49 E16.01045
G1 X108.366 Y133.102 E16.04076
G1 X107.806 Y132.741 E16.06514
G1 X106.458 Y131.794 E16.12541
G1 X105.804 Y131.285 E16.15573
G1 X105.323 Y130.84 E16.1797
G1 X104.15 Y129.667 E16.2404
G1 X103.593 Y129.054 E16.2707
G1 X103.18 Y128.509 E16.29572
G1 X102.225 Y127.14 E16.35679
G1 X101.784 Y126.439 E16.38709
G1 X101.481 Y125.847 E16.41142
G1 X100.789 Y124.358 E16.47149
G1 X100.477 Y123.591 E16.50178
G1 X100.28 Y122.954 E16.52618
G1 X99.851 Y121.346 E16.58707
G1 X99.676 Y120.536 E16.61738
G1 X99.592 Y119.867 E16.64205
G1 X99.451 Y118.222 E16.70246
G1 X99.421 Y117.394 E16.73277
G1 X99.453 Y116.733 E16.75698
G1 X99.598 Y115.093 E16.81722
G1 X99.711 Y114.273 E16.8475
G1 X99.86 Y113.62 E16.87201
G1 X100.295 Y112.003 E16.93327
G1 X100.548 Y111.215 E16.96355
G1 X100.81 Y110.592 E16.98828
G1 X101.509 Y109.1 E17.04856
G1 X101.897 Y108.368 E17.07887
G1 X102.255 Y107.812 E17.10306
G1 X103.2 Y106.465 E17.16326
G1 X103.667 Y105.863 E17.19114
G0 F810 X103.708 Y105.811
G0 X104.157 Y105.326
M204 S5000
M205 X30 Y30
G0 F7200 X104.468 Y105.637
M204 S500
M205 X20 Y20
G1 F6000 E17.21773
G1 F900 X105.644 Y104.461 E17.27858
G1 X106.242 Y103.92 E17.30808
G1 X106.742 Y103.542 E17.33102
G1 X108.109 Y102.588 E17.392
G1 X108.792 Y102.159 E17.42151
G1 X109.336 Y101.881 E17.44386
G1 X110.825 Y101.189 E17.50394
G1 X111.573 Y100.886 E17.53346
G1 X112.156 Y100.707 E17.55578
G1 X113.766 Y100.277 E17.61674
G1 X114.554 Y100.107 E17.64624
G1 X115.171 Y100.031 E17.66898
G1 X116.816 Y99.89 E17.72939
G1 X117.622 Y99.861 E17.75889
G1 X118.231 Y99.892 E17.7812
G1 X119.876 Y100.038 E17.84162
G1 X120.675 Y100.149 E17.87114
G1 X121.274 Y100.286 E17.89362
G1 X122.888 Y100.721 E17.95478
G1 X123.656 Y100.97 E17.98431
G1 X124.223 Y101.21 E18.00684
G1 X125.713 Y101.908 E18.06704
G1 X126.426 Y102.286 E18.09656
G1 X126.938 Y102.617 E18.11887
G1 X128.288 Y103.565 E18.17922
G1 X128.924 Y104.061 E18.20873
G1 X129.366 Y104.471 E18.23079
G1 X130.539 Y105.644 E18.29148
G1 X131.08 Y106.242 E18.32098
G1 X131.458 Y106.742 E18.34392
G1 X132.412 Y108.109 E18.4049
G1 X132.841 Y108.792 E18.43441
G1 X133.116 Y109.331 E18.45655
G1 X133.807 Y110.815 E18.51644
G1 X134.111 Y111.562 E18.54595
G1 X134.292 Y112.151 E18.56849
G1 X134.723 Y113.765 E18.62961
G1 X134.893 Y114.554 E18.65914
G1 X134.969 Y115.17 E18.68185
G1 X135.11 Y116.816 E18.74229
G1 X135.139 Y117.622 E18.7718
G1 X135.108 Y118.228 E18.794
G1 X134.963 Y119.868 E18.85423
G1 X134.853 Y120.667 E18.88374
G1 X134.715 Y121.267 E18.90626
G1 X134.28 Y122.883 E18.96749
G1 X134.032 Y123.65 E18.99698
G1 X133.792 Y124.218 E19.01954
G1 X133.093 Y125.711 E19.07986
G1 X132.715 Y126.424 E19.10938
G1 X132.385 Y126.935 E19.13164
G1 X131.44 Y128.282 E19.19184
G1 X130.944 Y128.919 E19.22138
G1 X130.532 Y129.363 E19.24354
G1 X129.356 Y130.539 E19.30438
G1 X128.758 Y131.08 E19.33389
G1 X128.26 Y131.457 E19.35674
G1 X126.895 Y132.41 E19.41764
G1 X126.211 Y132.839 E19.44718
G1 X125.666 Y133.118 E19.46959
G1 X124.175 Y133.811 E19.52974
