;FLAVOR:Marlin
;TIME:20627
;Filament used: 20.2492m
;Layer height: 0.2
;Generated with Cura_SteamEngine 3.6.0
M140 S70
M105
M190 S70
M104 S215
M105
M109 S215
M82 ;absolute extrusion mode
G28 ; home all axes
M117 Purge extruder
G92 E0 ; reset extruder
G1 Z1.0 F3000 ; move z up little to prevent scratching of surface
G1 X0.1 Y20 Z0.3 F5000.0 ; move to start-line position G1 X0.1 Y200.0 Z0.3 F1500.0 E15 ; draw 1st line
G1 X0.4 Y200.0 Z0.3 F5000.0 ; move to side a little
G1 X0.4 Y20 Z0.3 F1500.0 E30 ; draw 2nd line
G92 E0 ; reset extruder
G1 Z1.0 F3000 ; move z up little to prevent scratching of surface
M117 All systems go!
G92 E0
G1 F6000 E-5
;LAYER_COUNT:221
;LAYER:0
M107
M205 X30 Y30
G0 F1800 X75.654 Y95.956 Z0.2
M205 X20 Y20
;TYPE:SKIRT
G1 F6000 E0
G1 F900 X76.782 Y95.11 E0.05159
G1 X77.956 Y94.329 E0.10317
G1 X79.172 Y93.616 E0.15475
G1 X80.427 Y92.973 E0.20634
G1 X81.717 Y92.403 E0.25794
G1 X83.037 Y91.906 E0.30954
G1 X84.382 Y91.485 E0.3611
G1 X85.75 Y91.141 E0.41271
G1 X87.135 Y90.875 E0.46431
G1 X88.532 Y90.688 E0.51588
G1 X89.938 Y90.581 E0.56746
G1 X91.129 Y90.552 E0.61105
G1 X136.871 Y90.552 E2.28457
G1 X138.281 Y90.592 E2.33618
G1 X139.686 Y90.712 E2.38777
G1 X141.081 Y90.911 E2.43933
G1 X142.464 Y91.189 E2.49094
G1 X143.828 Y91.545 E2.54251
G1 X145.17 Y91.978 E2.5941
G1 X146.486 Y92.487 E2.64573
G1 X147.77 Y93.069 E2.6973
G1 X149.019 Y93.722 E2.74887
G1 X150.23 Y94.446 E2.80049
G1 X151.397 Y95.237 E2.85207
G1 X152.517 Y96.093 E2.90364
G1 X153.588 Y97.012 E2.95527
G1 X154.45 Y97.833 E2.99883
G1 X154.579 Y97.962 E3.0055
G1 X155.547 Y98.987 E3.05708
G1 X156.456 Y100.066 E3.1087
G1 X157.302 Y101.194 E3.16029
G1 X158.083 Y102.368 E3.21188
G1 X158.796 Y103.584 E3.26345
G1 X159.439 Y104.839 E3.31504
G1 X160.009 Y106.129 E3.36664
G1 X160.506 Y107.449 E3.41824
G1 X160.927 Y108.794 E3.4698
G1 X161.271 Y110.162 E3.52141
G1 X161.537 Y111.547 E3.57301
G1 X161.724 Y112.944 E3.62458
G1 X161.831 Y114.35 E3.67616
G1 X161.86 Y115.541 E3.71975
G1 X161.86 Y119.459 E3.8631
G1 X161.82 Y120.869 E3.9147
G1 X161.7 Y122.274 E3.96629
G1 X161.501 Y123.669 E4.01785
G1 X161.223 Y125.052 E4.06946
G1 X160.867 Y126.416 E4.12103
G1 X160.434 Y127.758 E4.17263
G1 X159.925 Y129.074 E4.22425
G1 X159.343 Y130.358 E4.27583
G1 X158.69 Y131.607 E4.32739
G1 X157.966 Y132.818 E4.37901
G1 X157.175 Y133.985 E4.43059
G1 X156.319 Y135.105 E4.48216
G1 X155.4 Y136.176 E4.5338
G1 X154.579 Y137.038 E4.57735
G1 X154.45 Y137.167 E4.58402
G1 X153.425 Y138.135 E4.6356
G1 X152.346 Y139.044 E4.68722
G1 X151.218 Y139.89 E4.73881
G1 X150.044 Y140.671 E4.7904
G1 X148.828 Y141.384 E4.84197
G1 X147.573 Y142.027 E4.89356
G1 X146.283 Y142.597 E4.94516
G1 X144.963 Y143.094 E4.99676
G1 X143.618 Y143.515 E5.04832
G1 X142.25 Y143.859 E5.09993
G1 X140.865 Y144.125 E5.15153
G1 X139.468 Y144.312 E5.2031
G1 X138.062 Y144.419 E5.25469
G1 X136.871 Y144.448 E5.29827
G1 X91.129 Y144.448 E6.9718
G1 X89.719 Y144.408 E7.0234
G1 X88.314 Y144.288 E7.07499
G1 X86.919 Y144.089 E7.12655
G1 X85.536 Y143.811 E7.17816
G1 X84.172 Y143.455 E7.22973
G1 X82.83 Y143.022 E7.28133
G1 X81.514 Y142.513 E7.33295
G1 X80.23 Y141.931 E7.38453
G1 X78.981 Y141.278 E7.43609
G1 X77.77 Y140.554 E7.48771
G1 X76.603 Y139.763 E7.53929
G1 X75.483 Y138.907 E7.59086
G1 X74.412 Y137.988 E7.6425
G1 X73.55 Y137.167 E7.68605
G1 X73.421 Y137.038 E7.69272
G1 X72.453 Y136.013 E7.7443
G1 X71.544 Y134.934 E7.79592
G1 X70.698 Y133.806 E7.84751
G1 X69.917 Y132.632 E7.8991
G1 X69.204 Y131.416 E7.95067
G1 X68.561 Y130.161 E8.00226
G1 X67.991 Y128.871 E8.05386
G1 X67.494 Y127.551 E8.10546
G1 X67.073 Y126.206 E8.15703
G1 X66.729 Y124.838 E8.20863
G1 X66.463 Y123.453 E8.26023
G1 X66.276 Y122.056 E8.3118
G1 X66.169 Y120.65 E8.36339
G1 X66.14 Y119.459 E8.40697
G1 X66.14 Y115.541 E8.55032
G1 X66.18 Y114.131 E8.60193
G1 X66.3 Y112.726 E8.65352
G1 X66.499 Y111.331 E8.70507
G1 X66.777 Y109.948 E8.75668
G1 X67.133 Y108.584 E8.80826
G1 X67.566 Y107.242 E8.85985
G1 X68.075 Y105.926 E8.91147
G1 X68.657 Y104.642 E8.96305
G1 X69.31 Y103.393 E9.01461
G1 X70.034 Y102.182 E9.06623
G1 X70.825 Y101.015 E9.11781
G1 X71.681 Y99.895 E9.16939
G1 X72.6 Y98.824 E9.22102
G1 X73.421 Y97.962 E9.26457
G1 X73.55 Y97.833 E9.27125
G1 X74.575 Y96.865 E9.32283
G1 X75.098 Y96.424 E9.34785
G0 F810 X75.654 Y95.956
M205 X30 Y30
G0 F1800 X75.947 Y96.285
M205 X20 Y20
G1 F6000 E9.37445
G1 F900 X77.066 Y95.448 E9.42558
G1 X78.231 Y94.676 E9.47671
G1 X79.438 Y93.972 E9.52783
G1 X80.684 Y93.338 E9.57898
G1 X81.964 Y92.777 E9.63011
G1 X83.274 Y92.29 E9.68124
G1 X84.609 Y91.878 E9.73236
G1 X85.966 Y91.544 E9.78349
G1 X87.34 Y91.288 E9.83462
G1 X88.727 Y91.11 E9.88578
G1 X90.121 Y91.013 E9.93691
G1 X91.129 Y90.992 E9.9738
G1 X136.871 Y90.992 E11.64732
G1 X138.268 Y91.032 E11.69845
G1 X139.66 Y91.152 E11.74957
G1 X141.044 Y91.351 E11.80072
G1 X142.413 Y91.629 E11.85183
G1 X143.765 Y91.985 E11.90298
G1 X145.094 Y92.418 E11.95412
G1 X146.396 Y92.926 E12.00525
G1 X147.666 Y93.508 E12.05637
G1 X148.902 Y94.161 E12.10751
G1 X150.098 Y94.884 E12.15864
G1 X151.25 Y95.675 E12.20977
G1 X152.356 Y96.529 E12.26089
G1 X153.411 Y97.446 E12.31203
G1 X154.139 Y98.144 E12.34893
G1 X154.268 Y98.273 E12.3556
G1 X155.227 Y99.29 E12.40675
G1 X156.127 Y100.359 E12.45787
G1 X156.964 Y101.478 E12.509
G1 X157.736 Y102.643 E12.56013
G1 X158.44 Y103.85 E12.61125
G1 X159.074 Y105.096 E12.6624
G1 X159.635 Y106.376 E12.71353
G1 X160.122 Y107.686 E12.76466
G1 X160.534 Y109.021 E12.81578
G1 X160.868 Y110.378 E12.86691
G1 X161.124 Y111.752 E12.91804
G1 X161.302 Y113.139 E12.9692
G1 X161.399 Y114.533 E13.02033
G1 X161.42 Y115.541 E13.05721
G1 X161.42 Y119.459 E13.20056
G1 X161.38 Y120.856 E13.25169
G1 X161.26 Y122.248 E13.30281
G1 X161.061 Y123.632 E13.35396
G1 X160.783 Y125.001 E13.40507
G1 X160.427 Y126.353 E13.45622
G1 X159.994 Y127.682 E13.50736
G1 X159.486 Y128.984 E13.55849
G1 X158.904 Y130.254 E13.6096
G1 X158.251 Y131.49 E13.66075
G1 X157.528 Y132.686 E13.71188
G1 X156.737 Y133.838 E13.76301
G1 X155.883 Y134.944 E13.81413
G1 X154.966 Y135.999 E13.86527
G1 X154.268 Y136.727 E13.90217
G1 X154.139 Y136.856 E13.90884
G1 X153.122 Y137.815 E13.95998
G1 X152.053 Y138.715 E14.01111
G1 X150.934 Y139.552 E14.06224
G1 X149.769 Y140.324 E14.11337
G1 X148.562 Y141.028 E14.16449
G1 X147.316 Y141.662 E14.21564
G1 X146.036 Y142.223 E14.26677
G1 X144.726 Y142.71 E14.3179
G1 X143.391 Y143.122 E14.36902
G1 X142.034 Y143.456 E14.42015
G1 X140.66 Y143.712 E14.47128
G1 X139.273 Y143.89 E14.52244
G1 X137.879 Y143.987 E14.57357
G1 X136.871 Y144.008 E14.61045
G1 X91.129 Y144.008 E16.28398
G1 X89.732 Y143.968 E16.33511
G1 X88.34 Y143.848 E16.38623
G1 X86.956 Y143.649 E16.43738
G1 X85.587 Y143.371 E16.48849
G1 X84.235 Y143.015 E16.53964
G1 X82.906 Y142.582 E16.59078
G1 X81.604 Y142.074 E16.64191
G1 X80.334 Y141.492 E16.69302
G1 X79.098 Y140.839 E16.74417
G1 X77.902 Y140.116 E16.7953
G1 X76.75 Y139.325 E16.84642
G1 X75.644 Y138.471 E16.89755
G1 X74.589 Y137.554 E16.94869
G1 X73.861 Y136.856 E16.98559
G1 X73.732 Y136.727 E16.99226
G1 X72.773 Y135.71 E17.0434
G1 X71.873 Y134.641 E17.09453
G1 X71.036 Y133.522 E17.14565
G1 X70.264 Y132.357 E17.19679
G1 X69.56 Y131.15 E17.24791
G1 X68.926 Y129.904 E17.29906
G1 X68.365 Y128.624 E17.35019
G1 X67.878 Y127.314 E17.40132
G1 X67.466 Y125.979 E17.45244
G1 X67.132 Y124.622 E17.50357
G1 X66.876 Y123.248 E17.5547
G1 X66.698 Y121.861 E17.60586
G1 X66.601 Y120.467 E17.65699
G1 X66.58 Y119.459 E17.69387
G1 X66.58 Y115.541 E17.83722
G1 X66.62 Y114.144 E17.88835
G1 X66.74 Y112.752 E17.93947
G1 X66.939 Y111.368 E17.99062
G1 X67.217 Y109.999 E18.04173
G1 X67.573 Y108.647 E18.09288
G1 X68.006 Y107.318 E18.14402
G1 X68.514 Y106.016 E18.19515
G1 X69.096 Y104.746 E18.24626
G1 X69.749 Y103.51 E18.29741
G1 X70.472 Y102.314 E18.34854
G1 X71.263 Y101.162 E18.39966
G1 X72.117 Y100.056 E18.45079
G1 X73.034 Y99.001 E18.50193
G1 X73.732 Y98.273 E18.53883
G1 X73.861 Y98.144 E18.5455
G1 X74.878 Y97.185 E18.59664
G1 X75.391 Y96.753 E18.62118
G0 F810 X75.947 Y96.285
M205 X30 Y30
G0 F1800 X76.24 Y96.614
M205 X20 Y20
G1 F6000 E18.64778
G1 F900 X77.35 Y95.786 E18.69844
G1 X78.506 Y95.023 E18.74912
G1 X79.704 Y94.329 E18.79977
G1 X80.94 Y93.704 E18.85045
G1 X82.21 Y93.152 E18.90111
G1 X83.51 Y92.674 E18.95178
G1 X84.836 Y92.273 E19.00247
G1 X86.182 Y91.948 E19.05313
G1 X87.545 Y91.701 E19.10381
G1 X88.92 Y91.534 E19.15448
G1 X90.302 Y91.446 E19.20515
G1 X91.129 Y91.432 E19.23541
G1 X136.871 Y91.432 E20.90893
G1 X138.255 Y91.472 E20.95959
G1 X139.635 Y91.592 E21.01027
G1 X141.006 Y91.791 E21.06095
G1 X142.362 Y92.069 E21.11159
G1 X143.701 Y92.425 E21.16229
G1 X145.016 Y92.858 E21.21294
G1 X146.305 Y93.366 E21.26363
G1 X147.562 Y93.947 E21.31429
G1 X148.783 Y94.6 E21.36495
G1 X149.965 Y95.322 E21.41562
G1 X151.103 Y96.112 E21.46631
G1 X152.193 Y96.965 E21.51695
G1 X153.232 Y97.881 E21.56762
G1 X153.827 Y98.456 E21.5979
G1 X153.956 Y98.585 E21.60457
G1 X154.907 Y99.592 E21.65524
G1 X155.798 Y100.652 E21.70591
G1 X156.626 Y101.762 E21.75657
G1 X157.389 Y102.918 E21.80725
G1 X158.083 Y104.116 E21.8579
G1 X158.708 Y105.352 E21.90857
G1 X159.26 Y106.622 E21.95924
G1 X159.738 Y107.922 E22.00991
G1 X160.139 Y109.248 E22.0606
G1 X160.464 Y110.594 E22.11126
G1 X160.711 Y111.957 E22.16193
G1 X160.878 Y113.332 E22.21261
G1 X160.966 Y114.714 E22.26327
G1 X160.98 Y115.541 E22.29354
G1 X160.98 Y119.459 E22.43688
G1 X160.94 Y120.843 E22.48754
G1 X160.82 Y122.223 E22.53822
G1 X160.621 Y123.594 E22.5889
G1 X160.343 Y124.95 E22.63954
G1 X159.987 Y126.289 E22.69023
G1 X159.554 Y127.604 E22.74089
G1 X159.046 Y128.893 E22.79158
G1 X158.465 Y130.15 E22.84224
G1 X157.812 Y131.371 E22.8929
G1 X157.09 Y132.553 E22.94357
G1 X156.3 Y133.691 E22.99426
G1 X155.447 Y134.781 E23.0449
G1 X154.531 Y135.82 E23.09557
G1 X153.956 Y136.415 E23.12585
G1 X153.827 Y136.544 E23.13252
G1 X152.82 Y137.495 E23.18319
G1 X151.76 Y138.386 E23.23386
G1 X150.65 Y139.214 E23.28452
G1 X149.494 Y139.977 E23.3352
G1 X148.296 Y140.671 E23.38585
G1 X147.06 Y141.296 E23.43652
G1 X145.79 Y141.848 E23.48719
G1 X144.49 Y142.326 E23.53786
G1 X143.164 Y142.727 E23.58855
G1 X141.818 Y143.052 E23.63921
G1 X140.455 Y143.299 E23.68988
G1 X139.08 Y143.466 E23.74056
G1 X137.698 Y143.554 E23.79122
G1 X136.871 Y143.568 E23.82149
G1 X91.129 Y143.568 E25.49501
G1 X89.745 Y143.528 E25.54567
G1 X88.365 Y143.408 E25.59634
G1 X86.994 Y143.209 E25.64703
G1 X85.638 Y142.931 E25.69767
G1 X84.299 Y142.575 E25.74836
G1 X82.984 Y142.142 E25.79902
G1 X81.695 Y141.634 E25.84971
G1 X80.438 Y141.053 E25.90037
G1 X79.217 Y140.4 E25.95103
G1 X78.035 Y139.678 E26.0017
G1 X76.897 Y138.888 E26.05239
G1 X75.807 Y138.035 E26.10302
G1 X74.768 Y137.119 E26.1537
G1 X74.173 Y136.544 E26.18397
G1 X74.044 Y136.415 E26.19065
G1 X73.093 Y135.408 E26.24132
G1 X72.202 Y134.348 E26.29199
G1 X71.374 Y133.238 E26.34265
G1 X70.611 Y132.082 E26.39333
G1 X69.917 Y130.884 E26.44398
G1 X69.292 Y129.648 E26.49465
G1 X68.74 Y128.378 E26.54532
G1 X68.262 Y127.078 E26.59599
G1 X67.861 Y125.752 E26.64667
G1 X67.536 Y124.406 E26.69733
G1 X67.289 Y123.043 E26.74801
G1 X67.122 Y121.668 E26.79869
G1 X67.034 Y120.286 E26.84935
G1 X67.02 Y119.459 E26.87961
G1 X67.02 Y115.541 E27.02296
G1 X67.06 Y114.157 E27.07362
G1 X67.18 Y112.777 E27.12429
G1 X67.379 Y111.406 E27.17498
G1 X67.657 Y110.05 E27.22562
G1 X68.013 Y108.711 E27.27631
G1 X68.446 Y107.396 E27.32697
G1 X68.954 Y106.107 E27.37765
G1 X69.535 Y104.85 E27.42832
G1 X70.188 Y103.629 E27.47898
G1 X70.91 Y102.447 E27.52965
G1 X71.7 Y101.309 E27.58034
G1 X72.553 Y100.219 E27.63097
G1 X73.469 Y99.18 E27.68165
G1 X74.044 Y98.585 E27.71192
G1 X74.173 Y98.456 E27.7186
G1 X75.18 Y97.505 E27.76927
G1 X75.684 Y97.082 E27.79335
G0 F810 X76.24 Y96.614
M205 X30 Y30
G0 F1800 X76.533 Y96.943
M205 X20 Y20
G1 F6000 E27.81994
G1 F900 X77.634 Y96.124 E27.87015
G1 X78.781 Y95.371 E27.92035
G1 X79.969 Y94.685 E27.97054
G1 X81.196 Y94.07 E28.02075
G1 X82.456 Y93.528 E28.07093
G1 X83.746 Y93.06 E28.12114
G1 X85.061 Y92.667 E28.17135
G1 X86.397 Y92.353 E28.22156
G1 X87.748 Y92.116 E28.27175
G1 X89.111 Y91.959 E28.32194
G1 X91.129 Y91.872 E28.39584
G1 X136.871 Y91.872 E30.06937
G1 X138.243 Y91.912 E30.11958
G1 X139.609 Y92.032 E30.16975
G1 X140.967 Y92.231 E30.21997
G1 X142.311 Y92.509 E30.27018
G1 X143.636 Y92.865 E30.32038
G1 X144.938 Y93.297 E30.37057
G1 X146.213 Y93.805 E30.42078
G1 X147.456 Y94.386 E30.47098
G1 X148.663 Y95.039 E30.52119
G1 X149.83 Y95.76 E30.57137
G1 X150.953 Y96.549 E30.62159
G1 X152.028 Y97.401 E30.67177
G1 X153.516 Y98.767 E30.74567
G1 X153.645 Y98.896 E30.75235
G1 X154.587 Y99.894 E30.80256
G1 X155.469 Y100.945 E30.85276
G1 X156.288 Y102.046 E30.90296
G1 X157.041 Y103.193 E30.95316
G1 X157.727 Y104.381 E31.00335
G1 X158.342 Y105.608 E31.05356
G1 X158.884 Y106.868 E31.10375
G1 X159.352 Y108.158 E31.15395
G1 X159.745 Y109.473 E31.20417
G1 X160.059 Y110.809 E31.25438
G1 X160.296 Y112.16 E31.30456
G1 X160.453 Y113.523 E31.35476
G1 X160.54 Y115.541 E31.42865
G1 X160.54 Y119.459 E31.572
G1 X160.5 Y120.831 E31.62222
G1 X160.38 Y122.197 E31.67239
G1 X160.181 Y123.555 E31.7226
G1 X159.903 Y124.899 E31.77281
G1 X159.547 Y126.224 E31.82301
G1 X159.115 Y127.526 E31.8732
G1 X158.607 Y128.801 E31.92341
G1 X158.026 Y130.044 E31.97361
G1 X157.373 Y131.251 E32.02382
G1 X156.652 Y132.418 E32.07401
G1 X155.863 Y133.541 E32.12422
G1 X155.011 Y134.616 E32.1744
G1 X153.645 Y136.104 E32.24831
G1 X153.516 Y136.233 E32.25498
G1 X152.518 Y137.175 E32.30519
G1 X151.467 Y138.057 E32.35539
G1 X150.366 Y138.876 E32.40559
G1 X149.219 Y139.629 E32.45579
G1 X148.031 Y140.315 E32.50598
G1 X146.804 Y140.93 E32.5562
G1 X145.544 Y141.472 E32.60638
G1 X144.254 Y141.94 E32.65658
G1 X142.939 Y142.333 E32.7068
G1 X141.603 Y142.647 E32.75701
G1 X140.252 Y142.884 E32.80719
G1 X138.889 Y143.041 E32.85739
G1 X136.871 Y143.128 E32.93129
G1 X91.129 Y143.128 E34.60481
G1 X89.757 Y143.088 E34.65503
G1 X88.391 Y142.968 E34.7052
G1 X87.033 Y142.769 E34.75541
G1 X85.689 Y142.491 E34.80562
G1 X84.364 Y142.135 E34.85582
G1 X83.062 Y141.703 E34.90601
G1 X81.787 Y141.195 E34.95622
G1 X80.544 Y140.614 E35.00642
G1 X79.337 Y139.961 E35.05663
G1 X78.17 Y139.24 E35.10682
G1 X77.047 Y138.451 E35.15703
G1 X75.972 Y137.599 E35.20722
G1 X74.484 Y136.233 E35.28112
G1 X74.355 Y136.104 E35.28779
G1 X73.413 Y135.106 E35.338
G1 X72.531 Y134.055 E35.3882
G1 X71.712 Y132.954 E35.4384
G1 X70.959 Y131.807 E35.4886
G1 X70.273 Y130.619 E35.53879
G1 X69.658 Y129.392 E35.58901
G1 X69.116 Y128.132 E35.63919
G1 X68.648 Y126.842 E35.6894
G1 X68.255 Y125.527 E35.73961
G1 X67.941 Y124.191 E35.78982
G1 X67.704 Y122.84 E35.84
G1 X67.547 Y121.477 E35.8902
G1 X67.46 Y119.459 E35.9641
G1 X67.46 Y115.541 E36.10744
G1 X67.5 Y114.169 E36.15766
G1 X67.62 Y112.803 E36.20783
G1 X67.819 Y111.445 E36.25804
G1 X68.097 Y110.101 E36.30826
G1 X68.453 Y108.776 E36.35845
G1 X68.885 Y107.474 E36.40864
G1 X69.393 Y106.199 E36.45885
G1 X69.974 Y104.956 E36.50905
G1 X70.627 Y103.749 E36.55926
G1 X71.348 Y102.582 E36.60945
G1 X72.137 Y101.459 E36.65966
G1 X72.989 Y100.384 E36.70985
G1 X74.355 Y98.896 E36.78375
G1 X74.484 Y98.767 E36.79042
G1 X75.482 Y97.825 E36.84063
G1 X75.977 Y97.41 E36.86427
G0 F810 X76.533 Y96.943
M205 X30 Y30
G0 F1800 X76.826 Y97.273
M205 X20 Y20
G1 F6000 E36.89086
G1 F900 X77.918 Y96.463 E36.94061
G1 X79.055 Y95.719 E36.99032
G1 X80.234 Y95.043 E37.04004
G1 X81.451 Y94.437 E37.08978
G1 X82.702 Y93.904 E37.13953
G1 X83.981 Y93.446 E37.18924
G1 X85.286 Y93.063 E37.23899
G1 X86.61 Y92.758 E37.2887
G1 X87.95 Y92.532 E37.33842
G1 X89.302 Y92.384 E37.38818
G1 X91.129 Y92.312 E37.45508
G1 X136.871 Y92.312 E39.1286
G1 X138.23 Y92.352 E39.17834
G1 X139.584 Y92.472 E39.22807
G1 X140.928 Y92.671 E39.27778
G1 X142.259 Y92.949 E39.32753
G1 X143.571 Y93.305 E39.37726
G1 X144.859 Y93.737 E39.42697
G1 X146.12 Y94.245 E39.47671
G1 X147.349 Y94.825 E39.52643
G1 X148.542 Y95.477 E39.57617
G1 X149.694 Y96.198 E39.62589
G1 X150.802 Y96.986 E39.67563
G1 X151.862 Y97.837 E39.72536
G1 X153.205 Y99.078 E39.79227
G1 X153.334 Y99.207 E39.79894
G1 X154.267 Y100.196 E39.84868
G1 X155.139 Y101.238 E39.89839
G1 X155.949 Y102.33 E39.94814
G1 X156.693 Y103.467 E39.99785
