;FLAVOR:Marlin
;TIME:11249
;Filament used: 18.8185m
;Layer height: 0.25
;Generated with Cura_SteamEngine 3.6.0
M140 S70
M105
M190 S70
M104 S215
M105
M109 S215
M82 ;absolute extrusion mode
; Ender 3 Custom Start G-code
G28 ; Home all axes
G92 E0 ; Reset Extruder
G1 Z2.0 F3000 ; Move Z Axis up little to prevent scratching of Heat Bed
G1 X0.1 Y20 Z0.3 F5000.0 ; Move to start position
G1 X0.1 Y200.0 Z0.3 F1500.0 E15 ; Draw the first line
G1 X0.4 Y200.0 Z0.3 F5000.0 ; Move to side a little
G1 X0.4 Y20 Z0.3 F1500.0 E30 ; Draw the second line
G92 E0 ; Reset Extruder
G1 Z2.0 F3000 ; Move Z Axis up little to prevent scratching of Heat Bed
; End of custom start GCode
G92 E0
G1 F6000 E-5
;LAYER_COUNT:177
;LAYER:0
M107
M204 S5000
M205 X30 Y30
G0 F7200 X80.526 Y99.385 Z0.25
M204 S500
M205 X20 Y20
;TYPE:SKIRT
G1 F6000 E0
G1 F900 X81.55 Y98.642 E0.05786
G1 X82.62 Y97.965 E0.11577
G1 X83.729 Y97.358 E0.17358
G1 X84.876 Y96.821 E0.2315
G1 X86.053 Y96.358 E0.28934
G1 X87.258 Y95.971 E0.34722
G1 X88.484 Y95.66 E0.40507
G1 X89.728 Y95.428 E0.46294
G1 X90.984 Y95.274 E0.52081
G1 X92.784 Y95.193 E0.60321
G1 X133.716 Y95.193 E2.47514
G1 X134.981 Y95.233 E2.53303
G1 X136.24 Y95.353 E2.59086
G1 X137.49 Y95.552 E2.64875
G1 X138.725 Y95.83 E2.70664
G1 X139.939 Y96.185 E2.76449
G1 X141.129 Y96.616 E2.82237
G1 X142.289 Y97.121 E2.88023
G1 X143.415 Y97.699 E2.93811
G1 X144.502 Y98.347 E2.99598
G1 X145.546 Y99.062 E3.05385
G1 X146.542 Y99.841 E3.11168
G1 X147.872 Y101.057 E3.1941
G1 X148.001 Y101.186 E3.20244
G1 X148.867 Y102.108 E3.26029
G1 X149.673 Y103.084 E3.31818
G1 X150.416 Y104.108 E3.37603
G1 X151.093 Y105.178 E3.43394
G1 X151.7 Y106.287 E3.49176
G1 X152.237 Y107.434 E3.54968
G1 X152.7 Y108.611 E3.60752
G1 X153.087 Y109.816 E3.6654
G1 X153.398 Y111.042 E3.72324
G1 X153.63 Y112.286 E3.78112
G1 X153.784 Y113.542 E3.83899
G1 X153.865 Y115.342 E3.92139
G1 X153.865 Y119.658 E4.11877
G1 X153.825 Y120.923 E4.17665
G1 X153.705 Y122.182 E4.23449
G1 X153.506 Y123.432 E4.29238
G1 X153.228 Y124.667 E4.35027
G1 X152.873 Y125.881 E4.40811
G1 X152.442 Y127.071 E4.466
G1 X151.937 Y128.231 E4.52385
G1 X151.359 Y129.357 E4.58174
G1 X150.711 Y130.444 E4.63961
G1 X149.996 Y131.488 E4.69748
G1 X149.217 Y132.484 E4.75531
G1 X148.001 Y133.814 E4.83772
G1 X147.872 Y133.943 E4.84607
G1 X146.95 Y134.809 E4.90391
G1 X145.974 Y135.615 E4.9618
G1 X144.95 Y136.358 E5.01966
G1 X143.88 Y137.035 E5.07757
G1 X142.771 Y137.642 E5.13538
G1 X141.624 Y138.179 E5.1933
G1 X140.447 Y138.642 E5.25115
G1 X139.242 Y139.029 E5.30903
G1 X138.016 Y139.34 E5.36687
G1 X136.772 Y139.572 E5.42474
G1 X135.516 Y139.726 E5.48261
G1 X133.716 Y139.807 E5.56502
G1 X92.784 Y139.807 E7.43695
G1 X91.519 Y139.767 E7.49483
G1 X90.26 Y139.647 E7.55267
G1 X89.01 Y139.448 E7.61055
G1 X87.775 Y139.17 E7.66844
G1 X86.561 Y138.815 E7.72629
G1 X85.371 Y138.384 E7.78417
G1 X84.211 Y137.879 E7.84203
G1 X83.085 Y137.301 E7.89991
G1 X81.998 Y136.653 E7.95779
G1 X80.954 Y135.938 E8.01566
G1 X79.958 Y135.159 E8.07348
G1 X78.628 Y133.943 E8.1559
G1 X78.499 Y133.814 E8.16424
G1 X77.633 Y132.892 E8.22209
G1 X76.827 Y131.916 E8.27998
G1 X76.084 Y130.892 E8.33784
G1 X75.407 Y129.822 E8.39574
G1 X74.8 Y128.713 E8.45356
G1 X74.263 Y127.566 E8.51148
G1 X73.8 Y126.389 E8.56932
G1 X73.413 Y125.184 E8.6272
G1 X73.102 Y123.958 E8.68505
G1 X72.87 Y122.714 E8.74292
G1 X72.716 Y121.458 E8.80079
G1 X72.635 Y119.658 E8.88319
G1 X72.635 Y115.342 E9.08057
G1 X72.675 Y114.077 E9.13845
G1 X72.795 Y112.818 E9.19629
G1 X72.994 Y111.568 E9.25418
G1 X73.272 Y110.333 E9.31207
G1 X73.627 Y109.119 E9.36992
G1 X74.058 Y107.929 E9.4278
G1 X74.563 Y106.769 E9.48566
G1 X75.141 Y105.643 E9.54354
G1 X75.789 Y104.556 E9.60141
G1 X76.504 Y103.512 E9.65928
G1 X77.283 Y102.516 E9.71711
G1 X78.499 Y101.186 E9.79952
G1 X78.628 Y101.057 E9.80787
G1 X79.55 Y100.191 E9.86572
G1 X80.078 Y99.755 E9.89703
G0 F810 X80.526 Y99.385
M204 S5000
M205 X30 Y30
G0 F7200 X80.817 Y99.716
M204 S500
M205 X20 Y20
G1 F6000 E9.9236
G1 F900 X81.831 Y98.983 E9.98082
G1 X82.891 Y98.316 E10.0381
G1 X83.99 Y97.719 E10.0953
G1 X85.126 Y97.193 E10.15255
G1 X86.292 Y96.74 E10.20975
G1 X87.486 Y96.363 E10.26702
G1 X88.701 Y96.064 E10.32424
G1 X89.932 Y95.842 E10.38144
G1 X91.175 Y95.699 E10.43866
G1 X92.784 Y95.633 E10.51231
G1 X133.716 Y95.633 E12.38424
G1 X134.967 Y95.673 E12.44148
G1 X136.212 Y95.793 E12.49868
G1 X137.448 Y95.992 E12.55594
G1 X138.668 Y96.27 E12.61316
G1 X139.868 Y96.625 E12.67039
G1 X141.043 Y97.056 E12.72763
G1 X142.188 Y97.561 E12.78486
G1 X143.298 Y98.138 E12.84207
G1 X144.369 Y98.785 E12.89929
G1 X145.397 Y99.499 E12.95653
G1 X146.377 Y100.277 E13.01376
G1 X147.561 Y101.368 E13.08739
G1 X147.69 Y101.497 E13.09573
G1 X148.546 Y102.41 E13.15297
G1 X149.342 Y103.375 E13.21018
G1 X150.075 Y104.389 E13.2674
G1 X150.742 Y105.449 E13.32467
G1 X151.339 Y106.548 E13.38187
G1 X151.865 Y107.684 E13.43912
G1 X152.318 Y108.85 E13.49633
G1 X152.695 Y110.044 E13.55359
G1 X152.994 Y111.259 E13.61081
G1 X153.216 Y112.49 E13.66802
G1 X153.359 Y113.733 E13.72524
G1 X153.425 Y115.342 E13.79888
G1 X153.425 Y119.658 E13.99627
G1 X153.385 Y120.909 E14.05351
G1 X153.265 Y122.154 E14.11071
G1 X153.066 Y123.39 E14.16796
G1 X152.788 Y124.61 E14.22519
G1 X152.433 Y125.81 E14.28242
G1 X152.002 Y126.985 E14.33965
G1 X151.497 Y128.13 E14.39688
G1 X150.92 Y129.24 E14.4541
G1 X150.273 Y130.311 E14.51132
G1 X149.559 Y131.339 E14.56856
G1 X148.781 Y132.319 E14.62578
G1 X147.69 Y133.503 E14.69941
G1 X147.561 Y133.632 E14.70776
G1 X146.648 Y134.488 E14.76499
G1 X145.683 Y135.284 E14.8222
G1 X144.669 Y136.017 E14.87942
G1 X143.609 Y136.684 E14.9367
G1 X142.51 Y137.281 E14.99389
G1 X141.374 Y137.807 E15.05114
G1 X140.208 Y138.26 E15.10835
G1 X139.014 Y138.637 E15.16561
G1 X137.799 Y138.936 E15.22284
G1 X136.568 Y139.158 E15.28004
G1 X135.325 Y139.301 E15.33726
G1 X133.716 Y139.367 E15.41091
G1 X92.784 Y139.367 E17.28284
G1 X91.533 Y139.327 E17.34008
G1 X90.288 Y139.207 E17.39728
G1 X89.052 Y139.008 E17.45453
G1 X87.832 Y138.73 E17.51176
G1 X86.632 Y138.375 E17.56899
G1 X85.457 Y137.944 E17.62623
G1 X84.312 Y137.439 E17.68346
G1 X83.202 Y136.862 E17.74067
G1 X82.131 Y136.215 E17.79789
G1 X81.103 Y135.501 E17.85513
G1 X80.123 Y134.723 E17.91236
G1 X78.939 Y133.632 E17.98599
G1 X78.81 Y133.503 E17.99433
G1 X77.954 Y132.59 E18.05157
G1 X77.158 Y131.625 E18.10877
G1 X76.425 Y130.611 E18.16599
G1 X75.758 Y129.551 E18.22327
G1 X75.161 Y128.452 E18.28047
G1 X74.635 Y127.316 E18.33772
G1 X74.182 Y126.15 E18.39493
G1 X73.805 Y124.956 E18.45219
G1 X73.506 Y123.741 E18.50941
G1 X73.284 Y122.51 E18.56662
G1 X73.141 Y121.267 E18.62384
G1 X73.075 Y119.658 E18.69748
G1 X73.075 Y115.342 E18.89486
G1 X73.115 Y114.091 E18.95211
G1 X73.235 Y112.846 E19.00931
G1 X73.434 Y111.61 E19.06656
G1 X73.712 Y110.39 E19.12378
G1 X74.067 Y109.19 E19.18101
G1 X74.498 Y108.015 E19.23825
G1 X75.003 Y106.87 E19.29548
G1 X75.58 Y105.76 E19.35269
G1 X76.227 Y104.689 E19.40992
G1 X76.941 Y103.661 E19.46716
G1 X77.719 Y102.681 E19.52438
G1 X78.81 Y101.497 E19.59801
G1 X78.939 Y101.368 E19.60636
G1 X79.852 Y100.512 E19.66359
G1 X80.369 Y100.085 E19.69426
G0 F810 X80.817 Y99.716
M204 S5000
M205 X30 Y30
G0 F7200 X81.108 Y100.047
M204 S500
M205 X20 Y20
G1 F6000 E19.72083
G1 F900 X82.112 Y99.324 E19.77741
G1 X83.161 Y98.668 E19.83399
G1 X84.25 Y98.081 E19.89057
G1 X85.375 Y97.565 E19.94717
G1 X86.531 Y97.123 E20.00377
G1 X87.713 Y96.757 E20.06036
G1 X88.916 Y96.468 E20.11694
G1 X90.135 Y96.257 E20.17352
G1 X91.365 Y96.126 E20.23009
G1 X92.784 Y96.073 E20.29503
G1 X133.716 Y96.073 E22.16696
G1 X134.953 Y96.113 E22.22356
G1 X136.184 Y96.233 E22.28012
G1 X137.405 Y96.432 E22.3367
G1 X138.611 Y96.709 E22.39329
G1 X139.796 Y97.064 E22.44986
G1 X140.956 Y97.495 E22.50645
G1 X142.086 Y98 E22.56306
G1 X143.18 Y98.577 E22.61962
G1 X144.235 Y99.223 E22.6762
G1 X145.246 Y99.936 E22.73277
G1 X146.209 Y100.713 E22.78936
G1 X147.25 Y101.679 E22.85431
G1 X147.379 Y101.808 E22.86265
G1 X148.225 Y102.711 E22.91924
G1 X149.011 Y103.666 E22.97581
G1 X149.734 Y104.67 E23.03239
G1 X150.39 Y105.719 E23.08897
G1 X150.977 Y106.808 E23.14555
G1 X151.493 Y107.933 E23.20215
G1 X151.935 Y109.089 E23.25875
G1 X152.301 Y110.271 E23.31534
G1 X152.59 Y111.474 E23.37192
G1 X152.801 Y112.693 E23.4285
G1 X152.932 Y113.923 E23.48507
G1 X152.985 Y115.342 E23.55001
G1 X152.985 Y119.658 E23.74739
G1 X152.945 Y120.895 E23.80399
G1 X152.825 Y122.126 E23.86055
G1 X152.626 Y123.347 E23.91713
G1 X152.349 Y124.553 E23.97372
G1 X151.994 Y125.738 E24.03029
G1 X151.563 Y126.898 E24.08689
G1 X151.058 Y128.028 E24.14349
G1 X150.481 Y129.122 E24.20005
G1 X149.835 Y130.177 E24.25663
G1 X149.122 Y131.188 E24.31321
G1 X148.345 Y132.151 E24.36979
G1 X147.379 Y133.192 E24.43474
G1 X147.25 Y133.321 E24.44308
G1 X146.347 Y134.167 E24.49967
G1 X145.392 Y134.953 E24.55624
G1 X144.388 Y135.676 E24.61282
G1 X143.339 Y136.332 E24.6694
G1 X142.25 Y136.919 E24.72598
G1 X141.125 Y137.435 E24.78258
G1 X139.969 Y137.877 E24.83918
G1 X138.787 Y138.243 E24.89577
G1 X137.584 Y138.532 E24.95235
G1 X136.365 Y138.743 E25.00893
G1 X135.135 Y138.874 E25.0655
G1 X133.716 Y138.927 E25.13044
G1 X92.784 Y138.927 E27.00237
G1 X91.547 Y138.887 E27.05897
G1 X90.316 Y138.767 E27.11553
G1 X89.095 Y138.568 E27.17211
G1 X87.889 Y138.291 E27.2287
G1 X86.704 Y137.936 E27.28527
G1 X85.544 Y137.505 E27.34187
G1 X84.414 Y137 E27.39847
G1 X83.32 Y136.423 E27.45503
G1 X82.265 Y135.777 E27.51161
G1 X81.254 Y135.064 E27.56818
G1 X80.291 Y134.287 E27.62477
G1 X79.25 Y133.321 E27.68972
G1 X79.121 Y133.192 E27.69806
G1 X78.275 Y132.289 E27.75465
G1 X77.489 Y131.334 E27.81122
G1 X76.766 Y130.33 E27.8678
G1 X76.11 Y129.281 E27.92438
G1 X75.523 Y128.192 E27.98096
G1 X75.007 Y127.067 E28.03756
G1 X74.565 Y125.911 E28.09416
G1 X74.199 Y124.729 E28.15075
G1 X73.91 Y123.526 E28.20733
G1 X73.699 Y122.307 E28.26391
G1 X73.568 Y121.077 E28.32048
G1 X73.515 Y119.658 E28.38542
G1 X73.515 Y115.342 E28.5828
G1 X73.555 Y114.105 E28.6394
G1 X73.675 Y112.874 E28.69596
G1 X73.874 Y111.653 E28.75254
G1 X74.151 Y110.447 E28.80913
G1 X74.506 Y109.262 E28.8657
G1 X74.937 Y108.102 E28.9223
G1 X75.442 Y106.972 E28.9789
G1 X76.019 Y105.878 E29.03546
G1 X76.665 Y104.823 E29.09204
G1 X77.378 Y103.812 E29.14862
G1 X78.155 Y102.849 E29.2052
G1 X79.121 Y101.808 E29.27015
G1 X79.25 Y101.679 E29.2785
G1 X80.153 Y100.833 E29.33508
G1 X80.66 Y100.416 E29.36511
G0 F810 X81.108 Y100.047
M204 S5000
M205 X30 Y30
G0 F7200 X81.399 Y100.378
M204 S500
M205 X20 Y20
G1 F6000 E29.39168
G1 F900 X82.393 Y99.666 E29.44759
G1 X83.431 Y99.02 E29.50351
G1 X84.51 Y98.443 E29.55946
G1 X85.624 Y97.938 E29.6154
G1 X86.768 Y97.507 E29.67131
G1 X87.938 Y97.152 E29.72723
G1 X89.129 Y96.874 E29.78316
G1 X90.336 Y96.674 E29.83911
G1 X91.553 Y96.554 E29.89504
G1 X92.784 Y96.513 E29.95136
G1 X133.716 Y96.513 E31.82329
G1 X134.938 Y96.553 E31.87921
G1 X136.155 Y96.673 E31.93514
G1 X137.362 Y96.872 E31.99108
G1 X138.553 Y97.149 E32.047
G1 X139.723 Y97.504 E32.10292
G1 X140.868 Y97.935 E32.15887
G1 X141.982 Y98.439 E32.21479
G1 X143.061 Y99.015 E32.27072
G1 X144.1 Y99.661 E32.32667
G1 X145.094 Y100.373 E32.38259
G1 X146.04 Y101.148 E32.43852
G1 X146.939 Y101.99 E32.49485
G1 X147.068 Y102.119 E32.50319
G1 X147.904 Y103.012 E32.55914
G1 X148.68 Y103.957 E32.61506
G1 X149.392 Y104.951 E32.67097
G1 X150.038 Y105.989 E32.72689
G1 X150.615 Y107.068 E32.78284
G1 X151.12 Y108.182 E32.83878
G1 X151.551 Y109.326 E32.89469
G1 X151.906 Y110.496 E32.95061
G1 X152.184 Y111.687 E33.00654
G1 X152.384 Y112.894 E33.06249
G1 X152.504 Y114.111 E33.11842
G1 X152.545 Y115.342 E33.17474
G1 X152.545 Y119.658 E33.37213
G1 X152.505 Y120.88 E33.42804
G1 X152.385 Y122.097 E33.48397
G1 X152.186 Y123.304 E33.53991
G1 X151.909 Y124.495 E33.59583
G1 X151.554 Y125.665 E33.65175
G1 X151.123 Y126.81 E33.7077
G1 X150.619 Y127.924 E33.76362
G1 X150.043 Y129.003 E33.81956
G1 X149.397 Y130.042 E33.87551
G1 X148.685 Y131.036 E33.93142
G1 X147.91 Y131.982 E33.98735
G1 X147.068 Y132.881 E34.04368
G1 X146.939 Y133.01 E34.05203
G1 X146.046 Y133.846 E34.10797
G1 X145.101 Y134.622 E34.16389
G1 X144.107 Y135.334 E34.21981
G1 X143.069 Y135.98 E34.27572
G1 X141.99 Y136.557 E34.33168
G1 X140.876 Y137.062 E34.38761
G1 X139.732 Y137.493 E34.44352
G1 X138.562 Y137.848 E34.49944
G1 X137.371 Y138.126 E34.55537
G1 X136.164 Y138.326 E34.61132
G1 X134.947 Y138.446 E34.66725
G1 X133.716 Y138.487 E34.72358
G1 X92.784 Y138.487 E36.59551
G1 X91.562 Y138.447 E36.65142
G1 X90.345 Y138.327 E36.70735
G1 X89.138 Y138.128 E36.76329
G1 X87.947 Y137.851 E36.81921
G1 X86.777 Y137.496 E36.87513
G1 X85.632 Y137.065 E36.93108
G1 X84.518 Y136.561 E36.987
G1 X83.439 Y135.985 E37.04294
G1 X82.4 Y135.339 E37.09889
G1 X81.406 Y134.627 E37.1548
G1 X80.46 Y133.852 E37.21073
G1 X79.561 Y133.01 E37.26706
G1 X79.432 Y132.881 E37.27541
G1 X78.596 Y131.988 E37.33135
G1 X77.82 Y131.043 E37.38727
G1 X77.108 Y130.049 E37.44319
G1 X76.462 Y129.011 E37.4991
G1 X75.885 Y127.932 E37.55506
G1 X75.38 Y126.818 E37.61099
G1 X74.949 Y125.674 E37.6669
G1 X74.594 Y124.504 E37.72282
G1 X74.316 Y123.313 E37.77875
G1 X74.116 Y122.106 E37.8347
G1 X73.996 Y120.889 E37.89063
G1 X73.955 Y119.658 E37.94696
G1 X73.955 Y115.342 E38.14434
G1 X73.995 Y114.12 E38.20025
G1 X74.115 Y112.903 E38.25618
G1 X74.314 Y111.696 E38.31212
G1 X74.591 Y110.505 E38.36805
G1 X74.946 Y109.335 E38.42396
G1 X75.377 Y108.19 E38.47991
G1 X75.881 Y107.076 E38.53583
G1 X76.457 Y105.997 E38.59177
G1 X77.103 Y104.958 E38.64772
G1 X77.815 Y103.964 E38.70364
G1 X78.59 Y103.018 E38.75956
G1 X79.432 Y102.119 E38.81589
G1 X79.561 Y101.99 E38.82424
G1 X80.454 Y101.154 E38.88018
G1 X80.95 Y100.746 E38.90955
G0 F810 X81.399 Y100.378
M204 S5000
M205 X30 Y30
G0 F7200 X81.69 Y100.71
M204 S500
M205 X20 Y20
G1 F6000 E38.93612
G1 F900 X82.673 Y100.008 E38.99136
G1 X83.701 Y99.372 E39.04665
G1 X84.769 Y98.806 E39.10192
G1 X85.872 Y98.312 E39.1572
G1 X87.005 Y97.892 E39.21246
G1 X88.163 Y97.547 E39.26772
G1 X89.342 Y97.28 E39.323
G1 X90.535 Y97.092 E39.37823
G1 X91.739 Y96.983 E39.43352
G1 X92.784 Y96.953 E39.48133
G1 X133.716 Y96.953 E41.35326
G1 X134.924 Y96.993 E41.40854
G1 X136.126 Y97.113 E41.46378
G1 X137.318 Y97.312 E41.51905
G1 X138.494 Y97.589 E41.5743
G1 X139.65 Y97.944 E41.6296
G1 X140.779 Y98.374 E41.68485
G1 X141.877 Y98.878 E41.74011
G1 X142.94 Y99.454 E41.7954
G1 X143.962 Y100.099 E41.85067
G1 X144.939 Y100.809 E41.9059
G1 X145.868 Y101.583 E41.9612
G1 X146.628 Y102.301 E42.00901
G1 X146.757 Y102.43 E42.01736
G1 X147.583 Y103.313 E42.07265
G1 X148.348 Y104.248 E42.1279
G1 X149.05 Y105.231 E42.18314
G1 X149.686 Y106.259 E42.23843
G1 X150.252 Y107.327 E42.2937
G1 X150.746 Y108.43 E42.34898
G1 X151.166 Y109.563 E42.40424
G1 X151.511 Y110.721 E42.4595
G1 X151.778 Y111.9 E42.51478
G1 X151.966 Y113.093 E42.57001
G1 X152.075 Y114.297 E42.6253
G1 X152.105 Y115.342 E42.67311
G1 X152.105 Y119.658 E42.87049
G1 X152.065 Y120.866 E42.92577
G1 X151.945 Y122.068 E42.98101
G1 X151.746 Y123.26 E43.03628
G1 X151.469 Y124.436 E43.09153
G1 X151.114 Y125.592 E43.14684
G1 X150.684 Y126.721 E43.20209
G1 X150.18 Y127.819 E43.25734
G1 X149.604 Y128.882 E43.31263
G1 X148.959 Y129.904 E43.3679
G1 X148.249 Y130.881 E43.42313
G1 X147.475 Y131.81 E43.47843
G1 X146.757 Y132.57 E43.52625
G1 X146.628 Y132.699 E43.53459
G1 X145.745 Y133.525 E43.58988
G1 X144.81 Y134.29 E43.64513
G1 X143.827 Y134.992 E43.70038
G1 X142.799 Y135.628 E43.75566
G1 X141.731 Y136.194 E43.81094
G1 X140.628 Y136.688 E43.86621
G1 X139.495 Y137.108 E43.92147
G1 X138.337 Y137.453 E43.97673
G1 X137.158 Y137.72 E44.03201
G1 X135.965 Y137.908 E44.08724
G1 X134.761 Y138.017 E44.14253
G1 X133.716 Y138.047 E44.19034
G1 X92.784 Y138.047 E46.06227
G1 X91.576 Y138.007 E46.11755
G1 X90.374 Y137.887 E46.17279
G1 X89.182 Y137.688 E46.22806
G1 X88.006 Y137.411 E46.28331
G1 X86.85 Y137.056 E46.33862
G1 X85.721 Y136.626 E46.39387
G1 X84.623 Y136.122 E46.44912
G1 X83.56 Y135.546 E46.50441
G1 X82.538 Y134.901 E46.55968
G1 X81.561 Y134.191 E46.61491
G1 X80.632 Y133.417 E46.67021
G1 X79.872 Y132.699 E46.71803
G1 X79.743 Y132.57 E46.72637
G1 X78.917 Y131.687 E46.78166
