;FLAVOR:Marlin
;TIME:1398
;Filament used: 1.55093m
;Layer height: 0.25
;Generated with Cura_SteamEngine 3.6.0
M140 S70
M105
M190 S70
M104 S215
M105
M109 S215
M82 ;absolute extrusion mode
; Ender 3 Custom Start G-code
G28 ; Home all axes
G92 E0 ; Reset Extruder
G1 Z2.0 F3000 ; Move Z Axis up little to prevent scratching of Heat Bed
G1 X0.1 Y20 Z0.3 F5000.0 ; Move to start position
G1 X0.1 Y200.0 Z0.3 F1500.0 E15 ; Draw the first line
G1 X0.4 Y200.0 Z0.3 F5000.0 ; Move to side a little
G1 X0.4 Y20 Z0.3 F1500.0 E30 ; Draw the second line
G92 E0 ; Reset Extruder
G1 Z2.0 F3000 ; Move Z Axis up little to prevent scratching of Heat Bed
; End of custom start GCode
G92 E0
G1 F6000 E-5
;LAYER_COUNT:61
;LAYER:0
M107
M204 S5000
M205 X30 Y30
G0 F7200 X96.861 Y95.782 Z0.25
M204 S500
M205 X20 Y20
;TYPE:SKIRT
G1 F6000 E0
G1 F900 X97.779 Y94.911 E0.05787
G1 X98.75 Y94.099 E0.11576
G1 X99.752 Y93.363 E0.17262
G1 X101.312 Y92.29 E0.25921
G1 X102.376 Y91.606 E0.31705
G1 X103.482 Y90.991 E0.37493
G1 X104.183 Y90.647 E0.41064
G1 X105.463 Y90.049 E0.47525
G1 X106.626 Y89.55 E0.53313
G1 X108.141 Y89.024 E0.60647
G1 X109.48 Y88.619 E0.67044
G1 X110.702 Y88.291 E0.72831
G1 X111.943 Y88.041 E0.7862
G1 X112.677 Y87.931 E0.82014
G1 X114.556 Y87.685 E0.90681
G1 X115.815 Y87.561 E0.96467
G1 X117.08 Y87.516 E1.02255
G1 X118.351 Y87.552 E1.0807
G1 X120.222 Y87.664 E1.16642
G1 X121.482 Y87.779 E1.22429
G1 X123.026 Y88.032 E1.29584
G1 X123.948 Y88.22 E1.33887
G1 X125.179 Y88.512 E1.39673
G1 X126.206 Y88.819 E1.44575
G1 X127.537 Y89.257 E1.50983
G1 X128.726 Y89.691 E1.56772
G1 X129.885 Y90.198 E1.62557
G1 X130.58 Y90.545 E1.6611
G1 X132.246 Y91.419 E1.74714
G1 X133.347 Y92.042 E1.80499
G1 X134.407 Y92.734 E1.86288
G1 X135.42 Y93.49 E1.92069
G1 X136.891 Y94.662 E2.0067
G1 X137.855 Y95.482 E2.06458
G1 X138.766 Y96.36 E2.12244
G1 X139.607 Y97.281 E2.17948
G1 X140.831 Y98.707 E2.26543
G1 X141.625 Y99.692 E2.32329
G1 X142.354 Y100.726 E2.38114
G1 X143.007 Y101.787 E2.43812
G1 X143.944 Y103.421 E2.52426
G1 X144.539 Y104.538 E2.58214
G1 X145.061 Y105.69 E2.63998
G1 X145.65 Y107.295 E2.71817
G1 X146.364 Y109.533 E2.8256
G1 X146.71 Y110.75 E2.88346
G1 X146.979 Y111.987 E2.94136
G1 X147.172 Y113.266 E3.00051
G1 X147.338 Y114.669 E3.06512
G1 X147.447 Y115.929 E3.12296
G1 X147.476 Y117.194 E3.18083
G1 X147.455 Y117.957 E3.21573
G1 X147.367 Y119.837 E3.30181
G1 X147.268 Y121.099 E3.3597
G1 X147.089 Y122.351 E3.41754
G1 X146.941 Y123.111 E3.45295
G1 X146.642 Y124.501 E3.51797
G1 X146.337 Y125.729 E3.57584
G1 X145.955 Y126.936 E3.63373
G1 X145.679 Y127.673 E3.66972
G1 X144.99 Y129.41 E3.75518
G1 X144.487 Y130.571 E3.81305
G1 X143.911 Y131.697 E3.87089
G1 X143.523 Y132.37 E3.90642
G1 X142.793 Y133.58 E3.97104
G1 X142.105 Y134.642 E4.02891
G1 X141.352 Y135.659 E4.08678
G1 X140.855 Y136.262 E4.12252
G1 X139.624 Y137.699 E4.20905
G1 X138.771 Y138.634 E4.26694
G1 X137.86 Y139.513 E4.32483
G1 X137.28 Y140.018 E4.36
G1 X136.205 Y140.919 E4.42415
G1 X135.21 Y141.701 E4.48202
G1 X134.322 Y142.319 E4.5315
G1 X133.538 Y142.833 E4.57437
G1 X132.458 Y143.493 E4.63226
G1 X131.04 Y144.226 E4.70526
G1 X129.331 Y145.025 E4.79153
G1 X128.168 Y145.524 E4.84941
G1 X126.976 Y145.949 E4.90729
G1 X125.788 Y146.291 E4.96382
G1 X123.968 Y146.754 E5.04971
G1 X122.732 Y147.027 E5.1076
G1 X121.482 Y147.222 E5.16545
G1 X120.682 Y147.304 E5.20223
G1 X119.267 Y147.421 E5.26716
G1 X118.003 Y147.485 E5.32504
G1 X116.738 Y147.47 E5.3829
G1 X115.966 Y147.421 E5.41828
G1 X114.093 Y147.266 E5.50423
G1 X112.836 Y147.122 E5.56209
G1 X111.59 Y146.898 E5.61998
G1 X110.852 Y146.727 E5.65463
G1 X109.479 Y146.381 E5.71938
G1 X108.262 Y146.033 E5.77727
G1 X106.746 Y145.479 E5.85109
G1 X105.44 Y144.941 E5.91568
G1 X104.285 Y144.422 E5.97359
G1 X103.166 Y143.832 E6.03144
G1 X102.5 Y143.436 E6.06688
G1 X100.9 Y142.442 E6.15302
G1 X99.847 Y141.74 E6.2109
G1 X98.84 Y140.974 E6.26876
G1 X97.916 Y140.174 E6.32466
G1 X96.54 Y138.909 E6.41014
G1 X95.636 Y138.024 E6.46799
G1 X94.789 Y137.083 E6.52589
G1 X94.009 Y136.097 E6.58339
G1 X92.881 Y134.576 E6.66999
G1 X92.159 Y133.536 E6.72789
G1 X91.505 Y132.453 E6.78575
G1 X90.924 Y131.337 E6.84329
G1 X90.113 Y129.653 E6.92877
G1 X89.6 Y128.496 E6.98665
G1 X89.161 Y127.309 E7.04452
G1 X88.928 Y126.563 E7.08027
G1 X88.534 Y125.21 E7.14471
G1 X88.219 Y123.985 E7.20256
G1 X87.982 Y122.742 E7.26043
G1 X87.878 Y121.992 E7.29506
G1 X87.653 Y120.112 E7.38165
G1 X87.542 Y118.851 E7.43954
G1 X87.512 Y117.586 E7.49741
G1 X87.561 Y116.323 E7.55521
G1 X87.693 Y114.453 E7.64094
G1 X87.822 Y113.195 E7.69878
G1 X88.03 Y111.946 E7.75668
G1 X88.202 Y111.166 E7.79321
G1 X88.536 Y109.782 E7.85832
G1 X88.871 Y108.562 E7.91618
G1 X89.283 Y107.366 E7.97403
G1 X89.579 Y106.633 E8.01019
G1 X90.316 Y104.903 E8.09618
G1 X90.848 Y103.755 E8.15405
G1 X91.452 Y102.643 E8.21192
G1 X92.099 Y101.609 E8.2677
G1 X93.139 Y100.056 E8.35318
G1 X93.876 Y99.028 E8.41103
G1 X94.677 Y98.048 E8.46891
G1 X95.538 Y97.12 E8.5268
G1 X96.453 Y96.195 E8.58631
G0 F810 X96.861 Y95.782
M204 S5000
M205 X30 Y30
G0 F7200 X97.174 Y96.091
M204 S500
M205 X20 Y20
G1 F6000 E8.61288
G1 F900 X98.082 Y95.23 E8.6701
G1 X99.043 Y94.428 E8.72735
G1 X100.001 Y93.726 E8.78166
G1 X101.561 Y92.653 E8.86825
G1 X102.614 Y91.977 E8.92548
G1 X103.708 Y91.37 E8.98269
G1 X104.369 Y91.045 E9.01638
G1 X105.649 Y90.447 E9.08099
G1 X106.799 Y89.954 E9.13821
G1 X108.268 Y89.446 E9.2093
G1 X109.607 Y89.041 E9.27327
G1 X110.816 Y88.717 E9.33051
G1 X112.043 Y88.471 E9.38775
G1 X112.734 Y88.368 E9.4197
G1 X114.613 Y88.122 E9.50636
G1 X115.859 Y87.999 E9.56362
G1 X117.109 Y87.956 E9.62082
G1 X118.325 Y87.991 E9.67645
G1 X120.196 Y88.103 E9.76217
G1 X121.442 Y88.218 E9.8194
G1 X122.938 Y88.463 E9.88873
G1 X123.86 Y88.651 E9.93176
G1 X125.078 Y88.94 E9.98901
G1 X126.068 Y89.237 E10.03628
G1 X127.399 Y89.675 E10.10036
G1 X128.575 Y90.104 E10.15761
G1 X129.721 Y90.607 E10.21484
G1 X130.375 Y90.935 E10.2483
G1 X132.041 Y91.809 E10.33434
G1 X133.13 Y92.426 E10.39158
G1 X134.178 Y93.11 E10.44881
G1 X135.146 Y93.834 E10.5041
G1 X136.617 Y95.006 E10.59011
G1 X137.57 Y95.817 E10.64734
G1 X138.47 Y96.687 E10.70459
G1 X139.273 Y97.567 E10.75907
G1 X140.497 Y98.993 E10.84501
G1 X141.282 Y99.968 E10.90226
G1 X142.002 Y100.992 E10.9595
G1 X142.625 Y102.006 E11.01393
G1 X143.562 Y103.64 E11.10007
G1 X144.15 Y104.745 E11.15732
G1 X144.666 Y105.885 E11.21454
G1 X145.231 Y107.429 E11.28973
G1 X145.945 Y109.667 E11.39717
G1 X146.287 Y110.871 E11.45441
G1 X146.551 Y112.094 E11.51163
G1 X146.735 Y113.317 E11.56819
G1 X146.901 Y114.72 E11.6328
G1 X147.009 Y115.967 E11.69004
G1 X147.036 Y117.218 E11.74726
G1 X147.016 Y117.937 E11.78016
G1 X146.928 Y119.817 E11.86623
G1 X146.829 Y121.064 E11.92344
G1 X146.651 Y122.303 E11.98068
G1 X146.511 Y123.019 E12.01405
G1 X146.212 Y124.409 E12.07907
G1 X145.91 Y125.623 E12.13628
G1 X145.531 Y126.816 E12.19353
G1 X145.27 Y127.51 E12.22744
G1 X144.581 Y129.247 E12.3129
G1 X144.083 Y130.395 E12.37012
G1 X143.512 Y131.509 E12.42737
G1 X143.146 Y132.143 E12.46085
G1 X142.416 Y133.353 E12.52548
G1 X141.736 Y134.403 E12.58269
G1 X140.99 Y135.408 E12.63993
G1 X140.521 Y135.976 E12.67361
G1 X139.29 Y137.413 E12.76015
G1 X138.446 Y138.337 E12.81738
G1 X137.544 Y139.205 E12.87463
G1 X136.997 Y139.681 E12.90779
G1 X135.922 Y140.582 E12.97194
G1 X134.938 Y141.355 E13.02916
G1 X134.08 Y141.951 E13.07694
G1 X133.296 Y142.465 E13.11981
G1 X132.228 Y143.117 E13.17704
G1 X130.854 Y143.827 E13.24777
G1 X129.145 Y144.626 E13.33405
G1 X127.995 Y145.12 E13.39129
G1 X126.815 Y145.539 E13.44855
G1 X125.679 Y145.865 E13.5026
G1 X123.859 Y146.328 E13.58848
G1 X122.637 Y146.597 E13.64571
G1 X121.401 Y146.788 E13.7029
G1 X120.645 Y146.865 E13.73766
G1 X119.23 Y146.982 E13.80259
G1 X117.981 Y147.046 E13.85978
G1 X116.729 Y147.029 E13.91705
G1 X116.002 Y146.982 E13.95036
G1 X114.129 Y146.827 E14.03631
G1 X112.886 Y146.684 E14.09354
G1 X111.654 Y146.462 E14.15079
G1 X110.959 Y146.3 E14.18342
G1 X109.586 Y145.954 E14.24818
G1 X108.383 Y145.61 E14.3054
G1 X106.913 Y145.072 E14.37699
G1 X105.607 Y144.534 E14.44158
G1 X104.466 Y144.021 E14.49879
G1 X103.36 Y143.435 E14.55604
G1 X102.733 Y143.062 E14.5894
G1 X101.133 Y142.068 E14.67554
G1 X100.091 Y141.374 E14.7328
G1 X99.096 Y140.615 E14.79003
G1 X98.213 Y139.85 E14.84346
G1 X96.837 Y138.585 E14.92894
G1 X95.944 Y137.709 E14.98615
G1 X95.108 Y136.778 E15.04337
G1 X94.362 Y135.834 E15.0984
G1 X93.234 Y134.313 E15.185
G1 X92.521 Y133.285 E15.24221
G1 X91.875 Y132.213 E15.29945
G1 X91.32 Y131.146 E15.35445
G1 X90.509 Y129.462 E15.43993
G1 X90.002 Y128.317 E15.4972
G1 X89.57 Y127.143 E15.55441
G1 X89.351 Y126.44 E15.58808
G1 X88.957 Y125.087 E15.65253
G1 X88.646 Y123.875 E15.70975
G1 X88.412 Y122.646 E15.76697
G1 X88.315 Y121.94 E15.79956
G1 X88.09 Y120.06 E15.88615
G1 X87.981 Y118.813 E15.9434
G1 X87.952 Y117.562 E16.00062
G1 X88 Y116.354 E16.05591
G1 X88.132 Y114.484 E16.14165
G1 X88.26 Y113.239 E16.19888
G1 X88.467 Y112.005 E16.25611
G1 X88.629 Y111.27 E16.29053
G1 X88.963 Y109.886 E16.35564
G1 X89.296 Y108.679 E16.4129
G1 X89.704 Y107.496 E16.47013
G1 X89.983 Y106.805 E16.50421
G1 X90.72 Y105.075 E16.59021
G1 X91.247 Y103.94 E16.64743
G1 X91.846 Y102.841 E16.70468
G1 X92.465 Y101.854 E16.75796
G1 X93.505 Y100.301 E16.84343
G1 X94.234 Y99.284 E16.90066
G1 X95.027 Y98.316 E16.95789
G1 X95.851 Y97.429 E17.01325
G1 X96.766 Y96.504 E17.07276
G0 F810 X97.174 Y96.091
M204 S5000
M205 X30 Y30
G0 F7200 X97.487 Y96.4
M204 S500
M205 X20 Y20
G1 F6000 E17.09933
G1 F900 X98.385 Y95.549 E17.15591
G1 X99.336 Y94.758 E17.21248
G1 X100.25 Y94.088 E17.2643
G1 X101.81 Y93.015 E17.35089
G1 X102.852 Y92.347 E17.4075
G1 X103.934 Y91.748 E17.46406
G1 X104.556 Y91.444 E17.49572
G1 X105.836 Y90.846 E17.56033
G1 X106.973 Y90.359 E17.6169
G1 X108.396 Y89.867 E17.68575
G1 X109.735 Y89.462 E17.74973
G1 X110.93 Y89.142 E17.80631
G1 X112.143 Y88.9 E17.86287
G1 X112.791 Y88.804 E17.89283
G1 X114.67 Y88.558 E17.9795
G1 X115.902 Y88.437 E18.03611
G1 X117.138 Y88.396 E18.09267
G1 X118.299 Y88.43 E18.14579
G1 X120.17 Y88.542 E18.23151
G1 X121.402 Y88.656 E18.28809
G1 X122.85 Y88.894 E18.3552
G1 X123.772 Y89.082 E18.39823
G1 X124.976 Y89.368 E18.45483
G1 X125.931 Y89.655 E18.50043
G1 X127.262 Y90.093 E18.56451
G1 X128.424 Y90.518 E18.6211
G1 X129.556 Y91.016 E18.67765
G1 X130.171 Y91.325 E18.70913
G1 X131.837 Y92.199 E18.79517
G1 X132.913 Y92.809 E18.85173
G1 X133.948 Y93.487 E18.90832
G1 X134.872 Y94.178 E18.96108
G1 X136.343 Y95.35 E19.0471
G1 X137.285 Y96.152 E19.10368
G1 X138.174 Y97.013 E19.16028
G1 X138.94 Y97.854 E19.2123
G1 X140.164 Y99.28 E19.29824
G1 X140.939 Y100.244 E19.35481
G1 X141.65 Y101.257 E19.41141
G1 X142.244 Y102.225 E19.46335
G1 X143.181 Y103.859 E19.54949
G1 X143.761 Y104.951 E19.60604
G1 X144.27 Y106.079 E19.66263
G1 X144.811 Y107.563 E19.73487
G1 X145.525 Y109.801 E19.8423
G1 X145.863 Y110.991 E19.89888
G1 X146.123 Y112.2 E19.95543
G1 X146.298 Y113.369 E20.00949
G1 X146.464 Y114.772 E20.0741
G1 X146.57 Y116.005 E20.1307
G1 X146.596 Y117.242 E20.18728
G1 X146.576 Y117.916 E20.21812
G1 X146.488 Y119.796 E20.30419
G1 X146.39 Y121.029 E20.36076
G1 X146.213 Y122.254 E20.41736
G1 X146.081 Y122.926 E20.44868
G1 X145.782 Y124.316 E20.5137
G1 X145.483 Y125.517 E20.5703
G1 X145.107 Y126.695 E20.62685
G1 X144.861 Y127.348 E20.65877
G1 X144.172 Y129.085 E20.74423
G1 X143.679 Y130.22 E20.80082
G1 X143.114 Y131.32 E20.85737
G1 X142.769 Y131.915 E20.88883
G1 X142.039 Y133.125 E20.95345
G1 X141.366 Y134.163 E21.01003
G1 X140.628 Y135.156 E21.06661
G1 X140.187 Y135.69 E21.09828
G1 X138.956 Y137.127 E21.18482
G1 X138.121 Y138.04 E21.2414
G1 X137.229 Y138.897 E21.29797
G1 X136.715 Y139.344 E21.32912
G1 X135.64 Y140.245 E21.39327
G1 X134.666 Y141.009 E21.44988
G1 X133.839 Y141.583 E21.49592
G1 X133.055 Y142.097 E21.53879
G1 X131.999 Y142.741 E21.59536
G1 X130.667 Y143.429 E21.66392
G1 X128.958 Y144.228 E21.7502
G1 X127.821 Y144.715 E21.80676
G1 X126.655 Y145.128 E21.86333
G1 X125.571 Y145.438 E21.9149
G1 X123.751 Y145.901 E22.00078
G1 X122.543 Y146.167 E22.05735
G1 X121.32 Y146.355 E22.11394
G1 X120.609 Y146.427 E22.14662
G1 X119.194 Y146.544 E22.21155
G1 X117.959 Y146.606 E22.2681
G1 X116.721 Y146.588 E22.32473
G1 X116.038 Y146.544 E22.35603
G1 X114.165 Y146.389 E22.44198
G1 X112.936 Y146.247 E22.49855
G1 X111.719 Y146.026 E22.55512
G1 X111.067 Y145.874 E22.58574
G1 X109.694 Y145.528 E22.65049
G1 X108.505 Y145.187 E22.70706
G1 X107.081 Y144.665 E22.77642
G1 X105.775 Y144.127 E22.84102
G1 X104.647 Y143.619 E22.8976
G1 X103.554 Y143.039 E22.95418
G1 X102.965 Y142.688 E22.98554
G1 X101.365 Y141.694 E23.07168
G1 X100.335 Y141.007 E23.1283
G1 X99.353 Y140.256 E23.18484
G1 X98.511 Y139.526 E23.23581
G1 X97.135 Y138.261 E23.32128
G1 X96.252 Y137.395 E23.37785
G1 X95.426 Y136.473 E23.43446
G1 X94.715 Y135.572 E23.48695
G1 X93.587 Y134.051 E23.57355
G1 X92.883 Y133.034 E23.63012
G1 X92.246 Y131.974 E23.68667
G1 X91.717 Y130.955 E23.73918
G1 X90.906 Y129.271 E23.82466
G1 X90.405 Y128.139 E23.88127
G1 X89.979 Y126.978 E23.93783
G1 X89.773 Y126.317 E23.96949
G1 X89.379 Y124.964 E24.03394
G1 X89.072 Y123.766 E24.0905
G1 X88.843 Y122.55 E24.14708
G1 X88.752 Y121.887 E24.17769
G1 X88.527 Y120.007 E24.26428
G1 X88.419 Y118.775 E24.32084
G1 X88.392 Y117.538 E24.37742
G1 X88.439 Y116.385 E24.4302
G1 X88.571 Y114.515 E24.51593
G1 X88.697 Y113.285 E24.57248
G1 X88.904 Y112.065 E24.62907
G1 X89.057 Y111.373 E24.66148
G1 X89.391 Y109.989 E24.72659
G1 X89.72 Y108.796 E24.78319
G1 X90.125 Y107.627 E24.83976
G1 X90.388 Y106.977 E24.87183
G1 X91.125 Y105.247 E24.95783
G1 X91.647 Y104.125 E25.01442
G1 X92.24 Y103.04 E25.07097
G1 X92.831 Y102.099 E25.12179
G1 X93.871 Y100.546 E25.20727
G1 X94.592 Y99.541 E25.26383
G1 X95.377 Y98.584 E25.32044
G1 X96.164 Y97.738 E25.37328
G1 X97.079 Y96.813 E25.43278
G0 F810 X97.487 Y96.4
M204 S5000
M205 X30 Y30
G0 F7200 X97.8 Y96.71
M204 S500
M205 X20 Y20
G1 F6000 E25.45935
G1 F900 X98.688 Y95.869 E25.51529
G1 X99.629 Y95.088 E25.57121
G1 X100.5 Y94.451 E25.62056
G1 X102.06 Y93.378 E25.70715
G1 X103.089 Y92.718 E25.76306
G1 X104.16 Y92.127 E25.819
G1 X104.742 Y91.843 E25.84862
G1 X106.022 Y91.245 E25.91323
G1 X107.146 Y90.764 E25.96914
G1 X108.523 Y90.288 E26.03577
G1 X109.862 Y89.883 E26.09975
G1 X111.044 Y89.567 E26.1557
G1 X112.243 Y89.33 E26.2116
G1 X112.848 Y89.24 E26.23957
G1 X114.727 Y88.994 E26.32623
G1 X115.945 Y88.875 E26.3822
G1 X117.167 Y88.836 E26.43811
G1 X118.272 Y88.869 E26.48867
G1 X120.143 Y88.981 E26.57439
G1 X121.361 Y89.094 E26.63033
G1 X122.762 Y89.325 E26.69527
G1 X123.684 Y89.513 E26.7383
G1 X124.874 Y89.796 E26.79424
G1 X125.793 Y90.073 E26.83814
G1 X127.124 Y90.511 E26.90222
G1 X128.273 Y90.931 E26.95817
G1 X129.392 Y91.425 E27.01411
G1 X129.966 Y91.714 E27.0435
G1 X131.632 Y92.588 E27.12954
G1 X132.696 Y93.192 E27.18549
G1 X133.718 Y93.863 E27.2414
G1 X134.598 Y94.523 E27.29171
G1 X136.069 Y95.695 E27.37772
G1 X137 Y96.487 E27.43362
G1 X137.877 Y97.34 E27.48957
G1 X138.606 Y98.14 E27.53907
G1 X139.83 Y99.566 E27.62501
G1 X140.595 Y100.52 E27.68094
G1 X141.297 Y101.521 E27.73685
G1 X141.862 Y102.444 E27.78634
G1 X142.799 Y104.078 E27.87248
G1 X143.372 Y105.158 E27.9284
G1 X143.874 Y106.273 E27.98432
G1 X144.392 Y107.696 E28.05357
G1 X145.106 Y109.934 E28.16101
G1 X145.44 Y111.111 E28.21696
G1 X145.696 Y112.307 E28.27289
G1 X145.861 Y113.421 E28.32439
G1 X146.027 Y114.824 E28.38901
G1 X146.131 Y116.042 E28.44491
G1 X146.155 Y117.265 E28.50085
G1 X146.137 Y117.895 E28.52968
G1 X146.049 Y119.775 E28.61575
G1 X145.951 Y120.994 E28.67168
G1 X145.775 Y122.205 E28.72764
G1 X145.651 Y122.834 E28.75696
G1 X145.352 Y124.224 E28.82198
G1 X145.056 Y125.41 E28.87788
G1 X144.683 Y126.575 E28.93383
G1 X144.452 Y127.186 E28.9637
G1 X143.763 Y128.923 E29.04916
G1 X143.276 Y130.044 E29.10505
G1 X142.716 Y131.132 E29.16102
G1 X142.393 Y131.688 E29.19042
G1 X141.663 Y132.898 E29.25505
G1 X140.997 Y133.924 E29.31099
G1 X140.266 Y134.904 E29.3669
G1 X139.853 Y135.404 E29.39656
G1 X138.622 Y136.841 E29.4831
G1 X137.796 Y137.743 E29.53903
G1 X136.913 Y138.589 E29.59495
G1 X136.432 Y139.007 E29.6241
