;FLAVOR:Marlin
;TIME:3757
;Filament used: 2.60593m
;Layer height: 0.2
;Generated with Cura_SteamEngine 3.6.0
M140 S70
M105
M190 S70
M104 S210
M105
M109 S210
M82 ;absolute extrusion mode
G28 ; home all axes
M117 Purge extruder
G92 E0 ; reset extruder
G1 Z1.0 F3000 ; move z up little to prevent scratching of surface
G1 X0.1 Y20 Z0.3 F5000.0 ; move to start-line position G1 X0.1 Y200.0 Z0.3 F1500.0 E15 ; draw 1st line
G1 X0.4 Y200.0 Z0.3 F5000.0 ; move to side a little
G1 X0.4 Y20 Z0.3 F1500.0 E30 ; draw 2nd line
G92 E0 ; reset extruder
G1 Z1.0 F3000 ; move z up little to prevent scratching of surface
M117 All systems go!
G92 E0
G1 F6000 E-5
;LAYER_COUNT:33
;LAYER:0
M107
M204 S5000
M205 X30 Y30
G0 F7200 X61.988 Y99.361 Z0.2
M204 S500
M205 X20 Y20
;TYPE:SKIRT
G1 F6000 E0
G1 F900 X62.742 Y98.887 E0.03258
G1 X63.535 Y98.484 E0.06513
G1 X64.361 Y98.153 E0.09768
G1 X65.213 Y97.898 E0.13022
G1 X66.085 Y97.72 E0.16278
G1 X66.969 Y97.622 E0.19532
G1 X67.628 Y97.6 E0.21945
G1 X167.38 Y97.636 E3.86899
G1 X168.268 Y97.676 E3.90151
G1 X169.15 Y97.796 E3.93408
G1 X170.017 Y97.995 E3.96662
G1 X170.863 Y98.27 E3.99917
G1 X171.681 Y98.621 E4.03173
G1 X172.464 Y99.043 E4.06428
G1 X173.206 Y99.535 E4.09685
G1 X173.901 Y100.09 E4.12939
G1 X174.376 Y100.536 E4.15323
G1 X174.505 Y100.665 E4.1599
G1 X175.106 Y101.321 E4.19245
G1 X175.644 Y102.029 E4.22499
G1 X176.118 Y102.783 E4.25757
G1 X176.521 Y103.576 E4.29011
G1 X176.852 Y104.402 E4.32267
G1 X177.107 Y105.254 E4.35521
G1 X177.285 Y106.126 E4.38777
G1 X177.383 Y107.01 E4.42031
G1 X177.405 Y107.665 E4.44429
G1 X177.405 Y127.371 E5.16525
G1 X177.365 Y128.26 E5.19781
G1 X177.245 Y129.141 E5.23034
G1 X177.047 Y130.009 E5.26291
G1 X176.772 Y130.855 E5.29546
G1 X176.422 Y131.673 E5.32801
G1 X175.999 Y132.456 E5.36057
G1 X175.509 Y133.198 E5.3931
G1 X174.953 Y133.893 E5.42567
G1 X174.505 Y134.371 E5.44964
G1 X174.376 Y134.5 E5.45631
G1 X173.72 Y135.101 E5.48886
G1 X173.012 Y135.639 E5.52139
G1 X172.258 Y136.113 E5.55398
G1 X171.465 Y136.516 E5.58652
G1 X170.639 Y136.847 E5.61908
G1 X169.787 Y137.102 E5.65162
G1 X168.915 Y137.28 E5.68418
G1 X168.031 Y137.378 E5.71672
G1 X167.376 Y137.4 E5.74069
G1 X67.624 Y137.4 E9.39024
G1 X66.735 Y137.36 E9.42279
G1 X65.854 Y137.24 E9.45532
G1 X64.986 Y137.042 E9.4879
G1 X64.14 Y136.767 E9.52044
G1 X63.322 Y136.417 E9.55299
G1 X62.539 Y135.994 E9.58555
G1 X61.797 Y135.504 E9.61809
G1 X61.102 Y134.948 E9.65065
G1 X60.624 Y134.5 E9.67462
G1 X60.495 Y134.371 E9.68129
G1 X59.894 Y133.715 E9.71384
G1 X59.356 Y133.007 E9.74638
G1 X58.882 Y132.253 E9.77896
G1 X58.479 Y131.46 E9.8115
G1 X58.148 Y130.634 E9.84406
G1 X57.893 Y129.782 E9.8766
G1 X57.715 Y128.91 E9.90916
G1 X57.617 Y128.026 E9.9417
G1 X57.595 Y127.371 E9.96568
G1 X57.595 Y107.629 E10.68796
G1 X57.635 Y106.74 E10.72052
G1 X57.755 Y105.859 E10.75305
G1 X57.953 Y104.991 E10.78562
G1 X58.228 Y104.145 E10.81817
G1 X58.578 Y103.327 E10.85072
G1 X59.001 Y102.544 E10.88328
G1 X59.491 Y101.802 E10.91581
G1 X60.047 Y101.107 E10.94837
G1 X60.495 Y100.629 E10.97234
G1 X60.624 Y100.5 E10.97902
G1 X61.28 Y99.899 E11.01157
G1 X61.41 Y99.8 E11.01754
G0 F810 X61.988 Y99.361
M204 S5000
M205 X30 Y30
G0 F7200 X62.271 Y99.7
M204 S500
M205 X20 Y20
G1 F6000 E11.04414
G1 F900 X63.01 Y99.241 E11.07597
G1 X63.788 Y98.853 E11.10778
G1 X64.598 Y98.537 E11.13959
G1 X65.434 Y98.297 E11.17141
G1 X66.289 Y98.135 E11.20325
G1 X67.154 Y98.052 E11.23504
G1 X67.627 Y98.04 E11.25235
G1 X167.379 Y98.076 E14.90189
G1 X168.248 Y98.116 E14.93372
G1 X169.11 Y98.236 E14.96556
G1 X169.956 Y98.435 E14.99736
G1 X170.781 Y98.71 E15.02917
G1 X171.577 Y99.06 E15.06099
G1 X172.338 Y99.482 E15.09282
G1 X173.057 Y99.972 E15.12466
G1 X173.728 Y100.525 E15.15647
G1 X174.065 Y100.847 E15.17352
G1 X174.194 Y100.976 E15.1802
G1 X174.78 Y101.618 E15.212
G1 X175.305 Y102.312 E15.24384
G1 X175.764 Y103.051 E15.27566
G1 X176.152 Y103.829 E15.30747
G1 X176.468 Y104.639 E15.33928
G1 X176.708 Y105.475 E15.3711
G1 X176.87 Y106.33 E15.40294
G1 X176.953 Y107.195 E15.43473
G1 X176.965 Y107.665 E15.45193
G1 X176.965 Y127.371 E16.1729
G1 X176.925 Y128.24 E16.20473
G1 X176.805 Y129.101 E16.23653
G1 X176.607 Y129.948 E16.26836
G1 X176.332 Y130.773 E16.30017
G1 X175.982 Y131.569 E16.33199
G1 X175.561 Y132.33 E16.36381
G1 X175.071 Y133.049 E16.39564
G1 X174.518 Y133.72 E16.42745
G1 X174.194 Y134.06 E16.44463
G1 X174.065 Y134.189 E16.45131
G1 X173.423 Y134.775 E16.48311
G1 X172.729 Y135.3 E16.51495
G1 X171.99 Y135.759 E16.54678
G1 X171.212 Y136.147 E16.57858
G1 X170.402 Y136.463 E16.61039
G1 X169.566 Y136.703 E16.64221
G1 X168.711 Y136.865 E16.67405
G1 X167.846 Y136.948 E16.70584
G1 X167.376 Y136.96 E16.72305
G1 X67.624 Y136.96 E20.37259
G1 X66.755 Y136.92 E20.40441
G1 X65.894 Y136.8 E20.43622
G1 X65.047 Y136.602 E20.46804
G1 X64.222 Y136.327 E20.49986
G1 X63.426 Y135.977 E20.53167
G1 X62.665 Y135.556 E20.56349
G1 X61.946 Y135.066 E20.59532
G1 X61.275 Y134.513 E20.62714
G1 X60.935 Y134.189 E20.64432
G1 X60.806 Y134.06 E20.65099
G1 X60.22 Y133.418 E20.6828
G1 X59.695 Y132.724 E20.71463
G1 X59.236 Y131.985 E20.74646
G1 X58.848 Y131.207 E20.77827
G1 X58.532 Y130.397 E20.81008
G1 X58.292 Y129.561 E20.8419
G1 X58.13 Y128.706 E20.87374
G1 X58.047 Y127.841 E20.90553
G1 X58.035 Y127.371 E20.92273
G1 X58.035 Y107.629 E21.64502
G1 X58.075 Y106.76 E21.67684
G1 X58.195 Y105.899 E21.70865
G1 X58.393 Y105.052 E21.74047
G1 X58.668 Y104.227 E21.77229
G1 X59.018 Y103.431 E21.8041
G1 X59.439 Y102.67 E21.83592
G1 X59.929 Y101.951 E21.86775
G1 X60.482 Y101.28 E21.89956
G1 X60.806 Y100.94 E21.91675
G1 X60.935 Y100.811 E21.92342
G1 X61.577 Y100.225 E21.95522
G1 X61.692 Y100.138 E21.9605
G0 F810 X62.271 Y99.7
M204 S5000
M205 X30 Y30
G0 F7200 X62.553 Y100.04
M204 S500
M205 X20 Y20
G1 F6000 E21.9871
G1 F900 X63.277 Y99.597 E22.01815
G1 X64.04 Y99.223 E22.04924
G1 X64.834 Y98.922 E22.08031
G1 X65.653 Y98.698 E22.11137
G1 X66.49 Y98.552 E22.14246
G1 X67.627 Y98.48 E22.18414
G1 X167.379 Y98.516 E25.83368
G1 X168.228 Y98.556 E25.86478
G1 X169.068 Y98.676 E25.89582
G1 X169.894 Y98.875 E25.92691
G1 X170.697 Y99.15 E25.95796
G1 X171.471 Y99.499 E25.98902
G1 X172.209 Y99.92 E26.02011
G1 X172.904 Y100.408 E26.05118
G1 X173.754 Y101.158 E26.09265
G1 X173.883 Y101.287 E26.09932
G1 X174.455 Y101.915 E26.1304
G1 X174.965 Y102.594 E26.16147
G1 X175.408 Y103.318 E26.19253
G1 X175.782 Y104.081 E26.22361
G1 X176.083 Y104.875 E26.25468
G1 X176.307 Y105.694 E26.28574
G1 X176.453 Y106.531 E26.31683
G1 X176.525 Y107.665 E26.3584
G1 X176.525 Y127.371 E27.07937
G1 X176.485 Y128.219 E27.11043
G1 X176.365 Y129.06 E27.14151
G1 X176.167 Y129.886 E27.17259
G1 X175.892 Y130.689 E27.20364
G1 X175.543 Y131.463 E27.2347
G1 X175.123 Y132.201 E27.26577
G1 X174.635 Y132.896 E27.29684
G1 X173.883 Y133.749 E27.33844
G1 X173.754 Y133.878 E27.34512
G1 X173.126 Y134.45 E27.3762
G1 X172.447 Y134.96 E27.40726
G1 X171.723 Y135.403 E27.43832
G1 X170.96 Y135.777 E27.46941
G1 X170.166 Y136.078 E27.50047
G1 X169.347 Y136.302 E27.53154
G1 X168.51 Y136.448 E27.56262
G1 X167.376 Y136.52 E27.60419
G1 X67.624 Y136.52 E31.25374
G1 X66.776 Y136.48 E31.2848
G1 X65.935 Y136.36 E31.31588
G1 X65.109 Y136.162 E31.34695
G1 X64.306 Y135.887 E31.37801
G1 X63.532 Y135.538 E31.40907
G1 X62.794 Y135.118 E31.44014
G1 X62.099 Y134.63 E31.47121
G1 X61.246 Y133.878 E31.51281
G1 X61.117 Y133.749 E31.51948
G1 X60.545 Y133.121 E31.55056
G1 X60.035 Y132.442 E31.58163
G1 X59.592 Y131.718 E31.61269
G1 X59.218 Y130.955 E31.64377
G1 X58.917 Y130.161 E31.67484
G1 X58.693 Y129.342 E31.7059
G1 X58.547 Y128.505 E31.73699
G1 X58.475 Y127.371 E31.77856
G1 X58.475 Y107.629 E32.50085
G1 X58.515 Y106.781 E32.53191
G1 X58.635 Y105.94 E32.56299
G1 X58.833 Y105.114 E32.59406
G1 X59.108 Y104.311 E32.62512
G1 X59.457 Y103.537 E32.65618
G1 X59.877 Y102.799 E32.68725
G1 X60.365 Y102.104 E32.71832
G1 X61.117 Y101.251 E32.75992
G1 X61.246 Y101.122 E32.76659
G1 X61.874 Y100.55 E32.79767
G1 X61.972 Y100.476 E32.80217
G0 F810 X62.553 Y100.04
M204 S5000
M205 X30 Y30
G0 F7200 X62.834 Y100.381
M204 S500
M205 X20 Y20
G1 F6000 E32.82876
G1 F900 X63.543 Y99.953 E32.85906
G1 X64.29 Y99.594 E32.88939
G1 X65.068 Y99.31 E32.91969
G1 X65.869 Y99.101 E32.94997
G1 X66.687 Y98.971 E32.98028
G1 X67.627 Y98.92 E33.01472
G1 X167.379 Y98.956 E36.66426
G1 X168.206 Y98.996 E36.69455
G1 X169.026 Y99.116 E36.72487
G1 X169.83 Y99.314 E36.75517
G1 X170.611 Y99.589 E36.78546
G1 X171.362 Y99.938 E36.81576
G1 X172.076 Y100.358 E36.84606
G1 X172.747 Y100.845 E36.8764
G1 X173.443 Y101.469 E36.9106
G1 X173.572 Y101.598 E36.91727
G1 X174.129 Y102.211 E36.94757
G1 X174.624 Y102.875 E36.97788
G1 X175.052 Y103.584 E37.00818
G1 X175.411 Y104.331 E37.0385
G1 X175.695 Y105.109 E37.0688
G1 X175.904 Y105.91 E37.09909
G1 X176.034 Y106.728 E37.12939
G1 X176.085 Y107.665 E37.16372
G1 X176.085 Y127.371 E37.88469
G1 X176.045 Y128.198 E37.91498
G1 X175.925 Y129.018 E37.9453
G1 X175.727 Y129.822 E37.97559
G1 X175.453 Y130.603 E38.00587
G1 X175.104 Y131.355 E38.03621
G1 X174.685 Y132.069 E38.06649
G1 X174.198 Y132.739 E38.0968
G1 X173.572 Y133.438 E38.13113
G1 X173.443 Y133.567 E38.1378
G1 X172.83 Y134.124 E38.16811
G1 X172.166 Y134.619 E38.19841
G1 X171.457 Y135.047 E38.22871
G1 X170.71 Y135.406 E38.25903
G1 X169.932 Y135.69 E38.28933
G1 X169.131 Y135.899 E38.31962
G1 X168.313 Y136.029 E38.34992
G1 X167.376 Y136.08 E38.38425
G1 X67.624 Y136.08 E42.03379
G1 X66.797 Y136.04 E42.06408
G1 X65.977 Y135.92 E42.0944
G1 X65.173 Y135.722 E42.1247
G1 X64.392 Y135.448 E42.15498
G1 X63.64 Y135.099 E42.18531
G1 X62.926 Y134.68 E42.2156
G1 X62.256 Y134.193 E42.2459
G1 X61.557 Y133.567 E42.28023
G1 X61.428 Y133.438 E42.28691
G1 X60.871 Y132.825 E42.31721
G1 X60.376 Y132.161 E42.34751
G1 X59.948 Y131.452 E42.37781
G1 X59.589 Y130.705 E42.40813
G1 X59.305 Y129.927 E42.43844
G1 X59.096 Y129.126 E42.46872
G1 X58.966 Y128.308 E42.49902
G1 X58.915 Y127.371 E42.53336
G1 X58.915 Y107.629 E43.25564
G1 X58.955 Y106.802 E43.28593
G1 X59.075 Y105.982 E43.31625
G1 X59.273 Y105.178 E43.34655
G1 X59.547 Y104.397 E43.37683
G1 X59.896 Y103.645 E43.40716
G1 X60.315 Y102.931 E43.43745
G1 X60.802 Y102.261 E43.46775
G1 X61.428 Y101.562 E43.50208
G1 X61.557 Y101.433 E43.50876
G1 X62.17 Y100.876 E43.53906
G1 X62.251 Y100.815 E43.54277
G0 F810 X62.834 Y100.381
M204 S5000
M205 X30 Y30
G0 F7200 X63.115 Y100.723
M204 S500
M205 X20 Y20
G1 F6000 E43.56937
G1 F900 X63.808 Y100.31 E43.59888
G1 X64.538 Y99.968 E43.62838
G1 X65.299 Y99.699 E43.65791
G1 X66.083 Y99.507 E43.68744
G1 X66.881 Y99.394 E43.71692
G1 X67.627 Y99.36 E43.74425
G1 X167.379 Y99.396 E47.39379
G1 X168.185 Y99.436 E47.42331
G1 X168.982 Y99.556 E47.4528
G1 X169.764 Y99.754 E47.48231
G1 X170.523 Y100.029 E47.51185
G1 X171.251 Y100.377 E47.54137
G1 X171.94 Y100.796 E47.57087
G1 X172.585 Y101.281 E47.6004
G1 X173.132 Y101.78 E47.62749
G1 X173.261 Y101.909 E47.63416
G1 X173.802 Y102.507 E47.66367
G1 X174.282 Y103.156 E47.6932
G1 X174.695 Y103.849 E47.72271
G1 X175.037 Y104.579 E47.75221
G1 X175.306 Y105.34 E47.78174
G1 X175.498 Y106.124 E47.81127
G1 X175.611 Y106.922 E47.84076
G1 X175.645 Y107.665 E47.86797
G1 X175.645 Y127.371 E48.58893
G1 X175.605 Y128.177 E48.61846
G1 X175.485 Y128.975 E48.64798
G1 X175.288 Y129.757 E48.67749
G1 X175.013 Y130.515 E48.70699
G1 X174.665 Y131.243 E48.73651
G1 X174.247 Y131.933 E48.76603
G1 X173.762 Y132.578 E48.79555
G1 X173.261 Y133.127 E48.82274
G1 X173.132 Y133.256 E48.82942
G1 X172.534 Y133.797 E48.85892
G1 X171.885 Y134.277 E48.88845
G1 X171.192 Y134.69 E48.91797
G1 X170.462 Y135.032 E48.94746
G1 X169.701 Y135.301 E48.97699
G1 X168.917 Y135.493 E49.00652
G1 X168.119 Y135.606 E49.03601
G1 X167.376 Y135.64 E49.06322
G1 X67.624 Y135.64 E52.71276
G1 X66.818 Y135.6 E52.74229
G1 X66.02 Y135.48 E52.77181
G1 X65.238 Y135.283 E52.80132
G1 X64.48 Y135.008 E52.83082
G1 X63.752 Y134.66 E52.86034
G1 X63.062 Y134.242 E52.88985
G1 X62.417 Y133.757 E52.91938
G1 X61.868 Y133.256 E52.94657
G1 X61.739 Y133.127 E52.95325
G1 X61.198 Y132.529 E52.98275
G1 X60.718 Y131.88 E53.01228
G1 X60.305 Y131.187 E53.0418
G1 X59.963 Y130.457 E53.07129
G1 X59.694 Y129.696 E53.10082
G1 X59.502 Y128.912 E53.13035
G1 X59.389 Y128.114 E53.15984
G1 X59.355 Y127.371 E53.18705
G1 X59.355 Y107.629 E53.90934
G1 X59.395 Y106.823 E53.93886
G1 X59.515 Y106.025 E53.96838
G1 X59.712 Y105.243 E53.99789
G1 X59.987 Y104.485 E54.02739
G1 X60.335 Y103.757 E54.05691
G1 X60.753 Y103.067 E54.08643
G1 X61.238 Y102.422 E54.11595
G1 X61.739 Y101.873 E54.14314
G1 X61.868 Y101.744 E54.14982
G1 X62.466 Y101.203 E54.17932
G1 X62.531 Y101.155 E54.18228
G0 F810 X63.115 Y100.723
M204 S5000
M205 X30 Y30
G0 F7200 X63.394 Y101.066
M204 S500
M205 X20 Y20
G1 F6000 E54.20888
G1 F900 X64.071 Y100.669 E54.23759
G1 X64.785 Y100.343 E54.26631
G1 X65.528 Y100.091 E54.29501
G1 X66.293 Y99.916 E54.32372
G1 X67.072 Y99.82 E54.35244
G1 X67.627 Y99.8 E54.37276
G1 X167.379 Y99.836 E58.0223
G1 X168.162 Y99.876 E58.05098
G1 X168.938 Y99.996 E58.07971
G1 X169.697 Y100.194 E58.10841
G1 X170.432 Y100.468 E58.13711
G1 X171.135 Y100.816 E58.16581
G1 X171.8 Y101.234 E58.19454
G1 X172.418 Y101.716 E58.22322
G1 X172.821 Y102.091 E58.24336
G1 X172.95 Y102.22 E58.25003
G1 X173.476 Y102.803 E58.27876
G1 X173.939 Y103.435 E58.30742
G1 X174.336 Y104.112 E58.33614
G1 X174.662 Y104.826 E58.36485
G1 X174.914 Y105.569 E58.39356
G1 X175.089 Y106.334 E58.42227
G1 X175.185 Y107.113 E58.45099
G1 X175.205 Y107.665 E58.47119
G1 X175.205 Y127.371 E59.19216
G1 X175.165 Y128.155 E59.22088
G1 X175.046 Y128.93 E59.24957
G1 X174.848 Y129.689 E59.27827
G1 X174.574 Y130.424 E59.30696
G1 X174.226 Y131.128 E59.3357
G1 X173.809 Y131.792 E59.36438
G1 X173.326 Y132.411 E59.39311
G1 X172.95 Y132.816 E59.41333
G1 X172.821 Y132.945 E59.42
G1 X172.238 Y133.471 E59.44873
G1 X171.606 Y133.934 E59.47739
G1 X170.929 Y134.331 E59.50611
G1 X170.215 Y134.657 E59.53482
G1 X169.472 Y134.909 E59.56353
G1 X168.707 Y135.084 E59.59224
G1 X167.928 Y135.18 E59.62096
G1 X167.376 Y135.2 E59.64116
G1 X67.624 Y135.2 E63.29071
G1 X66.84 Y135.16 E63.31943
G1 X66.065 Y135.041 E63.34811
G1 X65.306 Y134.843 E63.37681
G1 X64.571 Y134.569 E63.40551
G1 X63.867 Y134.221 E63.43424
G1 X63.203 Y133.804 E63.46293
G1 X62.584 Y133.321 E63.49165
G1 X62.179 Y132.945 E63.51187
G1 X62.05 Y132.816 E63.51855
G1 X61.524 Y132.233 E63.54727
G1 X61.061 Y131.601 E63.57594
G1 X60.664 Y130.924 E63.60465
G1 X60.338 Y130.21 E63.63337
G1 X60.086 Y129.467 E63.66207
G1 X59.911 Y128.702 E63.69078
G1 X59.815 Y127.923 E63.7195
G1 X59.795 Y127.371 E63.73971
G1 X59.795 Y107.629 E64.46199
G1 X59.835 Y106.845 E64.49071
G1 X59.954 Y106.07 E64.5194
G1 X60.152 Y105.311 E64.5481
G1 X60.426 Y104.576 E64.5768
G1 X60.774 Y103.872 E64.60553
G1 X61.191 Y103.208 E64.63421
G1 X61.674 Y102.589 E64.66294
G1 X62.05 Y102.184 E64.68316
G1 X62.179 Y102.055 E64.68983
G1 X62.762 Y101.529 E64.71856
G1 X62.808 Y101.495 E64.72065
G0 F810 X63.394 Y101.066
M204 S5000
M205 X30 Y30
G0 F7200 X63.673 Y101.409
M204 S500
M205 X20 Y20
G1 F6000 E64.74725
G1 F900 X64.333 Y101.029 E64.77512
G1 X65.029 Y100.719 E64.80299
G1 X65.754 Y100.485 E64.83086
G1 X66.5 Y100.328 E64.85875
G1 X67.627 Y100.24 E64.90011
G1 X167.379 Y100.276 E68.54965
G1 X168.139 Y100.316 E68.5775
G1 X168.892 Y100.436 E68.6054
G1 X169.627 Y100.634 E68.63324
G1 X170.338 Y100.908 E68.66112
G1 X171.017 Y101.255 E68.68902
G1 X171.655 Y101.671 E68.71689
G1 X172.51 Y102.402 E68.75804
G1 X172.639 Y102.531 E68.76472
G1 X173.148 Y103.098 E68.79259
G1 X173.596 Y103.714 E68.82046
G1 X173.976 Y104.374 E68.84832
G1 X174.286 Y105.07 E68.8762
G1 X174.52 Y105.795 E68.90407
G1 X174.677 Y106.541 E68.93196
G1 X174.765 Y107.665 E68.97321
G1 X174.765 Y127.371 E69.69418
G1 X174.725 Y128.132 E69.72206
G1 X174.606 Y128.884 E69.74991
G1 X174.408 Y129.62 E69.7778
G1 X174.134 Y130.331 E69.80568
G1 X173.788 Y131.009 E69.83352
G1 X173.372 Y131.648 E69.86142
G1 X172.639 Y132.505 E69.90268
G1 X172.51 Y132.634 E69.90935
G1 X171.943 Y133.143 E69.93723
G1 X171.327 Y133.591 E69.9651
G1 X170.667 Y133.971 E69.99296
G1 X169.971 Y134.281 E70.02084
G1 X169.246 Y134.515 E70.04871
G1 X168.5 Y134.672 E70.0766
G1 X167.376 Y134.76 E70.11785
