;FLAVOR:Marlin
;TIME:11618
;Filament used: 19.9826m
;Layer height: 0.25
;Generated with Cura_SteamEngine 3.6.0
M140 S70
M105
M190 S70
M104 S215
M105
M109 S215
M82 ;absolute extrusion mode
; Ender 3 Custom Start G-code
G28 ; Home all axes
G92 E0 ; Reset Extruder
G1 Z2.0 F3000 ; Move Z Axis up little to prevent scratching of Heat Bed
G1 X0.1 Y20 Z0.3 F5000.0 ; Move to start position
G1 X0.1 Y200.0 Z0.3 F1500.0 E15 ; Draw the first line
G1 X0.4 Y200.0 Z0.3 F5000.0 ; Move to side a little
G1 X0.4 Y20 Z0.3 F1500.0 E30 ; Draw the second line
G92 E0 ; Reset Extruder
G1 Z2.0 F3000 ; Move Z Axis up little to prevent scratching of Heat Bed
; End of custom start GCode
G92 E0
G1 F6000 E-5
;LAYER_COUNT:177
;LAYER:0
M107
M204 S5000
M205 X30 Y30
G0 F7200 X78.901 Y99.385 Z0.25
M204 S500
M205 X20 Y20
;TYPE:SKIRT
G1 F6000 E0
G1 F900 X79.925 Y98.642 E0.05786
G1 X80.995 Y97.965 E0.11577
G1 X82.104 Y97.358 E0.17358
G1 X83.251 Y96.821 E0.2315
G1 X84.428 Y96.358 E0.28934
G1 X85.633 Y95.971 E0.34722
G1 X86.859 Y95.66 E0.40507
G1 X88.103 Y95.428 E0.46294
G1 X89.359 Y95.274 E0.52081
G1 X91.159 Y95.193 E0.60321
G1 X136.841 Y95.193 E2.69237
G1 X138.106 Y95.233 E2.75026
G1 X139.365 Y95.353 E2.80809
G1 X140.615 Y95.552 E2.86598
G1 X141.85 Y95.83 E2.92387
G1 X143.064 Y96.185 E2.98172
G1 X144.254 Y96.616 E3.0396
G1 X145.414 Y97.121 E3.09746
G1 X146.54 Y97.699 E3.15534
G1 X147.627 Y98.347 E3.21322
G1 X148.671 Y99.062 E3.27108
G1 X149.667 Y99.841 E3.32891
G1 X150.997 Y101.057 E3.41133
G1 X151.126 Y101.186 E3.41967
G1 X151.992 Y102.108 E3.47752
G1 X152.798 Y103.084 E3.53541
G1 X153.541 Y104.108 E3.59326
G1 X154.218 Y105.178 E3.65117
G1 X154.825 Y106.287 E3.70899
G1 X155.362 Y107.434 E3.76691
G1 X155.825 Y108.611 E3.82475
G1 X156.212 Y109.816 E3.88263
G1 X156.523 Y111.042 E3.94047
G1 X156.755 Y112.286 E3.99835
G1 X156.909 Y113.542 E4.05622
G1 X156.99 Y115.342 E4.13862
G1 X156.99 Y119.658 E4.336
G1 X156.95 Y120.923 E4.39388
G1 X156.83 Y122.182 E4.45172
G1 X156.631 Y123.432 E4.50961
G1 X156.353 Y124.667 E4.5675
G1 X155.998 Y125.881 E4.62534
G1 X155.567 Y127.071 E4.68323
G1 X155.062 Y128.231 E4.74108
G1 X154.484 Y129.357 E4.79897
G1 X153.836 Y130.444 E4.85684
G1 X153.121 Y131.488 E4.91471
G1 X152.342 Y132.484 E4.97254
G1 X151.126 Y133.814 E5.05495
G1 X150.997 Y133.943 E5.0633
G1 X150.075 Y134.809 E5.12114
G1 X149.099 Y135.615 E5.17903
G1 X148.075 Y136.358 E5.23689
G1 X147.005 Y137.035 E5.2948
G1 X145.896 Y137.642 E5.35262
G1 X144.749 Y138.179 E5.41053
G1 X143.572 Y138.642 E5.46838
G1 X142.367 Y139.029 E5.52626
G1 X141.141 Y139.34 E5.5841
G1 X139.897 Y139.572 E5.64197
G1 X138.641 Y139.726 E5.69984
G1 X136.841 Y139.807 E5.78225
G1 X91.159 Y139.807 E7.87141
G1 X89.894 Y139.767 E7.92929
G1 X88.635 Y139.647 E7.98713
G1 X87.385 Y139.448 E8.04501
G1 X86.15 Y139.17 E8.1029
G1 X84.936 Y138.815 E8.16075
G1 X83.746 Y138.384 E8.21863
G1 X82.586 Y137.879 E8.27649
G1 X81.46 Y137.301 E8.33437
G1 X80.373 Y136.653 E8.39225
G1 X79.329 Y135.938 E8.45012
G1 X78.333 Y135.159 E8.50794
G1 X77.003 Y133.943 E8.59036
G1 X76.874 Y133.814 E8.5987
G1 X76.008 Y132.892 E8.65655
G1 X75.202 Y131.916 E8.71444
G1 X74.459 Y130.892 E8.7723
G1 X73.782 Y129.822 E8.8302
G1 X73.175 Y128.713 E8.88802
G1 X72.638 Y127.566 E8.94594
G1 X72.175 Y126.389 E9.00378
G1 X71.788 Y125.184 E9.06166
G1 X71.477 Y123.958 E9.11951
G1 X71.245 Y122.714 E9.17738
G1 X71.091 Y121.458 E9.23525
G1 X71.01 Y119.658 E9.31765
G1 X71.01 Y115.342 E9.51503
G1 X71.05 Y114.077 E9.57291
G1 X71.17 Y112.818 E9.63075
G1 X71.369 Y111.568 E9.68864
G1 X71.647 Y110.333 E9.74653
G1 X72.002 Y109.119 E9.80438
G1 X72.433 Y107.929 E9.86226
G1 X72.938 Y106.769 E9.92012
G1 X73.516 Y105.643 E9.978
G1 X74.164 Y104.556 E10.03587
G1 X74.879 Y103.512 E10.09374
G1 X75.658 Y102.516 E10.15157
G1 X76.874 Y101.186 E10.23399
G1 X77.003 Y101.057 E10.24233
G1 X77.925 Y100.191 E10.30018
G1 X78.453 Y99.755 E10.33149
G0 F810 X78.901 Y99.385
M204 S5000
M205 X30 Y30
G0 F7200 X79.192 Y99.716
M204 S500
M205 X20 Y20
G1 F6000 E10.35806
G1 F900 X80.206 Y98.983 E10.41528
G1 X81.266 Y98.316 E10.47256
G1 X82.365 Y97.719 E10.52976
G1 X83.501 Y97.193 E10.58701
G1 X84.667 Y96.74 E10.64421
G1 X85.861 Y96.363 E10.70148
G1 X87.076 Y96.064 E10.7587
G1 X88.307 Y95.842 E10.8159
G1 X89.55 Y95.699 E10.87313
G1 X91.159 Y95.633 E10.94677
G1 X136.841 Y95.633 E13.03593
G1 X138.092 Y95.673 E13.09317
G1 X139.337 Y95.793 E13.15037
G1 X140.573 Y95.992 E13.20763
G1 X141.793 Y96.27 E13.26485
G1 X142.993 Y96.625 E13.32208
G1 X144.168 Y97.056 E13.37932
G1 X145.313 Y97.561 E13.43655
G1 X146.423 Y98.138 E13.49376
G1 X147.494 Y98.785 E13.55098
G1 X148.522 Y99.499 E13.60822
G1 X149.502 Y100.277 E13.66545
G1 X150.686 Y101.368 E13.73908
G1 X150.815 Y101.497 E13.74742
G1 X151.671 Y102.41 E13.80466
G1 X152.467 Y103.375 E13.86187
G1 X153.2 Y104.389 E13.91909
G1 X153.867 Y105.449 E13.97636
G1 X154.464 Y106.548 E14.03356
G1 X154.99 Y107.684 E14.09081
G1 X155.443 Y108.85 E14.14802
G1 X155.82 Y110.044 E14.20528
G1 X156.119 Y111.259 E14.2625
G1 X156.341 Y112.49 E14.31971
G1 X156.484 Y113.733 E14.37693
G1 X156.55 Y115.342 E14.45057
G1 X156.55 Y119.658 E14.64796
G1 X156.51 Y120.909 E14.7052
G1 X156.39 Y122.154 E14.7624
G1 X156.191 Y123.39 E14.81965
G1 X155.913 Y124.61 E14.87688
G1 X155.558 Y125.81 E14.93411
G1 X155.127 Y126.985 E14.99134
G1 X154.622 Y128.13 E15.04857
G1 X154.045 Y129.24 E15.10579
G1 X153.398 Y130.311 E15.16301
G1 X152.684 Y131.339 E15.22025
G1 X151.906 Y132.319 E15.27747
G1 X150.815 Y133.503 E15.3511
G1 X150.686 Y133.632 E15.35945
G1 X149.773 Y134.488 E15.41668
G1 X148.808 Y135.284 E15.47389
G1 X147.794 Y136.017 E15.53111
G1 X146.734 Y136.684 E15.58839
G1 X145.635 Y137.281 E15.64558
G1 X144.499 Y137.807 E15.70284
G1 X143.333 Y138.26 E15.76004
G1 X142.139 Y138.637 E15.81731
G1 X140.924 Y138.936 E15.87453
G1 X139.693 Y139.158 E15.93173
G1 X138.45 Y139.301 E15.98895
G1 X136.841 Y139.367 E16.0626
G1 X91.159 Y139.367 E18.15176
G1 X89.908 Y139.327 E18.209
G1 X88.663 Y139.207 E18.2662
G1 X87.427 Y139.008 E18.32346
G1 X86.207 Y138.73 E18.38068
G1 X85.007 Y138.375 E18.43791
G1 X83.832 Y137.944 E18.49515
G1 X82.687 Y137.439 E18.55238
G1 X81.577 Y136.862 E18.60959
G1 X80.506 Y136.215 E18.66681
G1 X79.478 Y135.501 E18.72405
G1 X78.498 Y134.723 E18.78128
G1 X77.314 Y133.632 E18.85491
G1 X77.185 Y133.503 E18.86325
G1 X76.329 Y132.59 E18.92049
G1 X75.533 Y131.625 E18.9777
G1 X74.8 Y130.611 E19.03492
G1 X74.133 Y129.551 E19.09219
G1 X73.536 Y128.452 E19.14939
G1 X73.01 Y127.316 E19.20664
G1 X72.557 Y126.15 E19.26385
G1 X72.18 Y124.956 E19.32111
G1 X71.881 Y123.741 E19.37833
G1 X71.659 Y122.51 E19.43554
G1 X71.516 Y121.267 E19.49276
G1 X71.45 Y119.658 E19.5664
G1 X71.45 Y115.342 E19.76379
G1 X71.49 Y114.091 E19.82103
G1 X71.61 Y112.846 E19.87823
G1 X71.809 Y111.61 E19.93548
G1 X72.087 Y110.39 E19.9927
G1 X72.442 Y109.19 E20.04994
G1 X72.873 Y108.015 E20.10717
G1 X73.378 Y106.87 E20.1644
G1 X73.955 Y105.76 E20.22161
G1 X74.602 Y104.689 E20.27884
G1 X75.316 Y103.661 E20.33608
G1 X76.094 Y102.681 E20.3933
G1 X77.185 Y101.497 E20.46693
G1 X77.314 Y101.368 E20.47528
G1 X78.227 Y100.512 E20.53251
G1 X78.744 Y100.085 E20.56318
G0 F810 X79.192 Y99.716
M204 S5000
M205 X30 Y30
G0 F7200 X79.483 Y100.047
M204 S500
M205 X20 Y20
G1 F6000 E20.58975
G1 F900 X80.487 Y99.324 E20.64633
G1 X81.536 Y98.668 E20.70291
G1 X82.625 Y98.081 E20.75949
G1 X83.75 Y97.565 E20.81609
G1 X84.906 Y97.123 E20.87269
G1 X86.088 Y96.757 E20.92928
G1 X87.291 Y96.468 E20.98586
G1 X88.51 Y96.257 E21.04244
G1 X89.74 Y96.126 E21.09901
G1 X91.159 Y96.073 E21.16395
G1 X136.841 Y96.073 E23.25311
G1 X138.078 Y96.113 E23.30971
G1 X139.309 Y96.233 E23.36627
G1 X140.53 Y96.432 E23.42285
G1 X141.736 Y96.709 E23.47944
G1 X142.921 Y97.064 E23.53601
G1 X144.081 Y97.495 E23.59261
G1 X145.211 Y98 E23.64921
G1 X146.305 Y98.577 E23.70577
G1 X147.36 Y99.223 E23.76235
G1 X148.371 Y99.936 E23.81892
G1 X149.334 Y100.713 E23.87551
G1 X150.375 Y101.679 E23.94046
G1 X150.504 Y101.808 E23.9488
G1 X151.35 Y102.711 E24.00539
G1 X152.136 Y103.666 E24.06196
G1 X152.859 Y104.67 E24.11854
G1 X153.515 Y105.719 E24.17512
G1 X154.102 Y106.808 E24.2317
G1 X154.618 Y107.933 E24.2883
G1 X155.06 Y109.089 E24.3449
G1 X155.426 Y110.271 E24.40149
G1 X155.715 Y111.474 E24.45807
G1 X155.926 Y112.693 E24.51465
G1 X156.057 Y113.923 E24.57122
G1 X156.11 Y115.342 E24.63616
G1 X156.11 Y119.658 E24.83354
G1 X156.07 Y120.895 E24.89014
G1 X155.95 Y122.126 E24.9467
G1 X155.751 Y123.347 E25.00328
G1 X155.474 Y124.553 E25.05987
G1 X155.119 Y125.738 E25.11644
G1 X154.688 Y126.898 E25.17304
G1 X154.183 Y128.028 E25.22964
G1 X153.606 Y129.122 E25.2862
G1 X152.96 Y130.177 E25.34278
G1 X152.247 Y131.188 E25.39936
G1 X151.47 Y132.151 E25.45594
G1 X150.504 Y133.192 E25.52089
G1 X150.375 Y133.321 E25.52924
G1 X149.472 Y134.167 E25.58582
G1 X148.517 Y134.953 E25.64239
G1 X147.513 Y135.676 E25.69897
G1 X146.464 Y136.332 E25.75555
G1 X145.375 Y136.919 E25.81213
G1 X144.25 Y137.435 E25.86873
G1 X143.094 Y137.877 E25.92533
G1 X141.912 Y138.243 E25.98192
G1 X140.709 Y138.532 E26.0385
G1 X139.49 Y138.743 E26.09508
G1 X138.26 Y138.874 E26.15165
G1 X136.841 Y138.927 E26.21659
G1 X91.159 Y138.927 E28.30575
G1 X89.922 Y138.887 E28.36235
G1 X88.691 Y138.767 E28.41891
G1 X87.47 Y138.568 E28.47549
G1 X86.264 Y138.291 E28.53208
G1 X85.079 Y137.936 E28.58865
G1 X83.919 Y137.505 E28.64525
G1 X82.789 Y137 E28.70185
G1 X81.695 Y136.423 E28.75841
G1 X80.64 Y135.777 E28.81499
G1 X79.629 Y135.064 E28.87157
G1 X78.666 Y134.287 E28.92815
G1 X77.625 Y133.321 E28.9931
G1 X77.496 Y133.192 E29.00145
G1 X76.65 Y132.289 E29.05803
G1 X75.864 Y131.334 E29.1146
G1 X75.141 Y130.33 E29.17118
G1 X74.485 Y129.281 E29.22776
G1 X73.898 Y128.192 E29.28434
G1 X73.382 Y127.067 E29.34094
G1 X72.94 Y125.911 E29.39754
G1 X72.574 Y124.729 E29.45413
G1 X72.285 Y123.526 E29.51071
G1 X72.074 Y122.307 E29.56729
G1 X71.943 Y121.077 E29.62386
G1 X71.89 Y119.658 E29.6888
G1 X71.89 Y115.342 E29.88618
G1 X71.93 Y114.105 E29.94278
G1 X72.05 Y112.874 E29.99935
G1 X72.249 Y111.653 E30.05592
G1 X72.526 Y110.447 E30.11251
G1 X72.881 Y109.262 E30.16909
G1 X73.312 Y108.102 E30.22568
G1 X73.817 Y106.972 E30.28228
G1 X74.394 Y105.878 E30.33885
G1 X75.04 Y104.823 E30.39542
G1 X75.753 Y103.812 E30.452
G1 X76.53 Y102.849 E30.50859
G1 X77.496 Y101.808 E30.57353
G1 X77.625 Y101.679 E30.58188
G1 X78.528 Y100.833 E30.63847
G1 X79.035 Y100.416 E30.66849
G0 F810 X79.483 Y100.047
M204 S5000
M205 X30 Y30
G0 F7200 X79.774 Y100.378
M204 S500
M205 X20 Y20
G1 F6000 E30.69506
G1 F900 X80.768 Y99.666 E30.75098
G1 X81.806 Y99.02 E30.80689
G1 X82.885 Y98.443 E30.86285
G1 X83.999 Y97.938 E30.91878
G1 X85.143 Y97.507 E30.97469
G1 X86.313 Y97.152 E31.03061
G1 X87.504 Y96.874 E31.08654
G1 X88.711 Y96.674 E31.14249
G1 X89.928 Y96.554 E31.19842
G1 X91.159 Y96.513 E31.25475
G1 X136.841 Y96.513 E33.34391
G1 X138.063 Y96.553 E33.39982
G1 X139.28 Y96.673 E33.45575
G1 X140.487 Y96.872 E33.51169
G1 X141.678 Y97.149 E33.56761
G1 X142.848 Y97.504 E33.62353
G1 X143.993 Y97.935 E33.67948
G1 X145.107 Y98.439 E33.7354
G1 X146.186 Y99.015 E33.79133
G1 X147.225 Y99.661 E33.84729
G1 X148.219 Y100.373 E33.9032
G1 X149.165 Y101.148 E33.95913
G1 X150.064 Y101.99 E34.01546
G1 X150.193 Y102.119 E34.0238
G1 X151.029 Y103.012 E34.07975
G1 X151.805 Y103.957 E34.13567
G1 X152.517 Y104.951 E34.19159
G1 X153.163 Y105.989 E34.2475
G1 X153.74 Y107.068 E34.30346
G1 X154.245 Y108.182 E34.35939
G1 X154.676 Y109.326 E34.4153
G1 X155.031 Y110.496 E34.47122
G1 X155.309 Y111.687 E34.52715
G1 X155.509 Y112.894 E34.5831
G1 X155.629 Y114.111 E34.63903
G1 X155.67 Y115.342 E34.69536
G1 X155.67 Y119.658 E34.89274
G1 X155.63 Y120.88 E34.94865
G1 X155.51 Y122.097 E35.00458
G1 X155.311 Y123.304 E35.06052
G1 X155.034 Y124.495 E35.11645
G1 X154.679 Y125.665 E35.17236
G1 X154.248 Y126.81 E35.22831
G1 X153.744 Y127.924 E35.28423
G1 X153.168 Y129.003 E35.34017
G1 X152.522 Y130.042 E35.39612
G1 X151.81 Y131.036 E35.45204
G1 X151.035 Y131.982 E35.50796
G1 X150.193 Y132.881 E35.56429
G1 X150.064 Y133.01 E35.57264
G1 X149.171 Y133.846 E35.62858
G1 X148.226 Y134.622 E35.6845
G1 X147.232 Y135.334 E35.74042
G1 X146.194 Y135.98 E35.79633
G1 X145.115 Y136.557 E35.85229
G1 X144.001 Y137.062 E35.90823
G1 X142.857 Y137.493 E35.96413
G1 X141.687 Y137.848 E36.02005
G1 X140.496 Y138.126 E36.07598
G1 X139.289 Y138.326 E36.13193
G1 X138.072 Y138.446 E36.18786
G1 X136.841 Y138.487 E36.24419
G1 X91.159 Y138.487 E38.33335
G1 X89.937 Y138.447 E38.38926
G1 X88.72 Y138.327 E38.44519
G1 X87.513 Y138.128 E38.50113
G1 X86.322 Y137.851 E38.55706
G1 X85.152 Y137.496 E38.61297
G1 X84.007 Y137.065 E38.66892
G1 X82.893 Y136.561 E38.72484
G1 X81.814 Y135.985 E38.78078
G1 X80.775 Y135.339 E38.83673
G1 X79.781 Y134.627 E38.89265
G1 X78.835 Y133.852 E38.94857
G1 X77.936 Y133.01 E39.0049
G1 X77.807 Y132.881 E39.01325
G1 X76.971 Y131.988 E39.06919
G1 X76.195 Y131.043 E39.12511
G1 X75.483 Y130.049 E39.18103
G1 X74.837 Y129.011 E39.23694
G1 X74.26 Y127.932 E39.2929
G1 X73.755 Y126.818 E39.34884
G1 X73.324 Y125.674 E39.40474
G1 X72.969 Y124.504 E39.46066
G1 X72.691 Y123.313 E39.51659
G1 X72.491 Y122.106 E39.57254
G1 X72.371 Y120.889 E39.62847
G1 X72.33 Y119.658 E39.6848
G1 X72.33 Y115.342 E39.88218
G1 X72.37 Y114.12 E39.9381
G1 X72.49 Y112.903 E39.99402
G1 X72.689 Y111.696 E40.04997
G1 X72.966 Y110.505 E40.10589
G1 X73.321 Y109.335 E40.1618
G1 X73.752 Y108.19 E40.21776
G1 X74.256 Y107.076 E40.27367
G1 X74.832 Y105.997 E40.32961
G1 X75.478 Y104.958 E40.38556
G1 X76.19 Y103.964 E40.44148
G1 X76.965 Y103.018 E40.49741
G1 X77.807 Y102.119 E40.55374
G1 X77.936 Y101.99 E40.56208
G1 X78.829 Y101.154 E40.61802
G1 X79.325 Y100.746 E40.64739
G0 F810 X79.774 Y100.378
M204 S5000
M205 X30 Y30
G0 F7200 X80.065 Y100.71
M204 S500
M205 X20 Y20
G1 F6000 E40.67396
G1 F900 X81.048 Y100.008 E40.72921
G1 X82.076 Y99.372 E40.78449
G1 X83.144 Y98.806 E40.83977
G1 X84.247 Y98.312 E40.89504
G1 X85.38 Y97.892 E40.9503
G1 X86.538 Y97.547 E41.00556
G1 X87.717 Y97.28 E41.06084
G1 X88.91 Y97.092 E41.11607
G1 X90.114 Y96.983 E41.17136
G1 X91.159 Y96.953 E41.21917
G1 X136.841 Y96.953 E43.30833
G1 X138.049 Y96.993 E43.36361
G1 X139.251 Y97.113 E43.41885
G1 X140.443 Y97.312 E43.47412
G1 X141.619 Y97.589 E43.52937
G1 X142.775 Y97.944 E43.58468
G1 X143.904 Y98.374 E43.63993
G1 X145.002 Y98.878 E43.69518
G1 X146.065 Y99.454 E43.75047
G1 X147.087 Y100.099 E43.80574
G1 X148.064 Y100.809 E43.86097
G1 X148.993 Y101.583 E43.91627
G1 X149.753 Y102.301 E43.96409
G1 X149.882 Y102.43 E43.97243
G1 X150.708 Y103.313 E44.02773
G1 X151.473 Y104.248 E44.08297
G1 X152.175 Y105.231 E44.13822
G1 X152.811 Y106.259 E44.1935
G1 X153.377 Y107.327 E44.24878
G1 X153.871 Y108.43 E44.30405
G1 X154.291 Y109.563 E44.35931
G1 X154.636 Y110.721 E44.41457
G1 X154.903 Y111.9 E44.46985
G1 X155.091 Y113.093 E44.52508
G1 X155.2 Y114.297 E44.58037
G1 X155.23 Y115.342 E44.62818
G1 X155.23 Y119.658 E44.82556
G1 X155.19 Y120.866 E44.88084
G1 X155.07 Y122.068 E44.93608
G1 X154.871 Y123.26 E44.99135
G1 X154.594 Y124.436 E45.0466
G1 X154.239 Y125.592 E45.10191
G1 X153.809 Y126.721 E45.15716
G1 X153.305 Y127.819 E45.21241
G1 X152.729 Y128.882 E45.2677
G1 X152.084 Y129.904 E45.32297
G1 X151.374 Y130.881 E45.3782
G1 X150.6 Y131.81 E45.4335
G1 X149.882 Y132.57 E45.48132
G1 X149.753 Y132.699 E45.48966
G1 X148.87 Y133.525 E45.54496
G1 X147.935 Y134.29 E45.60021
G1 X146.952 Y134.992 E45.65545
G1 X145.924 Y135.628 E45.71073
G1 X144.856 Y136.194 E45.76601
G1 X143.753 Y136.688 E45.82128
G1 X142.62 Y137.108 E45.87654
G1 X141.462 Y137.453 E45.9318
G1 X140.283 Y137.72 E45.98708
G1 X139.09 Y137.908 E46.04232
G1 X137.886 Y138.017 E46.0976
G1 X136.841 Y138.047 E46.14541
G1 X91.159 Y138.047 E48.23457
G1 X89.951 Y138.007 E48.28985
G1 X88.749 Y137.887 E48.34509
G1 X87.557 Y137.688 E48.40036
G1 X86.381 Y137.411 E48.45561
G1 X85.225 Y137.056 E48.51092
G1 X84.096 Y136.626 E48.56617
G1 X82.998 Y136.122 E48.62142
G1 X81.935 Y135.546 E48.67671
G1 X80.913 Y134.901 E48.73198
G1 X79.936 Y134.191 E48.78721
G1 X79.007 Y133.417 E48.84251
G1 X78.247 Y132.699 E48.89033
G1 X78.118 Y132.57 E48.89867
G1 X77.292 Y131.687 E48.95397
G1 X76.527 Y130.752 E49.00922
