;FLAVOR:Marlin
;TIME:19544
;Filament used: 19.1075m
;Layer height: 0.2
;Generated with Cura_SteamEngine 3.6.0
M140 S70
M105
M190 S70
M104 S215
M105
M109 S215
M82 ;absolute extrusion mode
G28 ; home all axes
M117 Purge extruder
G92 E0 ; reset extruder
G1 Z1.0 F3000 ; move z up little to prevent scratching of surface
G1 X0.1 Y20 Z0.3 F5000.0 ; move to start-line position G1 X0.1 Y200.0 Z0.3 F1500.0 E15 ; draw 1st line
G1 X0.4 Y200.0 Z0.3 F5000.0 ; move to side a little
G1 X0.4 Y20 Z0.3 F1500.0 E30 ; draw 2nd line
G92 E0 ; reset extruder
G1 Z1.0 F3000 ; move z up little to prevent scratching of surface
M117 All systems go!
G92 E0
G1 F6000 E-5
;LAYER_COUNT:221
;LAYER:0
M107
M205 X30 Y30
G0 F1800 X77.279 Y95.956 Z0.2
M205 X20 Y20
;TYPE:SKIRT
G1 F6000 E0
G1 F900 X78.407 Y95.11 E0.05159
G1 X79.581 Y94.329 E0.10317
G1 X80.797 Y93.616 E0.15475
G1 X82.052 Y92.973 E0.20634
G1 X83.342 Y92.403 E0.25794
G1 X84.662 Y91.906 E0.30954
G1 X86.007 Y91.485 E0.3611
G1 X87.375 Y91.141 E0.41271
G1 X88.76 Y90.875 E0.46431
G1 X90.157 Y90.688 E0.51588
G1 X91.563 Y90.581 E0.56746
G1 X92.754 Y90.552 E0.61105
G1 X133.746 Y90.552 E2.11079
G1 X135.156 Y90.592 E2.1624
G1 X136.561 Y90.712 E2.21399
G1 X137.956 Y90.911 E2.26554
G1 X139.339 Y91.189 E2.31715
G1 X140.703 Y91.545 E2.36873
G1 X142.045 Y91.978 E2.42032
G1 X143.361 Y92.487 E2.47194
G1 X144.645 Y93.069 E2.52352
G1 X145.894 Y93.722 E2.57508
G1 X147.105 Y94.446 E2.62671
G1 X148.272 Y95.237 E2.67828
G1 X149.392 Y96.093 E2.72986
G1 X150.463 Y97.012 E2.78149
G1 X151.325 Y97.833 E2.82504
G1 X151.454 Y97.962 E2.83172
G1 X152.422 Y98.987 E2.8833
G1 X153.331 Y100.066 E2.93492
G1 X154.177 Y101.194 E2.9865
G1 X154.958 Y102.368 E3.03809
G1 X155.671 Y103.584 E3.08966
G1 X156.314 Y104.839 E3.14125
G1 X156.884 Y106.129 E3.19285
G1 X157.381 Y107.449 E3.24446
G1 X157.802 Y108.794 E3.29602
G1 X158.146 Y110.162 E3.34763
G1 X158.412 Y111.547 E3.39922
G1 X158.599 Y112.944 E3.45079
G1 X158.706 Y114.35 E3.50238
G1 X158.735 Y115.541 E3.54597
G1 X158.735 Y119.459 E3.68931
G1 X158.695 Y120.869 E3.74092
G1 X158.575 Y122.274 E3.79251
G1 X158.376 Y123.669 E3.84406
G1 X158.098 Y125.052 E3.89568
G1 X157.742 Y126.416 E3.94725
G1 X157.309 Y127.758 E3.99884
G1 X156.8 Y129.074 E4.05046
G1 X156.218 Y130.358 E4.10204
G1 X155.565 Y131.607 E4.15361
G1 X154.841 Y132.818 E4.20523
G1 X154.05 Y133.985 E4.25681
G1 X153.194 Y135.105 E4.30838
G1 X152.275 Y136.176 E4.36001
G1 X151.454 Y137.038 E4.40356
G1 X151.325 Y137.167 E4.41024
G1 X150.3 Y138.135 E4.46182
G1 X149.221 Y139.044 E4.51344
G1 X148.093 Y139.89 E4.56502
G1 X146.919 Y140.671 E4.61661
G1 X145.703 Y141.384 E4.66818
G1 X144.448 Y142.027 E4.71978
G1 X143.158 Y142.597 E4.77137
G1 X141.838 Y143.094 E4.82298
G1 X140.493 Y143.515 E4.87454
G1 X139.125 Y143.859 E4.92615
G1 X137.74 Y144.125 E4.97775
G1 X136.343 Y144.312 E5.02931
G1 X134.937 Y144.419 E5.0809
G1 X133.746 Y144.448 E5.12449
G1 X92.754 Y144.448 E6.62423
G1 X91.344 Y144.408 E6.67584
G1 X89.939 Y144.288 E6.72743
G1 X88.544 Y144.089 E6.77898
G1 X87.161 Y143.811 E6.83059
G1 X85.797 Y143.455 E6.88217
G1 X84.455 Y143.022 E6.93376
G1 X83.139 Y142.513 E6.98538
G1 X81.855 Y141.931 E7.03696
G1 X80.606 Y141.278 E7.08852
G1 X79.395 Y140.554 E7.14014
G1 X78.228 Y139.763 E7.19172
G1 X77.108 Y138.907 E7.2433
G1 X76.037 Y137.988 E7.29493
G1 X75.175 Y137.167 E7.33848
G1 X75.046 Y137.038 E7.34516
G1 X74.078 Y136.013 E7.39674
G1 X73.169 Y134.934 E7.44835
G1 X72.323 Y133.806 E7.49994
G1 X71.542 Y132.632 E7.55153
G1 X70.829 Y131.416 E7.6031
G1 X70.186 Y130.161 E7.65469
G1 X69.616 Y128.871 E7.70629
G1 X69.119 Y127.551 E7.75789
G1 X68.698 Y126.206 E7.80946
G1 X68.354 Y124.838 E7.86106
G1 X68.088 Y123.453 E7.91266
G1 X67.901 Y122.056 E7.96423
G1 X67.794 Y120.65 E8.01582
G1 X67.765 Y119.459 E8.05941
G1 X67.765 Y115.541 E8.20275
G1 X67.805 Y114.131 E8.25436
G1 X67.925 Y112.726 E8.30595
G1 X68.124 Y111.331 E8.3575
G1 X68.402 Y109.948 E8.40911
G1 X68.758 Y108.584 E8.46069
G1 X69.191 Y107.242 E8.51228
G1 X69.7 Y105.926 E8.5639
G1 X70.282 Y104.642 E8.61548
G1 X70.935 Y103.393 E8.66704
G1 X71.659 Y102.182 E8.71866
G1 X72.45 Y101.015 E8.77024
G1 X73.306 Y99.895 E8.82182
G1 X74.225 Y98.824 E8.87345
G1 X75.046 Y97.962 E8.917
G1 X75.175 Y97.833 E8.92368
G1 X76.2 Y96.865 E8.97526
G1 X76.723 Y96.424 E9.00029
G0 F810 X77.279 Y95.956
M205 X30 Y30
G0 F1800 X77.572 Y96.285
M205 X20 Y20
G1 F6000 E9.02688
G1 F900 X78.691 Y95.448 E9.07801
G1 X79.856 Y94.676 E9.12914
G1 X81.063 Y93.972 E9.18026
G1 X82.309 Y93.338 E9.23141
G1 X83.589 Y92.777 E9.28254
G1 X84.899 Y92.29 E9.33368
G1 X86.234 Y91.878 E9.38479
G1 X87.591 Y91.544 E9.43592
G1 X88.965 Y91.288 E9.48705
G1 X90.352 Y91.11 E9.53822
G1 X91.746 Y91.013 E9.58934
G1 X92.754 Y90.992 E9.62623
G1 X133.746 Y90.992 E11.12597
G1 X135.143 Y91.032 E11.1771
G1 X136.535 Y91.152 E11.22821
G1 X137.919 Y91.351 E11.27937
G1 X139.288 Y91.629 E11.33048
G1 X140.64 Y91.985 E11.38163
G1 X141.969 Y92.418 E11.43277
G1 X143.271 Y92.926 E11.4839
G1 X144.541 Y93.508 E11.53501
G1 X145.777 Y94.161 E11.58616
G1 X146.973 Y94.884 E11.63729
G1 X148.125 Y95.675 E11.68841
G1 X149.231 Y96.529 E11.73954
G1 X150.286 Y97.446 E11.79068
G1 X151.014 Y98.144 E11.82758
G1 X151.143 Y98.273 E11.83425
G1 X152.102 Y99.29 E11.88539
G1 X153.002 Y100.359 E11.93652
G1 X153.839 Y101.478 E11.98764
G1 X154.611 Y102.643 E12.03878
G1 X155.315 Y103.85 E12.0899
G1 X155.949 Y105.096 E12.14105
G1 X156.51 Y106.376 E12.19218
G1 X156.997 Y107.686 E12.24331
G1 X157.409 Y109.021 E12.29443
G1 X157.743 Y110.378 E12.34555
G1 X157.999 Y111.752 E12.39669
G1 X158.177 Y113.139 E12.44785
G1 X158.274 Y114.533 E12.49897
G1 X158.295 Y115.541 E12.53586
G1 X158.295 Y119.459 E12.67921
G1 X158.255 Y120.856 E12.73034
G1 X158.135 Y122.248 E12.78145
G1 X157.936 Y123.632 E12.83261
G1 X157.658 Y125.001 E12.88372
G1 X157.302 Y126.353 E12.93487
G1 X156.869 Y127.682 E12.98601
G1 X156.361 Y128.984 E13.03714
G1 X155.779 Y130.254 E13.08825
G1 X155.126 Y131.49 E13.1394
G1 X154.403 Y132.686 E13.19053
G1 X153.612 Y133.838 E13.24165
G1 X152.758 Y134.944 E13.29278
G1 X151.841 Y135.999 E13.34392
G1 X151.143 Y136.727 E13.38082
G1 X151.014 Y136.856 E13.38749
G1 X149.997 Y137.815 E13.43863
G1 X148.928 Y138.715 E13.48976
G1 X147.809 Y139.552 E13.54088
G1 X146.644 Y140.324 E13.59202
G1 X145.437 Y141.028 E13.64314
G1 X144.191 Y141.662 E13.69429
G1 X142.911 Y142.223 E13.74542
G1 X141.601 Y142.71 E13.79655
G1 X140.266 Y143.122 E13.84766
G1 X138.909 Y143.456 E13.89879
G1 X137.535 Y143.712 E13.94993
G1 X136.148 Y143.89 E14.00109
G1 X134.754 Y143.987 E14.05221
G1 X133.746 Y144.008 E14.0891
G1 X92.754 Y144.008 E15.58884
G1 X91.357 Y143.968 E15.63997
G1 X89.965 Y143.848 E15.69109
G1 X88.581 Y143.649 E15.74224
G1 X87.212 Y143.371 E15.79335
G1 X85.86 Y143.015 E15.8445
G1 X84.531 Y142.582 E15.89564
G1 X83.229 Y142.074 E15.94678
G1 X81.959 Y141.492 E15.99789
G1 X80.723 Y140.839 E16.04903
G1 X79.527 Y140.116 E16.10016
G1 X78.375 Y139.325 E16.15129
G1 X77.269 Y138.471 E16.20241
G1 X76.214 Y137.554 E16.25355
G1 X75.486 Y136.856 E16.29045
G1 X75.357 Y136.727 E16.29712
G1 X74.398 Y135.71 E16.34827
G1 X73.498 Y134.641 E16.39939
G1 X72.661 Y133.522 E16.45052
G1 X71.889 Y132.357 E16.50165
G1 X71.185 Y131.15 E16.55277
G1 X70.551 Y129.904 E16.60392
G1 X69.99 Y128.624 E16.65505
G1 X69.503 Y127.314 E16.70618
G1 X69.091 Y125.979 E16.7573
G1 X68.757 Y124.622 E16.80843
G1 X68.501 Y123.248 E16.85956
G1 X68.323 Y121.861 E16.91072
G1 X68.226 Y120.467 E16.96185
G1 X68.205 Y119.459 E16.99874
G1 X68.205 Y115.541 E17.14208
G1 X68.245 Y114.144 E17.19321
G1 X68.365 Y112.752 E17.24433
G1 X68.564 Y111.368 E17.29548
G1 X68.842 Y109.999 E17.34659
G1 X69.198 Y108.647 E17.39774
G1 X69.631 Y107.318 E17.44888
G1 X70.139 Y106.016 E17.50001
G1 X70.721 Y104.746 E17.55113
G1 X71.374 Y103.51 E17.60227
G1 X72.097 Y102.314 E17.6534
G1 X72.888 Y101.162 E17.70453
G1 X73.742 Y100.056 E17.75565
G1 X74.659 Y99.001 E17.80679
G1 X75.357 Y98.273 E17.84369
G1 X75.486 Y98.144 E17.85036
G1 X76.503 Y97.185 E17.90151
G1 X77.016 Y96.753 E17.92604
G0 F810 X77.572 Y96.285
M205 X30 Y30
G0 F1800 X77.865 Y96.614
M205 X20 Y20
G1 F6000 E17.95264
G1 F900 X78.975 Y95.786 E18.00331
G1 X80.131 Y95.023 E18.05398
G1 X81.329 Y94.329 E18.10464
G1 X82.565 Y93.704 E18.15531
G1 X83.835 Y93.152 E18.20597
G1 X85.135 Y92.674 E18.25665
G1 X86.461 Y92.273 E18.30733
G1 X87.807 Y91.948 E18.35799
G1 X89.17 Y91.701 E18.40867
G1 X90.545 Y91.534 E18.45934
G1 X91.927 Y91.446 E18.51001
G1 X92.754 Y91.432 E18.54027
G1 X133.746 Y91.432 E20.04001
G1 X135.13 Y91.472 E20.09067
G1 X136.51 Y91.592 E20.14135
G1 X137.881 Y91.791 E20.19203
G1 X139.237 Y92.069 E20.24267
G1 X140.576 Y92.425 E20.29336
G1 X141.891 Y92.858 E20.34402
G1 X143.18 Y93.366 E20.39471
G1 X144.437 Y93.947 E20.44537
G1 X145.658 Y94.6 E20.49603
G1 X146.84 Y95.322 E20.5467
G1 X147.978 Y96.112 E20.59739
G1 X149.068 Y96.965 E20.64803
G1 X150.107 Y97.881 E20.6987
G1 X150.702 Y98.456 E20.72897
G1 X150.831 Y98.585 E20.73565
G1 X151.782 Y99.592 E20.78632
G1 X152.673 Y100.652 E20.83699
G1 X153.501 Y101.762 E20.88765
G1 X154.264 Y102.918 E20.93833
G1 X154.958 Y104.116 E20.98898
G1 X155.583 Y105.352 E21.03965
G1 X156.135 Y106.622 E21.09032
G1 X156.613 Y107.922 E21.14099
G1 X157.014 Y109.248 E21.19167
G1 X157.339 Y110.594 E21.24233
G1 X157.586 Y111.957 E21.29301
G1 X157.753 Y113.332 E21.34369
G1 X157.841 Y114.714 E21.39435
G1 X157.855 Y115.541 E21.42461
G1 X157.855 Y119.459 E21.56796
G1 X157.815 Y120.843 E21.61862
G1 X157.695 Y122.223 E21.6693
G1 X157.496 Y123.594 E21.71998
G1 X157.218 Y124.95 E21.77062
G1 X156.862 Y126.289 E21.82131
G1 X156.429 Y127.604 E21.87197
G1 X155.921 Y128.893 E21.92266
G1 X155.34 Y130.15 E21.97332
G1 X154.687 Y131.371 E22.02398
G1 X153.965 Y132.553 E22.07465
G1 X153.175 Y133.691 E22.12534
G1 X152.322 Y134.781 E22.17597
G1 X151.406 Y135.82 E22.22665
G1 X150.831 Y136.415 E22.25692
G1 X150.702 Y136.544 E22.2636
G1 X149.695 Y137.495 E22.31427
G1 X148.635 Y138.386 E22.36494
G1 X147.525 Y139.214 E22.4156
G1 X146.369 Y139.977 E22.46628
G1 X145.171 Y140.671 E22.51693
G1 X143.935 Y141.296 E22.5676
G1 X142.665 Y141.848 E22.61827
G1 X141.365 Y142.326 E22.66894
G1 X140.039 Y142.727 E22.71962
G1 X138.693 Y143.052 E22.77028
G1 X137.33 Y143.299 E22.82096
G1 X135.955 Y143.466 E22.87164
G1 X134.573 Y143.554 E22.9223
G1 X133.746 Y143.568 E22.95256
G1 X92.754 Y143.568 E24.4523
G1 X91.37 Y143.528 E24.50296
G1 X89.99 Y143.408 E24.55364
G1 X88.619 Y143.209 E24.60433
G1 X87.263 Y142.931 E24.65497
G1 X85.924 Y142.575 E24.70566
G1 X84.609 Y142.142 E24.75631
G1 X83.32 Y141.634 E24.807
G1 X82.063 Y141.053 E24.85766
G1 X80.842 Y140.4 E24.90832
G1 X79.66 Y139.678 E24.959
G1 X78.522 Y138.888 E25.00968
G1 X77.432 Y138.035 E25.06032
G1 X76.393 Y137.119 E25.111
G1 X75.798 Y136.544 E25.14127
G1 X75.669 Y136.415 E25.14794
G1 X74.718 Y135.408 E25.19862
G1 X73.827 Y134.348 E25.24928
G1 X72.999 Y133.238 E25.29994
G1 X72.236 Y132.082 E25.35062
G1 X71.542 Y130.884 E25.40127
G1 X70.917 Y129.648 E25.45195
G1 X70.365 Y128.378 E25.50261
G1 X69.887 Y127.078 E25.55329
G1 X69.486 Y125.752 E25.60397
G1 X69.161 Y124.406 E25.65463
G1 X68.914 Y123.043 E25.70531
G1 X68.747 Y121.668 E25.75598
G1 X68.659 Y120.286 E25.80665
G1 X68.645 Y119.459 E25.83691
G1 X68.645 Y115.541 E25.98025
G1 X68.685 Y114.157 E26.03091
G1 X68.805 Y112.777 E26.08159
G1 X69.004 Y111.406 E26.13227
G1 X69.282 Y110.05 E26.18292
G1 X69.638 Y108.711 E26.23361
G1 X70.071 Y107.396 E26.28426
G1 X70.579 Y106.107 E26.33495
G1 X71.16 Y104.85 E26.38561
G1 X71.813 Y103.629 E26.43627
G1 X72.535 Y102.447 E26.48695
G1 X73.325 Y101.309 E26.53763
G1 X74.178 Y100.219 E26.58827
G1 X75.094 Y99.18 E26.63895
G1 X75.669 Y98.585 E26.66922
G1 X75.798 Y98.456 E26.67589
G1 X76.805 Y97.505 E26.72657
G1 X77.309 Y97.082 E26.75064
G0 F810 X77.865 Y96.614
M205 X30 Y30
G0 F1800 X78.158 Y96.943
M205 X20 Y20
G1 F6000 E26.77724
G1 F900 X79.259 Y96.124 E26.82744
G1 X80.406 Y95.371 E26.87764
G1 X81.594 Y94.685 E26.92783
G1 X82.821 Y94.07 E26.97805
G1 X84.081 Y93.528 E27.02823
G1 X85.371 Y93.06 E27.07844
G1 X86.686 Y92.667 E27.12865
G1 X88.022 Y92.353 E27.17886
G1 X89.373 Y92.116 E27.22904
G1 X90.736 Y91.959 E27.27924
G1 X92.754 Y91.872 E27.35314
G1 X133.746 Y91.872 E28.85288
G1 X135.118 Y91.912 E28.9031
G1 X136.484 Y92.032 E28.95326
G1 X137.842 Y92.231 E29.00348
G1 X139.186 Y92.509 E29.05369
G1 X140.511 Y92.865 E29.10389
G1 X141.813 Y93.297 E29.15408
G1 X143.088 Y93.805 E29.20429
G1 X144.331 Y94.386 E29.25449
G1 X145.538 Y95.039 E29.3047
G1 X146.705 Y95.76 E29.35488
G1 X147.828 Y96.549 E29.4051
G1 X148.903 Y97.401 E29.45528
G1 X150.391 Y98.767 E29.52918
G1 X150.52 Y98.896 E29.53586
G1 X151.462 Y99.894 E29.58607
G1 X152.344 Y100.945 E29.63627
G1 X153.163 Y102.046 E29.68647
G1 X153.916 Y103.193 E29.73667
G1 X154.602 Y104.381 E29.78686
G1 X155.217 Y105.608 E29.83707
G1 X155.759 Y106.868 E29.88726
G1 X156.227 Y108.158 E29.93746
G1 X156.62 Y109.473 E29.98768
G1 X156.934 Y110.809 E30.03789
G1 X157.171 Y112.16 E30.08807
G1 X157.328 Y113.523 E30.13827
G1 X157.415 Y115.541 E30.21217
G1 X157.415 Y119.459 E30.35551
G1 X157.375 Y120.831 E30.40573
G1 X157.255 Y122.197 E30.4559
G1 X157.056 Y123.555 E30.50611
G1 X156.778 Y124.899 E30.55632
G1 X156.422 Y126.224 E30.60652
G1 X155.99 Y127.526 E30.65671
G1 X155.482 Y128.801 E30.70692
G1 X154.901 Y130.044 E30.75712
G1 X154.248 Y131.251 E30.80733
G1 X153.527 Y132.418 E30.85752
G1 X152.738 Y133.541 E30.90773
G1 X151.886 Y134.616 E30.95791
G1 X150.52 Y136.104 E31.03182
G1 X150.391 Y136.233 E31.03849
G1 X149.393 Y137.175 E31.0887
G1 X148.342 Y138.057 E31.1389
G1 X147.241 Y138.876 E31.1891
G1 X146.094 Y139.629 E31.2393
G1 X144.906 Y140.315 E31.28949
G1 X143.679 Y140.93 E31.33971
G1 X142.419 Y141.472 E31.38989
G1 X141.129 Y141.94 E31.44009
G1 X139.814 Y142.333 E31.49031
G1 X138.478 Y142.647 E31.54052
G1 X137.127 Y142.884 E31.5907
G1 X135.764 Y143.041 E31.6409
G1 X133.746 Y143.128 E31.7148
G1 X92.754 Y143.128 E33.21454
G1 X91.382 Y143.088 E33.26475
G1 X90.016 Y142.968 E33.31492
G1 X88.658 Y142.769 E33.36514
G1 X87.314 Y142.491 E33.41535
G1 X85.989 Y142.135 E33.46555
G1 X84.687 Y141.703 E33.51574
G1 X83.412 Y141.195 E33.56595
G1 X82.169 Y140.614 E33.61615
G1 X80.962 Y139.961 E33.66636
G1 X79.795 Y139.24 E33.71654
G1 X78.672 Y138.451 E33.76676
G1 X77.597 Y137.599 E33.81694
G1 X76.109 Y136.233 E33.89084
G1 X75.98 Y136.104 E33.89752
G1 X75.038 Y135.106 E33.94773
G1 X74.156 Y134.055 E33.99792
G1 X73.337 Y132.954 E34.04813
G1 X72.584 Y131.807 E34.09833
G1 X71.898 Y130.619 E34.14852
G1 X71.283 Y129.392 E34.19873
G1 X70.741 Y128.132 E34.24892
G1 X70.273 Y126.842 E34.29912
G1 X69.88 Y125.527 E34.34933
G1 X69.566 Y124.191 E34.39955
G1 X69.329 Y122.84 E34.44973
G1 X69.172 Y121.477 E34.49993
G1 X69.085 Y119.459 E34.57382
G1 X69.085 Y115.541 E34.71717
G1 X69.125 Y114.169 E34.76739
G1 X69.245 Y112.803 E34.81756
G1 X69.444 Y111.445 E34.86777
G1 X69.722 Y110.101 E34.91798
G1 X70.078 Y108.776 E34.96818
G1 X70.51 Y107.474 E35.01837
G1 X71.018 Y106.199 E35.06858
G1 X71.599 Y104.956 E35.11878
G1 X72.252 Y103.749 E35.16899
G1 X72.973 Y102.582 E35.21918
G1 X73.762 Y101.459 E35.26939
G1 X74.614 Y100.384 E35.31957
G1 X75.98 Y98.896 E35.39347
G1 X76.109 Y98.767 E35.40015
G1 X77.107 Y97.825 E35.45036
G1 X77.602 Y97.41 E35.47399
G0 F810 X78.158 Y96.943
M205 X30 Y30
G0 F1800 X78.451 Y97.273
M205 X20 Y20
G1 F6000 E35.50059
G1 F900 X79.543 Y96.463 E35.55033
G1 X80.68 Y95.719 E35.60005
G1 X81.859 Y95.043 E35.64977
G1 X83.076 Y94.437 E35.69951
G1 X84.327 Y93.904 E35.74926
G1 X85.606 Y93.446 E35.79896
G1 X86.911 Y93.063 E35.84872
G1 X88.235 Y92.758 E35.89843
G1 X89.575 Y92.532 E35.94815
G1 X90.927 Y92.384 E35.99791
G1 X92.754 Y92.312 E36.0648
G1 X133.746 Y92.312 E37.56454
G1 X135.105 Y92.352 E37.61428
G1 X136.459 Y92.472 E37.66402
G1 X137.803 Y92.671 E37.71372
G1 X139.134 Y92.949 E37.76347
G1 X140.446 Y93.305 E37.81321
G1 X141.734 Y93.737 E37.86291
G1 X142.995 Y94.245 E37.91265
G1 X144.224 Y94.825 E37.96237
G1 X145.417 Y95.477 E38.01211
G1 X146.569 Y96.198 E38.06183
G1 X147.677 Y96.986 E38.11157
G1 X148.737 Y97.837 E38.16131
G1 X150.08 Y99.078 E38.22821
G1 X150.209 Y99.207 E38.23488
G1 X151.142 Y100.196 E38.28463
