;FLAVOR:Marlin
;TIME:4623
;Filament used: 16.919m
;Layer height: 0.5
;Generated with Cura_SteamEngine 3.6.0
M140 S60
M105
M190 S60
M104 S200
M105
M109 S200
M82 ;absolute extrusion mode
; Ender 3 Custom Start G-code
G28 ; Home all axes
G92 E0 ; Reset Extruder
G1 Z2.0 F3000 ; Move Z Axis up little to prevent scratching of Heat Bed
G1 X0.1 Y20 Z0.3 F5000.0 ; Move to start position
G1 X0.1 Y200.0 Z0.3 F1500.0 E15 ; Draw the first line
G1 X0.4 Y200.0 Z0.3 F5000.0 ; Move to side a little
G1 X0.4 Y20 Z0.3 F1500.0 E30 ; Draw the second line
G92 E0 ; Reset Extruder
G1 Z2.0 F3000 ; Move Z Axis up little to prevent scratching of Heat Bed
; End of custom start GCode
G92 E0
G1 F2400 E-5
;LAYER_COUNT:87
;LAYER:0
M107
M204 S5000
M205 X30 Y30
G0 F3600 X65.599 Y108.647 Z0.5
M204 S500
M205 X20 Y20
;TYPE:SKIRT
G1 F2400 E0
G1 F1800 X66.23 Y108.272 E0.07629
G1 X66.898 Y107.967 E0.15262
G1 X67.596 Y107.737 E0.229
G1 X68.315 Y107.584 E0.30541
G1 X69.359 Y107.503 E0.41425
G1 X162.94 Y107.505 E10.14086
G1 X163.674 Y107.545 E10.21726
G1 X164.398 Y107.664 E10.29352
G1 X165.106 Y107.862 E10.36994
G1 X165.788 Y108.135 E10.44629
G1 X166.436 Y108.481 E10.52264
G1 X167.043 Y108.895 E10.59901
G1 X167.601 Y109.373 E10.67538
G1 X168.104 Y109.908 E10.7517
G1 X168.546 Y110.495 E10.82807
G1 X168.921 Y111.126 E10.90437
G1 X169.226 Y111.795 E10.98079
G1 X169.456 Y112.492 E11.05707
G1 X169.609 Y113.211 E11.13348
G1 X169.673 Y113.776 E11.19258
G1 X169.898 Y116.94 E11.52227
G1 X169.913 Y117.598 E11.59068
G1 X169.875 Y119.027 E11.73926
G1 X169.844 Y119.51 E11.78956
G1 X169.657 Y121.407 E11.98769
G1 X169.546 Y122.133 E12.06403
G1 X169.356 Y122.843 E12.14042
G1 X169.09 Y123.528 E12.2168
G1 X168.751 Y124.179 E12.29308
G1 X168.343 Y124.79 E12.36945
G1 X167.872 Y125.354 E12.44582
G1 X167.342 Y125.862 E12.52213
G1 X166.76 Y126.31 E12.59846
G1 X166.132 Y126.692 E12.67486
G1 X165.467 Y127.004 E12.75121
G1 X164.772 Y127.242 E12.82757
G1 X164.055 Y127.402 E12.90392
G1 X163.325 Y127.484 E12.98028
G1 X162.94 Y127.495 E13.02031
G1 X69.359 Y127.495 E22.74692
G1 X68.626 Y127.455 E22.82322
G1 X67.901 Y127.336 E22.89959
G1 X67.193 Y127.138 E22.976
G1 X66.511 Y126.865 E23.05235
G1 X65.863 Y126.519 E23.1287
G1 X65.256 Y126.105 E23.20507
G1 X64.698 Y125.628 E23.28137
G1 X64.195 Y125.092 E23.35777
G1 X63.753 Y124.505 E23.43414
G1 X63.378 Y123.874 E23.51044
G1 X63.073 Y123.206 E23.58676
G1 X62.843 Y122.508 E23.66315
G1 X62.69 Y121.789 E23.73955
G1 X62.609 Y120.745 E23.84839
G1 X62.609 Y114.253 E24.52315
G1 X62.649 Y113.52 E24.59945
G1 X62.768 Y112.795 E24.67582
G1 X62.966 Y112.087 E24.75223
G1 X63.239 Y111.405 E24.82858
G1 X63.585 Y110.757 E24.90493
G1 X63.999 Y110.15 E24.9813
G1 X64.476 Y109.592 E25.0576
G1 X65.012 Y109.089 E25.134
G1 X65.599 Y108.647 E25.21038
M204 S5000
M205 X30 Y30
G0 F3600 X66.079 Y108.933
M204 S500
M205 X20 Y20
G1 F1800 X66.701 Y108.596 E25.2839
G1 X67.357 Y108.332 E25.3574
G1 X68.038 Y108.144 E25.43083
G1 X68.736 Y108.034 E25.50428
G1 X69.359 Y108.003 E25.56911
G1 X162.94 Y108.005 E35.29572
G1 X163.646 Y108.045 E35.36922
G1 X164.342 Y108.164 E35.44261
G1 X165.021 Y108.362 E35.51613
G1 X165.673 Y108.634 E35.58955
G1 X166.29 Y108.979 E35.66303
G1 X166.865 Y109.391 E35.73655
G1 X167.389 Y109.865 E35.80999
G1 X167.856 Y110.396 E35.88349
G1 X168.26 Y110.975 E35.95687
G1 X168.597 Y111.597 E36.0304
G1 X168.861 Y112.253 E36.1039
G1 X169.049 Y112.934 E36.17733
G1 X169.174 Y113.812 E36.2695
G1 X169.399 Y116.976 E36.59919
G1 X169.413 Y117.585 E36.66251
G1 X169.375 Y119.014 E36.81109
G1 X169.347 Y119.461 E36.85764
G1 X169.16 Y121.358 E37.05577
G1 X169.051 Y122.057 E37.1293
G1 X168.864 Y122.738 E37.2027
G1 X168.601 Y123.394 E37.27616
G1 X168.265 Y124.016 E37.34964
G1 X167.862 Y124.597 E37.42313
G1 X167.396 Y125.128 E37.49656
G1 X166.872 Y125.603 E37.57007
G1 X166.299 Y126.016 E37.64348
G1 X165.682 Y126.361 E37.71696
G1 X165.03 Y126.635 E37.79047
G1 X164.352 Y126.833 E37.86388
G1 X163.655 Y126.954 E37.93741
G1 X162.94 Y126.995 E38.01185
G1 X69.359 Y126.995 E47.73846
G1 X68.653 Y126.955 E47.81196
G1 X67.957 Y126.836 E47.88535
G1 X67.278 Y126.638 E47.95886
G1 X66.626 Y126.366 E48.03229
G1 X66.009 Y126.021 E48.10576
G1 X65.434 Y125.609 E48.17929
G1 X64.91 Y125.135 E48.25273
G1 X64.443 Y124.604 E48.32623
G1 X64.039 Y124.025 E48.39961
G1 X63.702 Y123.403 E48.47314
G1 X63.438 Y122.747 E48.54663
G1 X63.25 Y122.066 E48.62006
G1 X63.14 Y121.368 E48.69351
G1 X63.109 Y120.745 E48.75834
G1 X63.109 Y114.253 E49.43311
G1 X63.149 Y113.547 E49.5066
G1 X63.268 Y112.851 E49.57999
G1 X63.466 Y112.172 E49.65351
G1 X63.738 Y111.52 E49.72694
G1 X64.083 Y110.903 E49.80041
G1 X64.495 Y110.328 E49.87393
G1 X64.969 Y109.804 E49.94737
G1 X65.5 Y109.337 E50.02087
G1 X66.079 Y108.933 E50.09425
M204 S5000
M205 X30 Y30
G0 F3600 X65.985 Y109.597
M204 S500
M205 X20 Y20
G1 F1800 X66.557 Y109.232 E50.16478
G1 X67.167 Y108.937 E50.23521
G1 X67.808 Y108.716 E50.30568
G1 X68.47 Y108.572 E50.37609
G1 X69.359 Y108.503 E50.46877
G1 X162.94 Y108.505 E60.19539
G1 X163.617 Y108.545 E60.26588
G1 X164.284 Y108.664 E60.3363
G1 X164.933 Y108.861 E60.40679
G1 X165.554 Y109.133 E60.47726
G1 X166.138 Y109.477 E60.54771
G1 X166.679 Y109.886 E60.6182
G1 X167.167 Y110.357 E60.68869
G1 X167.596 Y110.881 E60.75908
G1 X167.961 Y111.453 E60.8296
G1 X168.256 Y112.063 E60.90003
G1 X168.477 Y112.704 E60.9705
G1 X168.621 Y113.367 E61.04102
G1 X168.676 Y113.847 E61.09124
G1 X168.901 Y117.011 E61.42093
G1 X168.913 Y117.572 E61.47925
G1 X168.875 Y119.001 E61.62783
G1 X168.849 Y119.412 E61.67063
G1 X168.662 Y121.309 E61.86876
G1 X168.556 Y121.979 E61.93926
G1 X168.372 Y122.631 E62.00968
G1 X168.112 Y123.257 E62.08013
G1 X167.78 Y123.849 E62.15068
G1 X167.382 Y124.397 E62.22107
G1 X166.921 Y124.894 E62.29153
G1 X166.405 Y125.334 E62.36201
G1 X165.841 Y125.71 E62.43247
G1 X165.236 Y126.017 E62.50298
G1 X164.6 Y126.25 E62.57338
G1 X163.94 Y126.407 E62.6439
G1 X162.94 Y126.495 E62.74824
G1 X69.359 Y126.495 E72.47485
G1 X68.682 Y126.455 E72.54534
G1 X68.015 Y126.336 E72.61576
G1 X67.366 Y126.139 E72.68626
G1 X66.745 Y125.867 E72.75672
G1 X66.161 Y125.523 E72.82717
G1 X65.62 Y125.114 E72.89766
G1 X65.132 Y124.643 E72.96815
G1 X64.703 Y124.119 E73.03854
G1 X64.338 Y123.547 E73.10907
G1 X64.043 Y122.937 E73.17949
G1 X63.822 Y122.296 E73.24997
G1 X63.678 Y121.634 E73.32038
G1 X63.609 Y120.745 E73.41306
G1 X63.609 Y114.253 E74.08783
G1 X63.649 Y113.576 E74.15832
G1 X63.768 Y112.909 E74.22874
G1 X63.965 Y112.26 E74.29923
G1 X64.237 Y111.639 E74.3697
G1 X64.581 Y111.055 E74.44015
G1 X64.99 Y110.514 E74.51064
G1 X65.461 Y110.026 E74.58113
G1 X65.985 Y109.597 E74.65152
M204 S5000
M205 X30 Y30
G0 F3600 X66.468 Y109.871
M204 S500
M205 X20 Y20
G1 F1800 X67.03 Y109.548 E74.71889
G1 X67.627 Y109.297 E74.7862
G1 X68.251 Y109.121 E74.85359
G1 X68.891 Y109.024 E74.92087
G1 X69.359 Y109.003 E74.96956
G1 X162.94 Y109.005 E84.69618
G1 X163.587 Y109.045 E84.76355
G1 X164.223 Y109.164 E84.8308
G1 X164.84 Y109.361 E84.89812
G1 X165.429 Y109.632 E84.96551
G1 X165.979 Y109.974 E85.03283
G1 X166.483 Y110.381 E85.10016
G1 X166.933 Y110.847 E85.16749
G1 X167.323 Y111.364 E85.2348
G1 X167.645 Y111.926 E85.30213
G1 X167.896 Y112.523 E85.36944
G1 X168.072 Y113.147 E85.43683
G1 X168.177 Y113.883 E85.5141
G1 X168.402 Y117.047 E85.84379
G1 X168.413 Y117.559 E85.89702
G1 X168.375 Y118.988 E86.0456
G1 X168.352 Y119.363 E86.08465
G1 X168.165 Y121.26 E86.28277
G1 X168.061 Y121.9 E86.35017
G1 X167.88 Y122.521 E86.4174
G1 X167.624 Y123.116 E86.48472
G1 X167.296 Y123.675 E86.55209
G1 X166.902 Y124.189 E86.6194
G1 X166.448 Y124.651 E86.68672
G1 X165.94 Y125.053 E86.75406
G1 X165.387 Y125.39 E86.82137
G1 X164.796 Y125.656 E86.88873
G1 X164.177 Y125.847 E86.95606
G1 X163.54 Y125.961 E87.02332
G1 X162.94 Y125.995 E87.08578
G1 X69.359 Y125.995 E96.8124
G1 X68.712 Y125.955 E96.87977
G1 X68.076 Y125.836 E96.94703
G1 X67.459 Y125.639 E97.01434
G1 X66.87 Y125.368 E97.08173
G1 X66.32 Y125.026 E97.14905
G1 X65.816 Y124.619 E97.21638
G1 X65.366 Y124.153 E97.28371
G1 X64.977 Y123.636 E97.35096
G1 X64.654 Y123.074 E97.41833
G1 X64.403 Y122.477 E97.48565
G1 X64.227 Y121.853 E97.55303
G1 X64.13 Y121.213 E97.62031
G1 X64.109 Y120.745 E97.66901
G1 X64.109 Y114.253 E98.34377
G1 X64.149 Y113.606 E98.41115
G1 X64.268 Y112.97 E98.4784
G1 X64.465 Y112.353 E98.54572
G1 X64.736 Y111.764 E98.61311
G1 X65.078 Y111.214 E98.68042
G1 X65.485 Y110.71 E98.74776
G1 X65.951 Y110.26 E98.81509
G1 X66.468 Y109.871 E98.88234
M204 S5000
M205 X30 Y30
G1 F2400 E93.88234
;MESH:Luke_Lightsaber_part_4.stl
G0 F3600 X70.114 Y113.579
G0 X70.114 Y115.008
G0 X70.35 Y115.094
G0 X70.35 Y114.994
M204 S500
M205 X20 Y20
;TYPE:WALL-INNER
G1 F2400 E98.88234
G1 F1800 X73.187 Y114.995 E99.17721
G1 X73.239 Y115.514 E99.23142
G1 X73.287 Y116.191 E99.30196
G1 X73.316 Y116.885 E99.37416
G1 X73.326 Y117.488 E99.43684
G1 X73.315 Y118.159 E99.5066
G1 X73.286 Y118.838 E99.57723
G1 X73.237 Y119.517 E99.64799
G1 X73.187 Y120.005 E99.69898
G1 X70.1 Y120.005 E100.01983
G1 X70.1 Y115.244 E100.51468
G1 X70.1 Y114.994 E100.54067
G1 X70.35 Y114.994 E100.55748
M204 S5000
M205 X30 Y30
G0 F3600 X69.85 Y114.494
M204 S500
M205 X20 Y20
;TYPE:WALL-OUTER
G1 F1800 X73.631 Y114.495 E100.95047
G1 X73.666 Y114.767 E100.97897
G1 X73.738 Y115.479 E101.05335
G1 X73.787 Y116.17 E101.12536
G1 X73.816 Y116.864 E101.19755
G1 X73.826 Y117.496 E101.26325
G1 X73.815 Y118.181 E101.33446
G1 X73.785 Y118.874 E101.40655
G1 X73.736 Y119.553 E101.47731
G1 X73.665 Y120.241 E101.5492
G1 X73.63 Y120.505 E101.57688
G1 X69.6 Y120.505 E101.99575
G1 X69.6 Y114.744 E102.59453
G1 X69.6 Y114.494 E102.62052
G1 X69.85 Y114.494 E102.63733
M204 S5000
M205 X30 Y30
G0 F3600 X70.1 Y114.494
G0 X70.17 Y115.064
G0 X70.59 Y115.484
M204 S500
M205 X20 Y20
;TYPE:SKIN
G1 F1800 X72.743 Y115.485 E102.86111
G1 X72.798 Y116.211 E102.93678
G1 X72.826 Y116.893 E103.00773
G1 X72.836 Y117.48 E103.06875
G1 X72.825 Y118.138 E103.13715
G1 X72.796 Y118.817 E103.20779
G1 X72.744 Y119.515 E103.28054
G1 X70.59 Y119.515 E103.50442
G1 X70.59 Y115.484 E103.92339
M204 S5000
M205 X30 Y30
G0 F3600 X71.868 Y115.709
M204 S500
M205 X20 Y20
G1 F1800 X72.581 Y116.422 E104.0282
M204 S5000
M205 X30 Y30
G0 F3600 X72.605 Y117.153
M204 S500
M205 X20 Y20
G1 F1800 X71.161 Y115.708 E104.24053
M204 S5000
M205 X30 Y30
G0 F3600 X70.814 Y116.069
M204 S500
M205 X20 Y20
G1 F1800 X72.605 Y117.859 E104.50371
M204 S5000
M205 X30 Y30
G0 F3600 X72.582 Y118.544
M204 S500
M205 X20 Y20
G1 F1800 X70.814 Y116.776 E104.76359
M204 S5000
M205 X30 Y30
G0 F3600 X70.814 Y117.483
M204 S500
M205 X20 Y20
G1 F1800 X72.542 Y119.211 E105.01759
M204 S5000
M205 X30 Y30
G0 F3600 X71.913 Y119.289
M204 S500
M205 X20 Y20
G1 F1800 X70.814 Y118.19 E105.17913
M204 S5000
M205 X30 Y30
G0 F3600 X70.814 Y118.897
M204 S500
M205 X20 Y20
G1 F1800 X71.206 Y119.289 E105.23675
M204 S5000
M205 X30 Y30
G1 F2400 E100.23675
G0 F3600 X73.306 Y117.488
G0 X74.739 Y117.447
G0 X78.361 Y117.553
G0 X79.794 Y117.512
G0 X83.04 Y115.522
G0 X83.139 Y115.514
M204 S500
M205 X20 Y20
;TYPE:WALL-INNER
G1 F2400 E105.23675
G1 F1800 X83.187 Y116.191 E105.3073
G1 X83.216 Y116.885 E105.37949
G1 X83.226 Y117.488 E105.44218
G1 X83.215 Y118.159 E105.51193
G1 X83.186 Y118.838 E105.58257
G1 X83.137 Y119.517 E105.65332
G1 X83.087 Y120.005 E105.70431
G1 X79.913 Y120.005 E106.03421
G1 X79.861 Y119.486 E106.08842
G1 X79.812 Y118.795 E106.16042
G1 X79.784 Y118.109 E106.23178
G1 X79.774 Y117.512 E106.29384
G1 X79.785 Y116.841 E106.3636
G1 X79.814 Y116.162 E106.43423
G1 X79.863 Y115.483 E106.50499
G1 X79.913 Y114.995 E106.55598
G1 X83.087 Y114.995 E106.88588
G1 X83.139 Y115.514 E106.94009
M204 S5000
M205 X30 Y30
G0 F3600 X83.566 Y114.767
M204 S500
M205 X20 Y20
;TYPE:WALL-OUTER
G1 F1800 X83.638 Y115.479 E107.01447
G1 X83.687 Y116.17 E107.08647
G1 X83.716 Y116.864 E107.15867
G1 X83.726 Y117.496 E107.22437
G1 X83.715 Y118.181 E107.29557
G1 X83.685 Y118.874 E107.36767
G1 X83.636 Y119.553 E107.43843
G1 X83.565 Y120.241 E107.51032
G1 X83.53 Y120.505 E107.538
G1 X79.469 Y120.505 E107.96009
G1 X79.433 Y120.226 E107.98933
G1 X79.362 Y119.521 E108.06297
G1 X79.313 Y118.83 E108.13498
G1 X79.284 Y118.13 E108.20779
G1 X79.274 Y117.504 E108.27287
G1 X79.285 Y116.819 E108.34408
G1 X79.315 Y116.126 E108.41617
G1 X79.364 Y115.447 E108.48693
G1 X79.435 Y114.759 E108.55882
G1 X79.47 Y114.495 E108.5865
G1 X83.531 Y114.495 E109.00859
G1 X83.566 Y114.767 E109.03709
M204 S5000
M205 X30 Y30
G0 F3600 X83.591 Y115.015
G0 X82.994 Y115.073
G0 X82.643 Y115.485
M204 S500
M205 X20 Y20
;TYPE:SKIN
G1 F1800 X82.698 Y116.211 E109.11277
G1 X82.726 Y116.893 E109.18371
G1 X82.736 Y117.48 E109.24473
G1 X82.725 Y118.138 E109.31314
G1 X82.696 Y118.817 E109.38377
G1 X82.644 Y119.515 E109.45652
G1 X80.357 Y119.515 E109.69423
G1 X80.301 Y118.775 E109.77136
G1 X80.274 Y118.089 E109.84272
G1 X80.264 Y117.52 E109.90187
G1 X80.275 Y116.862 E109.97027
G1 X80.304 Y116.183 E110.04091
G1 X80.356 Y115.485 E110.11366
G1 X82.643 Y115.485 E110.35136
M204 S5000
M205 X30 Y30
G0 F3600 X81.767 Y115.708
M204 S500
M205 X20 Y20
G1 F1800 X82.481 Y116.423 E110.45639
M204 S5000
M205 X30 Y30
G0 F3600 X82.505 Y117.154
M204 S500
M205 X20 Y20
G1 F1800 X81.06 Y115.708 E110.66886
M204 S5000
M205 X30 Y30
G0 F3600 X80.549 Y115.904
M204 S500
M205 X20 Y20
G1 F1800 X82.504 Y117.859 E110.95623
M204 S5000
M205 X30 Y30
G0 F3600 X82.482 Y118.545
M204 S500
M205 X20 Y20
G1 F1800 X80.511 Y116.574 E111.24595
M204 S5000
M205 X30 Y30
G0 F3600 X80.492 Y117.262
M204 S500
M205 X20 Y20
G1 F1800 X82.442 Y119.211 E111.53251
M204 S5000
M205 X30 Y30
G0 F3600 X81.812 Y119.288
M204 S500
M205 X20 Y20
G1 F1800 X80.497 Y117.973 E111.7258
M204 S5000
M205 X30 Y30
G0 F3600 X80.523 Y118.706
M204 S500
M205 X20 Y20
G1 F1800 X81.105 Y119.288 E111.81135
M204 S5000
M205 X30 Y30
G1 F2400 E106.81135
G0 F3600 X83.206 Y117.488
G0 X84.639 Y117.447
G0 X88.261 Y117.553
G0 X89.694 Y117.512
G0 X92.94 Y115.522
G0 X93.039 Y115.514
M204 S500
M205 X20 Y20
;TYPE:WALL-INNER
G1 F2400 E111.81135
G1 F1800 X93.087 Y116.191 E111.88189
G1 X93.116 Y116.885 E111.95409
G1 X93.126 Y117.488 E112.01677
G1 X93.115 Y118.159 E112.08652
G1 X93.086 Y118.838 E112.15716
G1 X93.037 Y119.517 E112.22792
G1 X92.987 Y120.005 E112.2789
G1 X89.813 Y120.005 E112.6088
G1 X89.761 Y119.486 E112.66302
G1 X89.712 Y118.795 E112.73502
G1 X89.684 Y118.109 E112.80638
G1 X89.674 Y117.512 E112.86844
G1 X89.685 Y116.841 E112.93819
G1 X89.714 Y116.162 E113.00883
G1 X89.763 Y115.483 E113.07958
G1 X89.813 Y114.995 E113.13057
G1 X92.987 Y114.995 E113.46047
G1 X93.039 Y115.514 E113.51469
M204 S5000
M205 X30 Y30
G0 F3600 X93.466 Y114.767
M204 S500
M205 X20 Y20
;TYPE:WALL-OUTER
G1 F1800 X93.538 Y115.479 E113.58907
G1 X93.587 Y116.17 E113.66107
G1 X93.616 Y116.864 E113.73326
G1 X93.626 Y117.496 E113.79896
G1 X93.615 Y118.181 E113.87017
G1 X93.585 Y118.874 E113.94226
G1 X93.536 Y119.553 E114.01302
G1 X93.465 Y120.241 E114.08491
G1 X93.43 Y120.505 E114.11259
G1 X89.369 Y120.505 E114.53468
G1 X89.333 Y120.226 E114.56392
G1 X89.262 Y119.521 E114.63757
G1 X89.213 Y118.83 E114.70957
G1 X89.184 Y118.13 E114.78239
G1 X89.174 Y117.504 E114.84746
G1 X89.185 Y116.819 E114.91867
G1 X89.215 Y116.126 E114.99076
G1 X89.264 Y115.447 E115.06152
G1 X89.335 Y114.759 E115.13341
G1 X89.37 Y114.495 E115.16109
G1 X93.431 Y114.495 E115.58318
G1 X93.466 Y114.767 E115.61169
M204 S5000
M205 X30 Y30
G0 F3600 X93.491 Y115.015
G0 X92.894 Y115.073
G0 X92.543 Y115.485
M204 S500
M205 X20 Y20
;TYPE:SKIN
G1 F1800 X92.598 Y116.211 E115.68736
G1 X92.626 Y116.893 E115.75831
G1 X92.636 Y117.48 E115.81933
G1 X92.625 Y118.138 E115.88773
G1 X92.596 Y118.817 E115.95837
G1 X92.544 Y119.515 E116.03112
G1 X90.257 Y119.515 E116.26882
G1 X90.201 Y118.775 E116.34596
G1 X90.174 Y118.089 E116.41731
G1 X90.164 Y117.52 E116.47646
G1 X90.175 Y116.862 E116.54486
G1 X90.204 Y116.183 E116.6155
G1 X90.256 Y115.485 E116.68825
G1 X92.543 Y115.485 E116.92596
M204 S5000
M205 X30 Y30
G0 F3600 X91.667 Y115.709
M204 S500
M205 X20 Y20
G1 F1800 X92.382 Y116.423 E117.03098
M204 S5000
M205 X30 Y30
G0 F3600 X92.406 Y117.154
M204 S500
M205 X20 Y20
G1 F1800 X90.96 Y115.709 E117.24346
M204 S5000
M205 X30 Y30
G0 F3600 X90.449 Y115.905
