;FLAVOR:Marlin
;TIME:1605
;Filament used: 1.48651m
;Layer height: 0.2
;Generated with Cura_SteamEngine 3.6.0
M140 S70
M105
M190 S70
M104 S215
M105
M109 S215
M82 ;absolute extrusion mode
G28 ; home all axes
M117 Purge extruder
G92 E0 ; reset extruder
G1 Z1.0 F3000 ; move z up little to prevent scratching of surface
G1 X0.1 Y20 Z0.3 F5000.0 ; move to start-line position G1 X0.1 Y200.0 Z0.3 F1500.0 E15 ; draw 1st line
G1 X0.4 Y200.0 Z0.3 F5000.0 ; move to side a little
G1 X0.4 Y20 Z0.3 F1500.0 E30 ; draw 2nd line
G92 E0 ; reset extruder
G1 Z1.0 F3000 ; move z up little to prevent scratching of surface
M117 All systems go!
G92 E0
G1 F6000 E-5
;LAYER_COUNT:76
;LAYER:0
M107
M204 S5000
M205 X30 Y30
G0 F7200 X96.592 Y95.961 Z0.2
M204 S500
M205 X20 Y20
;TYPE:SKIRT
G1 F6000 E0
G1 F900 X97.534 Y95.12 E0.0462
G1 X98.981 Y93.909 E0.11523
G1 X99.977 Y93.128 E0.16154
G1 X101.02 Y92.412 E0.20783
G1 X102.092 Y91.77 E0.25354
G1 X103.741 Y90.852 E0.32259
G1 X104.866 Y90.272 E0.3689
G1 X106.025 Y89.764 E0.4152
G1 X106.754 Y89.487 E0.44373
G1 X108.097 Y89.008 E0.4959
G1 X109.301 Y88.621 E0.54217
G1 X110.528 Y88.311 E0.58847
G1 X111.305 Y88.156 E0.61745
G1 X113.154 Y87.826 E0.68617
G1 X114.406 Y87.644 E0.73246
G1 X115.667 Y87.54 E0.77875
G1 X116.884 Y87.516 E0.82328
G1 X118.766 Y87.536 E0.89214
G1 X120.03 Y87.59 E0.93843
G1 X121.288 Y87.723 E0.98471
G1 X122.076 Y87.847 E1.0139
G1 X123.469 Y88.096 E1.06567
G1 X124.707 Y88.358 E1.11197
G1 X126.205 Y88.788 E1.16899
G1 X127.56 Y89.234 E1.22118
G1 X128.749 Y89.667 E1.26747
G1 X129.908 Y90.175 E1.31377
G1 X130.626 Y90.534 E1.34314
G1 X132.296 Y91.413 E1.41218
G1 X133.396 Y92.038 E1.45847
G1 X134.455 Y92.73 E1.50475
G1 X135.463 Y93.485 E1.55083
G1 X136.937 Y94.662 E1.61984
G1 X137.901 Y95.482 E1.66615
G1 X138.81 Y96.362 E1.71243
G1 X139.653 Y97.286 E1.75819
G1 X140.879 Y98.718 E1.82716
G1 X141.671 Y99.705 E1.87346
G1 X142.399 Y100.739 E1.91973
G1 X143.052 Y101.803 E1.9654
G1 X143.99 Y103.444 E2.03456
G1 X144.583 Y104.562 E2.08086
G1 X145.104 Y105.715 E2.12715
G1 X145.375 Y106.406 E2.1543
G1 X145.864 Y107.722 E2.20567
G1 X146.267 Y108.921 E2.25195
G1 X146.594 Y110.144 E2.29826
G1 X146.758 Y110.916 E2.32714
G1 X147.114 Y112.768 E2.39614
G1 X147.314 Y114.017 E2.44241
G1 X147.434 Y115.277 E2.48872
G1 X147.474 Y116.536 E2.53481
G1 X147.475 Y118.423 E2.60384
G1 X147.436 Y119.688 E2.65015
G1 X147.28 Y121.224 E2.70663
G1 X147.148 Y122.162 E2.74129
G1 X146.932 Y123.409 E2.78759
G1 X146.551 Y124.949 E2.84563
G1 X146.026 Y126.759 E2.91458
G1 X145.635 Y127.963 E2.9609
G1 X145.169 Y129.139 E3.00718
G1 X144.821 Y129.899 E3.03776
G1 X144.199 Y131.185 E3.09002
G1 X143.612 Y132.306 E3.13632
G1 X142.956 Y133.388 E3.18261
G1 X142.546 Y133.993 E3.20935
G1 X141.466 Y135.527 E3.27799
G1 X140.705 Y136.538 E3.32428
G1 X139.882 Y137.499 E3.37058
G1 X138.997 Y138.409 E3.41702
G1 X137.632 Y139.726 E3.48641
G1 X136.694 Y140.576 E3.53272
G1 X135.704 Y141.364 E3.57902
G1 X134.693 Y142.071 E3.62415
G1 X133.122 Y143.099 E3.69284
G1 X132.042 Y143.758 E3.73913
G1 X130.922 Y144.348 E3.78544
G1 X130.213 Y144.676 E3.81403
G1 X128.918 Y145.245 E3.86578
G1 X127.744 Y145.717 E3.91207
G1 X126.26 Y146.195 E3.96911
G1 X124.895 Y146.577 E4.02097
G1 X123.667 Y146.88 E4.06724
G1 X122.103 Y147.148 E4.1253
G1 X120.7 Y147.332 E4.17707
G1 X119.441 Y147.457 E4.22336
G1 X118.176 Y147.502 E4.26967
G1 X117.39 Y147.49 E4.29843
G1 X115.493 Y147.423 E4.36788
G1 X114.231 Y147.338 E4.41415
G1 X112.976 Y147.174 E4.46046
G1 X111.74 Y146.932 E4.50654
G1 X109.902 Y146.512 E4.57552
G1 X108.678 Y146.191 E4.62181
G1 X107.477 Y145.794 E4.66809
G1 X106.76 Y145.516 E4.69623
G1 X105.459 Y144.982 E4.74768
G1 X104.304 Y144.464 E4.79399
G1 X103.184 Y143.875 E4.84029
G1 X102.52 Y143.481 E4.86853
G1 X100.907 Y142.482 E4.93795
G1 X99.853 Y141.782 E4.98424
G1 X98.845 Y141.017 E5.03054
G1 X97.882 Y140.185 E5.0771
G1 X96.494 Y138.906 E5.14615
G1 X95.591 Y138.019 E5.19246
G1 X94.745 Y137.077 E5.23879
G1 X93.973 Y136.1 E5.28434
G1 X92.85 Y134.584 E5.35337
G1 X92.129 Y133.544 E5.39967
G1 X91.476 Y132.46 E5.44597
G1 X90.893 Y131.339 E5.49219
G1 X90.076 Y129.639 E5.5612
G1 X89.564 Y128.482 E5.60749
G1 X89.126 Y127.294 E5.65381
G1 X88.777 Y126.131 E5.69824
G1 X88.293 Y124.318 E5.76689
G1 X88.006 Y123.085 E5.81321
G1 X87.797 Y121.837 E5.8595
G1 X87.667 Y120.583 E5.90563
G1 X87.532 Y118.697 E5.97481
G1 X87.482 Y117.433 E6.02109
G1 X87.511 Y116.168 E6.06738
G1 X87.62 Y114.917 E6.11332
G1 X87.842 Y113.04 E6.18247
G1 X88.03 Y111.788 E6.22879
G1 X88.297 Y110.551 E6.27509
G1 X88.642 Y109.333 E6.32141
G1 X89.216 Y107.525 E6.39081
G1 X89.636 Y106.332 E6.43708
G1 X90.132 Y105.167 E6.48341
G1 X90.695 Y104.045 E6.52934
G1 X91.588 Y102.397 E6.59791
G1 X92.226 Y101.304 E6.64422
G1 X92.931 Y100.254 E6.69049
G1 X93.679 Y99.278 E6.73548
G1 X94.872 Y97.816 E6.80451
G1 X95.702 Y96.861 E6.8508
G1 X96.081 Y96.478 E6.87052
G0 F810 X96.592 Y95.961
M204 S5000
M205 X30 Y30
G0 F7200 X96.915 Y96.261
M204 S500
M205 X20 Y20
G1 F6000 E6.89712
G1 F900 X97.817 Y95.458 E6.9413
G1 X99.264 Y94.247 E7.01033
G1 X100.248 Y93.475 E7.05609
G1 X101.281 Y92.767 E7.10191
G1 X102.306 Y92.154 E7.1456
G1 X103.955 Y91.236 E7.21465
G1 X105.067 Y90.663 E7.26042
G1 X106.214 Y90.162 E7.30621
G1 X106.901 Y89.902 E7.33309
G1 X108.244 Y89.423 E7.38526
G1 X109.436 Y89.04 E7.43106
G1 X110.649 Y88.735 E7.47682
G1 X111.382 Y88.59 E7.50416
G1 X113.231 Y88.26 E7.57288
G1 X114.469 Y88.079 E7.61865
G1 X115.716 Y87.978 E7.66442
G1 X116.879 Y87.956 E7.70698
G1 X118.761 Y87.976 E7.77584
G1 X120.011 Y88.029 E7.82161
G1 X121.256 Y88.162 E7.86742
G1 X121.998 Y88.281 E7.89492
G1 X123.391 Y88.53 E7.94669
G1 X124.616 Y88.789 E7.9925
G1 X126.068 Y89.206 E8.04777
G1 X127.423 Y89.652 E8.09996
G1 X128.598 Y90.081 E8.14572
G1 X129.744 Y90.584 E8.19151
G1 X130.421 Y90.924 E8.21923
G1 X132.091 Y91.803 E8.28827
G1 X133.179 Y92.42 E8.33404
G1 X134.225 Y93.107 E8.37982
G1 X135.189 Y93.828 E8.42386
G1 X136.663 Y95.005 E8.49287
G1 X137.615 Y95.817 E8.53865
G1 X138.514 Y96.688 E8.58445
G1 X139.319 Y97.572 E8.62819
G1 X140.545 Y99.004 E8.69716
G1 X141.328 Y99.98 E8.74294
G1 X142.047 Y101.004 E8.78872
G1 X142.67 Y102.021 E8.83235
G1 X143.608 Y103.662 E8.90151
G1 X144.194 Y104.768 E8.9473
G1 X144.708 Y105.909 E8.99308
G1 X144.963 Y106.559 E9.01863
G1 X145.452 Y107.875 E9.06999
G1 X145.85 Y109.061 E9.11576
G1 X146.172 Y110.271 E9.16157
G1 X146.326 Y110.999 E9.1888
G1 X146.682 Y112.851 E9.25779
G1 X146.879 Y114.087 E9.30359
G1 X146.996 Y115.333 E9.34937
G1 X147.034 Y116.537 E9.39344
G1 X147.035 Y118.424 E9.46248
G1 X146.996 Y119.674 E9.50824
G1 X146.844 Y121.163 E9.563
G1 X146.712 Y122.101 E9.59765
G1 X146.498 Y123.333 E9.6434
G1 X146.128 Y124.826 E9.69968
G1 X145.603 Y126.636 E9.76863
G1 X145.216 Y127.827 E9.81445
G1 X144.754 Y128.99 E9.86023
G1 X144.425 Y129.707 E9.88909
G1 X143.803 Y130.993 E9.94136
G1 X143.222 Y132.102 E9.98716
G1 X142.572 Y133.171 E10.03293
G1 X142.186 Y133.74 E10.05809
G1 X141.106 Y135.274 E10.12673
G1 X140.353 Y136.273 E10.1725
G1 X139.538 Y137.223 E10.21829
G1 X138.691 Y138.093 E10.26271
G1 X137.326 Y139.41 E10.33211
G1 X136.398 Y140.249 E10.37788
G1 X135.419 Y141.028 E10.42365
G1 X134.452 Y141.703 E10.4668
G1 X132.881 Y142.731 E10.53549
G1 X131.813 Y143.382 E10.58125
G1 X130.705 Y143.964 E10.62704
G1 X130.036 Y144.273 E10.654
G1 X128.741 Y144.842 E10.70575
G1 X127.58 Y145.308 E10.75152
G1 X126.142 Y145.772 E10.8068
G1 X124.777 Y146.154 E10.85866
G1 X123.562 Y146.452 E10.90443
G1 X122.046 Y146.712 E10.9607
G1 X120.643 Y146.896 E11.01247
G1 X119.398 Y147.019 E11.05825
G1 X118.147 Y147.062 E11.10404
G1 X117.406 Y147.05 E11.13116
G1 X115.509 Y146.983 E11.2006
G1 X114.26 Y146.899 E11.2464
G1 X113.02 Y146.735 E11.29216
G1 X111.838 Y146.503 E11.33623
G1 X110 Y146.083 E11.40521
G1 X108.79 Y145.765 E11.45099
G1 X107.602 Y145.371 E11.49678
G1 X106.927 Y145.109 E11.52327
G1 X105.626 Y144.575 E11.57472
G1 X104.484 Y144.063 E11.62051
G1 X103.377 Y143.479 E11.6663
G1 X102.751 Y143.107 E11.69294
G1 X101.138 Y142.108 E11.76236
G1 X100.096 Y141.415 E11.80814
G1 X99.1 Y140.658 E11.85391
G1 X98.18 Y139.861 E11.89844
G1 X96.792 Y138.582 E11.9675
G1 X95.899 Y137.705 E12.01329
G1 X95.064 Y136.773 E12.05907
G1 X94.327 Y135.838 E12.10263
G1 X93.204 Y134.322 E12.17165
G1 X92.491 Y133.293 E12.21746
G1 X91.846 Y132.221 E12.26323
G1 X91.289 Y131.148 E12.30746
G1 X90.472 Y129.448 E12.37647
G1 X89.966 Y128.304 E12.42223
G1 X89.535 Y127.129 E12.46802
G1 X89.203 Y126.017 E12.51048
G1 X88.719 Y124.204 E12.57913
G1 X88.435 Y122.985 E12.62493
G1 X88.229 Y121.751 E12.6707
G1 X88.106 Y120.552 E12.7148
G1 X87.971 Y118.666 E12.78397
G1 X87.922 Y117.416 E12.82974
G1 X87.952 Y116.165 E12.87552
G1 X88.057 Y114.968 E12.91949
G1 X88.279 Y113.091 E12.98864
G1 X88.465 Y111.854 E13.0344
G1 X88.73 Y110.631 E13.08019
G1 X89.061 Y109.466 E13.12449
G1 X89.635 Y107.658 E13.1939
G1 X90.052 Y106.478 E13.23968
G1 X90.543 Y105.327 E13.28547
G1 X91.082 Y104.255 E13.32937
G1 X91.975 Y102.607 E13.39794
G1 X92.606 Y101.526 E13.44374
G1 X93.305 Y100.488 E13.48952
G1 X94.02 Y99.556 E13.5325
G1 X95.213 Y98.094 E13.60154
G1 X96.034 Y97.15 E13.64731
G1 X96.404 Y96.777 E13.66653
G0 F810 X96.915 Y96.261
M204 S5000
M205 X30 Y30
G0 F7200 X97.238 Y96.561
M204 S500
M205 X20 Y20
G1 F6000 E13.69313
G1 F900 X98.099 Y95.795 E13.73529
G1 X99.546 Y94.584 E13.80432
G1 X100.52 Y93.821 E13.84959
G1 X101.541 Y93.123 E13.89484
G1 X102.52 Y92.539 E13.93655
G1 X104.169 Y91.621 E14.0056
G1 X105.269 Y91.054 E14.05087
G1 X106.403 Y90.56 E14.09613
G1 X107.049 Y90.316 E14.12139
G1 X108.392 Y89.837 E14.17356
G1 X109.57 Y89.46 E14.21881
G1 X110.77 Y89.159 E14.26407
G1 X111.459 Y89.023 E14.28977
G1 X113.308 Y88.693 E14.35848
G1 X114.533 Y88.515 E14.40377
G1 X115.766 Y88.416 E14.44903
G1 X116.874 Y88.396 E14.48957
G1 X118.756 Y88.416 E14.55843
G1 X119.993 Y88.469 E14.60373
G1 X121.223 Y88.602 E14.64899
G1 X121.921 Y88.714 E14.67486
G1 X123.314 Y88.963 E14.72663
G1 X124.524 Y89.22 E14.77189
G1 X125.93 Y89.624 E14.82541
G1 X127.285 Y90.07 E14.8776
G1 X128.447 Y90.494 E14.92285
G1 X129.579 Y90.993 E14.96811
G1 X130.216 Y91.313 E14.9942
G1 X131.886 Y92.192 E15.06324
G1 X132.961 Y92.803 E15.10848
G1 X133.995 Y93.483 E15.15376
G1 X134.914 Y94.172 E15.19578
G1 X136.388 Y95.349 E15.26479
G1 X137.329 Y96.152 E15.31005
G1 X138.217 Y97.014 E15.35533
G1 X138.984 Y97.858 E15.39705
G1 X140.21 Y99.29 E15.46602
G1 X140.984 Y100.256 E15.51131
G1 X141.694 Y101.269 E15.55657
G1 X142.288 Y102.24 E15.59821
G1 X143.226 Y103.881 E15.66737
G1 X143.805 Y104.974 E15.71262
G1 X144.312 Y106.103 E15.7579
G1 X144.55 Y106.712 E15.78182
G1 X145.039 Y108.028 E15.83319
G1 X145.433 Y109.201 E15.87846
G1 X145.749 Y110.397 E15.92372
G1 X145.894 Y111.082 E15.94933
G1 X146.25 Y112.934 E16.01833
G1 X146.444 Y114.156 E16.0636
G1 X146.559 Y115.388 E16.10887
G1 X146.594 Y116.537 E16.15093
G1 X146.595 Y118.424 E16.21996
G1 X146.556 Y119.66 E16.26521
G1 X146.408 Y121.101 E16.31821
G1 X146.276 Y122.039 E16.35286
G1 X146.064 Y123.258 E16.39813
G1 X145.705 Y124.704 E16.45264
G1 X145.18 Y126.514 E16.52159
G1 X144.797 Y127.69 E16.56684
G1 X144.339 Y128.84 E16.61213
G1 X144.028 Y129.516 E16.63935
G1 X143.406 Y130.802 E16.69162
G1 X142.832 Y131.898 E16.73688
G1 X142.188 Y132.954 E16.78213
G1 X141.826 Y133.486 E16.80568
G1 X140.746 Y135.02 E16.87431
G1 X140.002 Y136.009 E16.91959
G1 X139.195 Y136.947 E16.96486
G1 X138.386 Y137.776 E17.00724
G1 X137.021 Y139.093 E17.07664
G1 X136.103 Y139.923 E17.12192
G1 X135.134 Y140.692 E17.16717
G1 X134.211 Y141.335 E17.20833
G1 X132.64 Y142.363 E17.27702
G1 X131.583 Y143.006 E17.32228
G1 X130.487 Y143.58 E17.36755
G1 X129.859 Y143.87 E17.39286
G1 X128.564 Y144.439 E17.44461
G1 X127.416 Y144.9 E17.48987
G1 X126.023 Y145.348 E17.5434
G1 X124.658 Y145.73 E17.59526
G1 X123.457 Y146.025 E17.64051
G1 X121.989 Y146.275 E17.69499
G1 X120.586 Y146.459 E17.74676
G1 X119.355 Y146.581 E17.79202
G1 X118.118 Y146.622 E17.8373
G1 X117.421 Y146.61 E17.8628
G1 X115.524 Y146.543 E17.93225
G1 X114.29 Y146.459 E17.9775
G1 X113.064 Y146.296 E18.02275
G1 X111.936 Y146.074 E18.06481
G1 X110.098 Y145.654 E18.13379
G1 X108.902 Y145.34 E18.17903
G1 X107.728 Y144.948 E18.22431
G1 X107.094 Y144.702 E18.2492
G1 X105.793 Y144.168 E18.30065
G1 X104.664 Y143.661 E18.34593
G1 X103.571 Y143.083 E18.39116
G1 X102.983 Y142.733 E18.4162
G1 X101.37 Y141.734 E18.48561
G1 X100.34 Y141.049 E18.53087
G1 X99.356 Y140.299 E18.57614
G1 X98.478 Y139.537 E18.61867
G1 X97.09 Y138.258 E18.68772
G1 X96.208 Y137.391 E18.73297
G1 X95.383 Y136.468 E18.77826
G1 X94.68 Y135.576 E18.81982
G1 X93.557 Y134.06 E18.88884
G1 X92.853 Y133.042 E18.93412
G1 X92.216 Y131.982 E18.97937
G1 X91.686 Y130.958 E19.02155
G1 X90.869 Y129.258 E19.09056
G1 X90.369 Y128.126 E19.13584
G1 X89.944 Y126.964 E19.1811
G1 X89.628 Y125.904 E19.22157
G1 X89.144 Y124.091 E19.29022
G1 X88.863 Y122.886 E19.33549
G1 X88.661 Y121.665 E19.38077
G1 X88.545 Y120.521 E19.42284
G1 X88.41 Y118.635 E19.49202
G1 X88.361 Y117.398 E19.53731
G1 X88.393 Y116.161 E19.58258
G1 X88.493 Y115.02 E19.62449
G1 X88.715 Y113.143 E19.69364
G1 X88.9 Y111.92 E19.73889
G1 X89.164 Y110.711 E19.78417
G1 X89.48 Y109.599 E19.82646
G1 X90.054 Y107.791 E19.89586
G1 X90.467 Y106.625 E19.94112
G1 X90.953 Y105.487 E19.98639
G1 X91.469 Y104.464 E20.02831
G1 X92.362 Y102.816 E20.09689
G1 X92.986 Y101.748 E20.14214
G1 X93.678 Y100.722 E20.18742
G1 X94.361 Y99.834 E20.22841
G1 X95.554 Y98.372 E20.29745
G1 X96.366 Y97.439 E20.3427
G1 X96.726 Y97.077 E20.36138
G0 F810 X97.238 Y96.561
M204 S5000
M205 X30 Y30
G0 F7200 X97.561 Y96.861
M204 S500
M205 X20 Y20
G1 F6000 E20.38797
G1 F900 X98.381 Y96.132 E20.42812
G1 X99.828 Y94.921 E20.49715
G1 X100.791 Y94.168 E20.54188
G1 X101.802 Y93.478 E20.58666
G1 X102.734 Y92.923 E20.62634
G1 X104.383 Y92.005 E20.69539
G1 X105.471 Y91.446 E20.74015
G1 X106.592 Y90.958 E20.78488
G1 X107.197 Y90.731 E20.80852
G1 X108.54 Y90.252 E20.86068
G1 X109.705 Y89.879 E20.90544
G1 X110.891 Y89.583 E20.95016
G1 X111.536 Y89.456 E20.97421
G1 X113.385 Y89.126 E21.04293
G1 X114.596 Y88.951 E21.08769
G1 X115.815 Y88.855 E21.13243
G1 X116.87 Y88.836 E21.17104
G1 X118.752 Y88.856 E21.2399
G1 X119.974 Y88.909 E21.28465
G1 X121.189 Y89.042 E21.32936
G1 X121.843 Y89.147 E21.3536
G1 X123.236 Y89.396 E21.40537
G1 X124.433 Y89.65 E21.45014
G1 X125.793 Y90.041 E21.50191
G1 X127.148 Y90.487 E21.5541
G1 X128.296 Y90.908 E21.59884
G1 X129.415 Y91.402 E21.64359
G1 X130.011 Y91.702 E21.668
G1 X131.681 Y92.581 E21.73705
G1 X132.744 Y93.186 E21.7818
G1 X133.765 Y93.859 E21.82653
G1 X134.639 Y94.516 E21.86654
G1 X136.113 Y95.693 E21.93555
G1 X137.044 Y96.487 E21.98032
G1 X137.92 Y97.34 E22.02505
G1 X138.65 Y98.144 E22.06478
G1 X139.876 Y99.576 E22.13375
G1 X140.641 Y100.531 E22.17852
G1 X141.341 Y101.533 E22.22324
G1 X141.906 Y102.458 E22.26289
G1 X142.844 Y104.099 E22.33205
G1 X143.416 Y105.18 E22.37679
G1 X144.138 Y106.866 E22.44389
G1 X144.627 Y108.182 E22.49526
G1 X145.015 Y109.341 E22.53997
G1 X145.327 Y110.524 E22.58474
G1 X145.462 Y111.165 E22.6087
G1 X145.818 Y113.017 E22.6777
G1 X146.009 Y114.225 E22.72245
G1 X146.121 Y115.443 E22.7672
G1 X146.154 Y116.537 E22.80724
G1 X146.155 Y118.424 E22.87628
G1 X146.116 Y119.646 E22.92101
G1 X145.973 Y121.04 E22.97228
G1 X145.841 Y121.978 E23.00693
G1 X145.631 Y123.183 E23.05168
G1 X145.283 Y124.581 E23.10439
G1 X144.758 Y126.391 E23.17334
G1 X144.379 Y127.554 E23.21809
G1 X143.925 Y128.69 E23.26285
G1 X143.632 Y129.324 E23.28841
G1 X143.01 Y130.61 E23.34067
G1 X142.442 Y131.693 E23.38541
G1 X141.467 Y133.233 E23.4521
G1 X140.387 Y134.767 E23.52073
G1 X139.65 Y135.744 E23.56551
G1 X138.852 Y136.67 E23.61023
G1 X138.08 Y137.459 E23.65062
G1 X136.715 Y138.776 E23.72001
G1 X135.808 Y139.596 E23.76475
G1 X134.849 Y140.355 E23.80949
G1 X133.97 Y140.967 E23.84868
G1 X132.399 Y141.995 E23.91737
G1 X131.355 Y142.63 E23.96207
G1 X130.271 Y143.197 E24.00683
G1 X129.682 Y143.467 E24.03054
G1 X128.387 Y144.036 E24.08229
G1 X127.252 Y144.491 E24.12702
G1 X125.905 Y144.924 E24.17879
G1 X124.54 Y145.306 E24.23065
G1 X123.352 Y145.597 E24.2754
G1 X121.932 Y145.839 E24.3281
G1 X120.529 Y146.023 E24.37987
