;FLAVOR:Marlin
;TIME:7116
;Filament used: 22.1867m
;Layer height: 0.5
;Generated with Cura_SteamEngine 3.6.0
M140 S70
M105
M190 S70
M104 S215
M105
M109 S215
M82 ;absolute extrusion mode
; Ender 3 Custom Start G-code
G28 ; Home all axes
G92 E0 ; Reset Extruder
G1 Z2.0 F3000 ; Move Z Axis up little to prevent scratching of Heat Bed
G1 X0.1 Y20 Z0.3 F5000.0 ; Move to start position
G1 X0.1 Y200.0 Z0.3 F1500.0 E15 ; Draw the first line
G1 X0.4 Y200.0 Z0.3 F5000.0 ; Move to side a little
G1 X0.4 Y20 Z0.3 F1500.0 E30 ; Draw the second line
G92 E0 ; Reset Extruder
G1 Z2.0 F3000 ; Move Z Axis up little to prevent scratching of Heat Bed
; End of custom start GCode
G92 E0
G1 F6000 E-5
;LAYER_COUNT:89
;LAYER:0
M107
M204 S5000
M205 X30 Y30
G0 F7200 X78.901 Y98.412 Z0.5
M204 S500
M205 X20 Y20
;TYPE:SKIRT
G1 F6000 E0
G1 F900 X79.925 Y97.669 E0.11572
G1 X80.995 Y96.992 E0.23153
G1 X82.104 Y96.385 E0.34717
G1 X83.251 Y95.848 E0.463
G1 X84.428 Y95.385 E0.57869
G1 X85.633 Y94.998 E0.69445
G1 X86.859 Y94.687 E0.81014
G1 X88.103 Y94.455 E0.92588
G1 X89.359 Y94.301 E1.04162
G1 X91.159 Y94.22 E1.20643
G1 X136.841 Y94.22 E5.38475
G1 X138.106 Y94.26 E5.50051
G1 X139.365 Y94.38 E5.61619
G1 X140.615 Y94.579 E5.73196
G1 X141.85 Y94.857 E5.84775
G1 X143.064 Y95.212 E5.96343
G1 X144.254 Y95.643 E6.0792
G1 X145.414 Y96.148 E6.19492
G1 X146.54 Y96.726 E6.31068
G1 X147.627 Y97.374 E6.42643
G1 X148.671 Y98.089 E6.54217
G1 X149.667 Y98.868 E6.65782
G1 X150.997 Y100.084 E6.82265
G1 X151.126 Y100.213 E6.83934
G1 X151.992 Y101.135 E6.95504
G1 X152.798 Y102.111 E7.07081
G1 X153.541 Y103.135 E7.18653
G1 X154.218 Y104.205 E7.30234
G1 X154.825 Y105.314 E7.41798
G1 X155.362 Y106.461 E7.53382
G1 X155.825 Y107.638 E7.6495
G1 X156.212 Y108.843 E7.76526
G1 X156.523 Y110.069 E7.88095
G1 X156.755 Y111.313 E7.99669
G1 X156.909 Y112.569 E8.11243
G1 X156.99 Y114.369 E8.27724
G1 X156.99 Y120.631 E8.84999
G1 X156.95 Y121.896 E8.96576
G1 X156.83 Y123.155 E9.08143
G1 X156.631 Y124.405 E9.1972
G1 X156.353 Y125.64 E9.31299
G1 X155.998 Y126.854 E9.42868
G1 X155.567 Y128.044 E9.54444
G1 X155.062 Y129.204 E9.66016
G1 X154.484 Y130.33 E9.77593
G1 X153.836 Y131.417 E9.89168
G1 X153.121 Y132.461 E10.00741
G1 X152.342 Y133.457 E10.12307
G1 X151.126 Y134.787 E10.2879
G1 X150.997 Y134.916 E10.30458
G1 X150.075 Y135.782 E10.42028
G1 X149.099 Y136.588 E10.53606
G1 X148.075 Y137.331 E10.65177
G1 X147.005 Y138.008 E10.76759
G1 X145.896 Y138.615 E10.88322
G1 X144.749 Y139.152 E10.99906
G1 X143.572 Y139.615 E11.11475
G1 X142.367 Y140.002 E11.23051
G1 X141.141 Y140.313 E11.34619
G1 X139.897 Y140.545 E11.46194
G1 X138.641 Y140.699 E11.57768
G1 X136.841 Y140.78 E11.74248
G1 X91.159 Y140.78 E15.92081
G1 X89.894 Y140.74 E16.03657
G1 X88.635 Y140.62 E16.15224
G1 X87.385 Y140.421 E16.26801
G1 X86.15 Y140.143 E16.3838
G1 X84.936 Y139.788 E16.49949
G1 X83.746 Y139.357 E16.61525
G1 X82.586 Y138.852 E16.73097
G1 X81.46 Y138.274 E16.84674
G1 X80.373 Y137.626 E16.96249
G1 X79.329 Y136.911 E17.07822
G1 X78.333 Y136.132 E17.19388
G1 X77.003 Y134.916 E17.35871
G1 X76.874 Y134.787 E17.37539
G1 X76.008 Y133.865 E17.49109
G1 X75.202 Y132.889 E17.60687
G1 X74.459 Y131.865 E17.72258
G1 X73.782 Y130.795 E17.8384
G1 X73.175 Y129.686 E17.95403
G1 X72.638 Y128.539 E18.06987
G1 X72.175 Y127.362 E18.18556
G1 X71.788 Y126.157 E18.30132
G1 X71.477 Y124.931 E18.417
G1 X71.245 Y123.687 E18.53275
G1 X71.091 Y122.431 E18.64849
G1 X71.01 Y120.631 E18.81329
G1 X71.01 Y114.369 E19.38605
G1 X71.05 Y113.104 E19.50181
G1 X71.17 Y111.845 E19.61749
G1 X71.369 Y110.595 E19.73326
G1 X71.647 Y109.36 E19.84905
G1 X72.002 Y108.146 E19.96474
G1 X72.433 Y106.956 E20.0805
G1 X72.938 Y105.796 E20.19622
G1 X73.516 Y104.67 E20.31198
G1 X74.164 Y103.583 E20.42773
G1 X74.879 Y102.539 E20.54347
G1 X75.658 Y101.543 E20.65912
G1 X76.874 Y100.213 E20.82395
G1 X77.003 Y100.084 E20.84064
G1 X77.925 Y99.218 E20.95634
G1 X78.678 Y98.596 E21.04567
G0 F810 X78.901 Y98.412
M204 S5000
M205 X30 Y30
G0 F7200 X79.192 Y98.743
M204 S500
M205 X20 Y20
G1 F6000 E21.07219
G1 F900 X80.206 Y98.01 E21.18663
G1 X81.266 Y97.343 E21.30119
G1 X82.365 Y96.746 E21.41558
G1 X83.501 Y96.22 E21.53008
G1 X84.667 Y95.767 E21.6445
G1 X85.861 Y95.39 E21.75902
G1 X87.076 Y95.091 E21.87347
G1 X88.307 Y94.869 E21.98788
G1 X89.55 Y94.726 E22.10232
G1 X91.159 Y94.66 E22.24961
G1 X136.841 Y94.66 E26.42793
G1 X138.092 Y94.7 E26.54241
G1 X139.337 Y94.82 E26.65681
G1 X140.573 Y95.019 E26.77132
G1 X141.793 Y95.297 E26.88577
G1 X142.993 Y95.652 E27.00023
G1 X144.168 Y96.083 E27.1147
G1 X145.313 Y96.588 E27.22917
G1 X146.423 Y97.165 E27.34359
G1 X147.494 Y97.812 E27.45804
G1 X148.522 Y98.526 E27.57252
G1 X149.502 Y99.304 E27.68697
G1 X150.686 Y100.395 E27.83423
G1 X150.815 Y100.524 E27.85091
G1 X151.671 Y101.437 E27.96538
G1 X152.467 Y102.402 E28.0798
G1 X153.2 Y103.416 E28.19424
G1 X153.867 Y104.476 E28.30879
G1 X154.464 Y105.575 E28.42319
G1 X154.99 Y106.711 E28.53769
G1 X155.443 Y107.877 E28.6521
G1 X155.82 Y109.071 E28.76663
G1 X156.119 Y110.286 E28.88107
G1 X156.341 Y111.517 E28.99548
G1 X156.484 Y112.76 E29.10993
G1 X156.55 Y114.369 E29.25722
G1 X156.55 Y120.631 E29.82997
G1 X156.51 Y121.882 E29.94445
G1 X156.39 Y123.127 E30.05886
G1 X156.191 Y124.363 E30.17336
G1 X155.913 Y125.583 E30.28781
G1 X155.558 Y126.783 E30.40227
G1 X155.127 Y127.958 E30.51675
G1 X154.622 Y129.103 E30.63121
G1 X154.045 Y130.213 E30.74563
G1 X153.398 Y131.284 E30.86008
G1 X152.684 Y132.312 E30.97456
G1 X151.906 Y133.292 E31.08901
G1 X150.815 Y134.476 E31.23627
G1 X150.686 Y134.605 E31.25295
G1 X149.773 Y135.461 E31.36743
G1 X148.808 Y136.257 E31.48184
G1 X147.794 Y136.99 E31.59628
G1 X146.734 Y137.657 E31.71083
G1 X145.635 Y138.254 E31.82523
G1 X144.499 Y138.78 E31.93973
G1 X143.333 Y139.233 E32.05415
G1 X142.139 Y139.61 E32.16867
G1 X140.924 Y139.909 E32.28312
G1 X139.693 Y140.131 E32.39753
G1 X138.45 Y140.274 E32.51197
G1 X136.841 Y140.34 E32.65926
G1 X91.159 Y140.34 E36.83758
G1 X89.908 Y140.3 E36.95206
G1 X88.663 Y140.18 E37.06646
G1 X87.427 Y139.981 E37.18097
G1 X86.207 Y139.703 E37.29542
G1 X85.007 Y139.348 E37.40988
G1 X83.832 Y138.917 E37.52435
G1 X82.687 Y138.412 E37.63881
G1 X81.577 Y137.835 E37.75324
G1 X80.506 Y137.188 E37.86769
G1 X79.478 Y136.474 E37.98217
G1 X78.498 Y135.696 E38.09661
G1 X77.314 Y134.605 E38.24388
G1 X77.185 Y134.476 E38.26056
G1 X76.329 Y133.563 E38.37503
G1 X75.533 Y132.598 E38.48945
G1 X74.8 Y131.584 E38.60389
G1 X74.133 Y130.524 E38.71844
G1 X73.536 Y129.425 E38.83284
G1 X73.01 Y128.289 E38.94734
G1 X72.557 Y127.123 E39.06175
G1 X72.18 Y125.929 E39.17628
G1 X71.881 Y124.714 E39.29072
G1 X71.659 Y123.483 E39.40513
G1 X71.516 Y122.24 E39.51957
G1 X71.45 Y120.631 E39.66687
G1 X71.45 Y114.369 E40.23962
G1 X71.49 Y113.118 E40.3541
G1 X71.61 Y111.873 E40.46851
G1 X71.809 Y110.637 E40.58301
G1 X72.087 Y109.417 E40.69746
G1 X72.442 Y108.217 E40.81192
G1 X72.873 Y107.042 E40.9264
G1 X73.378 Y105.897 E41.04086
G1 X73.955 Y104.787 E41.15528
G1 X74.602 Y103.716 E41.26973
G1 X75.316 Y102.688 E41.38421
G1 X76.094 Y101.708 E41.49866
G1 X77.185 Y100.524 E41.64592
G1 X77.314 Y100.395 E41.6626
G1 X78.227 Y99.539 E41.77707
G1 X78.969 Y98.927 E41.86505
G0 F810 X79.192 Y98.743
M204 S5000
M205 X30 Y30
G0 F7200 X79.483 Y99.074
M204 S500
M205 X20 Y20
G1 F6000 E41.89157
G1 F900 X80.487 Y98.351 E42.00474
G1 X81.536 Y97.695 E42.1179
G1 X82.625 Y97.108 E42.23106
G1 X83.75 Y96.592 E42.34426
G1 X84.906 Y96.15 E42.45746
G1 X86.088 Y95.784 E42.57064
G1 X87.291 Y95.495 E42.6838
G1 X88.51 Y95.284 E42.79695
G1 X89.74 Y95.153 E42.91009
G1 X91.159 Y95.1 E43.03997
G1 X136.841 Y95.1 E47.21829
G1 X138.078 Y95.14 E47.3315
G1 X139.309 Y95.26 E47.44462
G1 X140.53 Y95.459 E47.55778
G1 X141.736 Y95.736 E47.67096
G1 X142.921 Y96.091 E47.7841
G1 X144.081 Y96.522 E47.89729
G1 X145.211 Y97.027 E48.0105
G1 X146.305 Y97.604 E48.12362
G1 X147.36 Y98.25 E48.23677
G1 X148.371 Y98.963 E48.34993
G1 X149.334 Y99.74 E48.4631
G1 X150.375 Y100.706 E48.593
G1 X150.504 Y100.835 E48.60969
G1 X151.35 Y101.738 E48.72286
G1 X152.136 Y102.693 E48.83599
G1 X152.859 Y103.697 E48.94916
G1 X153.515 Y104.746 E49.06232
G1 X154.102 Y105.835 E49.17548
G1 X154.618 Y106.96 E49.28868
G1 X155.06 Y108.116 E49.40188
G1 X155.426 Y109.298 E49.51506
G1 X155.715 Y110.501 E49.62822
G1 X155.926 Y111.72 E49.74137
G1 X156.057 Y112.95 E49.85451
G1 X156.11 Y114.369 E49.98439
G1 X156.11 Y120.631 E50.55715
G1 X156.07 Y121.868 E50.67035
G1 X155.95 Y123.099 E50.78348
G1 X155.751 Y124.32 E50.89663
G1 X155.474 Y125.526 E51.00981
G1 X155.119 Y126.711 E51.12296
G1 X154.688 Y127.871 E51.23614
G1 X154.183 Y129.001 E51.34935
G1 X153.606 Y130.095 E51.46248
G1 X152.96 Y131.15 E51.57563
G1 X152.247 Y132.161 E51.68878
G1 X151.47 Y133.124 E51.80196
G1 X150.504 Y134.165 E51.93185
G1 X150.375 Y134.294 E51.94854
G1 X149.472 Y135.14 E52.06172
G1 X148.517 Y135.926 E52.17485
G1 X147.513 Y136.649 E52.28801
G1 X146.464 Y137.305 E52.40118
G1 X145.375 Y137.892 E52.51433
G1 X144.25 Y138.408 E52.62754
G1 X143.094 Y138.85 E52.74074
G1 X141.912 Y139.216 E52.85391
G1 X140.709 Y139.505 E52.96708
G1 X139.49 Y139.716 E53.08023
G1 X138.26 Y139.847 E53.19337
G1 X136.841 Y139.9 E53.32325
G1 X91.159 Y139.9 E57.50157
G1 X89.922 Y139.86 E57.61477
G1 X88.691 Y139.74 E57.7279
G1 X87.47 Y139.541 E57.84105
G1 X86.264 Y139.264 E57.95423
G1 X85.079 Y138.909 E58.06738
G1 X83.919 Y138.478 E58.18056
G1 X82.789 Y137.973 E58.29377
G1 X81.695 Y137.396 E58.4069
G1 X80.64 Y136.75 E58.52005
G1 X79.629 Y136.037 E58.6332
G1 X78.666 Y135.26 E58.74638
G1 X77.625 Y134.294 E58.87627
G1 X77.496 Y134.165 E58.89296
G1 X76.65 Y133.262 E59.00614
G1 X75.864 Y132.307 E59.11927
G1 X75.141 Y131.303 E59.23243
G1 X74.485 Y130.254 E59.3456
G1 X73.898 Y129.165 E59.45875
G1 X73.382 Y128.04 E59.57196
G1 X72.94 Y126.884 E59.68516
G1 X72.574 Y125.702 E59.79833
G1 X72.285 Y124.499 E59.91149
G1 X72.074 Y123.28 E60.02465
G1 X71.943 Y122.05 E60.13779
G1 X71.89 Y120.631 E60.26767
G1 X71.89 Y114.369 E60.84042
G1 X71.93 Y113.132 E60.95363
G1 X72.05 Y111.901 E61.06675
G1 X72.249 Y110.68 E61.17991
G1 X72.526 Y109.474 E61.29309
G1 X72.881 Y108.289 E61.40623
G1 X73.312 Y107.129 E61.51942
G1 X73.817 Y105.999 E61.63263
G1 X74.394 Y104.905 E61.74575
G1 X75.04 Y103.85 E61.8589
G1 X75.753 Y102.839 E61.97206
G1 X76.53 Y101.876 E62.08523
G1 X77.496 Y100.835 E62.21513
G1 X77.625 Y100.706 E62.23182
G1 X78.528 Y99.86 E62.34499
G1 X79.259 Y99.258 E62.43161
G0 F810 X79.483 Y99.074
M204 S5000
M205 X30 Y30
G0 F7200 X79.774 Y99.405
M204 S500
M205 X20 Y20
G1 F6000 E62.45813
G1 F900 X80.768 Y98.693 E62.56997
G1 X81.806 Y98.047 E62.68179
G1 X82.885 Y97.47 E62.79371
G1 X83.999 Y96.965 E62.90558
G1 X85.143 Y96.534 E63.0174
G1 X86.313 Y96.179 E63.12923
G1 X87.504 Y95.901 E63.24109
G1 X88.711 Y95.701 E63.353
G1 X89.928 Y95.581 E63.46485
G1 X91.159 Y95.54 E63.57751
G1 X136.841 Y95.54 E67.75583
G1 X138.063 Y95.58 E67.86766
G1 X139.28 Y95.7 E67.97951
G1 X140.487 Y95.899 E68.0914
G1 X141.678 Y96.176 E68.20324
G1 X142.848 Y96.531 E68.31508
G1 X143.993 Y96.962 E68.42698
G1 X145.107 Y97.466 E68.53881
G1 X146.186 Y98.042 E68.65069
G1 X147.225 Y98.688 E68.76259
G1 X148.219 Y99.4 E68.87442
G1 X149.165 Y100.175 E68.98628
G1 X150.064 Y101.017 E69.09894
G1 X150.193 Y101.146 E69.11563
G1 X151.029 Y102.039 E69.22751
G1 X151.805 Y102.984 E69.33935
G1 X152.517 Y103.978 E69.45119
G1 X153.163 Y105.016 E69.56301
G1 X153.74 Y106.095 E69.67493
G1 X154.245 Y107.209 E69.7868
G1 X154.676 Y108.353 E69.89862
G1 X155.031 Y109.523 E70.01045
G1 X155.309 Y110.714 E70.12231
G1 X155.509 Y111.921 E70.23422
G1 X155.629 Y113.138 E70.34607
G1 X155.67 Y114.369 E70.45873
G1 X155.67 Y120.631 E71.03148
G1 X155.63 Y121.853 E71.14332
G1 X155.51 Y123.07 E71.25517
G1 X155.311 Y124.277 E71.36706
G1 X155.034 Y125.468 E71.4789
G1 X154.679 Y126.638 E71.59073
G1 X154.248 Y127.783 E71.70263
G1 X153.744 Y128.897 E71.81447
G1 X153.168 Y129.976 E71.92634
G1 X152.522 Y131.015 E72.03825
G1 X151.81 Y132.009 E72.15008
G1 X151.035 Y132.955 E72.26193
G1 X150.193 Y133.854 E72.3746
G1 X150.064 Y133.983 E72.39128
G1 X149.171 Y134.819 E72.50317
G1 X148.226 Y135.595 E72.61501
G1 X147.232 Y136.307 E72.72684
G1 X146.194 Y136.953 E72.83867
G1 X145.115 Y137.53 E72.95059
G1 X144.001 Y138.035 E73.06246
G1 X142.857 Y138.466 E73.17428
G1 X141.687 Y138.821 E73.28611
G1 X140.496 Y139.099 E73.39797
G1 X139.289 Y139.299 E73.50987
G1 X138.072 Y139.419 E73.62173
G1 X136.841 Y139.46 E73.73438
G1 X91.159 Y139.46 E77.91271
G1 X89.937 Y139.42 E78.02454
G1 X88.72 Y139.3 E78.13639
G1 X87.513 Y139.101 E78.24828
G1 X86.322 Y138.824 E78.36012
G1 X85.152 Y138.469 E78.47195
G1 X84.007 Y138.038 E78.58385
G1 X82.893 Y137.534 E78.69569
G1 X81.814 Y136.958 E78.80756
G1 X80.775 Y136.312 E78.91947
G1 X79.781 Y135.6 E79.0313
G1 X78.835 Y134.825 E79.14316
G1 X77.936 Y133.983 E79.25582
G1 X77.807 Y133.854 E79.2725
G1 X76.971 Y132.961 E79.38439
G1 X76.195 Y132.016 E79.49623
G1 X75.483 Y131.022 E79.60806
G1 X74.837 Y129.984 E79.71989
G1 X74.26 Y128.905 E79.83181
G1 X73.755 Y127.791 E79.94368
G1 X73.324 Y126.647 E80.0555
G1 X72.969 Y125.477 E80.16733
G1 X72.691 Y124.286 E80.27919
G1 X72.491 Y123.079 E80.3911
G1 X72.371 Y121.862 E80.50295
G1 X72.33 Y120.631 E80.6156
G1 X72.33 Y114.369 E81.18836
G1 X72.37 Y113.147 E81.30019
G1 X72.49 Y111.93 E81.41204
G1 X72.689 Y110.723 E81.52393
G1 X72.966 Y109.532 E81.63578
G1 X73.321 Y108.362 E81.74761
G1 X73.752 Y107.217 E81.85951
G1 X74.256 Y106.103 E81.97135
G1 X74.832 Y105.024 E82.08322
G1 X75.478 Y103.985 E82.19512
G1 X76.19 Y102.991 E82.30696
G1 X76.965 Y102.045 E82.41881
G1 X77.807 Y101.146 E82.53147
G1 X77.936 Y101.017 E82.54816
G1 X78.829 Y100.181 E82.66004
G1 X79.55 Y99.589 E82.74537
G0 F810 X79.774 Y99.405
M204 S5000
M205 X30 Y30
G0 F7200 X80.065 Y99.737
M204 S500
M205 X20 Y20
G1 F6000 E82.7719
G1 F900 X81.048 Y99.035 E82.88238
G1 X82.076 Y98.399 E82.99295
G1 X83.144 Y97.833 E83.1035
G1 X84.247 Y97.339 E83.21404
G1 X85.38 Y96.919 E83.32457
G1 X86.538 Y96.574 E83.43508
G1 X87.717 Y96.307 E83.54565
G1 X88.91 Y96.119 E83.65612
G1 X90.114 Y96.01 E83.76669
G1 X91.159 Y95.98 E83.86231
G1 X136.841 Y95.98 E88.04063
G1 X138.049 Y96.02 E88.15118
G1 X139.251 Y96.14 E88.26167
G1 X140.443 Y96.339 E88.37221
G1 X141.619 Y96.616 E88.48271
G1 X142.775 Y96.971 E88.59332
G1 X143.904 Y97.401 E88.70382
G1 X145.002 Y97.905 E88.81433
G1 X146.065 Y98.481 E88.92491
G1 X147.087 Y99.126 E89.03545
G1 X148.064 Y99.836 E89.14591
G1 X148.993 Y100.61 E89.25651
G1 X149.753 Y101.328 E89.35214
G1 X149.882 Y101.457 E89.36883
G1 X150.708 Y102.34 E89.47942
G1 X151.473 Y103.275 E89.58992
G1 X152.175 Y104.258 E89.7004
G1 X152.811 Y105.286 E89.81097
G1 X153.377 Y106.354 E89.92152
G1 X153.871 Y107.457 E90.03206
G1 X154.291 Y108.59 E90.14259
G1 X154.636 Y109.748 E90.2531
G1 X154.903 Y110.927 E90.36367
G1 X155.091 Y112.12 E90.47414
G1 X155.2 Y113.324 E90.58471
G1 X155.23 Y114.369 E90.68033
G1 X155.23 Y120.631 E91.25309
G1 X155.19 Y121.839 E91.36364
G1 X155.07 Y123.041 E91.47413
G1 X154.871 Y124.233 E91.58466
G1 X154.594 Y125.409 E91.69517
G1 X154.239 Y126.565 E91.80578
G1 X153.809 Y127.694 E91.91628
G1 X153.305 Y128.792 E92.02678
G1 X152.729 Y129.855 E92.13736
G1 X152.084 Y130.877 E92.2479
G1 X151.374 Y131.854 E92.35837
G1 X150.6 Y132.783 E92.46897
G1 X149.882 Y133.543 E92.5646
G1 X149.753 Y133.672 E92.58128
G1 X148.87 Y134.498 E92.69187
G1 X147.935 Y135.263 E92.80237
G1 X146.952 Y135.965 E92.91286
G1 X145.924 Y136.601 E93.02342
G1 X144.856 Y137.167 E93.13398
G1 X143.753 Y137.661 E93.24452
G1 X142.62 Y138.081 E93.35504
G1 X141.462 Y138.426 E93.46556
G1 X140.283 Y138.693 E93.57613
G1 X139.09 Y138.881 E93.68659
G1 X137.886 Y138.99 E93.79717
G1 X136.841 Y139.02 E93.89279
G1 X91.159 Y139.02 E98.07111
G1 X89.951 Y138.98 E98.18166
G1 X88.749 Y138.86 E98.29215
G1 X87.557 Y138.661 E98.40268
G1 X86.381 Y138.384 E98.51319
G1 X85.225 Y138.029 E98.6238
G1 X84.096 Y137.599 E98.7343
G1 X82.998 Y137.095 E98.8448
G1 X81.935 Y136.519 E98.95538
G1 X80.913 Y135.874 E99.06592
G1 X79.936 Y135.164 E99.17639
G1 X79.007 Y134.39 E99.28699
G1 X78.247 Y133.672 E99.38262
G1 X78.118 Y133.543 E99.3993
G1 X77.292 Y132.66 E99.50989
G1 X76.527 Y131.725 E99.62039
