;FLAVOR:Marlin
;TIME:2942
;Filament used: 2.7119m
;Layer height: 0.2
;Generated with Cura_SteamEngine 3.6.0
M140 S70
M105
M190 S70
M104 S215
M105
M109 S215
M82 ;absolute extrusion mode
G28 ; home all axes
M117 Purge extruder
G92 E0 ; reset extruder
G1 Z1.0 F3000 ; move z up little to prevent scratching of surface
G1 X0.1 Y20 Z0.3 F5000.0 ; move to start-line position G1 X0.1 Y200.0 Z0.3 F1500.0 E15 ; draw 1st line
G1 X0.4 Y200.0 Z0.3 F5000.0 ; move to side a little
G1 X0.4 Y20 Z0.3 F1500.0 E30 ; draw 2nd line
G92 E0 ; reset extruder
G1 Z1.0 F3000 ; move z up little to prevent scratching of surface
M117 All systems go!
G92 E0
G1 F6000 E-5
;LAYER_COUNT:189
;LAYER:0
M107
M204 S5000
M205 X30 Y30
G0 F7200 X96.287 Y98.172 Z0.2
M204 S500
M205 X20 Y20
;TYPE:SKIRT
G1 F6000 E0
G1 F900 X97.19 Y97.285 E0.04631
G1 X98.147 Y96.458 E0.09258
G1 X99.155 Y95.692 E0.1389
G1 X99.728 Y95.299 E0.16432
G1 X99.925 Y95.169 E0.17296
G1 X101.003 Y94.506 E0.21926
G1 X102.12 Y93.912 E0.26555
G1 X103.273 Y93.39 E0.31185
G1 X104.456 Y92.942 E0.35813
G1 X105.666 Y92.57 E0.40445
G1 X106.896 Y92.274 E0.45073
G1 X108.143 Y92.057 E0.49704
G1 X109.401 Y91.919 E0.54334
G1 X110.665 Y91.861 E0.58964
G1 X111.93 Y91.883 E0.63593
G1 X113.191 Y91.985 E0.68221
G1 X114.443 Y92.166 E0.72849
G1 X115.682 Y92.426 E0.77481
G1 X116.901 Y92.763 E0.82108
G1 X118.236 Y93.231 E0.87284
G1 X118.963 Y93.515 E0.9014
G1 X119.49 Y93.657 E0.92136
G1 X119.824 Y93.671 E0.93359
G1 X120.153 Y93.643 E0.94568
G1 X121.571 Y93.25 E0.99951
G1 X122.8 Y92.95 E1.04579
G1 X124.046 Y92.729 E1.09209
G1 X125.304 Y92.587 E1.13841
G1 X126.567 Y92.524 E1.18468
G1 X127.833 Y92.542 E1.231
G1 X129.094 Y92.639 E1.27727
G1 X130.347 Y92.816 E1.32357
G1 X131.587 Y93.072 E1.36989
G1 X132.807 Y93.405 E1.41616
G1 X134.004 Y93.815 E1.46245
G1 X135.173 Y94.3 E1.50875
G1 X136.309 Y94.857 E1.55504
G1 X137.408 Y95.485 E1.60135
G1 X138.678 Y96.335 E1.65726
G1 X138.86 Y96.467 E1.66549
G1 X139.86 Y97.242 E1.71178
G1 X140.81 Y98.078 E1.75808
G1 X141.704 Y98.973 E1.80436
G1 X142.541 Y99.923 E1.85068
G1 X143.315 Y100.923 E1.89694
G1 X144.025 Y101.971 E1.94326
G1 X144.668 Y103.061 E1.98956
G1 X145.24 Y104.19 E2.03586
G1 X145.739 Y105.352 E2.08213
G1 X146.165 Y106.544 E2.12844
G1 X146.514 Y107.76 E2.17473
G1 X146.785 Y108.996 E2.22102
G1 X146.978 Y110.247 E2.26733
G1 X147.092 Y111.507 E2.31362
G1 X147.126 Y112.751 E2.35915
G1 X147.116 Y115.223 E2.44959
G1 X147.338 Y115.931 E2.47674
G1 X147.64 Y117.16 E2.52304
G1 X147.863 Y118.406 E2.56935
G1 X148.006 Y119.663 E2.61564
G1 X148.074 Y121.387 E2.67876
G1 X148.067 Y123.155 E2.74344
G1 X148.022 Y124.42 E2.78976
G1 X147.897 Y125.679 E2.83604
G1 X147.693 Y126.928 E2.88235
G1 X147.41 Y128.161 E2.92863
G1 X147.05 Y129.374 E2.97492
G1 X146.615 Y130.562 E3.02121
G1 X146.105 Y131.72 E3.0675
G1 X145.522 Y132.844 E3.11383
G1 X144.87 Y133.928 E3.16011
G1 X144.151 Y134.97 E3.20642
G1 X143.368 Y135.963 E3.25269
G1 X142.149 Y137.287 E3.31853
G1 X142.019 Y137.416 E3.32524
G1 X141.093 Y138.278 E3.37152
G1 X140.114 Y139.081 E3.41785
G1 X139.087 Y139.819 E3.46412
G1 X138.015 Y140.492 E3.51042
G1 X136.903 Y141.095 E3.5567
G1 X135.754 Y141.627 E3.60303
G1 X134.575 Y142.085 E3.6493
G1 X133.369 Y142.468 E3.6956
G1 X132.141 Y142.774 E3.7419
G1 X130.896 Y143.002 E3.78821
G1 X129.64 Y143.151 E3.83448
G1 X127.765 Y143.224 E3.90313
G1 X126.053 Y143.211 E3.96577
G1 X124.789 Y143.162 E4.01205
G1 X123.53 Y143.032 E4.05836
G1 X122.467 Y142.855 E4.09778
G1 X115.111 Y142.821 E4.36691
G1 X114.463 Y142.937 E4.391
G1 X113.206 Y143.08 E4.43728
G1 X111.503 Y143.148 E4.49964
G1 X109.791 Y143.143 E4.56228
G1 X108.526 Y143.099 E4.60859
G1 X107.267 Y142.976 E4.65487
G1 X106.018 Y142.773 E4.70116
G1 X104.784 Y142.492 E4.74747
G1 X103.57 Y142.133 E4.79378
G1 X102.382 Y141.698 E4.84007
G1 X101.223 Y141.19 E4.88637
G1 X100.099 Y140.608 E4.93268
G1 X99.014 Y139.958 E4.97895
G1 X97.972 Y139.24 E5.02525
G1 X96.978 Y138.457 E5.07154
G1 X96.035 Y137.613 E5.11784
G1 X95.583 Y137.169 E5.14102
G1 X95.455 Y137.039 E5.1477
G1 X94.597 Y136.11 E5.19396
G1 X93.798 Y135.128 E5.24028
G1 X93.063 Y134.098 E5.28658
G1 X92.395 Y133.023 E5.33288
G1 X91.796 Y131.909 E5.37916
G1 X91.268 Y130.759 E5.42545
G1 X90.815 Y129.577 E5.47177
G1 X90.437 Y128.37 E5.51804
G1 X90.135 Y127.141 E5.56434
G1 X89.912 Y125.895 E5.61065
G1 X89.769 Y124.638 E5.65694
G1 X89.701 Y122.914 E5.72006
G1 X89.708 Y121.146 E5.78475
G1 X89.753 Y119.881 E5.83106
G1 X89.878 Y118.622 E5.87735
G1 X90.082 Y117.373 E5.92365
G1 X90.365 Y116.14 E5.96993
G1 X90.721 Y114.939 E6.01576
G1 X90.735 Y111.919 E6.12625
G1 X90.781 Y110.654 E6.17256
G1 X90.906 Y109.395 E6.21885
G1 X91.111 Y108.146 E6.26516
G1 X91.394 Y106.913 E6.31144
G1 X91.755 Y105.7 E6.35775
G1 X92.192 Y104.512 E6.40406
G1 X92.702 Y103.355 E6.45032
G1 X93.285 Y102.231 E6.49664
G1 X93.938 Y101.147 E6.54294
G1 X94.657 Y100.107 E6.5892
G1 X95.441 Y99.113 E6.63552
G1 X95.801 Y98.712 E6.65523
G0 F810 X96.287 Y98.172
M204 S5000
M205 X30 Y30
G0 F7200 X96.72 Y98.356
M204 S500
M205 X20 Y20
G1 F6000 E6.68183
G1 F900 X97.621 Y97.488 E6.7276
G1 X98.575 Y96.678 E6.77339
G1 X99.971 Y95.667 E6.83645
G1 X100.168 Y95.537 E6.84509
G1 X101.234 Y94.881 E6.89088
G1 X102.339 Y94.295 E6.93664
G1 X103.48 Y93.781 E6.98243
G1 X104.652 Y93.34 E7.02824
G1 X105.849 Y92.976 E7.07402
G1 X107.067 Y92.688 E7.11981
G1 X108.3 Y92.479 E7.16556
G1 X109.545 Y92.35 E7.21135
G1 X110.795 Y92.3 E7.25712
G1 X112.046 Y92.33 E7.30291
G1 X113.293 Y92.439 E7.3487
G1 X114.53 Y92.629 E7.39449
G1 X115.752 Y92.897 E7.44026
G1 X116.955 Y93.242 E7.48605
G1 X118.075 Y93.641 E7.52955
G1 X118.821 Y93.932 E7.55884
G1 X119.42 Y94.094 E7.58155
G1 X119.844 Y94.112 E7.59707
G1 X120.229 Y94.079 E7.61121
G1 X121.689 Y93.674 E7.66664
G1 X122.904 Y93.378 E7.71239
G1 X124.137 Y93.16 E7.75821
G1 X125.381 Y93.022 E7.804
G1 X126.631 Y92.963 E7.84978
G1 X127.882 Y92.984 E7.89556
G1 X129.129 Y93.086 E7.94133
G1 X130.367 Y93.266 E7.9871
G1 X131.592 Y93.525 E8.03291
G1 X132.797 Y93.862 E8.07869
G1 X133.978 Y94.276 E8.12448
G1 X135.13 Y94.764 E8.17025
G1 X136.249 Y95.324 E8.21603
G1 X137.33 Y95.955 E8.26182
G1 X138.42 Y96.691 E8.30994
G1 X138.602 Y96.823 E8.31817
G1 X139.591 Y97.59 E8.36396
G1 X140.529 Y98.418 E8.40973
G1 X141.412 Y99.304 E8.4555
G1 X142.237 Y100.246 E8.50131
G1 X143 Y101.238 E8.5471
G1 X143.698 Y102.276 E8.59286
G1 X144.328 Y103.357 E8.63864
G1 X144.888 Y104.476 E8.68442
G1 X145.375 Y105.629 E8.73021
G1 X145.788 Y106.81 E8.77598
G1 X146.124 Y108.016 E8.82179
G1 X146.383 Y109.24 E8.86756
G1 X146.563 Y110.479 E8.91337
G1 X146.663 Y111.726 E8.95914
G1 X146.686 Y112.749 E8.99657
G1 X146.676 Y115.286 E9.08939
G1 X146.944 Y116.156 E9.1227
G1 X147.235 Y117.373 E9.16848
G1 X147.447 Y118.606 E9.21425
G1 X147.58 Y119.851 E9.26006
G1 X147.634 Y121.386 E9.31626
G1 X147.627 Y123.154 E9.38094
G1 X147.582 Y124.404 E9.4267
G1 X147.457 Y125.649 E9.47248
G1 X147.253 Y126.884 E9.51828
G1 X146.971 Y128.103 E9.56405
G1 X146.611 Y129.302 E9.60986
G1 X146.175 Y130.475 E9.65564
G1 X145.666 Y131.618 E9.70142
G1 X145.084 Y132.726 E9.74721
G1 X144.433 Y133.794 E9.79297
G1 X143.715 Y134.819 E9.83875
G1 X142.933 Y135.796 E9.88454
G1 X141.839 Y136.975 E9.94338
G1 X141.709 Y137.104 E9.95008
G1 X140.793 Y137.956 E9.99585
G1 X139.824 Y138.748 E10.04164
G1 X138.807 Y139.477 E10.08742
G1 X137.745 Y140.14 E10.13322
G1 X136.643 Y140.733 E10.17901
G1 X135.506 Y141.255 E10.22478
G1 X134.337 Y141.702 E10.27057
G1 X133.142 Y142.075 E10.31637
G1 X131.926 Y142.37 E10.36215
G1 X130.694 Y142.587 E10.40792
G1 X129.45 Y142.725 E10.45371
G1 X127.768 Y142.784 E10.51529
G1 X126.056 Y142.771 E10.57792
G1 X124.806 Y142.722 E10.62369
G1 X123.561 Y142.593 E10.66948
G1 X122.51 Y142.415 E10.70848
G1 X115.078 Y142.381 E10.9804
G1 X114.263 Y142.521 E11.01065
G1 X113.018 Y142.654 E11.05646
G1 X111.504 Y142.708 E11.11189
G1 X109.792 Y142.703 E11.17452
G1 X108.541 Y142.659 E11.22032
G1 X107.296 Y142.536 E11.26609
G1 X106.061 Y142.333 E11.31188
G1 X104.842 Y142.052 E11.35765
G1 X103.643 Y141.693 E11.40344
G1 X102.469 Y141.259 E11.44923
G1 X101.326 Y140.751 E11.49499
G1 X100.217 Y140.17 E11.5408
G1 X99.148 Y139.52 E11.58657
G1 X98.122 Y138.803 E11.63237
G1 X97.144 Y138.022 E11.67816
G1 X95.897 Y136.86 E11.74052
G1 X95.769 Y136.73 E11.74719
G1 X94.92 Y135.811 E11.79297
G1 X94.131 Y134.839 E11.83877
G1 X93.406 Y133.819 E11.88455
G1 X92.748 Y132.755 E11.93033
G1 X92.159 Y131.651 E11.97611
G1 X91.642 Y130.511 E12.0219
G1 X91.199 Y129.341 E12.06767
G1 X90.831 Y128.145 E12.11345
G1 X90.54 Y126.928 E12.15924
G1 X90.328 Y125.695 E12.20501
G1 X90.195 Y124.45 E12.25082
G1 X90.141 Y122.915 E12.30701
G1 X90.148 Y121.147 E12.3717
G1 X90.193 Y119.897 E12.41746
G1 X90.318 Y118.652 E12.46324
G1 X90.522 Y117.417 E12.50903
G1 X90.804 Y116.198 E12.55481
G1 X91.161 Y115.009 E12.60023
G1 X91.175 Y111.921 E12.71321
G1 X91.221 Y110.67 E12.75901
G1 X91.346 Y109.425 E12.80479
G1 X91.551 Y108.19 E12.85059
G1 X91.834 Y106.972 E12.89634
G1 X92.195 Y105.773 E12.94215
G1 X92.631 Y104.6 E12.98793
G1 X93.141 Y103.458 E13.03369
G1 X93.723 Y102.35 E13.07948
G1 X94.375 Y101.282 E13.12526
G1 X95.094 Y100.257 E13.17107
G1 X95.876 Y99.281 E13.21683
G1 X96.23 Y98.893 E13.23604
G0 F810 X96.72 Y98.356
M204 S5000
M205 X30 Y30
G0 F7200 X97.153 Y98.543
M204 S500
M205 X20 Y20
G1 F6000 E13.26264
G1 F900 X98.051 Y97.693 E13.30788
G1 X99.003 Y96.902 E13.35316
G1 X100.213 Y96.034 E13.40764
G1 X100.41 Y95.904 E13.41628
G1 X101.464 Y95.256 E13.46155
G1 X102.558 Y94.678 E13.50681
G1 X103.687 Y94.171 E13.55209
G1 X104.846 Y93.739 E13.59735
G1 X106.031 Y93.382 E13.64263
G1 X107.236 Y93.103 E13.68788
G1 X108.457 Y92.902 E13.73315
G1 X109.688 Y92.781 E13.77841
G1 X110.925 Y92.739 E13.82369
G1 X112.161 Y92.777 E13.86893
G1 X113.393 Y92.895 E13.91421
G1 X114.615 Y93.093 E13.9595
G1 X115.821 Y93.369 E14.00477
G1 X117.006 Y93.722 E14.05
G1 X117.915 Y94.051 E14.08537
G1 X118.685 Y94.352 E14.11562
G1 X119.353 Y94.532 E14.14093
G1 X119.847 Y94.553 E14.15902
G1 X120.308 Y94.514 E14.17595
G1 X121.806 Y94.098 E14.23283
G1 X123.008 Y93.806 E14.27808
G1 X124.227 Y93.592 E14.32336
G1 X125.457 Y93.457 E14.36863
G1 X126.693 Y93.402 E14.4139
G1 X127.93 Y93.427 E14.45917
G1 X129.163 Y93.532 E14.50444
G1 X130.386 Y93.717 E14.54969
G1 X131.595 Y93.98 E14.59496
G1 X132.785 Y94.32 E14.64024
G1 X133.95 Y94.737 E14.68551
G1 X135.085 Y95.228 E14.73076
G1 X136.187 Y95.792 E14.77605
G1 X137.25 Y96.425 E14.82131
G1 X138.161 Y97.047 E14.86167
G1 X138.343 Y97.179 E14.8699
G1 X139.321 Y97.937 E14.91517
G1 X140.247 Y98.757 E14.96042
G1 X141.119 Y99.636 E15.00572
G1 X141.932 Y100.568 E15.05097
G1 X142.683 Y101.551 E15.09622
G1 X143.369 Y102.581 E15.1415
G1 X143.987 Y103.653 E15.18677
G1 X144.535 Y104.762 E15.23203
G1 X145.009 Y105.905 E15.2773
G1 X145.409 Y107.076 E15.32257
G1 X145.733 Y108.27 E15.36784
G1 X145.978 Y109.483 E15.41311
G1 X146.145 Y110.709 E15.45838
G1 X146.232 Y111.943 E15.50364
G1 X146.246 Y112.747 E15.53306
G1 X146.236 Y115.341 E15.62797
G1 X146.549 Y116.38 E15.66767
G1 X146.828 Y117.585 E15.71292
G1 X147.03 Y118.806 E15.7582
G1 X147.152 Y120.037 E15.80346
G1 X147.194 Y121.384 E15.85276
G1 X147.187 Y123.152 E15.91745
G1 X147.142 Y124.388 E15.9627
G1 X147.017 Y125.619 E16.00797
G1 X146.813 Y126.84 E16.05326
G1 X146.531 Y128.044 E16.0985
G1 X146.171 Y129.228 E16.14377
G1 X145.736 Y130.386 E16.18903
G1 X145.227 Y131.514 E16.23431
G1 X144.646 Y132.606 E16.27956
G1 X143.995 Y133.659 E16.32486
G1 X143.278 Y134.667 E16.37011
G1 X142.498 Y135.627 E16.41537
G1 X141.529 Y136.662 E16.46724
G1 X141.399 Y136.791 E16.47394
G1 X140.493 Y137.634 E16.51922
G1 X139.534 Y138.416 E16.56449
G1 X138.527 Y139.135 E16.60976
G1 X137.476 Y139.787 E16.65501
G1 X136.384 Y140.37 E16.7003
G1 X135.258 Y140.881 E16.74554
G1 X134.1 Y141.319 E16.79083
G1 X132.917 Y141.68 E16.83609
G1 X131.713 Y141.965 E16.88135
G1 X130.493 Y142.171 E16.92662
G1 X129.262 Y142.298 E16.9719
G1 X127.772 Y142.344 E17.02644
G1 X126.06 Y142.331 E17.08907
G1 X124.823 Y142.282 E17.13437
G1 X123.593 Y142.153 E17.17961
G1 X122.55 Y141.975 E17.21832
G1 X115.049 Y141.941 E17.49276
G1 X114.063 Y142.104 E17.52932
G1 X112.832 Y142.226 E17.57458
G1 X111.505 Y142.268 E17.62316
G1 X109.793 Y142.263 E17.68579
G1 X108.557 Y142.219 E17.73104
G1 X107.326 Y142.096 E17.7763
G1 X106.105 Y141.893 E17.82159
G1 X104.9 Y141.612 E17.86686
G1 X103.716 Y141.254 E17.91211
G1 X102.557 Y140.82 E17.95739
G1 X101.429 Y140.312 E18.00265
G1 X100.336 Y139.732 E18.04792
G1 X99.283 Y139.082 E18.0932
G1 X98.274 Y138.366 E18.13846
G1 X97.313 Y137.587 E18.18372
G1 X96.21 Y136.552 E18.23906
G1 X96.082 Y136.422 E18.24573
G1 X95.243 Y135.512 E18.29102
G1 X94.465 Y134.551 E18.33626
G1 X93.75 Y133.541 E18.38153
G1 X93.102 Y132.487 E18.4268
G1 X92.523 Y131.394 E18.47205
G1 X92.016 Y130.265 E18.51733
G1 X91.583 Y129.106 E18.56259
G1 X91.226 Y127.921 E18.60787
G1 X90.947 Y126.716 E18.65313
G1 X90.745 Y125.495 E18.69841
G1 X90.623 Y124.264 E18.74366
G1 X90.581 Y122.917 E18.79297
G1 X90.588 Y121.149 E18.85765
G1 X90.633 Y119.913 E18.9029
G1 X90.758 Y118.682 E18.94817
G1 X90.962 Y117.461 E18.99346
G1 X91.244 Y116.257 E19.03871
G1 X91.601 Y115.084 E19.08357
G1 X91.615 Y111.923 E19.19922
G1 X91.661 Y110.686 E19.2445
G1 X91.786 Y109.455 E19.28977
G1 X91.991 Y108.235 E19.33503
G1 X92.274 Y107.031 E19.38028
G1 X92.634 Y105.847 E19.42556
G1 X93.07 Y104.689 E19.47083
G1 X93.58 Y103.562 E19.51609
G1 X94.161 Y102.47 E19.56134
G1 X94.812 Y101.418 E19.60661
G1 X95.53 Y100.41 E19.65188
G1 X96.311 Y99.45 E19.69716
G1 X96.659 Y99.076 E19.71585
G0 F810 X97.153 Y98.543
M204 S5000
M205 X30 Y30
G0 F7200 X97.586 Y98.733
M204 S500
M205 X20 Y20
G1 F6000 E19.74245
G1 F900 X98.481 Y97.901 E19.78716
G1 X99.43 Y97.128 E19.83194
G1 X100.455 Y96.401 E19.87791
G1 X100.652 Y96.271 E19.88655
G1 X101.695 Y95.631 E19.93132
G1 X102.776 Y95.061 E19.97603
G1 X103.893 Y94.562 E20.02079
G1 X105.04 Y94.138 E20.06553
G1 X106.212 Y93.79 E20.11026
G1 X107.405 Y93.519 E20.15502
G1 X108.613 Y93.326 E20.19977
G1 X109.83 Y93.213 E20.24449
G1 X111.053 Y93.179 E20.28925
G1 X112.275 Y93.226 E20.33399
G1 X113.491 Y93.352 E20.37872
G1 X114.697 Y93.558 E20.42348
G1 X115.886 Y93.842 E20.46821
G1 X117.055 Y94.203 E20.51297
G1 X117.755 Y94.46 E20.54025
G1 X118.557 Y94.773 E20.57175
G1 X119.281 Y94.969 E20.59919
G1 X119.866 Y94.994 E20.62061
G1 X120.384 Y94.949 E20.63964
G1 X121.924 Y94.522 E20.69811
G1 X123.112 Y94.234 E20.74283
G1 X124.317 Y94.024 E20.78758
G1 X125.533 Y93.893 E20.83233
G1 X126.755 Y93.842 E20.87707
G1 X127.978 Y93.871 E20.92183
G1 X129.196 Y93.979 E20.96657
G1 X130.404 Y94.168 E21.0113
G1 X131.598 Y94.434 E21.05606
G1 X132.771 Y94.779 E21.10079
G1 X133.92 Y95.199 E21.14555
G1 X135.038 Y95.693 E21.19027
G1 X136.122 Y96.26 E21.23502
G1 X137.167 Y96.896 E21.27978
G1 X137.903 Y97.403 E21.31248
G1 X138.085 Y97.535 E21.3207
G1 X139.051 Y98.285 E21.36545
G1 X139.966 Y99.097 E21.4102
G1 X140.826 Y99.966 E21.45493
G1 X141.627 Y100.89 E21.49967
G1 X142.366 Y101.865 E21.54443
G1 X143.04 Y102.885 E21.58916
G1 X143.646 Y103.948 E21.63393
G1 X144.181 Y105.047 E21.67865
G1 X144.642 Y106.18 E21.7234
G1 X145.029 Y107.34 E21.76814
G1 X145.34 Y108.523 E21.81289
G1 X145.572 Y109.723 E21.85761
G1 X145.725 Y110.937 E21.90238
G1 X145.806 Y112.746 E21.96863
G1 X145.796 Y115.402 E22.0658
G1 X145.806 Y115.43 E22.06689
G1 X146.152 Y116.602 E22.1116
G1 X146.421 Y117.795 E22.15634
G1 X146.611 Y119.004 E22.20112
G1 X146.722 Y120.221 E22.24583
G1 X146.754 Y121.382 E22.28832
G1 X146.747 Y123.15 E22.353
G1 X146.702 Y124.372 E22.39774
G1 X146.577 Y125.589 E22.4425
G1 X146.374 Y126.795 E22.48724
G1 X146.091 Y127.985 E22.532
G1 X145.732 Y129.153 E22.5767
G1 X145.297 Y130.296 E22.62145
G1 X144.788 Y131.408 E22.66619
G1 X144.208 Y132.485 E22.71094
G1 X143.558 Y133.521 E22.75569
G1 X142.842 Y134.513 E22.80045
G1 X142.063 Y135.455 E22.84517
G1 X141.219 Y136.35 E22.89018
G1 X141.089 Y136.479 E22.89688
G1 X140.193 Y137.311 E22.94161
G1 X139.245 Y138.084 E22.98637
G1 X138.248 Y138.792 E23.0311
G1 X137.207 Y139.434 E23.07585
G1 X136.126 Y140.007 E23.12061
G1 X135.011 Y140.507 E23.16532
G1 X133.864 Y140.934 E23.2101
G1 X132.693 Y141.285 E23.25482
