;FLAVOR:Marlin
;TIME:5865
;Filament used: 4.3628m
;Layer height: 0.2
;Generated with Cura_SteamEngine 3.6.0
M140 S70
M105
M190 S70
M104 S215
M105
M109 S215
M82 ;absolute extrusion mode
G28 ; home all axes
M117 Purge extruder
G92 E0 ; reset extruder
G1 Z1.0 F3000 ; move z up little to prevent scratching of surface
G1 X0.1 Y20 Z0.3 F5000.0 ; move to start-line position G1 X0.1 Y200.0 Z0.3 F1500.0 E15 ; draw 1st line
G1 X0.4 Y200.0 Z0.3 F5000.0 ; move to side a little
G1 X0.4 Y20 Z0.3 F1500.0 E30 ; draw 2nd line
G92 E0 ; reset extruder
G1 Z1.0 F3000 ; move z up little to prevent scratching of surface
M117 All systems go!
G92 E0
G1 F6000 E-5
;LAYER_COUNT:37
;LAYER:0
M107
M204 S5000
M205 X30 Y30
G0 F7200 X88.173 Y30.83 Z0.2
M204 S500
M205 X20 Y20
;TYPE:SKIRT
G1 F6000 E0
G1 F900 X89.399 Y27.319 E0.12369
G1 X89.645 Y26.685 E0.14631
G1 X91.174 Y23.122 E0.27527
G1 X91.445 Y22.545 E0.29647
G1 X92.755 Y19.969 E0.39259
G1 X93.01 Y19.498 E0.4104
G1 X94.105 Y17.608 E0.48305
G1 X94.583 Y16.863 E0.51249
G1 X95.033 Y16.276 E0.53709
G1 X95.683 Y15.49 E0.57102
G1 X96.277 Y14.834 E0.60045
G1 X96.848 Y14.302 E0.62641
G1 X97.644 Y13.618 E0.66132
G1 X98.341 Y13.072 E0.69076
G1 X99.091 Y12.587 E0.72047
G1 X99.862 Y12.137 E0.75016
G1 X100.646 Y11.726 E0.7796
G1 X101.622 Y11.331 E0.81462
G1 X103.036 Y10.846 E0.86434
G1 X103.886 Y10.597 E0.8938
G1 X104.962 Y10.397 E0.9302
G1 X105.737 Y10.297 E0.95619
G1 X106.619 Y10.223 E0.98563
G1 X107.671 Y10.24 E1.02063
G1 X131.295 Y11.882 E1.80826
G1 X132.347 Y12.012 E1.84352
G1 X133.572 Y12.232 E1.88491
G1 X134.436 Y12.428 E1.91438
G1 X135.475 Y12.777 E1.95083
G1 X136.484 Y13.18 E1.98697
G1 X137.29 Y13.545 E2.0164
G1 X138.009 Y13.95 E2.04385
G1 X138.834 Y14.461 E2.07612
G1 X139.565 Y14.96 E2.10556
G1 X140.375 Y15.641 E2.14076
G1 X141.28 Y16.489 E2.18201
G1 X141.898 Y17.123 E2.21145
G1 X142.601 Y18.01 E2.2491
G1 X143.267 Y18.959 E2.28766
G1 X143.742 Y19.706 E2.3171
G1 X144.173 Y20.548 E2.34856
G1 X144.65 Y21.602 E2.38704
G1 X144.952 Y22.35 E2.41387
G1 X146.212 Y25.882 E2.5386
G1 X146.402 Y26.474 E2.55928
G1 X147.255 Y29.449 E2.66221
G1 X147.374 Y29.901 E2.67776
G1 X147.862 Y31.971 E2.74849
G1 X147.94 Y32.336 E2.76091
G1 X148.32 Y34.276 E2.82666
G1 X148.398 Y34.732 E2.84205
G1 X148.949 Y38.472 E2.96778
G1 X149.009 Y38.958 E2.98407
G1 X149.412 Y43.132 E3.12354
G1 X149.445 Y43.579 E3.13845
G1 X149.623 Y47.102 E3.25578
G1 X149.635 Y47.51 E3.26935
G1 X149.67 Y51.469 E3.40103
G1 X149.664 Y51.913 E3.4158
G1 X149.489 Y56.716 E3.57566
G1 X149.462 Y57.166 E3.59065
G1 X148.943 Y63.447 E3.80027
G1 X148.9 Y63.858 E3.81401
G1 X147.984 Y71.172 E4.05918
G1 X147.941 Y71.475 E4.06936
G1 X146.881 Y78.221 E4.29648
G1 X146.837 Y78.48 E4.30522
G1 X144.409 Y91.626 E4.74985
G1 X144.37 Y91.828 E4.7567
G1 X141.97 Y103.451 E5.15143
G1 X141.933 Y103.62 E5.15719
G1 X138.666 Y118.139 E5.65217
G1 X138.316 Y119.335 E5.69361
G1 X137.945 Y120.356 E5.72975
G1 X137.605 Y121.173 E5.75918
G1 X137.147 Y122.036 E5.79167
G1 X136.467 Y123.174 E5.83577
G1 X135.979 Y123.912 E5.86519
G1 X135.282 Y124.765 E5.90183
G1 X134.457 Y125.666 E5.94246
G1 X133.83 Y126.291 E5.97191
G1 X133.193 Y126.824 E5.99953
G1 X132.399 Y127.433 E6.03281
G1 X131.673 Y127.94 E6.06227
G1 X131.018 Y128.319 E6.08744
G1 X130.037 Y128.838 E6.12435
G1 X129.237 Y129.217 E6.15379
G1 X128.469 Y129.501 E6.18103
G1 X127.43 Y129.837 E6.21735
G1 X126.577 Y130.071 E6.24677
G1 X126.116 Y130.163 E6.2624
G1 X125.469 Y130.277 E6.28425
G1 X124.591 Y130.391 E6.3137
G1 X124.086 Y130.421 E6.33052
G1 X122.947 Y130.458 E6.36843
G1 X121.916 Y130.437 E6.40273
G1 X100.342 Y128.864 E7.12219
G1 X99.463 Y128.76 E7.15163
G1 X98.475 Y128.544 E7.18526
G1 X97.262 Y128.213 E7.22708
G1 X96.42 Y127.942 E7.2565
G1 X95.323 Y127.455 E7.29642
G1 X94.055 Y126.796 E7.34395
G1 X93.288 Y126.352 E7.37343
G1 X92.519 Y125.806 E7.4048
G1 X91.791 Y125.234 E7.43559
G1 X91.121 Y124.656 E7.46502
G1 X90.651 Y124.182 E7.48722
G1 X89.937 Y123.41 E7.5222
G1 X89.366 Y122.734 E7.55163
G1 X88.965 Y122.172 E7.57459
G1 X88.398 Y121.317 E7.60871
G1 X87.942 Y120.558 E7.63816
G1 X87.539 Y119.718 E7.66915
G1 X87.043 Y118.545 E7.71151
G1 X86.735 Y117.715 E7.74095
G1 X86.468 Y116.692 E7.77612
G1 X86.215 Y115.455 E7.81811
G1 X86.046 Y114.255 E7.85842
G1 X84.869 Y99.207 E8.36045
G1 X84.857 Y99.032 E8.36628
G1 X84.103 Y86.509 E8.78355
G1 X84.094 Y86.342 E8.78911
G1 X83.737 Y78.068 E9.06457
G1 X83.73 Y77.831 E9.07245
G1 X83.529 Y67.214 E9.42564
G1 X83.528 Y66.861 E9.43738
G1 X83.66 Y59.158 E9.69362
G1 X83.675 Y58.764 E9.70673
G1 X83.995 Y53.193 E9.89233
G1 X84.027 Y52.784 E9.90598
G1 X84.484 Y48.193 E10.05943
G1 X84.53 Y47.81 E10.07226
G1 X84.966 Y44.685 E10.1772
G1 X85.029 Y44.292 E10.19044
G1 X85.824 Y39.905 E10.33873
G1 X85.929 Y39.399 E10.35592
G1 X86.979 Y34.954 E10.50783
G1 X87.101 Y34.489 E10.52382
G1 X87.937 Y31.594 E10.62404
G0 F810 X88.009 Y31.343
G0 X88.173 Y30.83
M204 S5000
M205 X30 Y30
G0 F7200 X88.55 Y30.962
M204 S500
M205 X20 Y20
G1 F6000 E10.65065
G1 F900 X89.776 Y27.451 E10.77434
G1 X90.013 Y26.843 E10.79604
G1 X91.542 Y23.28 E10.925
G1 X91.801 Y22.726 E10.94534
G1 X93.111 Y20.15 E11.04146
G1 X93.356 Y19.699 E11.05853
G1 X94.451 Y17.809 E11.13118
G1 X94.92 Y17.079 E11.16004
G1 X95.341 Y16.531 E11.18302
G1 X95.991 Y15.745 E11.21695
G1 X96.574 Y15.103 E11.24579
G1 X97.109 Y14.606 E11.27008
G1 X97.905 Y13.922 E11.30499
G1 X98.588 Y13.387 E11.33384
G1 X99.293 Y12.933 E11.36173
G1 X100.064 Y12.483 E11.39142
G1 X100.832 Y12.081 E11.42025
G1 X101.752 Y11.709 E11.45326
G1 X103.166 Y11.224 E11.50298
G1 X103.998 Y10.981 E11.53181
G1 X105.013 Y10.793 E11.56614
G1 X105.788 Y10.693 E11.59213
G1 X106.652 Y10.622 E11.62097
G1 X107.643 Y10.639 E11.65393
G1 X131.267 Y12.281 E12.44156
G1 X132.277 Y12.406 E12.47541
G1 X133.502 Y12.626 E12.51681
G1 X134.347 Y12.818 E12.54563
G1 X135.327 Y13.149 E12.58003
G1 X136.336 Y13.552 E12.61617
G1 X137.125 Y13.91 E12.64499
G1 X137.799 Y14.29 E12.67072
G1 X138.624 Y14.801 E12.703
G1 X139.339 Y15.291 E12.73183
G1 X140.101 Y15.933 E12.76497
G1 X141.006 Y16.781 E12.80622
G1 X141.611 Y17.402 E12.83506
G1 X142.273 Y18.24 E12.87058
G1 X142.939 Y19.189 E12.90914
G1 X143.404 Y19.921 E12.93798
G1 X143.809 Y20.713 E12.96757
G1 X144.286 Y21.767 E13.00605
G1 X144.576 Y22.485 E13.0318
G1 X145.836 Y26.017 E13.15653
G1 X146.018 Y26.584 E13.17633
G1 X146.871 Y29.559 E13.27927
G1 X146.984 Y29.993 E13.29419
G1 X147.472 Y32.063 E13.36492
G1 X147.548 Y32.413 E13.37683
G1 X147.928 Y34.353 E13.44258
G1 X148.003 Y34.79 E13.45733
G1 X148.554 Y38.53 E13.58307
G1 X148.61 Y38.997 E13.59871
G1 X149.013 Y43.171 E13.73818
G1 X149.045 Y43.6 E13.75249
G1 X149.223 Y47.123 E13.86982
G1 X149.235 Y47.514 E13.88283
G1 X149.27 Y51.473 E14.01451
G1 X149.264 Y51.898 E14.02865
G1 X149.089 Y56.701 E14.1885
G1 X149.063 Y57.133 E14.2029
G1 X148.544 Y63.414 E14.41251
G1 X148.503 Y63.808 E14.42569
G1 X147.587 Y71.122 E14.67086
G1 X147.546 Y71.413 E14.68063
G1 X146.486 Y78.159 E14.90776
G1 X146.444 Y78.407 E14.91612
G1 X144.016 Y91.553 E15.36075
G1 X143.978 Y91.747 E15.36733
G1 X141.578 Y103.37 E15.76207
G1 X141.543 Y103.533 E15.76761
G1 X138.276 Y118.052 E16.26259
G1 X137.94 Y119.198 E16.30231
G1 X137.569 Y120.219 E16.33844
G1 X137.235 Y121.02 E16.36731
G1 X136.803 Y121.831 E16.39787
G1 X136.123 Y122.969 E16.44196
G1 X135.645 Y123.692 E16.47079
G1 X134.987 Y124.495 E16.50532
G1 X134.162 Y125.396 E16.54595
G1 X133.547 Y126.008 E16.57481
G1 X132.95 Y126.507 E16.60069
G1 X132.156 Y127.116 E16.63397
G1 X131.444 Y127.611 E16.66281
G1 X130.831 Y127.966 E16.68637
G1 X129.85 Y128.485 E16.72328
G1 X129.066 Y128.854 E16.7521
G1 X128.346 Y129.12 E16.77763
G1 X127.307 Y129.456 E16.81395
G1 X126.046 Y129.769 E16.85717
G1 X125.399 Y129.883 E16.87902
G1 X124.539 Y129.994 E16.90786
G1 X124.073 Y130.021 E16.92338
G1 X122.934 Y130.058 E16.96129
G1 X121.945 Y130.038 E16.99419
G1 X100.371 Y128.465 E17.71365
G1 X99.511 Y128.362 E17.74245
G1 X98.58 Y128.158 E17.77415
G1 X97.367 Y127.827 E17.81597
G1 X96.542 Y127.561 E17.8448
G1 X95.507 Y127.1 E17.88249
G1 X94.239 Y126.441 E17.93002
G1 X93.489 Y126.006 E17.95886
G1 X92.766 Y125.491 E17.98838
G1 X92.038 Y124.919 E18.01917
G1 X91.382 Y124.353 E18.04799
G1 X90.945 Y123.911 E18.06866
G1 X90.231 Y123.139 E18.10364
G1 X89.672 Y122.476 E18.13248
G1 X89.298 Y121.951 E18.15392
G1 X88.731 Y121.096 E18.18804
G1 X88.286 Y120.352 E18.21688
G1 X87.907 Y119.562 E18.24602
G1 X87.411 Y118.389 E18.28838
G1 X87.111 Y117.576 E18.3172
G1 X86.86 Y116.612 E18.35033
G1 X86.607 Y115.375 E18.39233
G1 X86.445 Y114.224 E18.43099
G1 X85.268 Y99.176 E18.93302
G1 X85.256 Y99.008 E18.93862
G1 X84.502 Y86.485 E19.35589
G1 X84.494 Y86.325 E19.36122
G1 X84.137 Y78.051 E19.63667
G1 X84.13 Y77.824 E19.64422
G1 X83.929 Y67.207 E19.99741
G1 X83.928 Y66.868 E20.00868
G1 X84.06 Y59.165 E20.26492
G1 X84.074 Y58.787 E20.2775
G1 X84.394 Y53.216 E20.4631
G1 X84.425 Y52.824 E20.47618
G1 X84.882 Y48.233 E20.62963
G1 X84.926 Y47.865 E20.64196
G1 X85.362 Y44.74 E20.7469
G1 X85.423 Y44.363 E20.75961
G1 X86.218 Y39.976 E20.90789
G1 X86.319 Y39.491 E20.92437
G1 X87.369 Y35.046 E21.07628
G1 X87.486 Y34.6 E21.09162
G1 X88.316 Y31.726 E21.19111
G0 F810 X88.394 Y31.454
G0 X88.55 Y30.962
M204 S5000
M205 X30 Y30
G0 F7200 X88.928 Y31.094
M204 S500
M205 X20 Y20
G1 F6000 E21.21772
G1 F900 X90.154 Y27.583 E21.34141
G1 X90.38 Y27.001 E21.36218
G1 X91.909 Y23.438 E21.49113
G1 X92.158 Y22.907 E21.51064
G1 X93.468 Y20.331 E21.60676
G1 X93.703 Y19.899 E21.62312
G1 X94.798 Y18.009 E21.69577
G1 X95.257 Y17.296 E21.72397
G1 X95.649 Y16.785 E21.74539
G1 X96.299 Y15.999 E21.77932
G1 X96.87 Y15.372 E21.80752
G1 X97.369 Y14.909 E21.83016
G1 X98.165 Y14.225 E21.86507
G1 X98.834 Y13.703 E21.89329
G1 X99.494 Y13.278 E21.9194
G1 X100.265 Y12.828 E21.94909
G1 X101.017 Y12.435 E21.97731
G1 X101.882 Y12.088 E22.00831
G1 X103.296 Y11.603 E22.05803
G1 X104.11 Y11.366 E22.08623
G1 X105.064 Y11.19 E22.1185
G1 X105.839 Y11.09 E22.14449
G1 X106.685 Y11.021 E22.17272
G1 X107.615 Y11.038 E22.20366
G1 X131.239 Y12.68 E22.99129
G1 X132.206 Y12.8 E23.0237
G1 X133.431 Y13.02 E23.06509
G1 X134.258 Y13.209 E23.09331
G1 X135.178 Y13.52 E23.12561
G1 X136.187 Y13.923 E23.16175
G1 X136.959 Y14.274 E23.18995
G1 X137.588 Y14.63 E23.21399
G1 X138.413 Y15.141 E23.24627
G1 X139.112 Y15.621 E23.27447
G1 X139.828 Y16.225 E23.30563
G1 X140.733 Y17.073 E23.34688
G1 X141.324 Y17.681 E23.37508
G1 X141.946 Y18.47 E23.40849
G1 X142.612 Y19.419 E23.44705
G1 X143.066 Y20.136 E23.47528
G1 X143.444 Y20.878 E23.50298
G1 X143.921 Y21.932 E23.54146
G1 X144.199 Y22.619 E23.56611
G1 X145.459 Y26.151 E23.69083
G1 X145.633 Y26.694 E23.7098
G1 X146.486 Y29.669 E23.81273
G1 X146.595 Y30.085 E23.82704
G1 X147.083 Y32.155 E23.89777
G1 X147.155 Y32.49 E23.90917
G1 X147.535 Y34.43 E23.97492
G1 X147.607 Y34.848 E23.98903
G1 X148.158 Y38.588 E24.11476
G1 X148.212 Y39.035 E24.12974
G1 X148.615 Y43.209 E24.26921
G1 X148.646 Y43.62 E24.28292
G1 X148.824 Y47.143 E24.40025
G1 X148.835 Y47.517 E24.41269
G1 X148.87 Y51.476 E24.54437
G1 X148.864 Y51.884 E24.55794
G1 X148.689 Y56.687 E24.7178
G1 X148.664 Y57.1 E24.73156
G1 X148.145 Y63.381 E24.94118
G1 X148.106 Y63.758 E24.95378
G1 X147.19 Y71.072 E25.19895
G1 X147.151 Y71.351 E25.20832
G1 X146.091 Y78.097 E25.43545
G1 X146.05 Y78.335 E25.44348
G1 X143.622 Y91.481 E25.88811
G1 X143.586 Y91.666 E25.89438
G1 X141.186 Y103.289 E26.28912
G1 X141.152 Y103.445 E26.29443
G1 X137.885 Y117.964 E26.78941
G1 X137.564 Y119.062 E26.82745
G1 X137.193 Y120.083 E26.86358
G1 X136.866 Y120.865 E26.89178
G1 X136.46 Y121.625 E26.92044
G1 X135.78 Y122.763 E26.96453
G1 X135.311 Y123.47 E26.99275
G1 X134.692 Y124.225 E27.02522
G1 X133.867 Y125.126 E27.06585
G1 X133.265 Y125.724 E27.09407
G1 X132.706 Y126.189 E27.11826
G1 X131.912 Y126.798 E27.15154
G1 X131.216 Y127.282 E27.17974
G1 X130.644 Y127.612 E27.2017
G1 X129.663 Y128.131 E27.23861
G1 X128.895 Y128.492 E27.26684
G1 X128.223 Y128.739 E27.29065
G1 X127.184 Y129.075 E27.32697
G1 X125.977 Y129.375 E27.36834
G1 X125.33 Y129.489 E27.39019
G1 X124.488 Y129.597 E27.41842
G1 X124.06 Y129.621 E27.43268
G1 X122.921 Y129.658 E27.47058
G1 X121.975 Y129.639 E27.50205
G1 X100.401 Y128.066 E28.22151
G1 X99.558 Y127.965 E28.24975
G1 X98.686 Y127.773 E28.27945
G1 X97.473 Y127.442 E28.32127
G1 X96.666 Y127.18 E28.34949
G1 X95.692 Y126.745 E28.38497
G1 X94.424 Y126.086 E28.4325
G1 X93.69 Y125.66 E28.46072
G1 X93.014 Y125.177 E28.48836
G1 X92.286 Y124.605 E28.51915
G1 X91.644 Y124.05 E28.54738
G1 X91.239 Y123.639 E28.56657
G1 X90.525 Y122.867 E28.60154
G1 X89.979 Y122.218 E28.62975
G1 X89.631 Y121.73 E28.64969
G1 X89.064 Y120.875 E28.68381
G1 X88.629 Y120.147 E28.71201
G1 X88.276 Y119.406 E28.73931
G1 X87.78 Y118.233 E28.78167
G1 X87.486 Y117.437 E28.8099
G1 X87.252 Y116.531 E28.84102
G1 X86.999 Y115.294 E28.88301
G1 X86.843 Y114.193 E28.92
G1 X85.666 Y99.145 E29.42203
G1 X85.655 Y98.984 E29.42739
G1 X84.901 Y86.461 E29.84466
G1 X84.893 Y86.308 E29.84976
G1 X84.536 Y78.034 E30.12521
G1 X84.53 Y77.816 E30.13246
G1 X84.329 Y67.199 E30.48565
G1 X84.328 Y66.875 E30.49643
G1 X84.46 Y59.172 E30.75267
G1 X84.474 Y58.81 E30.76472
G1 X84.794 Y53.239 E30.95031
G1 X84.823 Y52.864 E30.96282
G1 X85.28 Y48.273 E31.11627
G1 X85.322 Y47.92 E31.1281
G1 X85.758 Y44.795 E31.23304
G1 X85.816 Y44.434 E31.2452
G1 X86.611 Y40.047 E31.39349
G1 X86.708 Y39.583 E31.40926
G1 X87.758 Y35.138 E31.56117
G1 X87.87 Y34.711 E31.57585
G1 X88.694 Y31.859 E31.67459
G0 F810 X88.778 Y31.565
G0 X88.928 Y31.094
M204 S5000
M205 X30 Y30
G0 F7200 X89.306 Y31.226
M204 S500
M205 X20 Y20
G1 F6000 E31.7012
G1 F900 X90.532 Y27.715 E31.82489
G1 X90.748 Y27.159 E31.84473
G1 X92.277 Y23.596 E31.97368
G1 X92.514 Y23.089 E31.9923
G1 X93.824 Y20.513 E32.08842
G1 X94.049 Y20.1 E32.10406
G1 X95.144 Y18.21 E32.17671
G1 X95.593 Y17.513 E32.20429
G1 X95.958 Y17.04 E32.22416
G1 X96.608 Y16.254 E32.25808
G1 X97.166 Y15.642 E32.28563
G1 X97.63 Y15.212 E32.30667
G1 X98.426 Y14.528 E32.34158
G1 X99.08 Y14.019 E32.36914
G1 X99.696 Y13.624 E32.39348
G1 X100.467 Y13.174 E32.42317
G1 X101.202 Y12.791 E32.45074
G1 X102.012 Y12.466 E32.47977
G1 X103.426 Y11.981 E32.52948
G1 X104.222 Y11.75 E32.55705
G1 X105.115 Y11.587 E32.58724
G1 X105.89 Y11.487 E32.61323
G1 X106.717 Y11.42 E32.64083
G1 X107.587 Y11.437 E32.66977
G1 X131.211 Y13.079 E33.45741
G1 X132.135 Y13.193 E33.48837
G1 X133.36 Y13.413 E33.52977
G1 X134.168 Y13.599 E33.55734
G1 X135.03 Y13.891 E33.58761
G1 X136.039 Y14.294 E33.62375
G1 X136.793 Y14.639 E33.65133
G1 X137.377 Y14.97 E33.67366
G1 X138.202 Y15.481 E33.70593
G1 X138.886 Y15.951 E33.73354
G1 X139.554 Y16.516 E33.76264
G1 X140.459 Y17.364 E33.80389
G1 X141.036 Y17.96 E33.83148
G1 X141.618 Y18.7 E33.86279
G1 X142.284 Y19.649 E33.90135
G1 X142.728 Y20.35 E33.92895
G1 X143.08 Y21.043 E33.9548
G1 X143.557 Y22.097 E33.99328
G1 X143.822 Y22.753 E34.01681
G1 X145.082 Y26.285 E34.14154
G1 X145.249 Y26.805 E34.1597
G1 X146.102 Y29.78 E34.26264
G1 X146.206 Y30.177 E34.27629
G1 X146.694 Y32.247 E34.34702
G1 X146.763 Y32.567 E34.35791
G1 X147.143 Y34.507 E34.42366
G1 X147.211 Y34.907 E34.43716
G1 X147.762 Y38.647 E34.56289
G1 X147.814 Y39.074 E34.5772
G1 X148.217 Y43.248 E34.71667
G1 X148.246 Y43.64 E34.72975
G1 X148.424 Y47.163 E34.84707
G1 X148.435 Y47.521 E34.85899
G1 X148.47 Y51.48 E34.99067
G1 X148.464 Y51.869 E35.00361
G1 X148.289 Y56.672 E35.16346
G1 X148.266 Y57.067 E35.17662
G1 X147.747 Y63.348 E35.38624
G1 X147.709 Y63.709 E35.39831
G1 X146.793 Y71.023 E35.64348
G1 X146.756 Y71.289 E35.65241
G1 X145.696 Y78.035 E35.87954
G1 X145.657 Y78.262 E35.8872
G1 X143.229 Y91.408 E36.33183
G1 X143.194 Y91.585 E36.33783
G1 X140.794 Y103.208 E36.73257
G1 X140.762 Y103.357 E36.73764
G1 X137.495 Y117.876 E37.23262
G1 X137.188 Y118.925 E37.26897
G1 X136.817 Y119.946 E37.3051
G1 X136.496 Y120.711 E37.33269
G1 X136.116 Y121.42 E37.35945
G1 X135.436 Y122.558 E37.40354
G1 X134.977 Y123.249 E37.43113
G1 X134.397 Y123.955 E37.46152
G1 X133.572 Y124.856 E37.50215
G1 X132.983 Y125.44 E37.52974
G1 X132.463 Y125.872 E37.55223
G1 X131.669 Y126.481 E37.58551
G1 X130.987 Y126.953 E37.61309
G1 X130.457 Y127.259 E37.63345
G1 X129.476 Y127.778 E37.67036
