;FLAVOR:Marlin
;TIME:1075
;Filament used: 0.645161m
;Layer height: 0.2
;Generated with Cura_SteamEngine 3.6.0
M140 S70
M105
M190 S70
M104 S215
M105
M109 S215
M82 ;absolute extrusion mode
G28 ; home all axes
M117 Purge extruder
G92 E0 ; reset extruder
G1 Z1.0 F3000 ; move z up little to prevent scratching of surface
G1 X0.1 Y20 Z0.3 F5000.0 ; move to start-line position G1 X0.1 Y200.0 Z0.3 F1500.0 E15 ; draw 1st line
G1 X0.4 Y200.0 Z0.3 F5000.0 ; move to side a little
G1 X0.4 Y20 Z0.3 F1500.0 E30 ; draw 2nd line
G92 E0 ; reset extruder
G1 Z1.0 F3000 ; move z up little to prevent scratching of surface
M117 All systems go!
G92 E0
G1 F6000 E-5
;LAYER_COUNT:77
;LAYER:0
M107
M204 S5000
M205 X30 Y30
G0 F7200 X101.625 Y19.763 Z0.2
M204 S500
M205 X20 Y20
;TYPE:SKIRT
G1 F6000 E0
G1 F900 X101.823 Y18.9 E0.02945
G1 X102.098 Y18.059 E0.05888
G1 X102.448 Y17.246 E0.08832
G1 X102.87 Y16.467 E0.11779
G1 X103.361 Y15.731 E0.14721
G1 X103.916 Y15.041 E0.17666
G1 X104.335 Y14.594 E0.19704
G1 X104.452 Y14.477 E0.20255
G1 X105.106 Y13.88 E0.232
G1 X105.811 Y13.345 E0.26143
G1 X106.561 Y12.875 E0.29087
G1 X107.351 Y12.475 E0.32032
G1 X108.173 Y12.147 E0.34976
G1 X109.022 Y11.896 E0.37921
G1 X109.89 Y11.721 E0.40866
G1 X110.77 Y11.626 E0.4381
G1 X111.38 Y11.607 E0.45839
G1 X121.751 Y11.605 E0.80333
G1 X122.635 Y11.645 E0.83277
G1 X123.513 Y11.764 E0.86224
G1 X124.375 Y11.962 E0.89165
G1 X125.217 Y12.238 E0.92112
G1 X126.03 Y12.587 E0.95055
G1 X126.808 Y13.009 E0.97999
G1 X127.545 Y13.5 E1.00944
G1 X128.235 Y14.055 E1.0389
G1 X128.683 Y14.475 E1.05932
G1 X128.8 Y14.592 E1.06482
G1 X129.397 Y15.246 E1.09428
G1 X129.932 Y15.951 E1.12371
G1 X130.402 Y16.701 E1.15315
G1 X130.802 Y17.491 E1.1826
G1 X131.13 Y18.313 E1.21204
G1 X131.381 Y19.162 E1.24148
G1 X131.556 Y20.03 E1.27093
G1 X131.651 Y20.91 E1.30037
G1 X131.67 Y21.522 E1.32074
G1 X131.67 Y43.278 E2.04435
G1 X131.63 Y44.162 E2.07378
G1 X131.51 Y45.039 E2.10322
G1 X131.312 Y45.902 E2.13267
G1 X131.037 Y46.743 E2.1621
G1 X130.687 Y47.556 E2.19154
G1 X130.265 Y48.335 E2.221
G1 X129.774 Y49.071 E2.25043
G1 X129.219 Y49.761 E2.27988
G1 X128.8 Y50.208 E2.30026
G1 X128.683 Y50.325 E2.30576
G1 X128.029 Y50.922 E2.33522
G1 X127.324 Y51.457 E2.36465
G1 X126.574 Y51.927 E2.39409
G1 X125.784 Y52.327 E2.42354
G1 X124.962 Y52.655 E2.45298
G1 X124.113 Y52.906 E2.48242
G1 X123.245 Y53.081 E2.51187
G1 X122.365 Y53.176 E2.54131
G1 X121.751 Y53.195 E2.56174
G1 X111.38 Y53.193 E2.90669
G1 X110.496 Y53.153 E2.93612
G1 X109.619 Y53.033 E2.96556
G1 X108.756 Y52.835 E2.99501
G1 X107.915 Y52.559 E3.02445
G1 X107.102 Y52.209 E3.05389
G1 X106.324 Y51.787 E3.08333
G1 X105.587 Y51.296 E3.11278
G1 X104.898 Y50.741 E3.14221
G1 X104.452 Y50.323 E3.16254
G1 X104.335 Y50.206 E3.16804
G1 X103.738 Y49.552 E3.19749
G1 X103.203 Y48.847 E3.22693
G1 X102.733 Y48.097 E3.25637
G1 X102.333 Y47.307 E3.28582
G1 X102.005 Y46.485 E3.31525
G1 X101.754 Y45.636 E3.3447
G1 X101.579 Y44.768 E3.37415
G1 X101.484 Y43.888 E3.40359
G1 X101.465 Y43.276 E3.42395
G1 X101.465 Y21.524 E4.14743
G1 X101.505 Y20.64 E4.17686
G1 X101.517 Y20.555 E4.17972
G0 F810 X101.625 Y19.763
M204 S5000
M205 X30 Y30
G0 F7200 X102.025 Y19.799
M204 S500
M205 X20 Y20
G1 F6000 E4.20632
G1 F900 X102.223 Y18.955 E4.23516
G1 X102.498 Y18.133 E4.26399
G1 X102.848 Y17.34 E4.29282
G1 X103.269 Y16.582 E4.32166
G1 X103.758 Y15.867 E4.35047
G1 X104.311 Y15.199 E4.37931
G1 X104.618 Y14.877 E4.39411
G1 X104.735 Y14.76 E4.39961
G1 X105.376 Y14.176 E4.42845
G1 X106.068 Y13.653 E4.4573
G1 X106.805 Y13.197 E4.48613
G1 X107.58 Y12.81 E4.51494
G1 X108.389 Y12.496 E4.5438
G1 X109.222 Y12.258 E4.57262
G1 X110.074 Y12.098 E4.60145
G1 X110.937 Y12.018 E4.63028
G1 X111.38 Y12.007 E4.64501
G1 X121.751 Y12.005 E4.98996
G1 X122.617 Y12.045 E5.01879
G1 X123.476 Y12.164 E5.04763
G1 X124.32 Y12.362 E5.07647
G1 X125.142 Y12.637 E5.1053
G1 X125.935 Y12.987 E5.13413
G1 X126.693 Y13.408 E5.16296
G1 X127.409 Y13.897 E5.1918
G1 X128.077 Y14.45 E5.22065
G1 X128.4 Y14.758 E5.23549
G1 X128.517 Y14.875 E5.24099
G1 X129.101 Y15.516 E5.26984
G1 X129.624 Y16.208 E5.29869
G1 X130.08 Y16.945 E5.32751
G1 X130.467 Y17.72 E5.35632
G1 X130.781 Y18.529 E5.38519
G1 X131.019 Y19.362 E5.414
G1 X131.179 Y20.214 E5.44283
G1 X131.259 Y21.077 E5.47166
G1 X131.27 Y21.522 E5.48646
G1 X131.27 Y43.278 E6.21007
G1 X131.23 Y44.144 E6.23891
G1 X131.11 Y45.003 E6.26775
G1 X130.912 Y45.847 E6.29659
G1 X130.637 Y46.669 E6.32542
G1 X130.287 Y47.462 E6.35425
G1 X129.866 Y48.22 E6.38309
G1 X129.377 Y48.935 E6.4119
G1 X128.824 Y49.603 E6.44074
G1 X128.517 Y49.925 E6.45554
G1 X128.4 Y50.042 E6.46104
G1 X127.759 Y50.626 E6.48988
G1 X127.067 Y51.149 E6.51873
G1 X126.33 Y51.605 E6.54756
G1 X125.555 Y51.992 E6.57637
G1 X124.746 Y52.306 E6.60523
G1 X123.913 Y52.544 E6.63405
G1 X123.061 Y52.704 E6.66288
G1 X122.198 Y52.784 E6.69171
G1 X121.751 Y52.795 E6.70658
G1 X111.38 Y52.793 E7.05152
G1 X110.514 Y52.753 E7.08035
G1 X109.656 Y52.633 E7.10917
G1 X108.812 Y52.435 E7.138
G1 X107.989 Y52.159 E7.16687
G1 X107.196 Y51.81 E7.19569
G1 X106.439 Y51.388 E7.22451
G1 X105.723 Y50.899 E7.25335
G1 X105.056 Y50.345 E7.28219
G1 X104.735 Y50.04 E7.29692
G1 X104.618 Y49.923 E7.30242
G1 X104.034 Y49.282 E7.33126
G1 X103.511 Y48.59 E7.36011
G1 X103.055 Y47.853 E7.38894
G1 X102.668 Y47.078 E7.41775
G1 X102.354 Y46.269 E7.44661
G1 X102.116 Y45.436 E7.47543
G1 X101.956 Y44.584 E7.50426
G1 X101.876 Y43.721 E7.53309
G1 X101.865 Y43.276 E7.54789
G1 X101.865 Y21.524 E8.27137
G1 X101.905 Y20.658 E8.3002
G1 X101.915 Y20.591 E8.30245
G0 F810 X102.025 Y19.799
M204 S5000
M205 X30 Y30
G0 F7200 X102.425 Y19.837
M204 S500
M205 X20 Y20
G1 F6000 E8.32906
G1 F900 X102.623 Y19.012 E8.35728
G1 X102.898 Y18.209 E8.38551
G1 X103.247 Y17.436 E8.41372
G1 X103.667 Y16.7 E8.44191
G1 X104.155 Y16.006 E8.47012
G1 X104.901 Y15.16 E8.50764
G1 X105.018 Y15.043 E8.51314
G1 X105.645 Y14.472 E8.54135
G1 X106.324 Y13.963 E8.56957
G1 X107.047 Y13.52 E8.59777
G1 X107.809 Y13.147 E8.62599
G1 X108.603 Y12.847 E8.65422
G1 X109.421 Y12.623 E8.68243
G1 X110.257 Y12.478 E8.71065
G1 X111.38 Y12.407 E8.74808
G1 X121.751 Y12.405 E9.09302
G1 X122.599 Y12.445 E9.12125
G1 X123.438 Y12.564 E9.14944
G1 X124.263 Y12.762 E9.17766
G1 X125.066 Y13.037 E9.20589
G1 X125.839 Y13.386 E9.2341
G1 X126.576 Y13.806 E9.26231
G1 X127.27 Y14.294 E9.29053
G1 X128.117 Y15.041 E9.32809
G1 X128.234 Y15.158 E9.33359
G1 X128.805 Y15.785 E9.3618
G1 X129.314 Y16.464 E9.39003
G1 X129.757 Y17.187 E9.41823
G1 X130.13 Y17.949 E9.44645
G1 X130.43 Y18.743 E9.47468
G1 X130.654 Y19.561 E9.50288
G1 X130.799 Y20.397 E9.5311
G1 X130.87 Y21.522 E9.5686
G1 X130.87 Y43.278 E10.2922
G1 X130.83 Y44.125 E10.32041
G1 X130.71 Y44.965 E10.34863
G1 X130.512 Y45.79 E10.37685
G1 X130.237 Y46.593 E10.40508
G1 X129.888 Y47.366 E10.43329
G1 X129.468 Y48.102 E10.46147
G1 X128.98 Y48.796 E10.48969
G1 X128.234 Y49.642 E10.52721
G1 X128.117 Y49.759 E10.53271
G1 X127.49 Y50.33 E10.56091
G1 X126.811 Y50.839 E10.58914
G1 X126.088 Y51.282 E10.61734
G1 X125.326 Y51.655 E10.64556
G1 X124.532 Y51.955 E10.67379
G1 X123.714 Y52.179 E10.702
G1 X122.878 Y52.324 E10.73022
G1 X121.751 Y52.395 E10.76778
G1 X111.38 Y52.393 E11.11272
G1 X110.533 Y52.353 E11.14092
G1 X109.693 Y52.233 E11.16914
G1 X108.868 Y52.035 E11.19736
G1 X108.066 Y51.76 E11.22556
G1 X107.293 Y51.41 E11.25378
G1 X106.556 Y50.99 E11.282
G1 X105.862 Y50.502 E11.31022
G1 X105.018 Y49.757 E11.34766
G1 X104.901 Y49.64 E11.35316
G1 X104.33 Y49.013 E11.38137
G1 X103.821 Y48.334 E11.40959
G1 X103.378 Y47.611 E11.43779
G1 X103.005 Y46.849 E11.46601
G1 X102.705 Y46.055 E11.49424
G1 X102.481 Y45.237 E11.52245
G1 X102.336 Y44.401 E11.55067
G1 X102.265 Y43.276 E11.58816
G1 X102.265 Y21.524 E12.31164
G1 X102.305 Y20.677 E12.33984
G1 X102.312 Y20.629 E12.34145
G0 F810 X102.425 Y19.837
M204 S5000
M205 X30 Y30
G0 F7200 X102.825 Y19.875
M204 S500
M205 X20 Y20
G1 F6000 E12.36806
G1 F900 X103.023 Y19.07 E12.39564
G1 X103.297 Y18.288 E12.4232
G1 X103.646 Y17.535 E12.4508
G1 X104.066 Y16.82 E12.47838
G1 X104.552 Y16.149 E12.50594
G1 X105.184 Y15.443 E12.53745
G1 X105.301 Y15.326 E12.54296
G1 X105.915 Y14.768 E12.57055
G1 X106.58 Y14.273 E12.59812
G1 X107.289 Y13.843 E12.6257
G1 X108.036 Y13.484 E12.65327
G1 X108.815 Y13.199 E12.68086
G1 X109.617 Y12.99 E12.70842
G1 X110.436 Y12.859 E12.73601
G1 X111.38 Y12.807 E12.76745
G1 X121.751 Y12.805 E13.1124
G1 X122.58 Y12.845 E13.14
G1 X123.4 Y12.964 E13.16756
G1 X124.205 Y13.162 E13.19513
G1 X124.988 Y13.437 E13.22273
G1 X125.74 Y13.785 E13.25029
G1 X126.456 Y14.205 E13.2779
G1 X127.127 Y14.691 E13.30546
G1 X127.834 Y15.324 E13.33702
G1 X127.951 Y15.441 E13.34253
G1 X128.509 Y16.055 E13.37012
G1 X129.004 Y16.72 E13.39769
G1 X129.434 Y17.429 E13.42527
G1 X129.793 Y18.176 E13.45284
G1 X130.078 Y18.955 E13.48043
G1 X130.287 Y19.757 E13.50799
G1 X130.418 Y20.576 E13.53558
G1 X130.47 Y21.522 E13.56709
G1 X130.47 Y43.278 E14.2907
G1 X130.43 Y44.106 E14.31827
G1 X130.31 Y44.927 E14.34587
G1 X130.112 Y45.732 E14.37344
G1 X129.838 Y46.514 E14.401
G1 X129.489 Y47.267 E14.4286
G1 X129.069 Y47.982 E14.45618
G1 X128.583 Y48.653 E14.48374
G1 X127.951 Y49.359 E14.51526
G1 X127.834 Y49.476 E14.52076
G1 X127.22 Y50.034 E14.54835
G1 X126.555 Y50.529 E14.57593
G1 X125.846 Y50.959 E14.60351
G1 X125.099 Y51.318 E14.63107
G1 X124.32 Y51.603 E14.65866
G1 X123.518 Y51.812 E14.68623
G1 X122.699 Y51.943 E14.71381
G1 X121.751 Y51.995 E14.74539
G1 X111.38 Y51.993 E15.09033
G1 X110.552 Y51.953 E15.1179
G1 X109.732 Y51.833 E15.14547
G1 X108.926 Y51.635 E15.17307
G1 X108.144 Y51.36 E15.20064
G1 X107.392 Y51.011 E15.22822
G1 X106.677 Y50.592 E15.25578
G1 X106.005 Y50.105 E15.28338
G1 X105.301 Y49.474 E15.31483
G1 X105.184 Y49.357 E15.32033
G1 X104.626 Y48.743 E15.34793
G1 X104.131 Y48.078 E15.3755
G1 X103.701 Y47.369 E15.40308
G1 X103.342 Y46.622 E15.43064
G1 X103.057 Y45.843 E15.45823
G1 X102.848 Y45.041 E15.4858
G1 X102.717 Y44.222 E15.51338
G1 X102.665 Y43.276 E15.5449
G1 X102.665 Y21.524 E16.26837
G1 X102.705 Y20.696 E16.29594
G1 X102.71 Y20.667 E16.29692
G0 F810 X102.825 Y19.875
M204 S5000
M205 X30 Y30
G0 F7200 X103.225 Y19.914
M204 S500
M205 X20 Y20
G1 F6000 E16.32353
G1 F900 X103.422 Y19.129 E16.35045
G1 X103.697 Y18.368 E16.37736
G1 X104.045 Y17.637 E16.40429
G1 X104.464 Y16.943 E16.43125
G1 X104.949 Y16.295 E16.45817
G1 X105.467 Y15.726 E16.48377
G1 X105.584 Y15.609 E16.48927
G1 X106.184 Y15.065 E16.51621
G1 X106.835 Y14.583 E16.54315
G1 X107.53 Y14.168 E16.57007
G1 X108.262 Y13.824 E16.59697
G1 X109.026 Y13.553 E16.62393
G1 X109.812 Y13.359 E16.65086
G1 X110.613 Y13.243 E16.67778
G1 X111.38 Y13.207 E16.70332
G1 X121.751 Y13.205 E17.04826
G1 X122.56 Y13.245 E17.0752
G1 X123.361 Y13.364 E17.10213
G1 X124.146 Y13.562 E17.12906
G1 X124.908 Y13.836 E17.15599
G1 X125.639 Y14.184 E17.18292
G1 X126.332 Y14.603 E17.20986
G1 X126.981 Y15.088 E17.2368
G1 X127.551 Y15.607 E17.26244
G1 X127.668 Y15.724 E17.26795
G1 X128.212 Y16.324 E17.29488
G1 X128.694 Y16.975 E17.32182
G1 X129.109 Y17.67 E17.34875
G1 X129.453 Y18.402 E17.37565
G1 X129.724 Y19.166 E17.40261
G1 X129.918 Y19.952 E17.42954
G1 X130.034 Y20.753 E17.45646
G1 X130.07 Y21.522 E17.48206
G1 X130.07 Y43.278 E18.20567
G1 X130.03 Y44.087 E18.23261
G1 X129.91 Y44.888 E18.25955
G1 X129.713 Y45.673 E18.28647
G1 X129.438 Y46.434 E18.31338
G1 X129.09 Y47.165 E18.34031
G1 X128.671 Y47.859 E18.36727
G1 X128.186 Y48.507 E18.39419
G1 X127.668 Y49.076 E18.41978
G1 X127.551 Y49.193 E18.42529
G1 X126.951 Y49.737 E18.45222
G1 X126.3 Y50.219 E18.47917
G1 X125.605 Y50.634 E18.50609
G1 X124.873 Y50.978 E18.53299
G1 X124.109 Y51.249 E18.55995
G1 X123.323 Y51.443 E18.58688
G1 X122.522 Y51.559 E18.6138
G1 X121.751 Y51.595 E18.63947
G1 X111.38 Y51.593 E18.98441
G1 X110.572 Y51.553 E19.01132
G1 X109.771 Y51.433 E19.03826
G1 X108.986 Y51.235 E19.06518
G1 X108.224 Y50.961 E19.09212
G1 X107.493 Y50.612 E19.11906
G1 X106.8 Y50.193 E19.14599
G1 X106.152 Y49.708 E19.17291
G1 X105.584 Y49.191 E19.19846
G1 X105.467 Y49.074 E19.20396
G1 X104.923 Y48.474 E19.2309
G1 X104.441 Y47.823 E19.25784
G1 X104.026 Y47.128 E19.28476
G1 X103.682 Y46.396 E19.31167
G1 X103.411 Y45.632 E19.33863
G1 X103.217 Y44.846 E19.36555
G1 X103.101 Y44.045 E19.39247
G1 X103.065 Y43.276 E19.41808
G1 X103.065 Y21.524 E20.14155
G1 X103.105 Y20.715 E20.16849
G1 X103.107 Y20.706 E20.1688
G0 F810 X103.225 Y19.914
M204 S5000
M205 X30 Y30
G0 F7200 X103.624 Y19.955
M204 S500
M205 X20 Y20
G1 F6000 E20.19541
G1 F900 X103.822 Y19.19 E20.22169
G1 X104.096 Y18.45 E20.24794
G1 X104.444 Y17.741 E20.27421
G1 X104.862 Y17.07 E20.3005
G1 X105.345 Y16.446 E20.32674
G1 X105.75 Y16.009 E20.34656
G1 X105.867 Y15.892 E20.35206
G1 X106.453 Y15.362 E20.37834
G1 X107.089 Y14.895 E20.40459
G1 X107.769 Y14.494 E20.43084
G1 X108.487 Y14.164 E20.45713
G1 X109.234 Y13.909 E20.48338
G1 X110.003 Y13.73 E20.50964
G1 X110.787 Y13.63 E20.53593
G1 X111.38 Y13.607 E20.55567
G1 X121.751 Y13.605 E20.90061
G1 X122.54 Y13.645 E20.92688
G1 X123.321 Y13.764 E20.95316
G1 X124.085 Y13.962 E20.97941
G1 X124.826 Y14.236 E21.00569
G1 X125.535 Y14.583 E21.03194
G1 X126.205 Y15.001 E21.05821
G1 X126.83 Y15.484 E21.08448
G1 X127.268 Y15.89 E21.10434
G1 X127.385 Y16.007 E21.10984
G1 X127.915 Y16.593 E21.13612
G1 X128.382 Y17.229 E21.16237
G1 X128.783 Y17.909 E21.18862
G1 X129.113 Y18.627 E21.21491
G1 X129.368 Y19.374 E21.24116
G1 X129.547 Y20.143 E21.26742
G1 X129.647 Y20.927 E21.29371
G1 X129.67 Y21.522 E21.31351
G1 X129.67 Y43.278 E22.03712
G1 X129.63 Y44.067 E22.0634
G1 X129.511 Y44.847 E22.08964
G1 X129.313 Y45.612 E22.11592
G1 X129.039 Y46.352 E22.14217
G1 X128.691 Y47.061 E22.16843
G1 X128.273 Y47.732 E22.19473
G1 X127.79 Y48.356 E22.22097
G1 X127.385 Y48.793 E22.24079
G1 X127.268 Y48.91 E22.24629
G1 X126.682 Y49.44 E22.27257
G1 X126.046 Y49.907 E22.29882
G1 X125.366 Y50.308 E22.32507
G1 X124.648 Y50.638 E22.35136
G1 X123.901 Y50.893 E22.37761
G1 X123.132 Y51.072 E22.40387
G1 X122.348 Y51.172 E22.43016
G1 X121.751 Y51.195 E22.45003
G1 X111.38 Y51.193 E22.79497
G1 X110.592 Y51.153 E22.82121
G1 X109.811 Y51.033 E22.84749
G1 X109.047 Y50.835 E22.87374
G1 X108.306 Y50.561 E22.90002
G1 X107.597 Y50.213 E22.92629
G1 X106.927 Y49.796 E22.95254
G1 X106.303 Y49.312 E22.9788
G1 X105.867 Y48.908 E22.99857
G1 X105.75 Y48.791 E23.00408
G1 X105.22 Y48.205 E23.03036
G1 X104.753 Y47.569 E23.0566
G1 X104.352 Y46.889 E23.08286
G1 X104.022 Y46.171 E23.10914
G1 X103.767 Y45.424 E23.13539
G1 X103.588 Y44.655 E23.16165
G1 X103.488 Y43.871 E23.18794
G1 X103.465 Y43.276 E23.20774
G1 X103.465 Y21.524 E23.93122
G1 X103.505 Y20.745 E23.95716
G0 F810 X103.505 Y20.735
G0 X103.624 Y19.955
M204 S5000
M205 X30 Y30
G0 F7200 X104.024 Y19.996
M204 S500
M205 X20 Y20
G1 F6000 E23.98377
G1 F900 X104.222 Y19.253 E24.00934
G1 X104.496 Y18.534 E24.03494
G1 X104.843 Y17.848 E24.06051
G1 X105.259 Y17.201 E24.08609
G1 X105.74 Y16.601 E24.11167
G1 X106.032 Y16.291 E24.12583
G1 X106.149 Y16.174 E24.13133
G1 X106.721 Y15.66 E24.15691
G1 X107.343 Y15.207 E24.1825
G1 X108.008 Y14.821 E24.20808
G1 X108.71 Y14.506 E24.23367
G1 X109.441 Y14.266 E24.25926
G1 X110.192 Y14.103 E24.28482
G1 X110.957 Y14.019 E24.31042
G1 X111.381 Y14.007 E24.32452
G1 X121.752 Y14.005 E24.66947
G1 X122.52 Y14.045 E24.69504
G1 X123.28 Y14.164 E24.72063
G1 X124.023 Y14.362 E24.7462
G1 X124.742 Y14.635 E24.77178
G1 X125.428 Y14.982 E24.79735
G1 X126.075 Y15.398 E24.82294
G1 X126.675 Y15.879 E24.84851
G1 X126.986 Y16.172 E24.86273
G1 X127.103 Y16.289 E24.86823
G1 X127.617 Y16.861 E24.89381
G1 X128.07 Y17.483 E24.9194
G1 X128.456 Y18.148 E24.94497
G1 X128.771 Y18.85 E24.97056
G1 X129.011 Y19.581 E24.99615
G1 X129.174 Y20.332 E25.02171
G1 X129.258 Y21.097 E25.04731
G1 X129.27 Y21.522 E25.06145
G1 X129.27 Y43.278 E25.78506
G1 X129.23 Y44.046 E25.81064
G1 X129.111 Y44.806 E25.83622
G1 X128.913 Y45.549 E25.8618
G1 X128.639 Y46.268 E25.88739
G1 X128.292 Y46.954 E25.91296
G1 X127.876 Y47.601 E25.93854
G1 X127.395 Y48.201 E25.96412
G1 X127.103 Y48.511 E25.97828
G1 X126.986 Y48.628 E25.98379
G1 X126.414 Y49.142 E26.00937
G1 X125.792 Y49.595 E26.03496
G1 X125.127 Y49.981 E26.06053
G1 X124.425 Y50.296 E26.08612
