;FLAVOR:Marlin
;TIME:16297
;Filament used: 13.9241m
;Layer height: 0.2
;Generated with Cura_SteamEngine 3.6.0
M140 S70
M105
M190 S70
M104 S215
M105
M109 S215
M82 ;absolute extrusion mode
G28 ; home all axes
M117 Purge extruder
G92 E0 ; reset extruder
G1 Z1.0 F3000 ; move z up little to prevent scratching of surface
G1 X0.1 Y20 Z0.3 F5000.0 ; move to start-line position G1 X0.1 Y200.0 Z0.3 F1500.0 E15 ; draw 1st line
G1 X0.4 Y200.0 Z0.3 F5000.0 ; move to side a little
G1 X0.4 Y20 Z0.3 F1500.0 E30 ; draw 2nd line
G92 E0 ; reset extruder
G1 Z1.0 F3000 ; move z up little to prevent scratching of surface
M117 All systems go!
G92 E0
G1 F6000 E-5
;LAYER_COUNT:155
;LAYER:0
M107
M204 S5000
M205 X30 Y30
G0 F7200 X44.917 Y62.389 Z0.2
M204 S500
M205 X20 Y20
;TYPE:SKIRT
G1 F6000 E0
G1 F900 X45.854 Y61.811 E0.03662
G1 X46.862 Y61.265 E0.07475
G1 X47.659 Y60.879 E0.1042
G1 X48.487 Y60.566 E0.13364
G1 X49.34 Y60.33 E0.16308
G1 X50.084 Y60.189 E0.18826
G1 X50.788 Y60.084 E0.21194
G1 X51.669 Y59.993 E0.2414
G1 X52.95 Y60.003 E0.284
G1 X53.523 Y60.045 E0.30311
G1 X54.402 Y60.15 E0.33256
G1 X55.268 Y60.333 E0.362
G1 X56.406 Y60.704 E0.40181
G1 X57.647 Y61.194 E0.44618
G1 X58.455 Y61.556 E0.47563
G1 X59.58 Y62.22 E0.51908
G1 X60.298 Y62.711 E0.54801
G1 X61.005 Y63.243 E0.57744
G1 X61.502 Y63.682 E0.59949
G1 X62.676 Y64.793 E0.65325
G1 X63.21 Y65.34 E0.67868
G1 X64.601 Y66.879 E0.74768
G1 X65.048 Y67.409 E0.77074
G1 X68.628 Y71.982 E0.9639
G1 X68.803 Y72.213 E0.97354
G1 X78.987 Y86.045 E1.54484
G1 X82.508 Y90.598 E1.73627
G1 X85.389 Y94.108 E1.8873
G1 X87.306 Y96.226 E1.98232
G1 X89.139 Y98.078 E2.06898
G1 X90.566 Y99.371 E2.13303
G1 X91.721 Y100.202 E2.18036
G1 X92.875 Y100.881 E2.22489
G1 X93.858 Y101.335 E2.2609
G1 X94.533 Y101.567 E2.28464
G1 X94.545 Y101.57 E2.28506
G1 X94.736 Y101.432 E2.29289
G1 X95.338 Y100.852 E2.3207
G1 X96.138 Y99.963 E2.36047
G1 X98.061 Y97.242 E2.47129
G1 X98.02 Y97.154 E2.47452
G1 X97.623 Y96.167 E2.50991
G1 X96.824 Y93.819 E2.5924
G1 X96.577 Y92.969 E2.62184
G1 X96.408 Y92.1 E2.65129
G1 X96.335 Y91.464 E2.67258
G1 X96.149 Y89.199 E2.74817
G1 X96.116 Y88.314 E2.77762
G1 X96.164 Y87.431 E2.80703
G1 X96.302 Y86.499 E2.83837
G1 X96.735 Y84.306 E2.91272
G1 X96.945 Y83.446 E2.94216
G1 X97.232 Y82.609 E2.97159
G1 X97.558 Y81.873 E2.99836
G1 X98.596 Y79.766 E3.07649
G1 X99.023 Y78.991 E3.10592
G1 X99.786 Y77.912 E3.14987
G1 X101.446 Y75.872 E3.23735
G1 X102.035 Y75.211 E3.26679
G1 X102.636 Y74.645 E3.29425
G1 X104.902 Y72.685 E3.3939
G1 X105.951 Y71.894 E3.4376
G1 X108.833 Y70.01 E3.55212
G1 X109.778 Y69.465 E3.5884
G1 X111.178 Y68.758 E3.64057
G1 X111.208 Y68.68 E3.64335
G1 X115.582 Y56.01 E4.08916
G1 X118.064 Y48.516 E4.35172
G1 X118.097 Y48.418 E4.35516
G1 X122.172 Y36.534 E4.77302
G1 X122.266 Y36.273 E4.78224
G1 X125.435 Y27.82 E5.0825
G1 X125.553 Y27.52 E5.09322
G1 X127.193 Y23.548 E5.23615
G1 X127.335 Y23.22 E5.24804
G1 X129.054 Y19.452 E5.38579
G1 X129.457 Y18.664 E5.41522
G1 X129.782 Y18.136 E5.43585
G1 X130.577 Y16.927 E5.48397
G1 X131.096 Y16.21 E5.51341
G1 X131.678 Y15.543 E5.54285
G1 X132.146 Y15.084 E5.56466
G1 X132.634 Y14.637 E5.58667
G1 X133.313 Y14.07 E5.61609
G1 X134.04 Y13.565 E5.64553
G1 X134.519 Y13.283 E5.66402
G1 X135.313 Y12.845 E5.69418
G1 X136.107 Y12.453 E5.72363
G1 X136.889 Y12.149 E5.75154
G1 X137.732 Y11.862 E5.78116
G1 X138.582 Y11.615 E5.8106
G1 X139.45 Y11.445 E5.84001
G1 X139.993 Y11.38 E5.8582
G1 X141.146 Y11.274 E5.89671
G1 X142.03 Y11.233 E5.92615
G1 X142.914 Y11.272 E5.95558
G1 X143.623 Y11.361 E5.97934
G1 X144.731 Y11.542 E6.01669
G1 X145.597 Y11.724 E6.04612
G1 X146.531 Y12.015 E6.07866
G1 X147.38 Y12.327 E6.10874
G1 X148.197 Y12.67 E6.13821
G1 X149.213 Y13.228 E6.17676
G1 X150.176 Y13.833 E6.21459
G1 X150.904 Y14.337 E6.24404
G1 X151.583 Y14.905 E6.27348
G1 X152.208 Y15.532 E6.30293
G1 X153.014 Y16.543 E6.34593
G1 X154.471 Y18.642 E6.43092
G1 X155 Y19.494 E6.46427
G1 X156.714 Y22.599 E6.58223
G1 X157.17 Y23.542 E6.61707
G1 X158.258 Y26.134 E6.71057
G1 X158.478 Y26.707 E6.73098
G1 X160.154 Y31.524 E6.90062
G1 X160.382 Y32.275 E6.92672
G1 X161.44 Y36.339 E7.0664
G1 X161.502 Y36.591 E7.07503
G1 X162.907 Y42.642 E7.28164
G1 X162.976 Y42.965 E7.29263
G1 X164.715 Y51.794 E7.59192
G1 X164.75 Y51.981 E7.59825
G1 X166.955 Y64.443 E8.01918
G1 X167.011 Y64.797 E8.0311
G1 X167.294 Y66.828 E8.0993
G1 X172.458 Y77.899 E8.50561
G1 X172.854 Y78.884 E8.54092
G1 X173.653 Y81.231 E8.62338
G1 X173.9 Y82.081 E8.65282
G1 X174.07 Y82.95 E8.68227
G1 X174.143 Y83.587 E8.7036
G1 X174.329 Y85.853 E8.77922
G1 X174.362 Y86.738 E8.80867
G1 X174.314 Y87.622 E8.83812
G1 X174.176 Y88.555 E8.86949
G1 X173.743 Y90.746 E8.94377
G1 X173.532 Y91.606 E8.97322
G1 X173.245 Y92.443 E9.00265
G1 X172.921 Y93.175 E9.02928
G1 X171.881 Y95.287 E9.10758
G1 X171.454 Y96.063 E9.13704
G1 X170.96 Y96.797 E9.16646
G1 X170.684 Y97.152 E9.18142
G1 X170.604 Y97.25 E9.18563
G1 X171.095 Y103.863 E9.40618
G1 X171.11 Y104.106 E9.41428
G1 X171.702 Y116.117 E9.81425
G1 X171.711 Y116.349 E9.82198
G1 X171.955 Y125.901 E10.13978
G1 X171.958 Y126.103 E10.1465
G1 X172.003 Y135.249 E10.4507
G1 X172 Y135.529 E10.46001
G1 X171.841 Y142.243 E10.68338
G1 X171.828 Y142.579 E10.69457
G1 X171.585 Y146.768 E10.83413
G1 X171.569 Y146.997 E10.84176
G1 X170.892 Y155.293 E11.11861
G1 X170.848 Y155.714 E11.13269
G1 X169.831 Y163.83 E11.40474
G1 X169.783 Y164.164 E11.41596
G1 X169.161 Y168.041 E11.54656
G1 X169.101 Y168.38 E11.55801
G1 X167.664 Y175.686 E11.80566
G1 X167.551 Y176.191 E11.82287
G1 X166.707 Y179.538 E11.93768
G1 X166.625 Y179.84 E11.94809
G1 X165.732 Y182.958 E12.05596
G1 X165.598 Y183.389 E12.07098
G1 X164.638 Y186.238 E12.17097
G1 X164.477 Y186.68 E12.18661
G1 X163.485 Y189.215 E12.27716
G1 X163.194 Y189.884 E12.30142
G1 X162.123 Y192.116 E12.38376
G1 X161.674 Y192.946 E12.41515
G1 X160.564 Y194.782 E12.48651
G1 X160.019 Y195.59 E12.51892
G1 X159.417 Y196.393 E12.5523
G1 X158.61 Y197.339 E12.59366
G1 X157.862 Y198.11 E12.62939
G1 X157.217 Y198.717 E12.65885
G1 X156.551 Y199.241 E12.68703
G1 X155.863 Y199.736 E12.71522
G1 X155.122 Y200.22 E12.74466
G1 X154.443 Y200.586 E12.77031
G1 X153.606 Y200.995 E12.8013
G1 X152.793 Y201.347 E12.83077
G1 X151.603 Y201.716 E12.8722
G1 X150.667 Y201.942 E12.90423
G1 X149.798 Y202.111 E12.93367
G1 X148.497 Y202.215 E12.97708
G1 X146.758 Y202.238 E13.03493
G1 X145.873 Y202.21 E13.06438
G1 X145.147 Y202.126 E13.08869
G1 X143.747 Y201.912 E13.13579
G1 X142.879 Y201.739 E13.16523
G1 X141.956 Y201.463 E13.19727
G1 X138.232 Y200.144 E13.32867
G1 X137.412 Y199.811 E13.35811
G1 X136.595 Y199.388 E13.38871
G1 X131.996 Y196.726 E13.56545
G1 X131.121 Y196.155 E13.6002
G1 X125.715 Y192.203 E13.82292
G1 X125.214 Y191.811 E13.84408
G1 X119.146 Y186.739 E14.10712
G1 X118.747 Y186.387 E14.12482
G1 X112.214 Y180.294 E14.42194
G1 X111.946 Y180.034 E14.43436
G1 X104.982 Y173.025 E14.76299
G1 X104.757 Y172.791 E14.77379
G1 X97.52 Y165.008 E15.12727
G1 X97.3 Y164.763 E15.13822
G1 X89.966 Y156.323 E15.51011
G1 X89.784 Y156.108 E15.51948
G1 X82.423 Y147.128 E15.90568
G1 X82.232 Y146.887 E15.9159
G1 X74.987 Y137.46 E16.31135
G1 X74.794 Y137.2 E16.32212
G1 X67.817 Y127.473 E16.72026
G1 X67.627 Y127.199 E16.73135
G1 X61.025 Y117.3 E17.1271
G1 X60.824 Y116.985 E17.13953
G1 X54.708 Y107.012 E17.52863
G1 X54.474 Y106.61 E17.54411
G1 X49.019 Y96.687 E17.92073
G1 X48.785 Y96.234 E17.93769
G1 X44.077 Y86.503 E18.29723
G1 X43.787 Y85.842 E18.32124
G1 X39.984 Y76.236 E18.66486
G1 X39.696 Y75.399 E18.6943
G1 X39.484 Y74.54 E18.72373
G1 X39.351 Y73.665 E18.75317
G1 X39.297 Y72.781 E18.78263
G1 X39.323 Y71.896 E18.81207
G1 X39.429 Y71.018 E18.84149
G1 X39.614 Y70.152 E18.87094
G1 X40.005 Y68.97 E18.91235
G1 X40.366 Y68.073 E18.94451
G1 X40.733 Y67.268 E18.97393
G1 X41.298 Y66.304 E19.0111
G1 X41.763 Y65.605 E19.03902
G1 X42.286 Y64.891 E19.06846
G1 X42.964 Y64.132 E19.10231
G1 X43.564 Y63.527 E19.13065
G1 X44.215 Y62.927 E19.16009
G1 X44.282 Y62.875 E19.16292
G0 F810 X44.917 Y62.389
M204 S5000
M205 X30 Y30
G0 F7200 X45.175 Y62.697
M204 S500
M205 X20 Y20
G1 F6000 E19.18952
G1 F900 X46.045 Y62.163 E19.22348
G1 X47.053 Y61.617 E19.2616
G1 X47.833 Y61.239 E19.29043
G1 X48.645 Y60.936 E19.31926
G1 X49.482 Y60.708 E19.34811
G1 X50.143 Y60.585 E19.37048
G1 X50.847 Y60.48 E19.39415
G1 X51.71 Y60.392 E19.423
G1 X52.921 Y60.402 E19.46328
G1 X53.494 Y60.444 E19.48239
G1 X54.355 Y60.547 E19.51123
G1 X55.203 Y60.729 E19.54008
G1 X56.259 Y61.076 E19.57705
G1 X57.5 Y61.566 E19.62143
G1 X58.291 Y61.921 E19.65026
G1 X59.354 Y62.55 E19.69134
G1 X60.072 Y63.041 E19.72027
G1 X60.764 Y63.563 E19.7491
G1 X61.227 Y63.973 E19.76967
G1 X62.401 Y65.084 E19.82343
G1 X62.914 Y65.608 E19.84782
G1 X64.305 Y67.147 E19.91682
G1 X64.733 Y67.656 E19.93894
G1 X68.313 Y72.229 E20.1321
G1 X68.481 Y72.45 E20.14134
G1 X78.669 Y86.287 E20.71285
G1 X82.198 Y90.851 E20.90473
G1 X85.086 Y94.369 E21.05612
G1 X87.008 Y96.494 E21.15142
G1 X88.86 Y98.363 E21.23893
G1 X90.323 Y99.689 E21.3046
G1 X91.493 Y100.531 E21.35255
G1 X92.698 Y101.241 E21.39906
G1 X93.71 Y101.708 E21.43613
G1 X94.424 Y101.954 E21.46125
G1 X94.636 Y101.998 E21.46845
G1 X94.993 Y101.741 E21.48308
G1 X95.623 Y101.133 E21.51221
G1 X96.453 Y100.211 E21.55347
G1 X98.522 Y97.283 E21.67271
G1 X98.383 Y96.985 E21.68365
G1 X98.002 Y96.038 E21.7176
G1 X97.203 Y93.69 E21.80009
G1 X96.962 Y92.857 E21.82893
G1 X96.799 Y92.006 E21.85775
G1 X96.734 Y91.431 E21.877
G1 X96.548 Y89.166 E21.95259
G1 X96.517 Y88.3 E21.98141
G1 X96.565 Y87.434 E22.01026
G1 X96.694 Y86.576 E22.03911
G1 X97.127 Y84.383 E22.11346
G1 X97.334 Y83.541 E22.1423
G1 X97.618 Y82.722 E22.17113
G1 X97.917 Y82.05 E22.1956
G1 X98.955 Y79.943 E22.27372
G1 X99.373 Y79.184 E22.30254
G1 X100.096 Y78.164 E22.34412
G1 X101.756 Y76.124 E22.4316
G1 X102.334 Y75.478 E22.46043
G1 X102.898 Y74.948 E22.48617
G1 X105.164 Y72.988 E22.58582
G1 X106.17 Y72.229 E22.62773
G1 X109.052 Y70.345 E22.74225
G1 X109.958 Y69.822 E22.77705
G1 X111.497 Y69.045 E22.83439
G1 X111.592 Y68.796 E22.84325
G1 X115.939 Y56.204 E23.28632
G1 X118.444 Y48.641 E23.5513
G1 X118.475 Y48.548 E23.55456
G1 X122.55 Y36.664 E23.97242
G1 X122.64 Y36.413 E23.98129
G1 X125.809 Y27.96 E24.28154
G1 X125.922 Y27.673 E24.2918
G1 X127.562 Y23.701 E24.43473
G1 X127.699 Y23.386 E24.44615
G1 X129.418 Y19.618 E24.5839
G1 X129.814 Y18.847 E24.61273
G1 X130.116 Y18.355 E24.63193
G1 X130.911 Y17.146 E24.68006
G1 X131.42 Y16.445 E24.70887
G1 X131.992 Y15.793 E24.73772
G1 X132.416 Y15.379 E24.75743
G1 X132.904 Y14.932 E24.77944
G1 X133.569 Y14.377 E24.80825
G1 X134.283 Y13.885 E24.83709
G1 X134.713 Y13.633 E24.85367
G1 X135.507 Y13.195 E24.88383
G1 X136.284 Y12.812 E24.91264
G1 X137.018 Y12.528 E24.93882
G1 X137.861 Y12.241 E24.96844
G1 X138.693 Y11.999 E24.99725
G1 X139.545 Y11.836 E25.02611
G1 X140.029 Y11.778 E25.04232
G1 X141.182 Y11.672 E25.08083
G1 X142.048 Y11.633 E25.10966
G1 X142.915 Y11.673 E25.13853
G1 X143.558 Y11.756 E25.16009
G1 X144.666 Y11.937 E25.19743
G1 X145.515 Y12.116 E25.22629
G1 X146.393 Y12.391 E25.25689
G1 X147.242 Y12.703 E25.28698
G1 X148.041 Y13.039 E25.31581
G1 X149.001 Y13.566 E25.35223
G1 X149.964 Y14.171 E25.39006
G1 X150.676 Y14.666 E25.4189
G1 X151.339 Y15.224 E25.44772
G1 X151.948 Y15.841 E25.47656
G1 X152.685 Y16.771 E25.51602
G1 X154.142 Y18.87 E25.60101
G1 X154.649 Y19.687 E25.63299
G1 X156.363 Y22.792 E25.75095
G1 X156.801 Y23.697 E25.78439
G1 X157.889 Y26.289 E25.87789
G1 X158.1 Y26.838 E25.89745
G1 X159.776 Y31.655 E26.06708
G1 X159.995 Y32.376 E26.09215
G1 X161.053 Y36.44 E26.23182
G1 X161.112 Y36.682 E26.24011
G1 X162.517 Y42.733 E26.44672
G1 X162.584 Y43.042 E26.45723
G1 X164.323 Y51.871 E26.75653
G1 X164.356 Y52.05 E26.76258
G1 X166.561 Y64.512 E27.18351
G1 X166.615 Y64.852 E27.19496
G1 X166.906 Y66.943 E27.26518
G1 X172.096 Y78.069 E27.67351
G1 X172.475 Y79.013 E27.70734
G1 X173.274 Y81.36 E27.7898
G1 X173.516 Y82.192 E27.81862
G1 X173.679 Y83.044 E27.84747
G1 X173.744 Y83.62 E27.86675
G1 X173.93 Y85.886 E27.94238
G1 X173.961 Y86.752 E27.9712
G1 X173.913 Y87.618 E28.00004
G1 X173.784 Y88.477 E28.02894
G1 X173.351 Y90.668 E28.10322
G1 X173.144 Y91.51 E28.13206
G1 X172.86 Y92.329 E28.16089
G1 X172.562 Y92.999 E28.18528
G1 X171.522 Y95.111 E28.26358
G1 X171.104 Y95.87 E28.2924
G1 X170.374 Y96.899 E28.33436
G1 X170.193 Y97.12 E28.34386
G1 X170.696 Y103.892 E28.56972
G1 X170.711 Y104.125 E28.57748
G1 X171.303 Y116.136 E28.97746
G1 X171.311 Y116.359 E28.98488
G1 X171.555 Y125.911 E29.30268
G1 X171.558 Y126.105 E29.30914
G1 X171.603 Y135.251 E29.61334
G1 X171.6 Y135.52 E29.62228
G1 X171.441 Y142.234 E29.84566
G1 X171.428 Y142.555 E29.85634
G1 X171.185 Y146.744 E29.9959
G1 X171.17 Y146.965 E30.00327
G1 X170.493 Y155.261 E30.28011
G1 X170.451 Y155.665 E30.29362
G1 X169.434 Y163.781 E30.56567
G1 X169.388 Y164.101 E30.57642
G1 X168.766 Y167.978 E30.70702
G1 X168.708 Y168.303 E30.718
G1 X167.271 Y175.609 E30.96566
G1 X167.163 Y176.093 E30.98215
G1 X166.319 Y179.44 E31.09696
G1 X166.241 Y179.73 E31.10695
G1 X165.348 Y182.848 E31.21482
G1 X165.219 Y183.262 E31.22924
G1 X164.259 Y186.111 E31.32924
G1 X164.105 Y186.534 E31.34421
G1 X163.113 Y189.069 E31.43475
G1 X162.834 Y189.711 E31.45803
G1 X161.763 Y191.943 E31.54037
G1 X161.332 Y192.739 E31.57048
G1 X160.222 Y194.575 E31.64184
G1 X159.699 Y195.351 E31.67296
G1 X159.097 Y196.154 E31.70634
G1 X158.323 Y197.06 E31.74597
G1 X157.575 Y197.831 E31.7817
G1 X156.943 Y198.425 E31.81055
G1 X156.318 Y198.916 E31.83699
G1 X155.63 Y199.411 E31.86518
G1 X154.904 Y199.885 E31.89401
G1 X154.267 Y200.227 E31.91806
G1 X153.43 Y200.636 E31.94905
G1 X152.634 Y200.98 E31.97789
G1 X151.509 Y201.327 E32.01704
G1 X150.573 Y201.553 E32.04907
G1 X149.722 Y201.718 E32.0779
G1 X148.491 Y201.815 E32.11897
G1 X146.752 Y201.838 E32.17682
G1 X145.886 Y201.81 E32.20563
G1 X145.208 Y201.731 E32.22834
G1 X143.808 Y201.517 E32.27544
G1 X142.958 Y201.347 E32.30427
G1 X142.09 Y201.086 E32.33442
G1 X138.366 Y199.767 E32.46582
G1 X137.563 Y199.44 E32.49466
G1 X136.795 Y199.041 E32.52344
G1 X132.196 Y196.379 E32.70018
G1 X131.358 Y195.832 E32.73347
G1 X125.952 Y191.88 E32.95619
G1 X125.471 Y191.504 E32.9765
G1 X119.403 Y186.432 E33.23954
G1 X119.02 Y186.094 E33.25653
G1 X112.487 Y180.001 E33.55366
G1 X112.23 Y179.752 E33.56556
G1 X105.266 Y172.743 E33.89418
G1 X105.05 Y172.519 E33.90453
G1 X97.813 Y164.736 E34.25801
G1 X97.602 Y164.501 E34.26852
G1 X90.268 Y156.061 E34.64041
G1 X90.093 Y155.854 E34.64942
G1 X82.732 Y146.874 E35.03562
G1 X82.549 Y146.643 E35.04542
G1 X75.304 Y137.216 E35.44087
G1 X75.119 Y136.967 E35.45118
G1 X68.142 Y127.24 E35.84932
G1 X67.96 Y126.977 E35.85996
G1 X61.358 Y117.078 E36.25571
G1 X61.165 Y116.776 E36.26763
G1 X55.049 Y106.803 E36.65674
G1 X54.825 Y106.417 E36.67158
G1 X49.37 Y96.494 E37.04821
G1 X49.145 Y96.06 E37.06447
G1 X44.437 Y86.329 E37.42401
G1 X44.159 Y85.695 E37.44704
G1 X40.356 Y76.089 E37.79066
G1 X40.074 Y75.269 E37.8195
G1 X39.87 Y74.427 E37.84832
G1 X39.743 Y73.569 E37.87717
G1 X39.696 Y72.703 E37.90601
G1 X39.729 Y71.837 E37.93484
G1 X39.842 Y70.978 E37.96365
G1 X40.034 Y70.132 E37.99251
G1 X40.376 Y69.119 E38.02807
G1 X40.737 Y68.222 E38.06023
G1 X41.097 Y67.434 E38.08904
G1 X41.631 Y66.526 E38.12408
G1 X42.096 Y65.827 E38.152
G1 X42.609 Y65.128 E38.18084
G1 X43.248 Y64.414 E38.21271
G1 X43.848 Y63.809 E38.24105
G1 X44.486 Y63.222 E38.26988
G1 X44.539 Y63.181 E38.27211
G0 F810 X45.175 Y62.697
M204 S5000
M205 X30 Y30
G0 F7200 X45.433 Y63.005
M204 S500
M205 X20 Y20
G1 F6000 E38.29872
G1 F900 X46.235 Y62.514 E38.33
G1 X47.243 Y61.968 E38.36812
G1 X48.008 Y61.6 E38.39636
G1 X48.803 Y61.305 E38.42456
G1 X49.623 Y61.086 E38.45279
G1 X50.202 Y60.98 E38.47237
G1 X50.906 Y60.875 E38.49604
G1 X51.75 Y60.79 E38.52426
G1 X52.892 Y60.801 E38.56224
G1 X53.465 Y60.843 E38.58135
G1 X54.307 Y60.945 E38.60956
G1 X55.136 Y61.126 E38.63778
G1 X56.112 Y61.448 E38.67197
G1 X57.353 Y61.938 E38.71634
G1 X58.127 Y62.286 E38.74457
G1 X59.128 Y62.88 E38.78328
G1 X59.846 Y63.371 E38.81221
G1 X60.523 Y63.882 E38.84042
G1 X60.952 Y64.263 E38.85951
G1 X62.126 Y65.374 E38.91327
G1 X62.617 Y65.876 E38.93662
G1 X64.008 Y67.415 E39.00562
