;FLAVOR:Marlin
;TIME:1986
;Filament used: 0.624883m
;Layer height: 0.2
;Generated with Cura_SteamEngine 3.6.0
M140 S70
M105
M190 S70
M104 S215
M105
M109 S215
M82 ;absolute extrusion mode
G28 ; home all axes
M117 Purge extruder
G92 E0 ; reset extruder
G1 Z1.0 F3000 ; move z up little to prevent scratching of surface
G1 X0.1 Y20 Z0.3 F5000.0 ; move to start-line position G1 X0.1 Y200.0 Z0.3 F1500.0 E15 ; draw 1st line
G1 X0.4 Y200.0 Z0.3 F5000.0 ; move to side a little
G1 X0.4 Y20 Z0.3 F1500.0 E30 ; draw 2nd line
G92 E0 ; reset extruder
G1 Z1.0 F3000 ; move z up little to prevent scratching of surface
M117 All systems go!
G92 E0
G1 F6000 E-5
;LAYER_COUNT:154
;LAYER:0
M107
G0 F2400 X90.59 Y23.837 Z0.2
;TYPE:SKIRT
G1 F6000 E0
G1 F900 X90.944 Y22.63 E0.04184
G1 X91.374 Y21.447 E0.0837
G1 X91.878 Y20.294 E0.12555
G1 X92.455 Y19.176 E0.1674
G1 X93.102 Y18.096 E0.20927
G1 X93.815 Y17.06 E0.2511
G1 X94.594 Y16.071 E0.29297
G1 X95.756 Y14.802 E0.3502
G1 X95.873 Y14.685 E0.35571
G1 X96.791 Y13.824 E0.39757
G1 X97.761 Y13.023 E0.43941
G1 X98.781 Y12.285 E0.48128
G1 X99.845 Y11.614 E0.52312
G1 X100.95 Y11.011 E0.56499
G1 X102.091 Y10.48 E0.60685
G1 X103.263 Y10.022 E0.6487
G1 X104.462 Y9.64 E0.69055
G1 X105.683 Y9.335 E0.73241
G1 X106.92 Y9.108 E0.77424
G1 X108.17 Y8.959 E0.81611
G1 X109.874 Y8.886 E0.87284
G1 X110.278 Y8.886 E0.88627
G1 X111.428 Y8.923 E0.92454
G1 X112.282 Y8.886 E0.95297
G1 X113.326 Y8.886 E0.9877
G1 X114.476 Y8.923 E1.02597
G1 X115.33 Y8.886 E1.0544
G1 X116.374 Y8.886 E1.08912
G1 X117.524 Y8.923 E1.12739
G1 X118.378 Y8.886 E1.15582
G1 X119.422 Y8.886 E1.19054
G1 X120.572 Y8.923 E1.22881
G1 X121.426 Y8.886 E1.25724
G1 X122.47 Y8.886 E1.29197
G1 X123.62 Y8.923 E1.33024
G1 X124.474 Y8.886 E1.35867
G1 X125.518 Y8.886 E1.39339
G1 X126.668 Y8.923 E1.43166
G1 X127.522 Y8.886 E1.46009
G1 X128.566 Y8.886 E1.49481
G1 X129.716 Y8.923 E1.53308
G1 X130.57 Y8.886 E1.56151
G1 X131.614 Y8.886 E1.59624
G1 X132.764 Y8.923 E1.63451
G1 X133.618 Y8.886 E1.66294
G1 X134.662 Y8.886 E1.69766
G1 X135.92 Y8.926 E1.73952
G1 X137.172 Y9.046 E1.78136
G1 X138.415 Y9.245 E1.82323
G1 X139.642 Y9.523 E1.86507
G1 X140.85 Y9.878 E1.90695
G1 X142.032 Y10.309 E1.94879
G1 X143.184 Y10.814 E1.99063
G1 X144.303 Y11.392 E2.03252
G1 X144.909 Y11.755 E2.05601
G1 X145.189 Y11.9 E2.0665
G1 X146.268 Y12.547 E2.10835
G1 X147.304 Y13.261 E2.15019
G1 X148.292 Y14.04 E2.19204
G1 X149.549 Y15.193 E2.24877
G1 X149.666 Y15.31 E2.25428
G1 X150.527 Y16.228 E2.29614
G1 X151.328 Y17.198 E2.33798
G1 X152.066 Y18.218 E2.37985
G1 X152.737 Y19.282 E2.42169
G1 X153.34 Y20.387 E2.46356
G1 X153.871 Y21.528 E2.50542
G1 X154.329 Y22.7 E2.54727
G1 X154.711 Y23.899 E2.58912
G1 X155.016 Y25.12 E2.63098
G1 X155.243 Y26.357 E2.67281
G1 X155.392 Y27.607 E2.71468
G1 X155.465 Y29.311 E2.77141
G1 X155.465 Y30.093 E2.79742
G1 X155.425 Y31.351 E2.83928
G1 X155.305 Y32.603 E2.88111
G1 X155.106 Y33.846 E2.92298
G1 X154.828 Y35.073 E2.96482
G1 X154.473 Y36.281 E3.0067
G1 X154.042 Y37.463 E3.04855
G1 X153.537 Y38.615 E3.09038
G1 X152.959 Y39.734 E3.13227
G1 X152.312 Y40.813 E3.17412
G1 X151.598 Y41.849 E3.21597
G1 X150.819 Y42.837 E3.25781
G1 X149.666 Y44.094 E3.31455
G1 X149.549 Y44.211 E3.32005
G1 X148.631 Y45.072 E3.36191
G1 X147.661 Y45.873 E3.40375
G1 X146.641 Y46.611 E3.44562
G1 X145.577 Y47.282 E3.48746
G1 X144.472 Y47.885 E3.52933
G1 X143.331 Y48.416 E3.57119
G1 X142.159 Y48.874 E3.61304
G1 X140.96 Y49.256 E3.65489
G1 X139.739 Y49.561 E3.69675
G1 X138.502 Y49.788 E3.73858
G1 X137.252 Y49.937 E3.78045
G1 X135.548 Y50.01 E3.83718
G1 X109.875 Y50.01 E4.69107
G1 X108.617 Y49.97 E4.73293
G1 X107.365 Y49.85 E4.77476
G1 X106.122 Y49.651 E4.81663
G1 X104.895 Y49.373 E4.85848
G1 X103.687 Y49.018 E4.90035
G1 X102.505 Y48.587 E4.9422
G1 X101.353 Y48.082 E4.98403
G1 X100.234 Y47.504 E5.02592
G1 X99.155 Y46.857 E5.06777
G1 X98.119 Y46.143 E5.10962
G1 X97.131 Y45.364 E5.15146
G1 X95.874 Y44.211 E5.2082
G1 X95.757 Y44.094 E5.2137
G1 X94.896 Y43.176 E5.25556
G1 X94.095 Y42.206 E5.2974
G1 X93.357 Y41.186 E5.33927
G1 X92.686 Y40.122 E5.38111
G1 X92.083 Y39.017 E5.42298
G1 X91.552 Y37.876 E5.46484
G1 X91.094 Y36.704 E5.50669
G1 X90.712 Y35.505 E5.54854
G1 X90.407 Y34.284 E5.5904
G1 X90.18 Y33.047 E5.63223
G1 X90.031 Y31.797 E5.6741
G1 X89.958 Y30.108 E5.73033
G1 X89.957 Y28.818 E5.77324
G1 X89.996 Y27.561 E5.81506
G1 X90.115 Y26.308 E5.85693
G1 X90.313 Y25.065 E5.89879
G1 X90.414 Y24.617 E5.91407
G0 F810 X90.59 Y23.837
G0 F2400 X90.99 Y23.889
G1 F6000 E5.94067
G1 F900 X91.344 Y22.695 E5.98209
G1 X91.774 Y21.525 E6.02355
G1 X92.278 Y20.386 E6.06498
G1 X92.854 Y19.282 E6.1064
G1 X93.5 Y18.217 E6.14783
G1 X94.213 Y17.195 E6.18927
G1 X94.99 Y16.222 E6.23069
G1 X96.039 Y15.085 E6.28214
G1 X96.156 Y14.968 E6.28764
G1 X97.065 Y14.116 E6.32908
G1 X98.026 Y13.324 E6.3705
G1 X99.036 Y12.595 E6.41193
G1 X100.091 Y11.933 E6.45335
G1 X101.187 Y11.34 E6.4948
G1 X102.318 Y10.818 E6.53623
G1 X103.48 Y10.37 E6.57765
G1 X104.669 Y9.997 E6.6191
G1 X105.879 Y9.702 E6.66052
G1 X107.105 Y9.485 E6.70193
G1 X108.343 Y9.346 E6.74337
G1 X109.874 Y9.286 E6.79433
G1 X110.278 Y9.286 E6.80777
G1 X111.379 Y9.321 E6.8444
G1 X112.282 Y9.286 E6.87446
G1 X113.326 Y9.286 E6.90918
G1 X114.427 Y9.321 E6.94582
G1 X115.33 Y9.286 E6.97588
G1 X116.374 Y9.286 E7.0106
G1 X117.475 Y9.321 E7.04724
G1 X118.378 Y9.286 E7.0773
G1 X119.422 Y9.286 E7.11202
G1 X120.523 Y9.321 E7.14866
G1 X121.426 Y9.286 E7.17871
G1 X122.47 Y9.286 E7.21344
G1 X123.571 Y9.321 E7.25008
G1 X124.474 Y9.286 E7.28013
G1 X125.518 Y9.286 E7.31486
G1 X126.619 Y9.321 E7.35149
G1 X127.522 Y9.286 E7.38155
G1 X128.566 Y9.286 E7.41627
G1 X129.667 Y9.321 E7.45291
G1 X130.57 Y9.286 E7.48297
G1 X131.614 Y9.286 E7.51769
G1 X132.715 Y9.321 E7.55433
G1 X133.618 Y9.286 E7.58439
G1 X134.662 Y9.286 E7.61911
G1 X135.907 Y9.326 E7.66054
G1 X137.147 Y9.446 E7.70198
G1 X138.376 Y9.645 E7.74338
G1 X139.591 Y9.923 E7.78484
G1 X140.785 Y10.278 E7.82627
G1 X141.953 Y10.708 E7.86767
G1 X143.092 Y11.213 E7.90911
G1 X144.196 Y11.79 E7.95054
G1 X144.725 Y12.112 E7.97114
G1 X145.082 Y12.298 E7.98453
G1 X146.147 Y12.945 E8.02597
G1 X147.168 Y13.659 E8.06741
G1 X148.141 Y14.436 E8.10883
G1 X149.266 Y15.476 E8.15978
G1 X149.383 Y15.593 E8.16529
G1 X150.235 Y16.502 E8.20672
G1 X151.027 Y17.463 E8.24814
G1 X151.756 Y18.473 E8.28957
G1 X152.418 Y19.528 E8.331
G1 X153.011 Y20.624 E8.37244
G1 X153.533 Y21.755 E8.41387
G1 X153.981 Y22.917 E8.4553
G1 X154.354 Y24.106 E8.49674
G1 X154.649 Y25.316 E8.53817
G1 X154.866 Y26.542 E8.57958
G1 X155.005 Y27.78 E8.62101
G1 X155.065 Y29.311 E8.67197
G1 X155.065 Y30.093 E8.69798
G1 X155.025 Y31.338 E8.73941
G1 X154.905 Y32.578 E8.78085
G1 X154.706 Y33.807 E8.82226
G1 X154.428 Y35.022 E8.86371
G1 X154.073 Y36.216 E8.90514
G1 X153.643 Y37.384 E8.94654
G1 X153.138 Y38.523 E8.98798
G1 X152.561 Y39.627 E9.02941
G1 X151.914 Y40.692 E9.07086
G1 X151.2 Y41.713 E9.11229
G1 X150.423 Y42.686 E9.15371
G1 X149.383 Y43.811 E9.20467
G1 X149.266 Y43.928 E9.21017
G1 X148.357 Y44.78 E9.25161
G1 X147.396 Y45.572 E9.29303
G1 X146.386 Y46.301 E9.33446
G1 X145.331 Y46.963 E9.37588
G1 X144.235 Y47.556 E9.41733
G1 X143.104 Y48.078 E9.45876
G1 X141.942 Y48.526 E9.50018
G1 X140.753 Y48.899 E9.54163
G1 X139.543 Y49.194 E9.58305
G1 X138.317 Y49.411 E9.62446
G1 X137.079 Y49.55 E9.66589
G1 X135.548 Y49.61 E9.71686
G1 X109.875 Y49.61 E10.57074
G1 X108.63 Y49.57 E10.61217
G1 X107.39 Y49.45 E10.65361
G1 X106.161 Y49.251 E10.69502
G1 X104.946 Y48.973 E10.73647
G1 X103.752 Y48.618 E10.7779
G1 X102.584 Y48.188 E10.8193
G1 X101.445 Y47.683 E10.86074
G1 X100.341 Y47.106 E10.90217
G1 X99.276 Y46.459 E10.94362
G1 X98.255 Y45.745 E10.98506
G1 X97.282 Y44.968 E11.02647
G1 X96.157 Y43.928 E11.07743
G1 X96.04 Y43.811 E11.08293
G1 X95.188 Y42.902 E11.12437
G1 X94.396 Y41.941 E11.16579
G1 X93.667 Y40.931 E11.20722
G1 X93.005 Y39.876 E11.24864
G1 X92.412 Y38.78 E11.29009
G1 X91.89 Y37.649 E11.33152
G1 X91.442 Y36.487 E11.37294
G1 X91.069 Y35.298 E11.41439
G1 X90.774 Y34.088 E11.45581
G1 X90.557 Y32.862 E11.49722
G1 X90.418 Y31.624 E11.53866
G1 X90.358 Y30.108 E11.58912
G1 X90.357 Y28.818 E11.63202
G1 X90.396 Y27.573 E11.67345
G1 X90.515 Y26.333 E11.71489
G1 X90.713 Y25.103 E11.75632
G1 X90.813 Y24.669 E11.77113
G0 F810 X90.99 Y23.889
G0 F2400 X91.39 Y23.941
G1 F6000 E11.79774
G1 F900 X91.744 Y22.76 E11.83875
G1 X92.173 Y21.604 E11.87976
G1 X92.677 Y20.479 E11.92076
G1 X93.253 Y19.389 E11.96177
G1 X93.898 Y18.339 E12.00275
G1 X94.61 Y17.333 E12.04374
G1 X95.386 Y16.375 E12.08475
G1 X96.322 Y15.368 E12.13048
G1 X96.439 Y15.251 E12.13598
G1 X97.338 Y14.408 E12.17697
G1 X98.291 Y13.625 E12.21799
G1 X99.292 Y12.906 E12.25898
G1 X100.337 Y12.253 E12.29997
G1 X101.423 Y11.669 E12.34098
G1 X102.544 Y11.157 E12.38197
G1 X103.696 Y10.718 E12.42297
G1 X104.874 Y10.356 E12.46396
G1 X106.074 Y10.07 E12.50499
G1 X107.289 Y9.863 E12.54599
G1 X108.515 Y9.735 E12.58699
G1 X109.874 Y9.686 E12.63222
G1 X110.278 Y9.686 E12.64565
G1 X111.332 Y9.72 E12.68073
G1 X112.282 Y9.686 E12.71234
G1 X113.326 Y9.686 E12.74707
G1 X114.38 Y9.72 E12.78214
G1 X115.33 Y9.686 E12.81376
G1 X116.374 Y9.686 E12.84848
G1 X117.428 Y9.72 E12.88356
G1 X118.378 Y9.686 E12.91517
G1 X119.422 Y9.686 E12.9499
G1 X120.476 Y9.72 E12.98497
G1 X121.426 Y9.686 E13.01659
G1 X122.47 Y9.686 E13.05131
G1 X123.524 Y9.72 E13.08639
G1 X124.474 Y9.686 E13.11801
G1 X125.518 Y9.686 E13.15273
G1 X126.572 Y9.72 E13.1878
G1 X127.522 Y9.686 E13.21942
G1 X128.566 Y9.686 E13.25414
G1 X129.62 Y9.72 E13.28922
G1 X130.57 Y9.686 E13.32084
G1 X131.614 Y9.686 E13.35556
G1 X132.668 Y9.72 E13.39063
G1 X133.618 Y9.686 E13.42225
G1 X134.662 Y9.686 E13.45698
G1 X135.894 Y9.726 E13.49797
G1 X137.121 Y9.846 E13.53898
G1 X138.337 Y10.045 E13.57996
G1 X139.539 Y10.322 E13.62099
G1 X140.719 Y10.677 E13.66197
G1 X141.874 Y11.108 E13.70297
G1 X142.999 Y11.613 E13.74399
G1 X144.088 Y12.189 E13.78496
G1 X144.544 Y12.47 E13.80278
G1 X144.974 Y12.697 E13.81895
G1 X146.024 Y13.343 E13.85995
G1 X147.03 Y14.056 E13.90097
G1 X147.988 Y14.832 E13.94197
G1 X148.983 Y15.759 E13.9872
G1 X149.1 Y15.876 E13.99271
G1 X149.943 Y16.775 E14.0337
G1 X150.726 Y17.728 E14.07472
G1 X151.445 Y18.729 E14.11571
G1 X152.098 Y19.774 E14.1567
G1 X152.682 Y20.86 E14.19771
G1 X153.194 Y21.981 E14.2387
G1 X153.633 Y23.133 E14.2797
G1 X153.995 Y24.311 E14.32069
G1 X154.281 Y25.511 E14.36172
G1 X154.488 Y26.726 E14.40271
G1 X154.616 Y27.952 E14.44371
G1 X154.665 Y29.311 E14.48894
G1 X154.665 Y30.093 E14.51495
G1 X154.625 Y31.325 E14.55595
G1 X154.505 Y32.552 E14.59695
G1 X154.306 Y33.768 E14.63794
G1 X154.029 Y34.97 E14.67896
G1 X153.674 Y36.15 E14.71995
G1 X153.243 Y37.305 E14.76095
G1 X152.738 Y38.43 E14.80196
G1 X152.162 Y39.519 E14.84294
G1 X151.516 Y40.569 E14.88394
G1 X150.803 Y41.575 E14.92495
G1 X150.027 Y42.533 E14.96596
G1 X149.1 Y43.528 E15.01119
G1 X148.983 Y43.645 E15.01669
G1 X148.084 Y44.488 E15.05768
G1 X147.131 Y45.271 E15.09871
G1 X146.13 Y45.99 E15.1397
G1 X145.085 Y46.643 E15.18068
G1 X143.999 Y47.227 E15.22169
G1 X142.878 Y47.739 E15.26268
G1 X141.726 Y48.178 E15.30369
G1 X140.548 Y48.54 E15.34468
G1 X139.348 Y48.826 E15.38571
G1 X138.133 Y49.033 E15.4267
G1 X136.907 Y49.161 E15.4677
G1 X135.548 Y49.21 E15.51293
G1 X109.875 Y49.21 E16.36682
G1 X108.643 Y49.17 E16.40781
G1 X107.416 Y49.05 E16.44882
G1 X106.2 Y48.851 E16.4898
G1 X104.998 Y48.574 E16.53083
G1 X103.818 Y48.219 E16.57181
G1 X102.663 Y47.788 E16.61282
G1 X101.538 Y47.283 E16.65383
G1 X100.449 Y46.707 E16.6948
G1 X99.399 Y46.061 E16.73581
G1 X98.393 Y45.348 E16.77682
G1 X97.435 Y44.572 E16.81782
G1 X96.44 Y43.645 E16.86306
G1 X96.323 Y43.528 E16.86856
G1 X95.48 Y42.629 E16.90955
G1 X94.697 Y41.676 E16.95057
G1 X93.978 Y40.675 E16.99156
G1 X93.325 Y39.63 E17.03255
G1 X92.741 Y38.544 E17.07356
G1 X92.229 Y37.423 E17.11455
G1 X91.79 Y36.271 E17.15555
G1 X91.428 Y35.093 E17.19654
G1 X91.142 Y33.893 E17.23757
G1 X90.935 Y32.678 E17.27857
G1 X90.807 Y31.452 E17.31956
G1 X90.758 Y30.108 E17.3643
G1 X90.757 Y28.818 E17.4072
G1 X90.796 Y27.586 E17.4482
G1 X90.915 Y26.359 E17.4892
G1 X91.113 Y25.142 E17.53021
G1 X91.211 Y24.72 E17.54462
G0 F810 X91.39 Y23.941
G0 F2400 X91.79 Y23.993
G1 F6000 E17.57123
G1 F900 X92.144 Y22.826 E17.61179
G1 X92.573 Y21.684 E17.65236
G1 X93.077 Y20.574 E17.69291
G1 X93.652 Y19.498 E17.73349
G1 X94.296 Y18.462 E17.77406
G1 X95.007 Y17.471 E17.81463
G1 X95.782 Y16.529 E17.8552
G1 X96.605 Y15.651 E17.89522
G1 X96.722 Y15.534 E17.90073
G1 X97.612 Y14.7 E17.94129
G1 X98.555 Y13.927 E17.98185
G1 X99.547 Y13.216 E18.02244
G1 X100.583 Y12.573 E18.063
G1 X101.659 Y11.999 E18.10356
G1 X102.77 Y11.496 E18.14412
G1 X103.912 Y11.067 E18.1847
G1 X105.079 Y10.715 E18.22524
G1 X106.268 Y10.439 E18.26584
G1 X107.471 Y10.242 E18.30638
G1 X108.685 Y10.124 E18.34695
G1 X109.874 Y10.086 E18.38652
G1 X110.278 Y10.086 E18.39995
G1 X111.267 Y10.118 E18.43286
G1 X112.282 Y10.086 E18.46664
G1 X113.326 Y10.086 E18.50136
G1 X114.315 Y10.118 E18.53427
G1 X115.33 Y10.086 E18.56805
G1 X116.374 Y10.086 E18.60277
G1 X117.363 Y10.118 E18.63569
G1 X118.378 Y10.086 E18.66946
G1 X119.422 Y10.086 E18.70418
G1 X120.411 Y10.118 E18.7371
G1 X121.426 Y10.086 E18.77087
G1 X122.47 Y10.086 E18.8056
G1 X123.459 Y10.118 E18.83851
G1 X124.474 Y10.086 E18.87228
G1 X125.518 Y10.086 E18.90701
G1 X126.507 Y10.118 E18.93992
G1 X127.522 Y10.086 E18.97369
G1 X128.566 Y10.086 E19.00842
G1 X129.555 Y10.118 E19.04133
G1 X130.57 Y10.086 E19.0751
G1 X131.614 Y10.086 E19.10983
G1 X132.603 Y10.118 E19.14274
G1 X133.618 Y10.086 E19.17652
G1 X134.662 Y10.086 E19.21124
G1 X135.881 Y10.126 E19.25181
G1 X137.095 Y10.246 E19.29238
G1 X138.298 Y10.445 E19.33294
G1 X139.486 Y10.722 E19.37351
G1 X140.653 Y11.077 E19.41408
G1 X141.794 Y11.508 E19.45465
G1 X142.904 Y12.012 E19.49519
G1 X143.979 Y12.588 E19.53576
G1 X144.36 Y12.825 E19.55068
G1 X144.865 Y13.096 E19.56974
G1 X145.9 Y13.741 E19.6103
G1 X146.891 Y14.453 E19.65089
G1 X147.833 Y15.228 E19.69146
G1 X148.7 Y16.042 E19.73102
G1 X148.817 Y16.159 E19.73652
G1 X149.651 Y17.049 E19.77709
G1 X150.424 Y17.992 E19.81764
G1 X151.135 Y18.984 E19.85823
G1 X151.778 Y20.02 E19.89879
G1 X152.352 Y21.096 E19.93935
G1 X152.855 Y22.207 E19.97991
G1 X153.284 Y23.349 E20.02049
G1 X153.636 Y24.516 E20.06103
G1 X153.912 Y25.705 E20.10163
G1 X154.109 Y26.908 E20.14217
G1 X154.227 Y28.122 E20.18274
G1 X154.265 Y29.311 E20.22231
G1 X154.265 Y30.093 E20.24832
G1 X154.225 Y31.312 E20.28888
G1 X154.105 Y32.526 E20.32946
G1 X153.906 Y33.729 E20.37001
G1 X153.629 Y34.917 E20.41059
G1 X153.274 Y36.084 E20.45116
G1 X152.843 Y37.225 E20.49172
G1 X152.339 Y38.335 E20.53227
G1 X151.763 Y39.41 E20.57283
G1 X151.118 Y40.445 E20.6134
G1 X150.406 Y41.436 E20.65398
G1 X149.631 Y42.378 E20.69455
G1 X148.817 Y43.245 E20.73411
G1 X148.7 Y43.362 E20.73961
G1 X147.81 Y44.196 E20.78018
G1 X146.867 Y44.969 E20.82073
G1 X145.875 Y45.68 E20.86133
G1 X144.839 Y46.323 E20.90188
G1 X143.763 Y46.897 E20.94244
G1 X142.652 Y47.4 E20.98301
G1 X141.51 Y47.829 E21.02358
G1 X140.343 Y48.181 E21.06412
G1 X139.154 Y48.457 E21.10472
G1 X137.951 Y48.654 E21.14527
G1 X136.737 Y48.772 E21.18583
G1 X135.548 Y48.81 E21.2254
G1 X109.875 Y48.81 E22.07929
G1 X108.656 Y48.77 E22.11985
G1 X107.442 Y48.65 E22.16043
G1 X106.239 Y48.451 E22.20098
G1 X105.051 Y48.174 E22.24156
G1 X103.884 Y47.819 E22.28213
G1 X102.743 Y47.388 E22.32269
G1 X101.633 Y46.884 E22.36324
G1 X100.558 Y46.308 E22.4038
G1 X99.523 Y45.663 E22.44437
G1 X98.532 Y44.951 E22.48495
G1 X97.59 Y44.176 E22.52552
G1 X96.723 Y43.362 E22.56508
G1 X96.606 Y43.245 E22.57058
G1 X95.772 Y42.355 E22.61115
G1 X94.999 Y41.412 E22.6517
G1 X94.288 Y40.42 E22.6923
G1 X93.645 Y39.384 E22.73285
G1 X93.071 Y38.308 E22.77341
G1 X92.568 Y37.197 E22.81398
G1 X92.139 Y36.055 E22.85455
G1 X91.787 Y34.888 E22.89509
G1 X91.511 Y33.699 E22.93569
G1 X91.314 Y32.496 E22.97624
G1 X91.196 Y31.282 E23.0168
G1 X91.158 Y30.107 E23.0559
G1 X91.157 Y28.817 E23.09881
G1 X91.196 Y27.598 E23.13938
G1 X91.315 Y26.385 E23.17991
G1 X91.513 Y25.181 E23.2205
G1 X91.609 Y24.772 E23.23447
G0 F810 X91.79 Y23.993
G0 F2400 X92.19 Y24.046
G1 F6000 E23.26108
