;FLAVOR:Marlin
;TIME:543
;Filament used: 0.181642m
;Layer height: 0.2
;Generated with Cura_SteamEngine 3.6.0
M140 S70
M105
M190 S70
M104 S215
M105
M109 S215
M82 ;absolute extrusion mode
G28 ; home all axes
M117 Purge extruder
G92 E0 ; reset extruder
G1 Z1.0 F3000 ; move z up little to prevent scratching of surface
G1 X0.1 Y20 Z0.3 F5000.0 ; move to start-line position G1 X0.1 Y200.0 Z0.3 F1500.0 E15 ; draw 1st line
G1 X0.4 Y200.0 Z0.3 F5000.0 ; move to side a little
G1 X0.4 Y20 Z0.3 F1500.0 E30 ; draw 2nd line
G92 E0 ; reset extruder
G1 Z1.0 F3000 ; move z up little to prevent scratching of surface
M117 All systems go!
G92 E0
G1 F6000 E-5
;LAYER_COUNT:52
;LAYER:0
M107
M204 S5000
M205 X30 Y30
G0 F7200 X114.205 Y27.061 Z0.2
M204 S500
M205 X20 Y20
;TYPE:SKIRT
G1 F6000 E0
G1 F900 X114.442 Y26.244 E0.02829
G1 X114.727 Y25.406 E0.05773
G1 X115.086 Y24.597 E0.08717
G1 X115.378 Y24.055 E0.10765
G1 X115.902 Y23.152 E0.14237
G1 X116.38 Y22.408 E0.17178
G1 X116.924 Y21.709 E0.20124
G1 X117.468 Y21.122 E0.22786
G1 X118.187 Y20.407 E0.26159
G1 X118.842 Y19.812 E0.29102
G1 X119.548 Y19.278 E0.32046
G1 X120.401 Y18.755 E0.35374
G1 X121.445 Y18.185 E0.3933
G1 X122.24 Y17.796 E0.42274
G1 X123.067 Y17.481 E0.45218
G1 X123.804 Y17.269 E0.47768
G1 X124.647 Y17.062 E0.50655
G1 X125.515 Y16.89 E0.53598
G1 X126.81 Y16.781 E0.57921
G1 X127.656 Y16.766 E0.60735
G1 X128.541 Y16.79 E0.6368
G1 X129.42 Y16.894 E0.66624
G1 X129.982 Y17.003 E0.68528
G1 X131.004 Y17.233 E0.72012
G1 X131.858 Y17.466 E0.74956
G1 X132.687 Y17.776 E0.779
G1 X133.583 Y18.212 E0.81214
G1 X134.626 Y18.787 E0.85175
G1 X135.381 Y19.249 E0.88119
G1 X136.092 Y19.777 E0.91065
G1 X136.844 Y20.459 E0.94441
G1 X137.562 Y21.181 E0.97828
G1 X138.157 Y21.836 E1.00771
G1 X138.691 Y22.542 E1.03716
G1 X139.113 Y23.214 E1.06355
G1 X139.63 Y24.115 E1.0981
G1 X140.035 Y24.902 E1.12754
G1 X140.368 Y25.722 E1.15697
G1 X140.606 Y26.491 E1.18375
G1 X140.867 Y27.48 E1.21777
G1 X141.054 Y28.346 E1.24723
G1 X141.162 Y29.224 E1.27666
G1 X141.191 Y30 E1.30249
G1 X141.189 Y31.027 E1.33664
G1 X141.147 Y31.911 E1.36608
G1 X141.026 Y32.788 E1.39552
G1 X140.736 Y33.952 E1.43542
G1 X140.33 Y35.241 E1.48037
G1 X140.027 Y36.073 E1.50982
G1 X139.649 Y36.873 E1.53925
G1 X139.01 Y37.919 E1.58002
G1 X138.407 Y38.78 E1.61498
G1 X137.867 Y39.481 E1.64441
G1 X136.966 Y40.415 E1.68757
G1 X136.468 Y40.867 E1.70994
G1 X135.787 Y41.431 E1.73935
G1 X135.123 Y41.891 E1.76622
G1 X134.54 Y42.26 E1.78917
G1 X133.772 Y42.699 E1.81859
G1 X133.038 Y43.038 E1.84548
G1 X132.396 Y43.303 E1.86858
G1 X131.563 Y43.603 E1.89803
G1 X130.739 Y43.82 E1.92637
G1 X130.072 Y43.965 E1.94907
G1 X129.199 Y44.114 E1.97853
G1 X128.393 Y44.181 E2.00543
G1 X127.713 Y44.209 E2.02806
G1 X126.828 Y44.205 E2.0575
G1 X125.599 Y44.066 E2.09864
G1 X124.584 Y43.886 E2.13292
G1 X123.72 Y43.693 E2.16237
G1 X122.877 Y43.422 E2.19182
G1 X122.13 Y43.108 E2.21877
G1 X121.197 Y42.67 E2.25305
G1 X120.414 Y42.258 E2.28248
G1 X119.671 Y41.777 E2.31192
G1 X119.051 Y41.297 E2.338
G1 X118.274 Y40.643 E2.37178
G1 X117.623 Y40.043 E2.40122
G1 X117.029 Y39.386 E2.43068
G1 X116.547 Y38.751 E2.4572
G1 X115.957 Y37.905 E2.4915
G1 X115.484 Y37.157 E2.52094
G1 X114.933 Y36.03 E2.56266
G1 X114.672 Y35.396 E2.58547
G1 X114.372 Y34.563 E2.61491
G1 X114.079 Y33.347 E2.65651
G1 X113.901 Y32.325 E2.69102
G1 X113.789 Y31.446 E2.72049
G1 X113.756 Y30.562 E2.74991
G1 X113.781 Y29.943 E2.77052
G1 X113.842 Y29.091 E2.79893
G1 X113.945 Y28.212 E2.82836
G1 X114.029 Y27.841 E2.84102
G0 F810 X114.205 Y27.061
M204 S5000
M205 X30 Y30
G0 F7200 X114.589 Y27.172
M204 S500
M205 X20 Y20
G1 F6000 E2.86762
G1 F900 X114.826 Y26.355 E2.89592
G1 X115.106 Y25.535 E2.92474
G1 X115.46 Y24.743 E2.95359
G1 X115.724 Y24.256 E2.97202
G1 X116.248 Y23.353 E3.00674
G1 X116.717 Y22.624 E3.03557
G1 X117.251 Y21.941 E3.06441
G1 X117.75 Y21.406 E3.08874
G1 X118.469 Y20.691 E3.12246
G1 X119.111 Y20.108 E3.15131
G1 X119.804 Y19.588 E3.18012
G1 X120.592 Y19.106 E3.21085
G1 X121.636 Y18.536 E3.25041
G1 X122.416 Y18.156 E3.27927
G1 X123.227 Y17.849 E3.30811
G1 X123.899 Y17.657 E3.33135
G1 X124.742 Y17.45 E3.36023
G1 X125.593 Y17.282 E3.38908
G1 X126.817 Y17.18 E3.42993
G1 X127.663 Y17.165 E3.45807
G1 X128.53 Y17.19 E3.48692
G1 X129.391 Y17.294 E3.51576
G1 X129.894 Y17.393 E3.53282
G1 X130.916 Y17.623 E3.56766
G1 X131.752 Y17.853 E3.5965
G1 X132.563 Y18.158 E3.62531
G1 X133.39 Y18.562 E3.65593
G1 X134.433 Y19.137 E3.69554
G1 X135.172 Y19.59 E3.72437
G1 X135.867 Y20.109 E3.75322
G1 X136.56 Y20.741 E3.78441
G1 X137.278 Y21.463 E3.81828
G1 X137.861 Y22.105 E3.84712
G1 X138.381 Y22.798 E3.87594
G1 X138.766 Y23.413 E3.90007
G1 X139.283 Y24.314 E3.93462
G1 X139.679 Y25.085 E3.96345
G1 X140.003 Y25.889 E3.99228
G1 X140.219 Y26.593 E4.01678
G1 X140.48 Y27.582 E4.0508
G1 X140.662 Y28.43 E4.07964
G1 X140.766 Y29.291 E4.10849
G1 X140.791 Y29.999 E4.13205
G1 X140.789 Y31.026 E4.16621
G1 X140.747 Y31.892 E4.19505
G1 X140.626 Y32.751 E4.2239
G1 X140.355 Y33.832 E4.26097
G1 X139.949 Y35.121 E4.30591
G1 X139.65 Y35.935 E4.33476
G1 X139.278 Y36.718 E4.36359
G1 X138.683 Y37.689 E4.40147
G1 X138.08 Y38.55 E4.43643
G1 X137.55 Y39.237 E4.46529
G1 X136.698 Y40.118 E4.50605
G1 X136.2 Y40.57 E4.52842
G1 X135.531 Y41.123 E4.55729
G1 X134.909 Y41.553 E4.58244
G1 X134.326 Y41.922 E4.60539
G1 X133.573 Y42.351 E4.63421
G1 X132.886 Y42.668 E4.65937
G1 X132.244 Y42.933 E4.68248
G1 X131.428 Y43.226 E4.71131
G1 X130.654 Y43.429 E4.73793
G1 X129.987 Y43.574 E4.76063
G1 X129.132 Y43.719 E4.78947
G1 X128.377 Y43.781 E4.81467
G1 X127.697 Y43.809 E4.8373
G1 X126.83 Y43.805 E4.86614
G1 X125.669 Y43.673 E4.905
G1 X124.654 Y43.493 E4.93929
G1 X123.808 Y43.302 E4.96814
G1 X122.983 Y43.034 E4.99699
G1 X122.3 Y42.746 E5.02164
G1 X121.367 Y42.308 E5.05592
G1 X120.6 Y41.904 E5.08476
G1 X119.874 Y41.431 E5.11358
G1 X119.309 Y40.991 E5.13739
G1 X118.532 Y40.337 E5.17117
G1 X117.895 Y39.748 E5.20003
G1 X117.315 Y39.104 E5.22885
G1 X116.875 Y38.522 E5.25312
G1 X116.285 Y37.676 E5.28743
G1 X115.822 Y36.943 E5.31626
G1 X115.303 Y35.877 E5.3557
G1 X115.042 Y35.243 E5.3785
G1 X114.749 Y34.427 E5.40734
G1 X114.473 Y33.278 E5.44664
G1 X114.295 Y32.256 E5.48114
G1 X114.186 Y31.396 E5.50998
G1 X114.157 Y30.529 E5.53883
G1 X114.18 Y29.972 E5.55737
G1 X114.241 Y29.12 E5.58578
G1 X114.343 Y28.259 E5.61462
G1 X114.413 Y27.952 E5.62509
G0 F810 X114.589 Y27.172
M204 S5000
M205 X30 Y30
G0 F7200 X114.973 Y27.284
M204 S500
M205 X20 Y20
G1 F6000 E5.6517
G1 F900 X115.21 Y26.467 E5.67999
G1 X115.485 Y25.664 E5.70822
G1 X115.834 Y24.891 E5.73643
G1 X116.07 Y24.457 E5.75286
G1 X116.594 Y23.554 E5.78759
G1 X117.054 Y22.841 E5.81581
G1 X117.578 Y22.175 E5.84399
G1 X118.032 Y21.689 E5.86611
G1 X118.751 Y20.974 E5.89984
G1 X119.38 Y20.405 E5.92805
G1 X120.06 Y19.898 E5.95626
G1 X120.784 Y19.457 E5.98446
G1 X121.828 Y18.887 E6.02402
G1 X122.591 Y18.516 E6.05224
G1 X123.385 Y18.218 E6.08045
G1 X123.995 Y18.046 E6.10153
G1 X124.838 Y17.839 E6.1304
G1 X125.67 Y17.675 E6.1586
G1 X126.824 Y17.58 E6.19711
G1 X127.67 Y17.565 E6.22526
G1 X128.518 Y17.59 E6.25347
G1 X129.36 Y17.695 E6.28169
G1 X129.806 Y17.784 E6.29682
G1 X130.828 Y18.014 E6.33166
G1 X131.646 Y18.239 E6.35988
G1 X132.439 Y18.54 E6.38809
G1 X133.197 Y18.912 E6.41618
G1 X134.24 Y19.487 E6.45579
G1 X134.963 Y19.931 E6.48401
G1 X135.641 Y20.442 E6.51225
G1 X136.277 Y21.023 E6.5409
G1 X136.995 Y21.745 E6.57476
G1 X137.564 Y22.374 E6.60297
G1 X138.071 Y23.054 E6.63119
G1 X138.419 Y23.612 E6.65306
G1 X138.936 Y24.513 E6.68761
G1 X139.323 Y25.268 E6.71583
G1 X139.637 Y26.056 E6.74404
G1 X139.832 Y26.695 E6.76626
G1 X140.093 Y27.684 E6.80028
G1 X140.271 Y28.514 E6.82851
G1 X140.369 Y29.357 E6.85674
G1 X140.391 Y29.999 E6.87811
G1 X140.389 Y31.026 E6.91227
G1 X140.347 Y31.873 E6.94047
G1 X140.226 Y32.712 E6.96867
G1 X139.973 Y33.712 E7.00297
G1 X139.567 Y35.001 E7.04792
G1 X139.275 Y35.797 E7.07612
G1 X138.908 Y36.562 E7.10434
G1 X138.355 Y37.46 E7.13942
G1 X137.752 Y38.321 E7.17438
G1 X137.233 Y38.992 E7.2026
G1 X136.429 Y39.822 E7.24103
G1 X135.931 Y40.274 E7.2634
G1 X135.276 Y40.814 E7.29163
G1 X134.695 Y41.215 E7.31511
G1 X134.112 Y41.584 E7.33806
G1 X133.375 Y42.003 E7.36626
G1 X132.733 Y42.298 E7.38976
G1 X132.091 Y42.563 E7.41286
G1 X131.292 Y42.849 E7.44108
G1 X130.569 Y43.039 E7.46595
G1 X129.902 Y43.184 E7.48865
G1 X129.065 Y43.325 E7.51688
G1 X128.36 Y43.381 E7.5404
G1 X127.68 Y43.409 E7.56304
G1 X126.832 Y43.404 E7.59124
G1 X125.738 Y43.279 E7.62787
G1 X124.723 Y43.099 E7.66215
G1 X123.896 Y42.911 E7.69036
G1 X123.09 Y42.647 E7.71857
G1 X122.47 Y42.384 E7.74097
G1 X121.537 Y41.946 E7.77525
G1 X120.787 Y41.55 E7.80346
G1 X120.078 Y41.085 E7.83166
G1 X119.566 Y40.685 E7.85327
G1 X118.789 Y40.031 E7.88705
G1 X118.167 Y39.454 E7.91527
G1 X117.601 Y38.822 E7.94349
G1 X117.203 Y38.293 E7.9655
G1 X116.613 Y37.447 E7.99981
G1 X116.161 Y36.729 E8.02803
G1 X115.673 Y35.725 E8.06516
G1 X115.412 Y35.091 E8.08796
G1 X115.126 Y34.292 E8.11619
G1 X114.867 Y33.209 E8.15322
G1 X114.689 Y32.187 E8.18773
G1 X114.583 Y31.346 E8.21592
G1 X114.557 Y30.498 E8.24414
G1 X114.579 Y30 E8.26072
G1 X114.64 Y29.148 E8.28913
G1 X114.74 Y28.306 E8.31733
G1 X114.796 Y28.064 E8.32559
G0 F810 X114.973 Y27.284
M204 S5000
M205 X30 Y30
G0 F7200 X115.357 Y27.395
M204 S500
M205 X20 Y20
G1 F6000 E8.3522
G1 F900 X115.594 Y26.578 E8.38049
G1 X115.864 Y25.794 E8.40807
G1 X116.207 Y25.039 E8.43565
G1 X116.416 Y24.658 E8.45011
G1 X116.94 Y23.755 E8.48483
G1 X117.39 Y23.058 E8.51243
G1 X117.905 Y22.409 E8.53998
G1 X118.314 Y21.973 E8.55987
G1 X119.033 Y21.258 E8.59359
G1 X119.648 Y20.702 E8.62117
G1 X120.314 Y20.208 E8.64875
G1 X120.976 Y19.808 E8.67447
G1 X122.02 Y19.238 E8.71403
G1 X122.766 Y18.876 E8.74161
G1 X123.543 Y18.588 E8.76917
G1 X124.09 Y18.434 E8.78807
G1 X124.933 Y18.227 E8.81695
G1 X125.747 Y18.068 E8.84453
G1 X126.832 Y17.98 E8.88074
G1 X127.678 Y17.965 E8.90888
G1 X128.506 Y17.991 E8.93643
G1 X129.718 Y18.174 E8.9772
G1 X130.74 Y18.404 E9.01204
G1 X131.539 Y18.625 E9.03961
G1 X132.314 Y18.921 E9.06721
G1 X133.004 Y19.263 E9.09282
G1 X134.047 Y19.838 E9.13243
G1 X134.753 Y20.273 E9.16001
G1 X135.414 Y20.773 E9.18758
G1 X135.993 Y21.305 E9.21373
G1 X136.711 Y22.027 E9.2476
G1 X137.267 Y22.642 E9.27518
G1 X137.761 Y23.308 E9.30275
G1 X138.072 Y23.811 E9.32242
G1 X138.589 Y24.712 E9.35697
G1 X138.967 Y25.45 E9.38455
G1 X139.271 Y26.221 E9.41212
G1 X139.445 Y26.798 E9.43216
G1 X139.706 Y27.787 E9.46618
G1 X139.879 Y28.598 E9.49376
G1 X139.973 Y29.421 E9.52132
G1 X139.991 Y29.998 E9.54052
G1 X139.989 Y31.025 E9.57467
G1 X139.947 Y31.853 E9.60225
G1 X139.826 Y32.673 E9.62982
G1 X139.592 Y33.592 E9.66136
G1 X139.186 Y34.881 E9.70631
G1 X138.899 Y35.659 E9.73389
G1 X138.538 Y36.405 E9.76145
G1 X138.027 Y37.23 E9.79373
G1 X137.424 Y38.091 E9.82869
G1 X136.916 Y38.747 E9.85629
G1 X136.16 Y39.526 E9.89239
G1 X135.662 Y39.978 E9.91476
G1 X135.022 Y40.505 E9.94234
G1 X134.481 Y40.877 E9.96417
G1 X133.898 Y41.246 E9.98712
G1 X133.177 Y41.655 E10.01469
G1 X132.58 Y41.928 E10.03652
G1 X131.938 Y42.193 E10.05963
G1 X131.157 Y42.472 E10.08721
G1 X130.484 Y42.648 E10.11035
G1 X129.817 Y42.793 E10.13305
G1 X128.999 Y42.93 E10.16063
G1 X128.344 Y42.982 E10.18249
G1 X127.664 Y43.01 E10.20512
G1 X126.835 Y43.004 E10.2327
G1 X125.808 Y42.885 E10.26708
G1 X124.793 Y42.705 E10.30137
G1 X123.985 Y42.521 E10.32893
G1 X123.198 Y42.26 E10.35651
G1 X122.64 Y42.022 E10.37669
G1 X121.707 Y41.584 E10.41097
G1 X120.975 Y41.196 E10.43852
G1 X120.283 Y40.739 E10.46611
G1 X119.824 Y40.379 E10.48551
G1 X119.047 Y39.725 E10.51929
G1 X118.439 Y39.161 E10.54687
G1 X117.888 Y38.541 E10.57446
G1 X117.531 Y38.064 E10.59427
G1 X116.941 Y37.218 E10.62858
G1 X116.5 Y36.516 E10.65615
G1 X116.043 Y35.573 E10.69101
G1 X115.782 Y34.939 E10.71381
G1 X115.503 Y34.158 E10.74139
G1 X115.262 Y33.141 E10.77616
G1 X115.084 Y32.119 E10.81066
G1 X114.981 Y31.296 E10.83825
G1 X114.958 Y30.467 E10.86583
G1 X114.978 Y30.029 E10.88041
G1 X115.039 Y29.177 E10.90882
G1 X115.138 Y28.354 E10.93639
G1 X115.179 Y28.175 E10.9425
G0 F810 X115.357 Y27.395
M204 S5000
M205 X30 Y30
G0 F7200 X115.742 Y27.506
M204 S500
M205 X20 Y20
G1 F6000 E10.96911
G1 F900 X115.979 Y26.689 E10.9974
G1 X116.242 Y25.924 E11.02431
G1 X116.762 Y24.858 E11.06376
G1 X117.286 Y23.955 E11.09848
G1 X117.726 Y23.276 E11.12539
G1 X118.231 Y22.643 E11.15232
G1 X118.596 Y22.257 E11.16999
G1 X119.315 Y21.542 E11.20372
G1 X119.917 Y21 E11.23066
G1 X120.569 Y20.52 E11.25759
G1 X121.168 Y20.159 E11.28085
G1 X122.212 Y19.589 E11.32041
G1 X122.94 Y19.236 E11.34732
G1 X123.701 Y18.958 E11.37427
G1 X124.186 Y18.823 E11.39101
G1 X125.029 Y18.616 E11.41989
G1 X125.823 Y18.462 E11.44679
G1 X126.839 Y18.38 E11.48069
G1 X127.685 Y18.365 E11.50883
G1 X128.494 Y18.391 E11.53575
G1 X129.63 Y18.564 E11.57397
G1 X130.652 Y18.794 E11.60881
G1 X131.433 Y19.011 E11.63577
G1 X132.188 Y19.303 E11.6627
G1 X132.811 Y19.613 E11.68584
G1 X133.854 Y20.188 E11.72545
G1 X134.543 Y20.613 E11.75238
G1 X135.186 Y21.105 E11.77931
G1 X135.709 Y21.587 E11.80296
G1 X136.427 Y22.309 E11.83683
G1 X136.969 Y22.91 E11.86375
G1 X137.449 Y23.563 E11.8907
G1 X137.725 Y24.01 E11.90818
G1 X138.242 Y24.911 E11.94273
G1 X138.61 Y25.632 E11.96965
G1 X138.905 Y26.386 E11.99658
G1 X139.059 Y26.9 E12.01443
G1 X139.32 Y27.889 E12.04845
G1 X139.487 Y28.681 E12.07537
G1 X139.576 Y29.486 E12.10231
G1 X139.591 Y29.997 E12.11931
G1 X139.589 Y31.024 E12.15347
G1 X139.547 Y31.833 E12.18041
G1 X139.426 Y32.633 E12.20732
G1 X139.21 Y33.471 E12.2361
G1 X138.804 Y34.76 E12.28105
G1 X138.523 Y35.52 E12.308
G1 X138.169 Y36.248 E12.33493
G1 X137.7 Y37.001 E12.36443
G1 X137.097 Y37.862 E12.39939
G1 X136.6 Y38.501 E12.42632
G1 X135.891 Y39.23 E12.46014
G1 X135.393 Y39.682 E12.48251
G1 X134.767 Y40.196 E12.50945
G1 X134.267 Y40.539 E12.52962
G1 X133.684 Y40.908 E12.55257
G1 X132.98 Y41.306 E12.57946
G1 X132.428 Y41.559 E12.59966
G1 X131.786 Y41.824 E12.62276
G1 X131.023 Y42.095 E12.64969
G1 X130.399 Y42.257 E12.67113
G1 X129.732 Y42.402 E12.69384
G1 X128.933 Y42.535 E12.72078
G1 X128.327 Y42.582 E12.74099
G1 X127.647 Y42.61 E12.76363
G1 X126.838 Y42.603 E12.79054
G1 X125.878 Y42.491 E12.82268
G1 X124.863 Y42.311 E12.85697
G1 X124.074 Y42.13 E12.88389
G1 X123.306 Y41.873 E12.91083
G1 X122.81 Y41.66 E12.92878
G1 X121.877 Y41.222 E12.96307
G1 X121.162 Y40.842 E12.99
G1 X120.488 Y40.393 E13.01693
G1 X120.082 Y40.073 E13.03413
G1 X119.305 Y39.419 E13.06791
G1 X118.712 Y38.867 E13.09485
G1 X118.176 Y38.26 E13.12178
G1 X117.859 Y37.836 E13.13939
G1 X117.269 Y36.99 E13.1737
G1 X116.839 Y36.303 E13.20065
G1 X116.412 Y35.421 E13.23325
G1 X116.151 Y34.787 E13.25605
G1 X115.881 Y34.024 E13.28297
G1 X115.656 Y33.072 E13.31551
G1 X115.478 Y32.05 E13.35001
G1 X115.378 Y31.246 E13.37696
G1 X115.377 Y30.057 E13.4165
G1 X115.438 Y29.205 E13.44491
G1 X115.536 Y28.402 E13.47182
G1 X115.563 Y28.285 E13.47581
G0 F810 X115.742 Y27.506
M204 S5000
M205 X30 Y30
G0 F7200 X116.126 Y27.618
M204 S500
M205 X20 Y20
G1 F6000 E13.50242
G1 F900 X116.363 Y26.801 E13.53071
G1 X116.621 Y26.055 E13.55697
G1 X117.108 Y25.059 E13.59384
G1 X117.632 Y24.156 E13.62857
G1 X118.062 Y23.494 E13.65482
G1 X118.557 Y22.879 E13.68108
G1 X118.878 Y22.54 E13.69661
G1 X119.597 Y21.825 E13.73033
G1 X120.184 Y21.297 E13.75659
G1 X120.822 Y20.832 E13.78285
G1 X121.359 Y20.51 E13.80368
G1 X122.403 Y19.94 E13.84324
G1 X123.115 Y19.597 E13.86953
G1 X123.857 Y19.328 E13.89578
G1 X124.281 Y19.211 E13.91041
G1 X125.124 Y19.004 E13.93928
G1 X125.899 Y18.855 E13.96553
G1 X126.846 Y18.78 E13.99712
G1 X127.692 Y18.765 E14.02526
G1 X128.481 Y18.791 E14.05152
G1 X129.543 Y18.954 E14.08726
G1 X130.565 Y19.184 E14.1221
G1 X131.325 Y19.396 E14.14834
G1 X132.061 Y19.684 E14.17463
G1 X132.618 Y19.963 E14.19535
G1 X133.661 Y20.538 E14.23496
G1 X134.332 Y20.954 E14.26122
G1 X134.958 Y21.436 E14.2875
G1 X135.426 Y21.869 E14.3087
G1 X136.144 Y22.591 E14.34257
G1 X136.672 Y23.178 E14.36883
G1 X137.137 Y23.816 E14.39509
G1 X137.378 Y24.209 E14.41042
G1 X137.895 Y25.11 E14.44497
G1 X138.253 Y25.814 E14.47124
G1 X138.538 Y26.55 E14.49749
G1 X138.672 Y27.002 E14.51317
