;FLAVOR:Marlin
;TIME:1121
;Filament used: 0.637653m
;Layer height: 0.2
;Generated with Cura_SteamEngine 3.6.0
M140 S70
M105
M190 S70
M104 S215
M105
M109 S215
M82 ;absolute extrusion mode
G28 ; home all axes
M117 Purge extruder
G92 E0 ; reset extruder
G1 Z1.0 F3000 ; move z up little to prevent scratching of surface
G1 X0.1 Y20 Z0.3 F5000.0 ; move to start-line position G1 X0.1 Y200.0 Z0.3 F1500.0 E15 ; draw 1st line
G1 X0.4 Y200.0 Z0.3 F5000.0 ; move to side a little
G1 X0.4 Y20 Z0.3 F1500.0 E30 ; draw 2nd line
G92 E0 ; reset extruder
G1 Z1.0 F3000 ; move z up little to prevent scratching of surface
M117 All systems go!
G92 E0
G1 F6000 E-5
;LAYER_COUNT:88
;LAYER:0
M107
M204 S5000
M205 X30 Y30
G0 F7200 X106.306 Y24.616 Z0.2
M204 S500
M205 X20 Y20
;TYPE:SKIRT
G1 F6000 E0
G1 F900 X106.623 Y23.339 E0.04376
G1 X107.005 Y22.151 E0.08527
G1 X107.314 Y21.321 E0.11472
G1 X107.697 Y20.523 E0.14416
G1 X108.38 Y19.427 E0.18712
G1 X109.111 Y18.411 E0.22875
G1 X109.66 Y17.717 E0.25818
G1 X110.269 Y17.075 E0.28761
G1 X111.278 Y16.227 E0.33145
G1 X112.289 Y15.487 E0.37312
G1 X113.026 Y14.997 E0.40256
G1 X113.804 Y14.575 E0.43199
G1 X115.006 Y14.089 E0.47512
G1 X116.191 Y13.698 E0.51662
G1 X117.044 Y13.458 E0.54609
G1 X117.914 Y13.297 E0.57552
G1 X119.231 Y13.204 E0.61943
G1 X120.484 Y13.2 E0.66111
G1 X121.368 Y13.237 E0.69054
G1 X122.246 Y13.354 E0.72
G1 X123.508 Y13.668 E0.76325
G1 X124.696 Y14.049 E0.80474
G1 X125.526 Y14.357 E0.83419
G1 X126.324 Y14.739 E0.86362
G1 X127.427 Y15.426 E0.90684
G1 X128.443 Y16.157 E0.94847
G1 X129.137 Y16.706 E0.9779
G1 X129.779 Y17.315 E1.00733
G1 X130.627 Y18.324 E1.05117
G1 X131.367 Y19.335 E1.09284
G1 X131.857 Y20.072 E1.12227
G1 X132.279 Y20.85 E1.15171
G1 X132.765 Y22.052 E1.19484
G1 X133.156 Y23.237 E1.23634
G1 X133.396 Y24.09 E1.26581
G1 X133.557 Y24.96 E1.29524
G1 X133.639 Y25.841 E1.32467
G1 X133.65 Y26.308 E1.3402
G1 X133.65 Y27.576 E1.38238
G1 X133.61 Y28.46 E1.41181
G1 X133.49 Y29.337 E1.44125
G1 X133.18 Y30.575 E1.4837
G1 X132.803 Y31.748 E1.52468
G1 X132.494 Y32.577 E1.5541
G1 X132.112 Y33.376 E1.58356
G1 X131.428 Y34.473 E1.62656
G1 X130.697 Y35.489 E1.66819
G1 X130.148 Y36.183 E1.69762
G1 X129.539 Y36.825 E1.72705
G1 X128.53 Y37.673 E1.77089
G1 X127.519 Y38.413 E1.81256
G1 X126.782 Y38.903 E1.842
G1 X126.004 Y39.325 E1.87143
G1 X124.802 Y39.811 E1.91456
G1 X123.617 Y40.202 E1.95606
G1 X122.764 Y40.442 E1.98553
G1 X121.894 Y40.603 E2.01496
G1 X120.585 Y40.696 E2.05861
G1 X119.332 Y40.701 E2.10028
G1 X118.448 Y40.664 E2.12971
G1 X117.57 Y40.548 E2.15917
G1 X116.293 Y40.231 E2.20293
G1 X115.105 Y39.849 E2.24443
G1 X114.275 Y39.54 E2.27389
G1 X113.477 Y39.157 E2.30333
G1 X112.381 Y38.474 E2.34628
G1 X111.365 Y37.743 E2.38791
G1 X110.671 Y37.194 E2.41734
G1 X110.029 Y36.585 E2.44678
G1 X109.181 Y35.576 E2.49061
G1 X108.441 Y34.565 E2.53229
G1 X107.951 Y33.828 E2.56172
G1 X107.529 Y33.05 E2.59116
G1 X107.043 Y31.848 E2.63428
G1 X106.652 Y30.663 E2.67579
G1 X106.412 Y29.81 E2.70526
G1 X106.251 Y28.94 E2.73469
G1 X106.158 Y27.631 E2.77833
G1 X106.153 Y26.378 E2.82001
G1 X106.19 Y25.494 E2.84944
G1 X106.202 Y25.409 E2.85229
G0 F810 X106.306 Y24.616
M204 S5000
M205 X30 Y30
G0 F7200 X106.706 Y24.651
M204 S500
M205 X20 Y20
G1 F6000 E2.8789
G1 F900 X107.004 Y23.462 E2.91967
G1 X107.386 Y22.274 E2.96117
G1 X107.689 Y21.461 E2.99003
G1 X108.066 Y20.68 E3.01888
G1 X108.705 Y19.661 E3.05888
G1 X109.436 Y18.645 E3.10051
G1 X109.974 Y17.965 E3.12935
G1 X110.573 Y17.338 E3.15819
G1 X111.514 Y16.55 E3.19901
G1 X112.525 Y15.81 E3.24068
G1 X113.247 Y15.331 E3.2695
G1 X114.011 Y14.92 E3.29836
G1 X115.132 Y14.468 E3.33856
G1 X116.317 Y14.077 E3.38006
G1 X117.152 Y13.844 E3.40889
G1 X118.004 Y13.689 E3.4377
G1 X119.232 Y13.604 E3.47864
G1 X120.485 Y13.6 E3.52031
G1 X121.351 Y13.637 E3.54914
G1 X122.21 Y13.754 E3.57798
G1 X123.386 Y14.049 E3.6183
G1 X124.574 Y14.43 E3.6598
G1 X125.386 Y14.733 E3.68863
G1 X126.167 Y15.109 E3.71745
G1 X127.193 Y15.751 E3.75771
G1 X128.209 Y16.482 E3.79934
G1 X128.889 Y17.02 E3.82818
G1 X129.516 Y17.619 E3.85702
G1 X130.304 Y18.56 E3.89784
G1 X131.044 Y19.571 E3.93951
G1 X131.523 Y20.293 E3.96833
G1 X131.934 Y21.057 E3.99719
G1 X132.386 Y22.178 E4.03739
G1 X132.777 Y23.363 E4.07889
G1 X133.01 Y24.198 E4.10772
G1 X133.165 Y25.05 E4.13653
G1 X133.25 Y26.308 E4.17846
G1 X133.25 Y27.576 E4.22064
G1 X133.21 Y28.442 E4.24947
G1 X133.09 Y29.301 E4.27832
G1 X132.799 Y30.452 E4.31781
G1 X132.422 Y31.625 E4.35879
G1 X132.119 Y32.437 E4.38761
G1 X131.743 Y33.218 E4.41644
G1 X131.103 Y34.239 E4.45652
G1 X130.372 Y35.255 E4.49815
G1 X129.834 Y35.935 E4.52699
G1 X129.235 Y36.562 E4.55583
G1 X128.294 Y37.35 E4.59665
G1 X127.283 Y38.09 E4.63832
G1 X126.561 Y38.569 E4.66714
G1 X125.797 Y38.98 E4.696
G1 X124.676 Y39.432 E4.7362
G1 X123.491 Y39.823 E4.7777
G1 X122.656 Y40.056 E4.80653
G1 X121.804 Y40.211 E4.83534
G1 X120.584 Y40.296 E4.87601
G1 X119.331 Y40.301 E4.91769
G1 X118.464 Y40.264 E4.94655
G1 X117.605 Y40.148 E4.97538
G1 X116.416 Y39.85 E5.01615
G1 X115.228 Y39.468 E5.05766
G1 X114.415 Y39.165 E5.08651
G1 X113.634 Y38.788 E5.11536
G1 X112.615 Y38.149 E5.15536
G1 X111.599 Y37.418 E5.19699
G1 X110.919 Y36.88 E5.22583
G1 X110.292 Y36.281 E5.25467
G1 X109.504 Y35.34 E5.2955
G1 X108.764 Y34.329 E5.33717
G1 X108.285 Y33.607 E5.36598
G1 X107.874 Y32.843 E5.39484
G1 X107.422 Y31.722 E5.43504
G1 X107.031 Y30.537 E5.47654
G1 X106.798 Y29.702 E5.50538
G1 X106.643 Y28.85 E5.53418
G1 X106.558 Y27.63 E5.57486
G1 X106.553 Y26.377 E5.61653
G1 X106.59 Y25.51 E5.64539
G1 X106.599 Y25.444 E5.64761
G0 F810 X106.706 Y24.651
M204 S5000
M205 X30 Y30
G0 F7200 X107.106 Y24.687
M204 S500
M205 X20 Y20
G1 F6000 E5.67422
G1 F900 X107.385 Y23.584 E5.71206
G1 X107.767 Y22.396 E5.75356
G1 X108.064 Y21.602 E5.78176
G1 X108.435 Y20.839 E5.80998
G1 X109.029 Y19.895 E5.84707
G1 X109.76 Y18.879 E5.8887
G1 X110.288 Y18.214 E5.91695
G1 X110.875 Y17.602 E5.94515
G1 X111.75 Y16.873 E5.98303
G1 X112.761 Y16.133 E6.0247
G1 X113.469 Y15.664 E6.05295
G1 X114.217 Y15.265 E6.08114
G1 X115.257 Y14.848 E6.11841
G1 X116.442 Y14.457 E6.15992
G1 X117.259 Y14.23 E6.18812
G1 X118.094 Y14.08 E6.21633
G1 X119.233 Y14.004 E6.2543
G1 X120.486 Y14 E6.29598
G1 X121.334 Y14.037 E6.32421
G1 X122.174 Y14.154 E6.35242
G1 X123.263 Y14.43 E6.38978
G1 X124.451 Y14.811 E6.43128
G1 X125.246 Y15.108 E6.4595
G1 X126.009 Y15.478 E6.48771
G1 X126.959 Y16.075 E6.52503
G1 X127.975 Y16.806 E6.56666
G1 X128.64 Y17.334 E6.5949
G1 X129.252 Y17.921 E6.6231
G1 X129.981 Y18.796 E6.66098
G1 X130.721 Y19.807 E6.70265
G1 X131.19 Y20.515 E6.7309
G1 X131.589 Y21.263 E6.7591
G1 X132.006 Y22.303 E6.79636
G1 X132.397 Y23.488 E6.83787
G1 X132.624 Y24.305 E6.86607
G1 X132.774 Y25.14 E6.89429
G1 X132.85 Y26.308 E6.93322
G1 X132.85 Y27.576 E6.97539
G1 X132.81 Y28.423 E7.00359
G1 X132.69 Y29.263 E7.03182
G1 X132.418 Y30.33 E7.06844
G1 X132.041 Y31.503 E7.10942
G1 X131.744 Y32.297 E7.13762
G1 X131.373 Y33.06 E7.16583
G1 X130.779 Y34.005 E7.20296
G1 X130.048 Y35.021 E7.24459
G1 X129.52 Y35.686 E7.27283
G1 X128.933 Y36.298 E7.30103
G1 X128.058 Y37.027 E7.33891
G1 X127.047 Y37.767 E7.38059
G1 X126.339 Y38.236 E7.40883
G1 X125.591 Y38.635 E7.43703
G1 X124.551 Y39.052 E7.4743
G1 X123.366 Y39.443 E7.5158
G1 X122.549 Y39.67 E7.544
G1 X121.714 Y39.82 E7.57222
G1 X120.582 Y39.896 E7.60995
G1 X119.329 Y39.901 E7.65163
G1 X118.481 Y39.864 E7.67986
G1 X117.641 Y39.748 E7.70806
G1 X116.538 Y39.469 E7.74591
G1 X115.35 Y39.087 E7.78741
G1 X114.556 Y38.79 E7.81561
G1 X113.793 Y38.419 E7.84383
G1 X112.849 Y37.825 E7.88092
G1 X111.833 Y37.094 E7.92255
G1 X111.168 Y36.566 E7.95079
G1 X110.556 Y35.979 E7.979
G1 X109.827 Y35.104 E8.01688
G1 X109.087 Y34.093 E8.05855
G1 X108.618 Y33.385 E8.08679
G1 X108.219 Y32.637 E8.11499
G1 X107.802 Y31.597 E8.15226
G1 X107.411 Y30.412 E8.19376
G1 X107.184 Y29.595 E8.22197
G1 X107.034 Y28.76 E8.25018
G1 X106.958 Y27.628 E8.28792
G1 X106.953 Y26.375 E8.32959
G1 X106.99 Y25.527 E8.35782
G1 X106.997 Y25.48 E8.3594
G0 F810 X107.106 Y24.687
M204 S5000
M205 X30 Y30
G0 F7200 X107.506 Y24.724
M204 S500
M205 X20 Y20
G1 F6000 E8.38601
G1 F900 X107.766 Y23.706 E8.42096
G1 X108.148 Y22.518 E8.46246
G1 X108.439 Y21.742 E8.49003
G1 X108.804 Y20.998 E8.51759
G1 X109.354 Y20.128 E8.55183
G1 X110.085 Y19.112 E8.59346
G1 X110.601 Y18.463 E8.62103
G1 X111.178 Y17.867 E8.64862
G1 X111.987 Y17.195 E8.6836
G1 X112.998 Y16.455 E8.72527
G1 X113.689 Y15.998 E8.75283
G1 X114.422 Y15.61 E8.78041
G1 X115.382 Y15.228 E8.81478
G1 X116.567 Y14.837 E8.85628
G1 X117.366 Y14.616 E8.88385
G1 X118.183 Y14.472 E8.91145
G1 X119.235 Y14.404 E8.94651
G1 X120.488 Y14.4 E8.98818
G1 X121.316 Y14.437 E9.01575
G1 X122.137 Y14.554 E9.04333
G1 X123.141 Y14.811 E9.0778
G1 X124.329 Y15.192 E9.1193
G1 X125.106 Y15.483 E9.14689
G1 X125.851 Y15.847 E9.17447
G1 X126.726 Y16.4 E9.2089
G1 X127.742 Y17.131 E9.25053
G1 X128.391 Y17.647 E9.27811
G1 X128.987 Y18.224 E9.3057
G1 X129.659 Y19.033 E9.34068
G1 X130.399 Y20.044 E9.38235
G1 X130.856 Y20.735 E9.4099
G1 X131.244 Y21.468 E9.43749
G1 X131.626 Y22.428 E9.47185
G1 X132.017 Y23.613 E9.51336
G1 X132.238 Y24.412 E9.54093
G1 X132.382 Y25.229 E9.56852
G1 X132.45 Y26.308 E9.60448
G1 X132.45 Y27.576 E9.64665
G1 X132.41 Y28.404 E9.67422
G1 X132.29 Y29.225 E9.70182
G1 X132.038 Y30.207 E9.73554
G1 X131.661 Y31.38 E9.77652
G1 X131.369 Y32.157 E9.80413
G1 X131.004 Y32.901 E9.83169
G1 X130.454 Y33.772 E9.86595
G1 X129.723 Y34.788 E9.90758
G1 X129.207 Y35.437 E9.93516
G1 X128.63 Y36.033 E9.96275
G1 X127.821 Y36.705 E9.99773
G1 X126.81 Y37.445 E10.0394
G1 X126.119 Y37.902 E10.06696
G1 X125.386 Y38.29 E10.09454
G1 X124.426 Y38.672 E10.12891
G1 X123.241 Y39.063 E10.17041
G1 X122.442 Y39.284 E10.19798
G1 X121.625 Y39.428 E10.22557
G1 X120.58 Y39.496 E10.2604
G1 X119.327 Y39.501 E10.30208
G1 X118.499 Y39.464 E10.32965
G1 X117.678 Y39.348 E10.35722
G1 X116.66 Y39.088 E10.39217
G1 X115.472 Y38.706 E10.43368
G1 X114.696 Y38.415 E10.46124
G1 X113.952 Y38.05 E10.4888
G1 X113.082 Y37.5 E10.52304
G1 X112.066 Y36.769 E10.56467
G1 X111.417 Y36.253 E10.59224
G1 X110.821 Y35.676 E10.61983
G1 X110.149 Y34.867 E10.65481
G1 X109.409 Y33.856 E10.69649
G1 X108.952 Y33.165 E10.72404
G1 X108.564 Y32.432 E10.75162
G1 X108.182 Y31.472 E10.78599
G1 X107.791 Y30.287 E10.82749
G1 X107.57 Y29.488 E10.85507
G1 X107.426 Y28.671 E10.88266
G1 X107.358 Y27.626 E10.91749
G1 X107.353 Y26.373 E10.95916
G1 X107.39 Y25.545 E10.98673
G1 X107.395 Y25.516 E10.98771
G0 F810 X107.506 Y24.724
M204 S5000
M205 X30 Y30
G0 F7200 X107.906 Y24.762
M204 S500
M205 X20 Y20
G1 F6000 E11.01432
G1 F900 X108.147 Y23.829 E11.04637
G1 X108.529 Y22.641 E11.08787
G1 X108.814 Y21.883 E11.11481
G1 X109.173 Y21.157 E11.14174
G1 X109.679 Y20.362 E11.17309
G1 X110.41 Y19.346 E11.21472
G1 X110.915 Y18.713 E11.24165
G1 X111.479 Y18.133 E11.26856
G1 X112.223 Y17.518 E11.30066
G1 X113.234 Y16.778 E11.34233
G1 X113.91 Y16.333 E11.36925
G1 X114.627 Y15.956 E11.3962
G1 X115.508 Y15.608 E11.4277
G1 X116.693 Y15.217 E11.4692
G1 X117.473 Y15.002 E11.49612
G1 X118.271 Y14.864 E11.52305
G1 X119.236 Y14.804 E11.55521
G1 X120.489 Y14.8 E11.59688
G1 X121.298 Y14.837 E11.62382
G1 X122.099 Y14.954 E11.65074
G1 X123.019 Y15.192 E11.68235
G1 X124.207 Y15.573 E11.72385
G1 X124.965 Y15.858 E11.75078
G1 X125.691 Y16.216 E11.7777
G1 X126.492 Y16.725 E11.80927
G1 X127.508 Y17.456 E11.8509
G1 X128.141 Y17.961 E11.87783
G1 X128.721 Y18.525 E11.90474
G1 X129.336 Y19.269 E11.93684
G1 X130.076 Y20.28 E11.97852
G1 X130.521 Y20.956 E12.00543
G1 X130.898 Y21.673 E12.03238
G1 X131.246 Y22.554 E12.06388
G1 X131.637 Y23.739 E12.10539
G1 X131.852 Y24.519 E12.1323
G1 X131.99 Y25.317 E12.15923
G1 X132.05 Y26.308 E12.19225
G1 X132.05 Y27.576 E12.23443
G1 X132.01 Y28.385 E12.26137
G1 X131.89 Y29.186 E12.28831
G1 X131.657 Y30.085 E12.31919
G1 X131.28 Y31.258 E12.36017
G1 X130.994 Y32.016 E12.38712
G1 X130.635 Y32.742 E12.41406
G1 X130.129 Y33.538 E12.44543
G1 X129.398 Y34.554 E12.48706
G1 X128.893 Y35.187 E12.51399
G1 X128.329 Y35.767 E12.5409
G1 X127.585 Y36.382 E12.573
G1 X126.574 Y37.122 E12.61468
G1 X125.898 Y37.567 E12.64159
G1 X125.181 Y37.944 E12.66854
G1 X124.3 Y38.292 E12.70004
G1 X123.115 Y38.683 E12.74155
G1 X122.335 Y38.898 E12.76846
G1 X121.537 Y39.036 E12.79539
G1 X120.579 Y39.096 E12.82732
G1 X119.326 Y39.101 E12.86899
G1 X118.517 Y39.064 E12.89593
G1 X117.716 Y38.948 E12.92285
G1 X116.783 Y38.707 E12.9549
G1 X115.595 Y38.325 E12.9964
G1 X114.837 Y38.04 E13.02334
G1 X114.111 Y37.681 E13.05028
G1 X113.316 Y37.175 E13.08162
G1 X112.3 Y36.444 E13.12325
G1 X111.667 Y35.939 E13.15018
G1 X111.087 Y35.375 E13.17709
G1 X110.472 Y34.631 E13.20919
G1 X109.732 Y33.62 E13.25087
G1 X109.287 Y32.944 E13.27778
G1 X108.91 Y32.227 E13.30473
G1 X108.562 Y31.346 E13.33623
G1 X108.171 Y30.161 E13.37774
G1 X107.956 Y29.381 E13.40465
G1 X107.818 Y28.583 E13.43158
G1 X107.758 Y27.625 E13.46351
G1 X107.753 Y26.372 E13.50518
G1 X107.79 Y25.563 E13.53212
G1 X107.792 Y25.554 E13.53242
G0 F810 X107.906 Y24.762
M204 S5000
M205 X30 Y30
G0 F7200 X108.306 Y24.8
M204 S500
M205 X20 Y20
G1 F6000 E13.55903
G1 F900 X108.527 Y23.951 E13.58821
G1 X108.909 Y22.763 E13.62972
G1 X109.189 Y22.025 E13.65597
G1 X109.542 Y21.318 E13.68225
G1 X110.003 Y20.596 E13.71074
G1 X110.734 Y19.58 E13.75237
G1 X111.228 Y18.963 E13.77866
G1 X111.78 Y18.399 E13.80491
G1 X112.459 Y17.841 E13.83414
G1 X113.47 Y17.101 E13.87581
G1 X114.13 Y16.667 E13.90209
G1 X114.831 Y16.303 E13.92836
G1 X115.633 Y15.988 E13.95702
G1 X116.818 Y15.597 E13.99852
G1 X117.579 Y15.388 E14.02477
G1 X118.358 Y15.257 E14.05104
G1 X119.237 Y15.204 E14.08033
G1 X120.49 Y15.2 E14.122
G1 X121.279 Y15.237 E14.14828
G1 X122.06 Y15.355 E14.17455
G1 X122.897 Y15.573 E14.20331
G1 X124.085 Y15.954 E14.24481
G1 X124.824 Y16.233 E14.27108
G1 X125.531 Y16.585 E14.29735
G1 X126.258 Y17.049 E14.32604
G1 X127.274 Y17.78 E14.36767
G1 X127.891 Y18.274 E14.39395
G1 X128.455 Y18.826 E14.4202
G1 X129.013 Y19.505 E14.44943
G1 X129.753 Y20.516 E14.4911
G1 X130.187 Y21.176 E14.51738
G1 X130.551 Y21.877 E14.54365
G1 X130.866 Y22.679 E14.57231
G1 X131.257 Y23.864 E14.61381
G1 X131.466 Y24.625 E14.64006
G1 X131.597 Y25.404 E14.66633
G1 X131.65 Y26.308 E14.69645
G1 X131.65 Y27.576 E14.73862
G1 X131.61 Y28.365 E14.7649
G1 X131.491 Y29.145 E14.79114
G1 X131.276 Y29.963 E14.81927
G1 X130.899 Y31.136 E14.86025
G1 X130.62 Y31.874 E14.8865
G1 X130.267 Y32.581 E14.91278
G1 X129.805 Y33.304 E14.94132
G1 X129.074 Y34.32 E14.98295
G1 X128.58 Y34.937 E15.00923
G1 X128.028 Y35.501 E15.03548
G1 X127.349 Y36.059 E15.06471
G1 X126.338 Y36.799 E15.10638
G1 X125.678 Y37.233 E15.13266
G1 X124.977 Y37.597 E15.15893
G1 X124.175 Y37.912 E15.18759
G1 X122.99 Y38.303 E15.22909
G1 X122.229 Y38.512 E15.25534
G1 X121.45 Y38.643 E15.28161
G1 X120.577 Y38.696 E15.3107
G1 X119.324 Y38.701 E15.35238
G1 X118.535 Y38.664 E15.37865
G1 X117.754 Y38.548 E15.40491
G1 X116.905 Y38.327 E15.43409
G1 X115.717 Y37.945 E15.47559
G1 X114.979 Y37.665 E15.50185
G1 X114.272 Y37.312 E15.52813
G1 X113.55 Y36.851 E15.55662
G1 X112.534 Y36.12 E15.59825
G1 X111.917 Y35.626 E15.62454
G1 X111.353 Y35.074 E15.65079
G1 X110.795 Y34.395 E15.68002
G1 X110.055 Y33.384 E15.72169
G1 X109.621 Y32.724 E15.74796
G1 X109.257 Y32.023 E15.77423
G1 X108.942 Y31.221 E15.80289
G1 X108.551 Y30.036 E15.8444
G1 X108.342 Y29.275 E15.87064
G1 X108.211 Y28.496 E15.89692
G1 X108.158 Y27.623 E15.92601
G1 X108.153 Y26.37 E15.96768
G1 X108.19 Y25.592 E15.99359
G0 F810 X108.19 Y25.581
G0 X108.306 Y24.8
M204 S5000
M205 X30 Y30
G0 F7200 X108.706 Y24.84
M204 S500
M205 X20 Y20
G1 F6000 E16.0202
G1 F900 X108.908 Y24.074 E16.04654
G1 X109.29 Y22.886 E16.08805
G1 X109.563 Y22.167 E16.11363
G1 X109.91 Y21.48 E16.13923
G1 X110.328 Y20.829 E16.16496
G1 X111.059 Y19.813 E16.20659
G1 X111.54 Y19.213 E16.23217
G1 X112.081 Y18.666 E16.25776
G1 X112.695 Y18.164 E16.28413
G1 X113.706 Y17.424 E16.3258
G1 X114.35 Y17.002 E16.35141
G1 X115.033 Y16.65 E16.37697
G1 X115.758 Y16.368 E16.40284
G1 X116.943 Y15.977 E16.44435
G1 X117.685 Y15.774 E16.46993
G1 X118.444 Y15.649 E16.49552
G1 X119.238 Y15.604 E16.52197
G1 X120.491 Y15.6 E16.56364
