;FLAVOR:Marlin
;TIME:295
;Filament used: 0.115952m
;Layer height: 0.2
;Generated with Cura_SteamEngine 3.6.0
M140 S70
M105
M190 S70
M104 S215
M105
M109 S215
M82 ;absolute extrusion mode
G28 ; home all axes
M117 Purge extruder
G92 E0 ; reset extruder
G1 Z1.0 F3000 ; move z up little to prevent scratching of surface
G1 X0.1 Y20 Z0.3 F5000.0 ; move to start-line position G1 X0.1 Y200.0 Z0.3 F1500.0 E15 ; draw 1st line
G1 X0.4 Y200.0 Z0.3 F5000.0 ; move to side a little
G1 X0.4 Y20 Z0.3 F1500.0 E30 ; draw 2nd line
G92 E0 ; reset extruder
G1 Z1.0 F3000 ; move z up little to prevent scratching of surface
M117 All systems go!
G92 E0
G1 F6000 E-5
;LAYER_COUNT:36
;LAYER:0
M107
M204 S5000
M205 X30 Y30
G0 F7200 X109.743 Y105.972 Z0.2
M204 S500
M205 X20 Y20
;TYPE:SKIRT
G1 F6000 E0
G1 F900 X109.86 Y105.855 E0.0055
G1 X110.514 Y105.258 E0.03496
G1 X111.219 Y104.723 E0.06439
G1 X111.969 Y104.253 E0.09383
G1 X112.759 Y103.853 E0.12328
G1 X113.581 Y103.525 E0.15272
G1 X114.43 Y103.274 E0.18216
G1 X115.298 Y103.099 E0.21161
G1 X116.178 Y103.004 E0.24105
G1 X116.79 Y102.985 E0.26142
G1 X118.214 Y102.985 E0.30878
G1 X119.098 Y103.025 E0.33821
G1 X119.975 Y103.145 E0.36765
G1 X120.838 Y103.343 E0.3971
G1 X121.679 Y103.618 E0.42653
G1 X122.492 Y103.968 E0.45597
G1 X123.271 Y104.39 E0.48544
G1 X124.007 Y104.881 E0.51487
G1 X124.697 Y105.436 E0.54432
G1 X125.144 Y105.855 E0.5647
G1 X125.261 Y105.972 E0.5702
G1 X125.858 Y106.626 E0.59965
G1 X126.393 Y107.331 E0.62909
G1 X126.863 Y108.081 E0.65853
G1 X127.263 Y108.871 E0.68798
G1 X127.591 Y109.693 E0.71741
G1 X127.842 Y110.542 E0.74686
G1 X128.017 Y111.41 E0.77631
G1 X128.112 Y112.29 E0.80575
G1 X128.131 Y112.904 E0.82618
G1 X128.13 Y117.432 E0.97678
G1 X128.09 Y118.316 E1.00621
G1 X127.97 Y119.194 E1.03569
G1 X127.772 Y120.056 E1.0651
G1 X127.496 Y120.897 E1.09454
G1 X127.146 Y121.71 E1.12398
G1 X126.724 Y122.488 E1.15342
G1 X126.233 Y123.225 E1.18288
G1 X125.678 Y123.915 E1.21233
G1 X125.26 Y124.36 E1.23263
G1 X125.143 Y124.477 E1.23814
G1 X124.489 Y125.074 E1.26759
G1 X123.784 Y125.609 E1.29703
G1 X123.034 Y126.079 E1.32646
G1 X122.244 Y126.479 E1.35592
G1 X121.422 Y126.807 E1.38535
G1 X120.573 Y127.058 E1.4148
G1 X119.705 Y127.233 E1.44425
G1 X118.825 Y127.328 E1.47369
G1 X118.213 Y127.347 E1.49405
G1 X116.79 Y127.347 E1.54138
G1 X115.906 Y127.307 E1.57081
G1 X115.029 Y127.187 E1.60026
G1 X114.166 Y126.989 E1.6297
G1 X113.325 Y126.714 E1.65913
G1 X112.512 Y126.364 E1.68857
G1 X111.733 Y125.942 E1.71804
G1 X110.997 Y125.451 E1.74747
G1 X110.307 Y124.896 E1.77692
G1 X109.86 Y124.477 E1.7973
G1 X109.743 Y124.36 E1.8028
G1 X109.146 Y123.706 E1.83225
G1 X108.611 Y123.001 E1.86169
G1 X108.141 Y122.251 E1.89113
G1 X107.741 Y121.461 E1.92058
G1 X107.413 Y120.639 E1.95001
G1 X107.162 Y119.79 E1.97946
G1 X106.987 Y118.922 E2.00891
G1 X106.892 Y118.042 E2.03835
G1 X106.873 Y117.43 E2.05872
G1 X106.873 Y112.902 E2.20932
G1 X106.913 Y112.018 E2.23875
G1 X107.033 Y111.141 E2.26819
G1 X107.231 Y110.278 E2.29764
G1 X107.506 Y109.437 E2.32707
G1 X107.856 Y108.624 E2.35651
G1 X108.278 Y107.845 E2.38598
G1 X108.769 Y107.109 E2.4154
G1 X109.207 Y106.565 E2.43863
G0 F810 X109.324 Y106.419
G0 X109.743 Y105.972
M204 S5000
M205 X30 Y30
G0 F7200 X110.026 Y106.255
M204 S500
M205 X20 Y20
G1 F6000 E2.46524
G1 F900 X110.143 Y106.138 E2.47074
G1 X110.784 Y105.554 E2.49958
G1 X111.476 Y105.031 E2.52843
G1 X112.213 Y104.575 E2.55726
G1 X112.988 Y104.188 E2.58607
G1 X113.797 Y103.874 E2.61493
G1 X114.63 Y103.636 E2.64375
G1 X115.482 Y103.476 E2.67258
G1 X116.345 Y103.396 E2.70141
G1 X116.79 Y103.385 E2.71621
G1 X118.214 Y103.385 E2.76358
G1 X119.08 Y103.425 E2.79241
G1 X119.939 Y103.545 E2.82126
G1 X120.783 Y103.743 E2.85009
G1 X121.605 Y104.018 E2.87892
G1 X122.398 Y104.368 E2.90775
G1 X123.156 Y104.789 E2.93659
G1 X123.871 Y105.278 E2.9654
G1 X124.539 Y105.831 E2.99424
G1 X124.861 Y106.138 E3.00904
G1 X124.978 Y106.255 E3.01454
G1 X125.562 Y106.896 E3.04339
G1 X126.085 Y107.588 E3.07224
G1 X126.541 Y108.325 E3.10106
G1 X126.928 Y109.1 E3.12987
G1 X127.242 Y109.909 E3.15874
G1 X127.48 Y110.742 E3.18755
G1 X127.64 Y111.594 E3.21638
G1 X127.72 Y112.457 E3.24521
G1 X127.731 Y112.904 E3.26008
G1 X127.73 Y117.432 E3.41068
G1 X127.69 Y118.298 E3.43952
G1 X127.57 Y119.157 E3.46837
G1 X127.372 Y120.001 E3.4972
G1 X127.096 Y120.823 E3.52604
G1 X126.747 Y121.616 E3.55486
G1 X126.325 Y122.374 E3.58371
G1 X125.836 Y123.089 E3.61252
G1 X125.282 Y123.757 E3.64139
G1 X124.977 Y124.077 E3.65609
G1 X124.86 Y124.194 E3.66159
G1 X124.219 Y124.778 E3.69043
G1 X123.527 Y125.301 E3.71928
G1 X122.79 Y125.757 E3.74811
G1 X122.015 Y126.144 E3.77692
G1 X121.206 Y126.458 E3.80578
G1 X120.373 Y126.696 E3.8346
G1 X119.521 Y126.856 E3.86343
G1 X118.658 Y126.936 E3.89226
G1 X118.213 Y126.947 E3.90706
G1 X116.79 Y126.947 E3.95439
G1 X115.924 Y126.907 E3.98323
G1 X115.065 Y126.787 E4.01207
G1 X114.221 Y126.589 E4.04091
G1 X113.399 Y126.314 E4.06974
G1 X112.606 Y125.964 E4.09857
G1 X111.848 Y125.543 E4.12741
G1 X111.133 Y125.054 E4.15622
G1 X110.465 Y124.501 E4.18506
G1 X110.143 Y124.194 E4.19986
G1 X110.026 Y124.077 E4.20536
G1 X109.442 Y123.436 E4.2342
G1 X108.919 Y122.744 E4.26305
G1 X108.463 Y122.007 E4.29188
G1 X108.076 Y121.232 E4.32069
G1 X107.762 Y120.423 E4.34955
G1 X107.524 Y119.59 E4.37837
G1 X107.364 Y118.738 E4.4072
G1 X107.284 Y117.875 E4.43603
G1 X107.273 Y117.43 E4.45083
G1 X107.273 Y112.902 E4.60143
G1 X107.313 Y112.036 E4.63027
G1 X107.433 Y111.177 E4.65911
G1 X107.631 Y110.333 E4.68795
G1 X107.906 Y109.511 E4.71678
G1 X108.256 Y108.718 E4.74561
G1 X108.677 Y107.96 E4.77445
G1 X109.166 Y107.245 E4.80326
G1 X109.492 Y106.851 E4.82027
G0 F810 X109.719 Y106.577
G0 X110.026 Y106.255
M204 S5000
M205 X30 Y30
G0 F7200 X110.309 Y106.538
M204 S500
M205 X20 Y20
G1 F6000 E4.84687
G1 F900 X110.426 Y106.421 E4.85238
G1 X111.053 Y105.85 E4.88058
G1 X111.732 Y105.341 E4.90881
G1 X112.455 Y104.898 E4.93701
G1 X113.217 Y104.525 E4.96523
G1 X114.011 Y104.225 E4.99346
G1 X114.829 Y104.001 E5.02167
G1 X115.665 Y103.856 E5.04989
G1 X116.79 Y103.785 E5.08738
G1 X118.214 Y103.785 E5.13474
G1 X119.061 Y103.825 E5.16294
G1 X119.901 Y103.945 E5.19117
G1 X120.726 Y104.143 E5.21939
G1 X121.529 Y104.418 E5.24762
G1 X122.302 Y104.767 E5.27583
G1 X123.038 Y105.187 E5.30401
G1 X123.732 Y105.675 E5.33223
G1 X124.578 Y106.421 E5.36974
G1 X124.695 Y106.538 E5.37525
G1 X125.266 Y107.165 E5.40345
G1 X125.775 Y107.844 E5.43168
G1 X126.218 Y108.567 E5.45988
G1 X126.591 Y109.329 E5.4881
G1 X126.891 Y110.123 E5.51633
G1 X127.115 Y110.941 E5.54454
G1 X127.26 Y111.777 E5.57276
G1 X127.331 Y112.904 E5.61031
G1 X127.33 Y117.432 E5.76092
G1 X127.29 Y118.279 E5.78912
G1 X127.17 Y119.119 E5.81734
G1 X126.972 Y119.944 E5.84556
G1 X126.697 Y120.746 E5.87376
G1 X126.347 Y121.519 E5.90198
G1 X125.927 Y122.256 E5.9302
G1 X125.439 Y122.95 E5.95841
G1 X124.694 Y123.794 E5.99586
G1 X124.577 Y123.911 E6.00136
G1 X123.95 Y124.482 E6.02957
G1 X123.271 Y124.991 E6.05779
G1 X122.548 Y125.434 E6.08599
G1 X121.786 Y125.807 E6.11421
G1 X120.992 Y126.107 E6.14244
G1 X120.174 Y126.331 E6.17065
G1 X119.338 Y126.476 E6.19887
G1 X118.213 Y126.547 E6.23636
G1 X116.79 Y126.547 E6.28369
G1 X115.943 Y126.507 E6.31189
G1 X115.103 Y126.387 E6.34012
G1 X114.278 Y126.189 E6.36834
G1 X113.475 Y125.914 E6.39657
G1 X112.702 Y125.565 E6.42478
G1 X111.966 Y125.145 E6.45296
G1 X111.272 Y124.657 E6.48118
G1 X110.426 Y123.911 E6.51869
G1 X110.309 Y123.794 E6.5242
G1 X109.738 Y123.167 E6.5524
G1 X109.229 Y122.488 E6.58063
G1 X108.786 Y121.765 E6.60883
G1 X108.413 Y121.003 E6.63705
G1 X108.113 Y120.209 E6.66528
G1 X107.889 Y119.391 E6.69349
G1 X107.744 Y118.555 E6.72171
G1 X107.673 Y117.43 E6.7592
G1 X107.673 Y112.902 E6.9098
G1 X107.713 Y112.055 E6.938
G1 X107.833 Y111.215 E6.96623
G1 X108.031 Y110.39 E6.99444
G1 X108.306 Y109.587 E7.02267
G1 X108.655 Y108.814 E7.05088
G1 X109.075 Y108.078 E7.07907
G1 X109.563 Y107.384 E7.10729
G1 X109.78 Y107.138 E7.1182
G0 F810 X110.309 Y106.538
M204 S5000
M205 X30 Y30
G0 F7200 X110.592 Y106.821
M204 S500
M205 X20 Y20
G1 F6000 E7.1448
G1 F900 X110.709 Y106.704 E7.15031
G1 X111.323 Y106.146 E7.1779
G1 X111.988 Y105.651 E7.20548
G1 X112.697 Y105.221 E7.23306
G1 X113.444 Y104.862 E7.26062
G1 X114.223 Y104.577 E7.28821
G1 X115.025 Y104.368 E7.31578
G1 X115.844 Y104.237 E7.34336
G1 X116.79 Y104.185 E7.37487
G1 X118.214 Y104.185 E7.42224
G1 X119.042 Y104.225 E7.44981
G1 X119.863 Y104.345 E7.4774
G1 X120.668 Y104.543 E7.50498
G1 X121.45 Y104.817 E7.53254
G1 X122.203 Y105.166 E7.56014
G1 X122.918 Y105.586 E7.58772
G1 X123.589 Y106.072 E7.61528
G1 X124.295 Y106.704 E7.64679
G1 X124.412 Y106.821 E7.6523
G1 X124.97 Y107.435 E7.67989
G1 X125.465 Y108.1 E7.70746
G1 X125.895 Y108.809 E7.73504
G1 X126.254 Y109.556 E7.76261
G1 X126.539 Y110.335 E7.7902
G1 X126.748 Y111.137 E7.81776
G1 X126.879 Y111.956 E7.84535
G1 X126.931 Y112.904 E7.87693
G1 X126.93 Y117.432 E8.02753
G1 X126.89 Y118.26 E8.0551
G1 X126.77 Y119.081 E8.0827
G1 X126.572 Y119.886 E8.11027
G1 X126.297 Y120.668 E8.13784
G1 X125.948 Y121.42 E8.16542
G1 X125.528 Y122.136 E8.19303
G1 X125.042 Y122.807 E8.22058
G1 X124.411 Y123.511 E8.25203
G1 X124.294 Y123.628 E8.25753
G1 X123.68 Y124.186 E8.28512
G1 X123.015 Y124.681 E8.3127
G1 X122.306 Y125.111 E8.34028
G1 X121.559 Y125.47 E8.36784
G1 X120.78 Y125.755 E8.39543
G1 X119.978 Y125.964 E8.423
G1 X119.159 Y126.095 E8.45058
G1 X118.213 Y126.147 E8.48209
G1 X116.79 Y126.147 E8.52942
G1 X115.962 Y126.107 E8.557
G1 X115.141 Y125.987 E8.58459
G1 X114.336 Y125.789 E8.61216
G1 X113.554 Y125.515 E8.63972
G1 X112.801 Y125.166 E8.66733
G1 X112.086 Y124.746 E8.69491
G1 X111.415 Y124.26 E8.72247
G1 X110.709 Y123.628 E8.75398
G1 X110.592 Y123.511 E8.75948
G1 X110.034 Y122.897 E8.78708
G1 X109.539 Y122.232 E8.81465
G1 X109.109 Y121.523 E8.84223
G1 X108.75 Y120.776 E8.8698
G1 X108.465 Y119.997 E8.89739
G1 X108.256 Y119.195 E8.92495
G1 X108.125 Y118.376 E8.95254
G1 X108.073 Y117.43 E8.98405
G1 X108.073 Y112.902 E9.13465
G1 X108.113 Y112.074 E9.16222
G1 X108.233 Y111.253 E9.18982
G1 X108.431 Y110.448 E9.21739
G1 X108.705 Y109.666 E9.24495
G1 X109.054 Y108.913 E9.27256
G1 X109.474 Y108.198 E9.30014
G1 X109.96 Y107.527 E9.32769
G1 X110.059 Y107.417 E9.33262
G0 F810 X110.592 Y106.821
M204 S5000
M205 X30 Y30
G0 F7200 X110.875 Y107.104
M204 S500
M205 X20 Y20
G1 F6000 E9.35922
G1 F900 X110.992 Y106.987 E9.36473
G1 X111.592 Y106.443 E9.39166
G1 X112.243 Y105.961 E9.41861
G1 X112.938 Y105.546 E9.44553
G1 X113.67 Y105.202 E9.47243
G1 X114.434 Y104.931 E9.49939
G1 X115.22 Y104.737 E9.52632
G1 X116.021 Y104.621 E9.55324
G1 X116.79 Y104.585 E9.57884
G1 X118.214 Y104.585 E9.62621
G1 X119.023 Y104.625 E9.65315
G1 X119.824 Y104.745 E9.68008
G1 X120.609 Y104.942 E9.707
G1 X121.37 Y105.217 E9.73392
G1 X122.101 Y105.565 E9.76084
G1 X122.795 Y105.984 E9.78781
G1 X123.443 Y106.469 E9.81473
G1 X124.012 Y106.987 E9.84032
G1 X124.129 Y107.104 E9.84582
G1 X124.673 Y107.704 E9.87276
G1 X125.155 Y108.355 E9.8997
G1 X125.57 Y109.05 E9.92663
G1 X125.914 Y109.782 E9.95353
G1 X126.185 Y110.546 E9.98049
G1 X126.379 Y111.332 E10.00742
G1 X126.495 Y112.133 E10.03433
G1 X126.531 Y112.904 E10.06001
G1 X126.53 Y117.432 E10.21061
G1 X126.49 Y118.241 E10.23755
G1 X126.37 Y119.041 E10.26445
G1 X126.172 Y119.826 E10.29138
G1 X125.897 Y120.588 E10.31833
G1 X125.549 Y121.319 E10.34525
G1 X125.13 Y122.012 E10.37219
G1 X124.645 Y122.66 E10.39911
G1 X124.128 Y123.228 E10.42465
G1 X124.011 Y123.345 E10.43016
G1 X123.411 Y123.889 E10.45709
G1 X122.76 Y124.371 E10.48404
G1 X122.065 Y124.786 E10.51096
G1 X121.333 Y125.13 E10.53786
G1 X120.569 Y125.401 E10.56482
G1 X119.783 Y125.595 E10.59175
G1 X118.982 Y125.711 E10.61867
G1 X118.213 Y125.747 E10.64427
G1 X116.79 Y125.747 E10.6916
G1 X115.981 Y125.707 E10.71854
G1 X115.18 Y125.587 E10.74548
G1 X114.395 Y125.39 E10.7724
G1 X113.634 Y125.115 E10.79931
G1 X112.903 Y124.767 E10.82624
G1 X112.209 Y124.348 E10.8532
G1 X111.561 Y123.863 E10.88012
G1 X110.992 Y123.345 E10.90572
G1 X110.875 Y123.228 E10.91122
G1 X110.331 Y122.628 E10.93816
G1 X109.849 Y121.977 E10.9651
G1 X109.434 Y121.282 E10.99202
G1 X109.09 Y120.55 E11.01892
G1 X108.819 Y119.786 E11.04589
G1 X108.625 Y119 E11.07281
G1 X108.509 Y118.199 E11.09973
G1 X108.473 Y117.43 E11.12534
G1 X108.473 Y112.902 E11.27594
G1 X108.513 Y112.093 E11.30288
G1 X108.633 Y111.292 E11.32982
G1 X108.83 Y110.507 E11.35674
G1 X109.105 Y109.746 E11.38365
G1 X109.453 Y109.015 E11.41058
G1 X109.872 Y108.321 E11.43754
G1 X110.339 Y107.697 E11.46346
G0 F810 X110.357 Y107.673
G0 X110.875 Y107.104
M204 S5000
M205 X30 Y30
G0 F7200 X111.158 Y107.387
M204 S500
M205 X20 Y20
G1 F6000 E11.49007
G1 F900 X111.275 Y107.27 E11.49557
G1 X111.861 Y106.74 E11.52185
G1 X112.497 Y106.273 E11.5481
G1 X113.177 Y105.872 E11.57435
G1 X113.895 Y105.542 E11.60064
G1 X114.642 Y105.287 E11.62689
G1 X115.411 Y105.108 E11.65315
G1 X116.195 Y105.008 E11.67944
G1 X116.79 Y104.985 E11.69924
G1 X118.214 Y104.985 E11.7466
G1 X119.003 Y105.025 E11.77288
G1 X119.783 Y105.144 E11.79912
G1 X120.548 Y105.342 E11.82541
G1 X121.288 Y105.616 E11.85165
G1 X121.997 Y105.964 E11.87792
G1 X122.668 Y106.382 E11.90421
G1 X123.292 Y106.865 E11.93046
G1 X123.729 Y107.27 E11.95028
G1 X123.846 Y107.387 E11.95578
G1 X124.376 Y107.973 E11.98206
G1 X124.843 Y108.609 E12.0083
G1 X125.244 Y109.289 E12.03456
G1 X125.574 Y110.007 E12.06084
G1 X125.829 Y110.754 E12.0871
G1 X126.008 Y111.523 E12.11336
G1 X126.108 Y112.307 E12.13964
G1 X126.131 Y112.904 E12.15951
G1 X126.13 Y117.432 E12.31012
G1 X126.09 Y118.22 E12.33636
G1 X125.97 Y119.001 E12.36264
G1 X125.772 Y119.765 E12.38889
G1 X125.498 Y120.506 E12.41517
G1 X125.15 Y121.215 E12.44144
G1 X124.732 Y121.885 E12.4677
G1 X124.249 Y122.51 E12.49397
G1 X123.845 Y122.945 E12.51372
G1 X123.728 Y123.062 E12.51922
G1 X123.142 Y123.592 E12.5455
G1 X122.506 Y124.059 E12.57174
G1 X121.826 Y124.46 E12.598
G1 X121.108 Y124.79 E12.62428
G1 X120.361 Y125.045 E12.65054
G1 X119.592 Y125.224 E12.6768
G1 X118.808 Y125.324 E12.70308
G1 X118.213 Y125.347 E12.72289
G1 X116.79 Y125.347 E12.77022
G1 X116.001 Y125.307 E12.79649
G1 X115.221 Y125.188 E12.82274
G1 X114.456 Y124.99 E12.84902
G1 X113.716 Y124.716 E12.87527
G1 X113.007 Y124.368 E12.90153
G1 X112.336 Y123.95 E12.92783
G1 X111.712 Y123.467 E12.95407
G1 X111.275 Y123.062 E12.97389
G1 X111.158 Y122.945 E12.97939
G1 X110.628 Y122.359 E13.00567
G1 X110.161 Y121.723 E13.03192
G1 X109.76 Y121.043 E13.05817
G1 X109.43 Y120.325 E13.08446
G1 X109.175 Y119.578 E13.11071
G1 X108.996 Y118.809 E13.13697
G1 X108.896 Y118.025 E13.16326
G1 X108.873 Y117.43 E13.18306
G1 X108.873 Y112.902 E13.33366
G1 X108.913 Y112.113 E13.35994
G1 X109.032 Y111.333 E13.38618
G1 X109.23 Y110.568 E13.41246
G1 X109.504 Y109.828 E13.43871
G1 X109.852 Y109.119 E13.46498
G1 X110.27 Y108.448 E13.49127
G1 X110.628 Y107.986 E13.51071
G0 F810 X110.753 Y107.824
G0 X111.158 Y107.387
M204 S5000
M205 X30 Y30
G0 F7200 X111.44 Y107.669
M204 S500
M205 X20 Y20
G1 F6000 E13.53732
G1 F900 X111.557 Y107.552 E13.54282
G1 X112.129 Y107.038 E13.5684
G1 X112.751 Y106.585 E13.59399
G1 X113.416 Y106.199 E13.61957
G1 X114.118 Y105.884 E13.64516
G1 X114.849 Y105.644 E13.67075
G1 X115.6 Y105.481 E13.69631
G1 X116.365 Y105.397 E13.72191
G1 X116.79 Y105.385 E13.73605
G1 X118.214 Y105.385 E13.78341
G1 X118.982 Y105.425 E13.80899
G1 X119.742 Y105.544 E13.83457
G1 X120.485 Y105.742 E13.86015
G1 X121.204 Y106.016 E13.88574
G1 X121.89 Y106.363 E13.91131
G1 X122.537 Y106.779 E13.93689
G1 X123.137 Y107.26 E13.96247
G1 X123.447 Y107.552 E13.97663
G1 X123.564 Y107.669 E13.98214
G1 X124.078 Y108.241 E14.00772
G1 X124.531 Y108.863 E14.03331
G1 X124.917 Y109.528 E14.05888
G1 X125.232 Y110.23 E14.08447
G1 X125.472 Y110.961 E14.11006
G1 X125.635 Y111.712 E14.13562
G1 X125.719 Y112.477 E14.16122
G1 X125.731 Y112.904 E14.17543
G1 X125.73 Y117.432 E14.32603
G1 X125.69 Y118.2 E14.35161
G1 X125.57 Y118.96 E14.3772
G1 X125.372 Y119.703 E14.40277
G1 X125.098 Y120.422 E14.42837
G1 X124.751 Y121.108 E14.45394
G1 X124.335 Y121.755 E14.47952
G1 X123.854 Y122.355 E14.5051
G1 X123.563 Y122.663 E14.51919
