;FLAVOR:Marlin
;TIME:14084
;Filament used: 19.1903m
;Layer height: 0.25
;Generated with Cura_SteamEngine 3.6.0
M140 S70
M105
M190 S70
M104 S215
M105
M109 S215
M82 ;absolute extrusion mode
; Ender 3 Custom Start G-code
G28 ; Home all axes
G92 E0 ; Reset Extruder
G1 Z2.0 F3000 ; Move Z Axis up little to prevent scratching of Heat Bed
G1 X0.1 Y20 Z0.3 F5000.0 ; Move to start position
G1 X0.1 Y200.0 Z0.3 F1500.0 E15 ; Draw the first line
G1 X0.4 Y200.0 Z0.3 F5000.0 ; Move to side a little
G1 X0.4 Y20 Z0.3 F1500.0 E30 ; Draw the second line
G92 E0 ; Reset Extruder
G1 Z2.0 F3000 ; Move Z Axis up little to prevent scratching of Heat Bed
; End of custom start GCode
G92 E0
G1 F6000 E-5
;LAYER_COUNT:124
;LAYER:0
M107
M204 S5000
M205 X30 Y30
G0 F7200 X55.315 Y73.406 Z0.25
M204 S500
M205 X20 Y20
;TYPE:SKIRT
G1 F6000 E0
G1 F900 X56.354 Y72.737 E0.06422
G1 X57.454 Y72.124 E0.12966
G1 X58.244 Y71.73 E0.17554
G1 X59.066 Y71.408 E0.22142
G1 X59.914 Y71.163 E0.26729
G1 X60.723 Y71.004 E0.31014
G1 X61.421 Y70.897 E0.34684
G1 X62.299 Y70.802 E0.39273
G1 X63.518 Y70.804 E0.45608
G1 X64.083 Y70.84 E0.48551
G1 X64.961 Y70.936 E0.53141
G1 X65.826 Y71.111 E0.57727
G1 X66.95 Y71.465 E0.63851
G1 X68.065 Y71.892 E0.70056
G1 X68.874 Y72.245 E0.74643
G1 X69.89 Y72.821 E0.80713
G1 X70.755 Y73.383 E0.86074
G1 X71.473 Y73.897 E0.90663
G1 X72.151 Y74.483 E0.9532
G1 X73.326 Y75.597 E1.03734
G1 X73.851 Y76.135 E1.07641
G1 X75.244 Y77.676 E1.18436
G1 X75.689 Y78.205 E1.22029
G1 X79.267 Y82.777 E1.522
G1 X79.441 Y83.006 E1.53695
G1 X89.616 Y96.826 E2.42882
G1 X93.161 Y101.411 E2.73001
G1 X96.02 Y104.894 E2.96419
G1 X97.943 Y107.017 E3.11305
G1 X99.763 Y108.857 E3.24755
G1 X101.214 Y110.17 E3.34925
G1 X102.369 Y111 E3.42316
G1 X103.532 Y111.687 E3.49336
G1 X104.515 Y112.14 E3.54961
G1 X105.193 Y112.374 E3.58689
G1 X105.23 Y112.382 E3.58885
G1 X105.442 Y112.229 E3.60244
G1 X106.052 Y111.642 E3.64643
G1 X106.854 Y110.751 E3.70873
G1 X108.793 Y108.006 E3.88339
G1 X108.742 Y107.896 E3.88969
G1 X108.352 Y106.927 E3.94397
G1 X107.552 Y104.588 E4.07244
G1 X107.304 Y103.741 E4.11831
G1 X107.134 Y102.874 E4.16422
G1 X107.061 Y102.244 E4.19718
G1 X106.872 Y99.98 E4.31525
G1 X106.838 Y99.098 E4.36112
G1 X106.885 Y98.216 E4.40702
G1 X107.019 Y97.299 E4.45518
G1 X107.448 Y95.104 E4.57141
G1 X107.656 Y94.246 E4.6173
G1 X107.942 Y93.41 E4.66321
G1 X108.268 Y92.672 E4.70514
G1 X109.306 Y90.561 E4.82739
G1 X109.731 Y89.787 E4.87328
G1 X110.489 Y88.713 E4.9416
G1 X112.149 Y86.671 E5.07836
G1 X112.737 Y86.012 E5.12426
G1 X113.335 Y85.449 E5.16694
G1 X115.602 Y83.487 E5.32275
G1 X116.643 Y82.701 E5.39054
G1 X119.528 Y80.813 E5.56972
G1 X120.474 Y80.267 E5.62649
G1 X121.891 Y79.552 E5.70897
G1 X121.942 Y79.419 E5.71637
G1 X126.268 Y66.889 E6.40526
G1 X128.783 Y59.296 E6.82094
G1 X128.816 Y59.198 E6.82632
G1 X132.895 Y47.304 E7.47977
G1 X132.989 Y47.044 E7.49414
G1 X136.157 Y38.594 E7.96313
G1 X136.273 Y38.298 E7.97965
G1 X137.913 Y34.324 E8.20307
G1 X138.054 Y33.999 E8.22148
G1 X139.767 Y30.241 E8.43611
G1 X140.169 Y29.455 E8.48199
G1 X140.485 Y28.939 E8.51344
G1 X141.277 Y27.731 E8.58851
G1 X141.794 Y27.015 E8.6344
G1 X142.374 Y26.349 E8.6803
G1 X142.806 Y25.923 E8.71183
G1 X143.293 Y25.472 E8.74632
G1 X143.968 Y24.902 E8.79224
G1 X144.691 Y24.396 E8.8381
G1 X145.177 Y24.106 E8.86751
G1 X145.966 Y23.667 E8.91443
G1 X146.757 Y23.273 E8.96036
G1 X147.555 Y22.96 E9.0049
G1 X148.401 Y22.671 E9.05136
G1 X149.249 Y22.424 E9.09727
G1 X150.115 Y22.255 E9.14312
G1 X150.633 Y22.192 E9.17024
G1 X151.783 Y22.083 E9.23027
G1 X152.665 Y22.039 E9.27616
G1 X153.547 Y22.076 E9.32204
G1 X154.253 Y22.163 E9.35901
G1 X155.365 Y22.342 E9.41754
G1 X156.229 Y22.522 E9.46341
G1 X157.172 Y22.814 E9.51471
G1 X158.02 Y23.125 E9.56165
G1 X158.834 Y23.466 E9.60751
G1 X159.816 Y24.002 E9.66566
G1 X160.783 Y24.604 E9.72485
G1 X161.511 Y25.104 E9.77075
G1 X162.19 Y25.668 E9.81662
G1 X162.816 Y26.291 E9.86252
G1 X163.635 Y27.315 E9.93066
G1 X165.095 Y29.415 E10.06358
G1 X165.625 Y30.267 E10.11573
G1 X167.336 Y33.365 E10.29965
G1 X167.789 Y34.3 E10.35364
G1 X168.886 Y36.909 E10.50073
G1 X169.098 Y37.459 E10.53136
G1 X170.604 Y41.75 E10.7677
G1 X170.823 Y42.459 E10.80626
G1 X172.356 Y48.188 E11.11446
G1 X172.452 Y48.581 E11.13549
G1 X173.549 Y53.489 E11.39685
G1 X173.6 Y53.73 E11.40965
G1 X175.341 Y62.562 E11.87747
G1 X175.376 Y62.75 E11.88741
G1 X177.58 Y75.211 E12.54504
G1 X177.636 Y75.563 E12.56357
G1 X177.92 Y77.602 E12.67056
G1 X183.084 Y88.673 E13.30541
G1 X183.473 Y89.636 E13.35939
G1 X184.274 Y91.976 E13.48792
G1 X184.521 Y92.824 E13.53383
G1 X184.692 Y93.69 E13.5797
G1 X184.765 Y94.323 E13.61281
G1 X184.954 Y96.588 E13.73093
G1 X184.988 Y97.471 E13.77686
G1 X184.941 Y98.352 E13.82271
G1 X184.807 Y99.271 E13.87097
G1 X184.378 Y101.464 E13.9871
G1 X184.169 Y102.322 E14.03299
G1 X183.884 Y103.157 E14.07884
G1 X183.559 Y103.893 E14.12066
G1 X182.519 Y106.009 E14.24319
G1 X182.094 Y106.783 E14.28908
G1 X181.601 Y107.515 E14.33494
G1 X181.325 Y107.87 E14.35831
G1 X181.227 Y107.99 E14.36636
G1 X181.72 Y114.643 E14.71306
G1 X181.735 Y114.884 E14.72561
G1 X182.326 Y126.887 E15.35015
G1 X182.335 Y127.117 E15.36211
G1 X182.579 Y136.662 E15.85831
G1 X182.582 Y136.863 E15.86876
G1 X182.627 Y146.001 E16.34366
G1 X182.624 Y146.278 E16.35805
G1 X182.466 Y153 E16.70749
G1 X182.453 Y153.336 E16.72496
G1 X182.21 Y157.52 E16.94277
G1 X182.194 Y157.75 E16.95475
G1 X181.515 Y166.051 E17.38758
G1 X181.471 Y166.468 E17.40937
G1 X180.454 Y174.583 E17.8344
G1 X180.407 Y174.915 E17.85183
G1 X179.785 Y178.792 E18.05589
G1 X179.725 Y179.128 E18.07362
G1 X178.288 Y186.44 E18.46089
G1 X178.174 Y186.948 E18.48795
G1 X177.329 Y190.293 E18.66724
G1 X177.25 Y190.588 E18.68312
G1 X176.357 Y193.708 E18.85177
G1 X176.223 Y194.138 E18.87518
G1 X175.266 Y196.978 E19.03092
G1 X175.105 Y197.419 E19.05532
G1 X174.11 Y199.961 E19.19718
G1 X173.821 Y200.627 E19.23491
G1 X172.749 Y202.86 E19.36364
G1 X172.3 Y203.689 E19.41264
G1 X171.191 Y205.521 E19.52393
G1 X170.654 Y206.317 E19.57383
G1 X170.054 Y207.118 E19.62584
G1 X169.238 Y208.072 E19.69108
G1 X168.482 Y208.849 E19.74742
G1 X167.838 Y209.454 E19.79334
G1 X167.181 Y209.97 E19.83675
G1 X166.493 Y210.464 E19.88077
G1 X165.753 Y210.946 E19.92667
G1 X165.054 Y211.32 E19.96787
G1 X164.211 Y211.728 E20.01654
G1 X163.399 Y212.076 E20.06245
G1 X162.246 Y212.431 E20.12514
G1 X161.316 Y212.655 E20.17486
G1 X160.449 Y212.823 E20.22075
G1 X159.157 Y212.925 E20.28811
G1 X157.432 Y212.947 E20.37776
G1 X156.55 Y212.918 E20.42362
G1 X155.846 Y212.838 E20.46044
G1 X154.448 Y212.626 E20.53393
G1 X153.582 Y212.454 E20.57981
G1 X152.659 Y212.178 E20.62988
G1 X148.938 Y210.862 E20.83499
G1 X148.12 Y210.53 E20.88087
G1 X147.305 Y210.108 E20.92856
G1 X142.701 Y207.443 E21.20502
G1 X141.831 Y206.876 E21.25899
G1 X136.427 Y202.925 E21.60689
G1 X135.93 Y202.536 E21.63969
G1 X129.86 Y197.465 E22.05073
G1 X129.461 Y197.113 E22.07838
G1 X122.922 Y191.014 E22.54308
G1 X122.657 Y190.757 E22.56227
G1 X115.696 Y183.753 E23.07545
G1 X115.47 Y183.519 E23.09236
G1 X108.229 Y175.73 E23.64504
G1 X108.011 Y175.487 E23.66201
G1 X100.677 Y167.048 E24.24305
G1 X100.496 Y166.833 E24.25765
G1 X93.139 Y157.858 E24.86075
G1 X92.948 Y157.618 E24.87669
G1 X85.703 Y148.19 E25.49461
G1 X85.512 Y147.933 E25.51125
G1 X78.534 Y138.208 E26.13329
G1 X78.344 Y137.933 E26.15067
G1 X71.743 Y128.034 E26.76899
G1 X71.544 Y127.722 E26.78823
G1 X65.429 Y117.751 E27.39609
G1 X65.196 Y117.351 E27.42015
G1 X59.736 Y107.419 E28.00916
G1 X59.503 Y106.968 E28.03554
G1 X54.794 Y97.235 E28.59745
G1 X54.511 Y96.591 E28.634
G1 X50.703 Y87.013 E29.16966
G1 X50.414 Y86.179 E29.21553
G1 X50.202 Y85.322 E29.26141
G1 X50.068 Y84.449 E29.30731
G1 X50.014 Y83.568 E29.35318
G1 X50.04 Y82.685 E29.39909
G1 X50.146 Y81.808 E29.445
G1 X50.33 Y80.945 E29.49085
G1 X50.703 Y79.809 E29.55299
G1 X51.068 Y78.891 E29.60433
G1 X51.431 Y78.086 E29.65022
G1 X52.019 Y77.079 E29.71082
G1 X52.491 Y76.372 E29.755
G1 X53.014 Y75.661 E29.80087
G1 X53.495 Y75.109 E29.83892
G1 X53.995 Y74.577 E29.87686
G1 X54.629 Y73.961 E29.9228
G1 X54.917 Y73.728 E29.94205
G0 F810 X55.315 Y73.406
M204 S5000
M205 X30 Y30
G0 F7200 X55.648 Y73.782
M204 S500
M205 X20 Y20
G1 F6000 E29.96866
G1 F900 X56.597 Y73.174 E30.02723
G1 X57.697 Y72.561 E30.09268
G1 X58.467 Y72.178 E30.13737
G1 X59.269 Y71.868 E30.18206
G1 X60.097 Y71.633 E30.22679
G1 X60.798 Y71.498 E30.26388
G1 X61.496 Y71.391 E30.30058
G1 X62.352 Y71.3 E30.34532
G1 X63.486 Y71.303 E30.40425
G1 X64.051 Y71.339 E30.43367
G1 X64.906 Y71.433 E30.47838
G1 X65.748 Y71.607 E30.52306
G1 X66.771 Y71.932 E30.57884
G1 X67.886 Y72.359 E30.64089
G1 X68.674 Y72.703 E30.68557
G1 X69.618 Y73.24 E30.74201
G1 X70.483 Y73.802 E30.79562
G1 X71.181 Y74.304 E30.8403
G1 X71.807 Y74.846 E30.88334
G1 X72.982 Y75.96 E30.96748
G1 X73.48 Y76.47 E31.00452
G1 X74.873 Y78.011 E31.11248
G1 X75.295 Y78.513 E31.14656
G1 X78.873 Y83.085 E31.44827
G1 X79.038 Y83.302 E31.46244
G1 X89.227 Y97.142 E32.35558
G1 X92.749 Y101.697 E32.65481
G1 X95.637 Y105.214 E32.89131
G1 X97.582 Y107.362 E33.0419
G1 X99.435 Y109.234 E33.17879
G1 X100.896 Y110.557 E33.28122
G1 X102.094 Y111.418 E33.35789
G1 X103.306 Y112.135 E33.43108
G1 X104.315 Y112.599 E33.48879
G1 X105.067 Y112.859 E33.53014
G1 X105.332 Y112.914 E33.54421
G1 X105.39 Y112.883 E33.54762
G1 X105.763 Y112.614 E33.57152
G1 X106.411 Y111.99 E33.61827
G1 X107.242 Y111.067 E33.68282
G1 X109.369 Y108.056 E33.8744
G1 X109.195 Y107.684 E33.89574
G1 X108.825 Y106.765 E33.94723
G1 X108.025 Y104.426 E34.0757
G1 X107.785 Y103.601 E34.12035
G1 X107.622 Y102.756 E34.16507
G1 X107.559 Y102.203 E34.194
G1 X107.37 Y99.939 E34.31207
G1 X107.338 Y99.079 E34.35679
G1 X107.387 Y98.22 E34.4015
G1 X107.51 Y97.395 E34.44485
G1 X107.939 Y95.2 E34.56108
G1 X108.143 Y94.364 E34.6058
G1 X108.424 Y93.551 E34.65051
G1 X108.716 Y92.892 E34.68796
G1 X109.754 Y90.781 E34.81022
G1 X110.169 Y90.028 E34.8549
G1 X110.877 Y89.028 E34.91857
G1 X112.537 Y86.986 E35.05534
G1 X113.11 Y86.345 E35.10002
G1 X113.662 Y85.827 E35.13936
G1 X115.929 Y83.865 E35.29517
G1 X116.917 Y83.119 E35.3595
G1 X119.802 Y81.231 E35.53869
G1 X120.699 Y80.713 E35.59252
G1 X122.291 Y79.91 E35.68518
G1 X122.412 Y79.591 E35.70291
G1 X126.742 Y67.051 E36.39236
G1 X129.258 Y59.453 E36.8083
G1 X129.289 Y59.36 E36.8134
G1 X133.368 Y47.466 E37.46686
G1 X133.457 Y47.22 E37.48045
G1 X136.625 Y38.77 E37.94944
G1 X136.735 Y38.488 E37.96517
G1 X138.375 Y34.514 E38.18859
G1 X138.509 Y34.206 E38.20604
G1 X140.222 Y30.448 E38.42068
G1 X140.615 Y29.683 E38.46537
G1 X140.903 Y29.213 E38.49402
G1 X141.695 Y28.005 E38.56909
G1 X142.2 Y27.309 E38.61377
G1 X142.767 Y26.662 E38.65848
G1 X143.146 Y26.29 E38.68608
G1 X143.633 Y25.839 E38.72058
G1 X144.29 Y25.285 E38.76524
G1 X144.997 Y24.794 E38.80997
G1 X145.421 Y24.543 E38.83558
G1 X146.21 Y24.104 E38.8825
G1 X146.98 Y23.721 E38.92719
G1 X147.717 Y23.434 E38.9683
G1 X148.563 Y23.145 E39.01476
G1 X149.389 Y22.905 E39.05946
G1 X150.233 Y22.743 E39.10412
G1 X150.68 Y22.689 E39.12752
G1 X151.83 Y22.58 E39.18755
G1 X152.689 Y22.539 E39.23224
G1 X153.548 Y22.578 E39.27693
G1 X154.173 Y22.657 E39.30967
G1 X155.285 Y22.836 E39.3682
G1 X156.127 Y23.012 E39.41291
G1 X157 Y23.284 E39.46043
G1 X157.848 Y23.595 E39.50737
G1 X158.641 Y23.928 E39.55207
G1 X159.552 Y24.426 E39.60602
G1 X160.519 Y25.028 E39.66522
G1 X161.227 Y25.516 E39.70991
G1 X161.887 Y26.068 E39.75462
G1 X162.492 Y26.678 E39.79927
G1 X163.225 Y27.601 E39.86052
G1 X164.685 Y29.701 E39.99344
G1 X165.187 Y30.509 E40.04288
G1 X166.898 Y33.607 E40.2268
G1 X167.328 Y34.494 E40.27803
G1 X168.425 Y37.103 E40.42511
G1 X168.626 Y37.625 E40.45418
G1 X170.132 Y41.916 E40.69051
G1 X170.34 Y42.588 E40.72707
G1 X171.873 Y48.317 E41.03528
G1 X171.964 Y48.69 E41.05523
G1 X173.061 Y53.598 E41.31659
G1 X173.109 Y53.827 E41.32875
G1 X174.85 Y62.659 E41.79657
G1 X174.884 Y62.837 E41.80599
G1 X177.088 Y75.298 E42.46362
G1 X177.14 Y75.632 E42.48119
G1 X177.434 Y77.742 E42.5919
G1 X182.631 Y88.884 E43.23083
G1 X182.999 Y89.798 E43.28204
G1 X183.8 Y92.138 E43.41057
G1 X184.041 Y92.964 E43.45529
G1 X184.204 Y93.808 E43.49996
G1 X184.267 Y94.365 E43.52909
G1 X184.456 Y96.63 E43.64721
G1 X184.488 Y97.489 E43.69188
G1 X184.439 Y98.348 E43.7366
G1 X184.316 Y99.175 E43.78005
G1 X183.887 Y101.368 E43.89618
G1 X183.683 Y102.203 E43.94085
G1 X183.402 Y103.016 E43.98555
G1 X183.111 Y103.672 E44.02285
G1 X182.071 Y105.788 E44.14538
G1 X181.656 Y106.541 E44.19006
G1 X180.938 Y107.554 E44.25459
G1 X180.714 Y107.828 E44.27298
G1 X181.222 Y114.68 E44.63005
G1 X181.236 Y114.908 E44.64192
G1 X181.827 Y126.911 E45.26646
G1 X181.835 Y127.13 E45.27785
G1 X182.079 Y136.675 E45.77405
G1 X182.082 Y136.865 E45.78393
G1 X182.127 Y146.003 E46.25883
G1 X182.124 Y146.266 E46.27249
G1 X181.966 Y152.988 E46.62193
G1 X181.953 Y153.307 E46.63852
G1 X181.71 Y157.491 E46.85632
G1 X181.695 Y157.709 E46.86768
G1 X181.016 Y166.01 E47.30051
G1 X180.975 Y166.406 E47.3212
G1 X179.958 Y174.521 E47.74623
G1 X179.913 Y174.836 E47.76277
G1 X179.291 Y178.713 E47.96683
G1 X179.234 Y179.032 E47.98367
G1 X177.797 Y186.344 E48.37093
G1 X177.689 Y186.826 E48.3966
G1 X176.844 Y190.171 E48.5759
G1 X176.769 Y190.45 E48.59091
G1 X175.876 Y193.57 E48.75957
G1 X175.749 Y193.979 E48.78183
G1 X174.792 Y196.819 E48.93757
G1 X174.64 Y197.237 E48.96069
G1 X173.645 Y199.779 E49.10255
G1 X173.37 Y200.41 E49.13832
G1 X172.298 Y202.643 E49.26705
G1 X171.872 Y203.43 E49.31356
G1 X170.763 Y205.262 E49.42485
G1 X170.253 Y206.018 E49.47224
G1 X169.653 Y206.819 E49.52425
G1 X168.88 Y207.724 E49.5861
G1 X168.124 Y208.501 E49.64244
G1 X167.496 Y209.088 E49.68712
G1 X166.889 Y209.564 E49.7272
G1 X166.201 Y210.058 E49.77122
G1 X165.48 Y210.526 E49.81589
G1 X164.836 Y210.87 E49.85384
G1 X163.993 Y211.278 E49.90251
G1 X163.202 Y211.616 E49.94721
G1 X162.129 Y211.945 E50.00554
G1 X161.199 Y212.169 E50.05525
G1 X160.354 Y212.331 E50.09996
G1 X159.151 Y212.425 E50.16267
G1 X157.426 Y212.447 E50.25233
G1 X156.566 Y212.418 E50.29704
G1 X155.921 Y212.343 E50.33079
G1 X154.523 Y212.131 E50.40427
G1 X153.68 Y211.963 E50.44894
G1 X152.826 Y211.707 E50.49528
G1 X149.105 Y210.391 E50.70039
G1 X148.308 Y210.067 E50.7451
G1 X147.555 Y209.676 E50.7892
G1 X142.951 Y207.011 E51.06565
G1 X142.126 Y206.472 E51.11687
G1 X136.722 Y202.521 E51.46476
G1 X136.251 Y202.153 E51.49583
G1 X130.181 Y197.082 E51.90687
G1 X129.802 Y196.747 E51.93316
G1 X123.263 Y190.648 E52.39786
G1 X123.011 Y190.405 E52.41605
G1 X116.05 Y183.401 E52.92924
G1 X115.836 Y183.178 E52.9453
G1 X108.595 Y175.389 E53.49798
G1 X108.388 Y175.159 E53.51406
G1 X101.054 Y166.72 E54.0951
G1 X100.882 Y166.516 E54.10897
G1 X93.525 Y157.541 E54.71207
G1 X93.344 Y157.313 E54.7272
G1 X86.099 Y147.885 E55.34512
G1 X85.919 Y147.642 E55.36084
G1 X78.941 Y137.917 E55.98288
G1 X78.76 Y137.656 E55.99938
G1 X72.159 Y127.757 E56.61771
G1 X71.97 Y127.461 E56.63596
G1 X65.855 Y117.49 E57.24383
G1 X65.634 Y117.11 E57.26668
G1 X60.174 Y107.178 E57.85568
G1 X59.953 Y106.751 E57.88067
G1 X55.244 Y97.018 E58.44258
G1 X54.975 Y96.406 E58.47732
G1 X51.167 Y86.828 E59.01297
G1 X50.887 Y86.015 E59.05766
G1 X50.684 Y85.18 E59.10232
G1 X50.559 Y84.329 E59.14702
G1 X50.513 Y83.47 E59.19172
G1 X50.548 Y82.611 E59.2364
G1 X50.662 Y81.758 E59.28113
G1 X50.855 Y80.92 E59.32582
G1 X51.168 Y79.993 E59.37666
G1 X51.533 Y79.075 E59.428
G1 X51.887 Y78.292 E59.47266
G1 X52.435 Y77.357 E59.52898
G1 X52.907 Y76.65 E59.57316
G1 X53.417 Y75.958 E59.61783
G1 X53.86 Y75.451 E59.65282
G1 X54.36 Y74.919 E59.69076
G1 X54.977 Y74.321 E59.73542
G1 X55.249 Y74.102 E59.75357
G0 F810 X55.648 Y73.782
M204 S5000
M205 X30 Y30
G0 F7200 X55.979 Y74.159
M204 S500
M205 X20 Y20
G1 F6000 E59.78017
G1 F900 X56.841 Y73.611 E59.83326
G1 X57.941 Y72.998 E59.8987
G1 X58.69 Y72.626 E59.94216
G1 X59.471 Y72.327 E59.98562
G1 X60.277 Y72.105 E60.02907
G1 X60.874 Y71.992 E60.06065
G1 X61.572 Y71.885 E60.09734
G1 X62.404 Y71.798 E60.14082
G1 X63.454 Y71.802 E60.19539
G1 X64.019 Y71.838 E60.22481
G1 X64.851 Y71.931 E60.26832
G1 X65.669 Y72.103 E60.31176
G1 X66.592 Y72.399 E60.36213
G1 X67.707 Y72.826 E60.42418
