;FLAVOR:Marlin
;TIME:153
;Filament used: 0.0617236m
;Layer height: 0.2
;Generated with Cura_SteamEngine 3.6.0
M140 S70
M105
M190 S70
M104 S215
M105
M109 S215
M82 ;absolute extrusion mode
G28 ; home all axes
M117 Purge extruder
G92 E0 ; reset extruder
G1 Z1.0 F3000 ; move z up little to prevent scratching of surface
G1 X0.1 Y20 Z0.3 F5000.0 ; move to start-line position G1 X0.1 Y200.0 Z0.3 F1500.0 E15 ; draw 1st line
G1 X0.4 Y200.0 Z0.3 F5000.0 ; move to side a little
G1 X0.4 Y20 Z0.3 F1500.0 E30 ; draw 2nd line
G92 E0 ; reset extruder
G1 Z1.0 F3000 ; move z up little to prevent scratching of surface
M117 All systems go!
G92 E0
G1 F6000 E-5
;LAYER_COUNT:21
;LAYER:0
M107
M204 S5000
M205 X30 Y30
G0 F7200 X115.661 Y30.528 Z0.2
M204 S500
M205 X20 Y20
;TYPE:SKIRT
G1 F6000 E0
G1 F900 X115.936 Y29.687 E0.02943
G1 X116.286 Y28.874 E0.05887
G1 X116.708 Y28.095 E0.08834
G1 X117.199 Y27.359 E0.11776
G1 X117.754 Y26.669 E0.14722
G1 X118.173 Y26.222 E0.16759
G1 X118.29 Y26.105 E0.1731
G1 X118.944 Y25.508 E0.20255
G1 X119.649 Y24.973 E0.23198
G1 X120.399 Y24.503 E0.26142
G1 X121.189 Y24.103 E0.29087
G1 X122.011 Y23.775 E0.32031
G1 X122.86 Y23.524 E0.34976
G1 X123.728 Y23.349 E0.37921
G1 X124.608 Y23.254 E0.40865
G1 X125.22 Y23.235 E0.42901
G1 X128.986 Y23.235 E0.55427
G1 X129.87 Y23.275 E0.5837
G1 X130.747 Y23.395 E0.61314
G1 X131.61 Y23.593 E0.64259
G1 X132.451 Y23.868 E0.67202
G1 X133.264 Y24.218 E0.70146
G1 X134.043 Y24.64 E0.73093
G1 X134.779 Y25.131 E0.76035
G1 X135.469 Y25.686 E0.78981
G1 X135.916 Y26.105 E0.81018
G1 X136.033 Y26.222 E0.81569
G1 X136.63 Y26.876 E0.84514
G1 X137.165 Y27.581 E0.87457
G1 X137.635 Y28.331 E0.90401
G1 X138.035 Y29.121 E0.93346
G1 X138.363 Y29.943 E0.9629
G1 X138.614 Y30.792 E0.99235
G1 X138.789 Y31.66 E1.0218
G1 X138.884 Y32.54 E1.05124
G1 X138.903 Y33.152 E1.0716
G1 X138.903 Y36.918 E1.19686
G1 X138.863 Y37.802 E1.22629
G1 X138.743 Y38.679 E1.25573
G1 X138.545 Y39.542 E1.28518
G1 X138.27 Y40.383 E1.31461
G1 X137.92 Y41.196 E1.34405
G1 X137.498 Y41.975 E1.37352
G1 X137.007 Y42.711 E1.40294
G1 X136.452 Y43.401 E1.4324
G1 X136.033 Y43.848 E1.45277
G1 X135.916 Y43.965 E1.45828
G1 X135.262 Y44.562 E1.48773
G1 X134.557 Y45.097 E1.51717
G1 X133.807 Y45.567 E1.5466
G1 X133.017 Y45.967 E1.57606
G1 X132.195 Y46.295 E1.60549
G1 X131.346 Y46.546 E1.63494
G1 X130.478 Y46.721 E1.66439
G1 X129.598 Y46.816 E1.69383
G1 X128.986 Y46.835 E1.71419
G1 X125.22 Y46.835 E1.83945
G1 X124.336 Y46.795 E1.86888
G1 X123.459 Y46.675 E1.89832
G1 X122.596 Y46.477 E1.92777
G1 X121.755 Y46.202 E1.9572
G1 X120.942 Y45.852 E1.98664
G1 X120.163 Y45.43 E2.01611
G1 X119.427 Y44.939 E2.04554
G1 X118.737 Y44.384 E2.07499
G1 X118.29 Y43.965 E2.09536
G1 X118.173 Y43.848 E2.10087
G1 X117.576 Y43.194 E2.13032
G1 X117.041 Y42.489 E2.15976
G1 X116.571 Y41.739 E2.18919
G1 X116.171 Y40.949 E2.21865
G1 X115.843 Y40.127 E2.24808
G1 X115.592 Y39.278 E2.27753
G1 X115.417 Y38.41 E2.30698
G1 X115.322 Y37.53 E2.33642
G1 X115.303 Y36.918 E2.35678
G1 X115.303 Y33.152 E2.48204
G1 X115.343 Y32.268 E2.51147
G1 X115.463 Y31.391 E2.54091
G1 X115.483 Y31.308 E2.54375
G0 F810 X115.661 Y30.528
M204 S5000
M205 X30 Y30
G0 F7200 X116.061 Y30.583
M204 S500
M205 X20 Y20
G1 F6000 E2.57036
G1 F900 X116.336 Y29.761 E2.59919
G1 X116.686 Y28.968 E2.62802
G1 X117.107 Y28.21 E2.65686
G1 X117.596 Y27.495 E2.68567
G1 X118.149 Y26.827 E2.71451
G1 X118.456 Y26.505 E2.72931
G1 X118.573 Y26.388 E2.73481
G1 X119.214 Y25.804 E2.76366
G1 X119.906 Y25.281 E2.79251
G1 X120.643 Y24.825 E2.82133
G1 X121.418 Y24.438 E2.85014
G1 X122.227 Y24.124 E2.87901
G1 X123.06 Y23.886 E2.90782
G1 X123.912 Y23.726 E2.93665
G1 X124.775 Y23.646 E2.96548
G1 X125.22 Y23.635 E2.98028
G1 X128.986 Y23.635 E3.10554
G1 X129.852 Y23.675 E3.13438
G1 X130.711 Y23.795 E3.16322
G1 X131.555 Y23.993 E3.19206
G1 X132.377 Y24.268 E3.22089
G1 X133.17 Y24.618 E3.24972
G1 X133.928 Y25.039 E3.27856
G1 X134.643 Y25.528 E3.30737
G1 X135.311 Y26.081 E3.33621
G1 X135.633 Y26.388 E3.35101
G1 X135.75 Y26.505 E3.35651
G1 X136.334 Y27.146 E3.38535
G1 X136.857 Y27.838 E3.4142
G1 X137.313 Y28.575 E3.44303
G1 X137.7 Y29.35 E3.47184
G1 X138.014 Y30.159 E3.5007
G1 X138.252 Y30.992 E3.52952
G1 X138.412 Y31.844 E3.55835
G1 X138.492 Y32.707 E3.58718
G1 X138.503 Y33.152 E3.60198
G1 X138.503 Y36.918 E3.72724
G1 X138.463 Y37.784 E3.75607
G1 X138.343 Y38.643 E3.78492
G1 X138.145 Y39.487 E3.81375
G1 X137.87 Y40.309 E3.84258
G1 X137.52 Y41.102 E3.87141
G1 X137.099 Y41.86 E3.90025
G1 X136.61 Y42.575 E3.92906
G1 X136.057 Y43.243 E3.95791
G1 X135.75 Y43.565 E3.9727
G1 X135.633 Y43.682 E3.97821
G1 X134.992 Y44.266 E4.00705
G1 X134.3 Y44.789 E4.0359
G1 X133.563 Y45.245 E4.06472
G1 X132.788 Y45.632 E4.09354
G1 X131.979 Y45.946 E4.1224
G1 X131.146 Y46.184 E4.15121
G1 X130.294 Y46.344 E4.18005
G1 X129.431 Y46.424 E4.20887
G1 X128.986 Y46.435 E4.22368
G1 X125.22 Y46.435 E4.34894
G1 X124.354 Y46.395 E4.37777
G1 X123.495 Y46.275 E4.40662
G1 X122.651 Y46.077 E4.43545
G1 X121.829 Y45.802 E4.46428
G1 X121.036 Y45.452 E4.49311
G1 X120.278 Y45.031 E4.52195
G1 X119.563 Y44.542 E4.55076
G1 X118.895 Y43.989 E4.5796
G1 X118.573 Y43.682 E4.5944
G1 X118.456 Y43.565 E4.5999
G1 X117.872 Y42.924 E4.62874
G1 X117.349 Y42.232 E4.65759
G1 X116.893 Y41.495 E4.68642
G1 X116.506 Y40.72 E4.71523
G1 X116.192 Y39.911 E4.74409
G1 X115.954 Y39.078 E4.77291
G1 X115.794 Y38.226 E4.80174
G1 X115.714 Y37.363 E4.83057
G1 X115.703 Y36.918 E4.84537
G1 X115.703 Y33.152 E4.97063
G1 X115.743 Y32.286 E4.99947
G1 X115.863 Y31.427 E5.02831
G1 X115.879 Y31.362 E5.03054
G0 F810 X116.061 Y30.583
M204 S5000
M205 X30 Y30
G0 F7200 X116.461 Y30.64
M204 S500
M205 X20 Y20
G1 F6000 E5.05715
G1 F900 X116.736 Y29.837 E5.08538
G1 X117.085 Y29.064 E5.11359
G1 X117.505 Y28.328 E5.14177
G1 X117.993 Y27.634 E5.16999
G1 X118.739 Y26.788 E5.20751
G1 X118.856 Y26.671 E5.21301
G1 X119.483 Y26.1 E5.24121
G1 X120.162 Y25.591 E5.26944
G1 X120.885 Y25.148 E5.29764
G1 X121.647 Y24.775 E5.32586
G1 X122.441 Y24.475 E5.35409
G1 X123.259 Y24.251 E5.3823
G1 X124.095 Y24.106 E5.41052
G1 X125.22 Y24.035 E5.44801
G1 X128.986 Y24.035 E5.57327
G1 X129.833 Y24.075 E5.60147
G1 X130.673 Y24.195 E5.62969
G1 X131.498 Y24.393 E5.65791
G1 X132.301 Y24.668 E5.68614
G1 X133.074 Y25.017 E5.71435
G1 X133.81 Y25.437 E5.74254
G1 X134.504 Y25.925 E5.77075
G1 X135.35 Y26.671 E5.80827
G1 X135.467 Y26.788 E5.81377
G1 X136.038 Y27.415 E5.84198
G1 X136.547 Y28.094 E5.8702
G1 X136.99 Y28.817 E5.89841
G1 X137.363 Y29.579 E5.92662
G1 X137.663 Y30.373 E5.95485
G1 X137.887 Y31.191 E5.98306
G1 X138.032 Y32.027 E6.01128
G1 X138.103 Y33.152 E6.04878
G1 X138.103 Y36.918 E6.17403
G1 X138.063 Y37.765 E6.20224
G1 X137.943 Y38.605 E6.23046
G1 X137.745 Y39.43 E6.25868
G1 X137.47 Y40.233 E6.28691
G1 X137.121 Y41.006 E6.31512
G1 X136.701 Y41.742 E6.3433
G1 X136.213 Y42.436 E6.37152
G1 X135.467 Y43.282 E6.40903
G1 X135.35 Y43.399 E6.41454
G1 X134.723 Y43.97 E6.44274
G1 X134.044 Y44.479 E6.47097
G1 X133.321 Y44.922 E6.49917
G1 X132.559 Y45.295 E6.52739
G1 X131.765 Y45.595 E6.55562
G1 X130.947 Y45.819 E6.58383
G1 X130.111 Y45.964 E6.61205
G1 X128.986 Y46.035 E6.64954
G1 X125.22 Y46.035 E6.7748
G1 X124.373 Y45.995 E6.803
G1 X123.533 Y45.875 E6.83122
G1 X122.708 Y45.677 E6.85944
G1 X121.905 Y45.402 E6.88767
G1 X121.132 Y45.053 E6.91588
G1 X120.396 Y44.633 E6.94407
G1 X119.702 Y44.145 E6.97228
G1 X118.856 Y43.399 E7.0098
G1 X118.739 Y43.282 E7.0153
G1 X118.168 Y42.655 E7.04351
G1 X117.659 Y41.976 E7.07173
G1 X117.216 Y41.253 E7.09993
G1 X116.843 Y40.491 E7.12815
G1 X116.543 Y39.697 E7.15638
G1 X116.319 Y38.879 E7.18459
G1 X116.174 Y38.043 E7.21281
G1 X116.103 Y36.918 E7.2503
G1 X116.103 Y33.152 E7.37556
G1 X116.143 Y32.305 E7.40376
G1 X116.263 Y31.465 E7.43199
G1 X116.275 Y31.418 E7.4336
G0 F810 X116.461 Y30.64
M204 S5000
M205 X30 Y30
G0 F7200 X116.861 Y30.698
M204 S500
M205 X20 Y20
G1 F6000 E7.46021
G1 F900 X117.135 Y29.916 E7.48777
G1 X117.484 Y29.163 E7.51537
G1 X117.904 Y28.448 E7.54295
G1 X118.39 Y27.777 E7.57051
G1 X119.022 Y27.071 E7.60202
G1 X119.139 Y26.954 E7.60753
G1 X119.753 Y26.396 E7.63512
G1 X120.418 Y25.901 E7.6627
G1 X121.127 Y25.471 E7.69028
G1 X121.874 Y25.112 E7.71784
G1 X122.653 Y24.827 E7.74543
G1 X123.455 Y24.618 E7.773
G1 X124.274 Y24.487 E7.80058
G1 X125.22 Y24.435 E7.83209
G1 X128.986 Y24.435 E7.95735
G1 X129.814 Y24.475 E7.98492
G1 X130.635 Y24.595 E8.01252
G1 X131.44 Y24.793 E8.04009
G1 X132.222 Y25.067 E8.06765
G1 X132.975 Y25.416 E8.09526
G1 X133.69 Y25.836 E8.12284
G1 X134.361 Y26.322 E8.15039
G1 X135.067 Y26.954 E8.18191
G1 X135.184 Y27.071 E8.18741
G1 X135.742 Y27.685 E8.21501
G1 X136.237 Y28.35 E8.24258
G1 X136.667 Y29.059 E8.27016
G1 X137.026 Y29.806 E8.29772
G1 X137.311 Y30.585 E8.32531
G1 X137.52 Y31.387 E8.35288
G1 X137.651 Y32.206 E8.38047
G1 X137.703 Y33.152 E8.41198
G1 X137.703 Y36.918 E8.53724
G1 X137.663 Y37.746 E8.56481
G1 X137.543 Y38.567 E8.5924
G1 X137.345 Y39.372 E8.61998
G1 X137.071 Y40.154 E8.64754
G1 X136.722 Y40.907 E8.67514
G1 X136.302 Y41.622 E8.70272
G1 X135.816 Y42.293 E8.73028
G1 X135.184 Y42.999 E8.76179
G1 X135.067 Y43.116 E8.7673
G1 X134.453 Y43.674 E8.79489
G1 X133.788 Y44.169 E8.82246
G1 X133.079 Y44.599 E8.85004
G1 X132.332 Y44.958 E8.87761
G1 X131.553 Y45.243 E8.9052
G1 X130.751 Y45.452 E8.93276
G1 X129.932 Y45.583 E8.96035
G1 X128.986 Y45.635 E8.99186
G1 X125.22 Y45.635 E9.11712
G1 X124.392 Y45.595 E9.14469
G1 X123.571 Y45.475 E9.17229
G1 X122.766 Y45.277 E9.19986
G1 X121.984 Y45.003 E9.22742
G1 X121.231 Y44.654 E9.25502
G1 X120.516 Y44.234 E9.2826
G1 X119.845 Y43.748 E9.31016
G1 X119.139 Y43.116 E9.34168
G1 X119.022 Y42.999 E9.34718
G1 X118.464 Y42.385 E9.37477
G1 X117.969 Y41.72 E9.40235
G1 X117.539 Y41.011 E9.42993
G1 X117.18 Y40.264 E9.45749
G1 X116.895 Y39.485 E9.48508
G1 X116.686 Y38.683 E9.51265
G1 X116.555 Y37.864 E9.54023
G1 X116.503 Y36.918 E9.57175
G1 X116.503 Y33.152 E9.697
G1 X116.543 Y32.324 E9.72457
G1 X116.663 Y31.503 E9.75217
G1 X116.67 Y31.475 E9.75313
G0 F810 X116.861 Y30.698
M204 S5000
M205 X30 Y30
G0 F7200 X117.26 Y30.757
M204 S500
M205 X20 Y20
G1 F6000 E9.77974
G1 F900 X117.535 Y29.996 E9.80665
G1 X117.883 Y29.265 E9.83358
G1 X118.302 Y28.571 E9.86054
G1 X118.787 Y27.923 E9.88746
G1 X119.305 Y27.354 E9.91306
G1 X119.422 Y27.237 E9.91856
G1 X120.022 Y26.693 E9.9455
G1 X120.673 Y26.211 E9.97244
G1 X121.368 Y25.796 E9.99936
G1 X122.1 Y25.452 E10.02626
G1 X122.864 Y25.181 E10.05322
G1 X123.65 Y24.987 E10.08015
G1 X124.451 Y24.871 E10.10707
G1 X125.22 Y24.835 E10.13268
G1 X128.986 Y24.835 E10.25793
G1 X129.795 Y24.875 E10.28487
G1 X130.596 Y24.995 E10.31181
G1 X131.381 Y25.192 E10.33873
G1 X132.142 Y25.467 E10.36564
G1 X132.873 Y25.815 E10.39257
G1 X133.567 Y26.234 E10.41953
G1 X134.215 Y26.719 E10.44646
G1 X134.784 Y27.237 E10.47205
G1 X134.901 Y27.354 E10.47755
G1 X135.445 Y27.954 E10.50449
G1 X135.927 Y28.605 E10.53143
G1 X136.342 Y29.3 E10.55835
G1 X136.686 Y30.032 E10.58525
G1 X136.957 Y30.796 E10.61222
G1 X137.151 Y31.582 E10.63914
G1 X137.267 Y32.383 E10.66606
G1 X137.303 Y33.152 E10.69167
G1 X137.303 Y36.918 E10.81693
G1 X137.263 Y37.727 E10.84387
G1 X137.143 Y38.528 E10.8708
G1 X136.946 Y39.313 E10.89772
G1 X136.671 Y40.074 E10.92464
G1 X136.323 Y40.805 E10.95156
G1 X135.904 Y41.499 E10.97853
G1 X135.419 Y42.147 E11.00545
G1 X134.901 Y42.716 E11.03104
G1 X134.784 Y42.833 E11.03654
G1 X134.184 Y43.377 E11.06348
G1 X133.533 Y43.859 E11.09042
G1 X132.838 Y44.274 E11.11735
G1 X132.106 Y44.618 E11.14425
G1 X131.342 Y44.889 E11.17121
G1 X130.556 Y45.083 E11.19814
G1 X129.755 Y45.199 E11.22505
G1 X128.986 Y45.235 E11.25066
G1 X125.22 Y45.235 E11.37592
G1 X124.411 Y45.195 E11.40286
G1 X123.61 Y45.075 E11.4298
G1 X122.825 Y44.878 E11.45672
G1 X122.064 Y44.603 E11.48363
G1 X121.333 Y44.255 E11.51056
G1 X120.639 Y43.836 E11.53752
G1 X119.991 Y43.351 E11.56444
G1 X119.422 Y42.833 E11.59003
G1 X119.305 Y42.716 E11.59554
G1 X118.761 Y42.116 E11.62247
G1 X118.279 Y41.465 E11.64941
G1 X117.864 Y40.77 E11.67634
G1 X117.52 Y40.038 E11.70324
G1 X117.249 Y39.274 E11.7302
G1 X117.055 Y38.488 E11.75713
G1 X116.939 Y37.687 E11.78405
G1 X116.903 Y36.918 E11.80965
G1 X116.903 Y33.152 E11.93491
G1 X116.943 Y32.343 E11.96185
G1 X117.063 Y31.542 E11.98879
G1 X117.066 Y31.533 E11.9891
G0 F810 X117.26 Y30.757
M204 S5000
M205 X30 Y30
G0 F7200 X117.66 Y30.818
M204 S500
M205 X20 Y20
G1 F6000 E12.01571
G1 F900 X117.934 Y30.078 E12.04196
G1 X118.282 Y29.369 E12.06823
G1 X118.7 Y28.698 E12.09452
G1 X119.183 Y28.074 E12.12077
G1 X119.588 Y27.637 E12.14058
G1 X119.705 Y27.52 E12.14609
G1 X120.291 Y26.99 E12.17237
G1 X120.927 Y26.523 E12.19861
G1 X121.607 Y26.122 E12.22487
G1 X122.325 Y25.792 E12.25115
G1 X123.072 Y25.537 E12.2774
G1 X123.841 Y25.358 E12.30366
G1 X124.625 Y25.258 E12.32995
G1 X125.22 Y25.235 E12.34975
G1 X128.986 Y25.235 E12.47501
G1 X129.775 Y25.275 E12.50129
G1 X130.555 Y25.394 E12.52753
G1 X131.32 Y25.592 E12.55381
G1 X132.06 Y25.866 E12.58006
G1 X132.769 Y26.214 E12.60633
G1 X133.44 Y26.632 E12.63262
G1 X134.064 Y27.115 E12.65887
G1 X134.501 Y27.52 E12.67868
G1 X134.618 Y27.637 E12.68419
G1 X135.148 Y28.223 E12.71047
G1 X135.615 Y28.859 E12.73671
G1 X136.016 Y29.539 E12.76297
G1 X136.346 Y30.257 E12.78925
G1 X136.601 Y31.004 E12.8155
G1 X136.78 Y31.773 E12.84176
G1 X136.88 Y32.557 E12.86805
G1 X136.903 Y33.152 E12.88785
G1 X136.903 Y36.918 E13.01311
G1 X136.863 Y37.707 E13.03939
G1 X136.744 Y38.487 E13.06563
G1 X136.546 Y39.252 E13.09191
G1 X136.272 Y39.992 E13.11816
G1 X135.924 Y40.701 E13.14443
G1 X135.506 Y41.372 E13.17072
G1 X135.023 Y41.996 E13.19697
G1 X134.618 Y42.433 E13.21678
G1 X134.501 Y42.55 E13.22229
G1 X133.915 Y43.08 E13.24857
G1 X133.279 Y43.547 E13.27481
G1 X132.599 Y43.948 E13.30107
G1 X131.881 Y44.278 E13.32735
G1 X131.134 Y44.533 E13.3536
G1 X130.365 Y44.712 E13.37986
G1 X129.581 Y44.812 E13.40615
G1 X128.986 Y44.835 E13.42595
G1 X125.22 Y44.835 E13.55121
G1 X124.431 Y44.795 E13.57749
G1 X123.651 Y44.676 E13.60373
G1 X122.886 Y44.478 E13.63001
G1 X122.146 Y44.204 E13.65626
G1 X121.437 Y43.856 E13.68253
G1 X120.766 Y43.438 E13.70882
G1 X120.142 Y42.955 E13.73507
G1 X119.705 Y42.55 E13.75488
G1 X119.588 Y42.433 E13.76039
G1 X119.058 Y41.847 E13.78667
G1 X118.591 Y41.211 E13.81291
G1 X118.19 Y40.531 E13.83917
G1 X117.86 Y39.813 E13.86545
G1 X117.605 Y39.066 E13.8917
G1 X117.426 Y38.297 E13.91796
G1 X117.326 Y37.513 E13.94425
G1 X117.303 Y36.918 E13.96405
G1 X117.303 Y33.152 E14.08931
G1 X117.343 Y32.363 E14.11559
G1 X117.461 Y31.592 E14.14153
G0 F810 X117.462 Y31.583
G0 X117.66 Y30.818
M204 S5000
M205 X30 Y30
G0 F7200 X118.06 Y30.881
M204 S500
M205 X20 Y20
G1 F6000 E14.16814
G1 F900 X118.334 Y30.162 E14.19373
G1 X118.681 Y29.476 E14.2193
G1 X119.097 Y28.829 E14.24488
G1 X119.578 Y28.229 E14.27046
G1 X119.87 Y27.919 E14.28462
G1 X119.987 Y27.802 E14.29013
G1 X120.559 Y27.288 E14.31571
G1 X121.181 Y26.835 E14.3413
G1 X121.846 Y26.449 E14.36687
G1 X122.548 Y26.134 E14.39246
G1 X123.279 Y25.894 E14.41805
G1 X124.03 Y25.731 E14.44361
G1 X124.795 Y25.647 E14.46921
G1 X125.22 Y25.635 E14.48335
G1 X128.986 Y25.635 E14.60861
G1 X129.754 Y25.675 E14.63419
G1 X130.514 Y25.794 E14.65977
G1 X131.257 Y25.992 E14.68535
G1 X131.976 Y26.266 E14.71094
G1 X132.662 Y26.613 E14.73651
G1 X133.309 Y27.029 E14.76209
G1 X133.909 Y27.51 E14.78767
G1 X134.219 Y27.802 E14.80183
G1 X134.336 Y27.919 E14.80734
G1 X134.85 Y28.491 E14.83292
G1 X135.303 Y29.113 E14.85851
G1 X135.689 Y29.778 E14.88408
G1 X136.004 Y30.48 E14.90967
G1 X136.244 Y31.211 E14.93526
G1 X136.407 Y31.962 E14.96082
G1 X136.491 Y32.727 E14.98642
G1 X136.503 Y33.152 E15.00056
G1 X136.503 Y36.918 E15.12582
G1 X136.463 Y37.686 E15.1514
G1 X136.344 Y38.446 E15.17698
G1 X136.146 Y39.189 E15.20256
G1 X135.872 Y39.908 E15.22815
G1 X135.525 Y40.594 E15.25372
G1 X135.109 Y41.241 E15.2793
G1 X134.628 Y41.841 E15.30488
G1 X134.336 Y42.151 E15.31904
G1 X134.219 Y42.268 E15.32455
G1 X133.647 Y42.782 E15.35013
G1 X133.025 Y43.235 E15.37572
G1 X132.36 Y43.621 E15.40129
G1 X131.658 Y43.936 E15.42688
G1 X130.927 Y44.176 E15.45247
G1 X130.176 Y44.339 E15.47803
G1 X129.411 Y44.423 E15.50363
G1 X128.986 Y44.435 E15.51777
