;FLAVOR:Marlin
;TIME:573
;Filament used: 0.323479m
;Layer height: 0.16
;Generated with Cura_SteamEngine 3.6.0
M140 S70
M105
M190 S70
M104 S215
M105
M109 S215
M82 ;absolute extrusion mode
G28 ; home all axes
M117 Purge extruder
G92 E0 ; reset extruder
G1 Z1.0 F3000 ; move z up little to prevent scratching of surface
G1 X0.1 Y20 Z0.3 F5000.0 ; move to start-line position G1 X0.1 Y200.0 Z0.3 F1500.0 E15 ; draw 1st line
G1 X0.4 Y200.0 Z0.3 F5000.0 ; move to side a little
G1 X0.4 Y20 Z0.3 F1500.0 E30 ; draw 2nd line
G92 E0 ; reset extruder
G1 Z1.0 F3000 ; move z up little to prevent scratching of surface
M117 All systems go!
G92 E0
G1 F6000 E-5
;LAYER_COUNT:13
;LAYER:0
M107
M204 S5000
M205 X30 Y30
G0 F7200 X96.95 Y103.922 Z0.2
M204 S500
M205 X20 Y20
;TYPE:SKIRT
G1 F6000 E0
G1 F900 X97.427 Y103.502 E0.02325
G1 X97.953 Y103.144 E0.04653
G1 X98.52 Y102.856 E0.0698
G1 X99.118 Y102.64 E0.09306
G1 X99.739 Y102.502 E0.11633
G1 X100.528 Y102.44 E0.14529
G1 X106.471 Y102.44 E0.36272
G1 X107.106 Y102.48 E0.386
G1 X107.73 Y102.599 E0.40924
G1 X108.335 Y102.796 E0.43252
G1 X108.91 Y103.067 E0.45578
G1 X109.447 Y103.408 E0.47905
G1 X110.049 Y103.922 E0.50801
G1 X110.178 Y104.051 E0.51468
G1 X110.504 Y104.422 E0.53275
G1 X110.821 Y104.051 E0.55061
G1 X110.95 Y103.922 E0.55728
G1 X111.427 Y103.502 E0.58053
G1 X111.953 Y103.144 E0.60381
G1 X112.52 Y102.856 E0.62708
G1 X113.118 Y102.64 E0.65034
G1 X113.739 Y102.502 E0.67362
G1 X114.528 Y102.44 E0.70257
G1 X120.471 Y102.44 E0.92
G1 X121.106 Y102.48 E0.94328
G1 X121.73 Y102.599 E0.96652
G1 X122.335 Y102.796 E0.9898
G1 X122.91 Y103.067 E1.01306
G1 X123.447 Y103.408 E1.03633
G1 X124.049 Y103.922 E1.06529
G1 X124.178 Y104.051 E1.07197
G1 X124.598 Y104.528 E1.09522
G1 X124.956 Y105.054 E1.1185
G1 X125.244 Y105.621 E1.14176
G1 X125.46 Y106.219 E1.16503
G1 X125.598 Y106.84 E1.1883
G1 X125.66 Y107.629 E1.21726
G1 X125.661 Y127.371 E1.93954
G1 X125.621 Y128.005 E1.96278
G1 X125.502 Y128.63 E1.98606
G1 X125.305 Y129.235 E2.00934
G1 X125.034 Y129.81 E2.03259
G1 X124.693 Y130.347 E2.05587
G1 X124.179 Y130.949 E2.08483
G1 X124.05 Y131.078 E2.0915
G1 X123.573 Y131.498 E2.11475
G1 X123.047 Y131.856 E2.13803
G1 X122.48 Y132.144 E2.1613
G1 X121.882 Y132.36 E2.18456
G1 X121.261 Y132.498 E2.20784
G1 X120.472 Y132.56 E2.23679
G1 X114.528 Y132.56 E2.45426
G1 X113.893 Y132.52 E2.47754
G1 X113.269 Y132.401 E2.50078
G1 X112.664 Y132.204 E2.52406
G1 X112.089 Y131.933 E2.54731
G1 X111.552 Y131.592 E2.57059
G1 X110.95 Y131.078 E2.59955
G1 X110.821 Y130.949 E2.60622
G1 X110.495 Y130.579 E2.62426
G1 X110.179 Y130.949 E2.64207
G1 X110.05 Y131.078 E2.64874
G1 X109.573 Y131.498 E2.67199
G1 X109.047 Y131.856 E2.69527
G1 X108.48 Y132.144 E2.71854
G1 X107.882 Y132.36 E2.7418
G1 X107.261 Y132.498 E2.76508
G1 X106.472 Y132.56 E2.79403
G1 X100.528 Y132.56 E3.0115
G1 X99.893 Y132.52 E3.03478
G1 X99.269 Y132.401 E3.05802
G1 X98.664 Y132.204 E3.0813
G1 X98.089 Y131.933 E3.10455
G1 X97.552 Y131.592 E3.12783
G1 X96.95 Y131.078 E3.15679
G1 X96.821 Y130.949 E3.16346
G1 X96.401 Y130.472 E3.18671
G1 X96.043 Y129.946 E3.20999
G1 X95.755 Y129.379 E3.23326
G1 X95.539 Y128.781 E3.25652
G1 X95.401 Y128.16 E3.2798
G1 X95.339 Y127.371 E3.30875
G1 X95.339 Y107.629 E4.03104
G1 X95.379 Y106.994 E4.05431
G1 X95.498 Y106.37 E4.07755
G1 X95.695 Y105.765 E4.10083
G1 X95.966 Y105.19 E4.12409
G1 X96.307 Y104.653 E4.14736
G1 X96.467 Y104.465 E4.15639
G0 F810 X96.821 Y104.051
G0 X96.95 Y103.922
M204 S5000
M205 X30 Y30
G0 F7200 X97.261 Y104.233
M204 S500
M205 X20 Y20
G1 F6000 E4.18299
G1 F900 X97.718 Y103.833 E4.20521
G1 X98.224 Y103.496 E4.22746
G1 X98.769 Y103.228 E4.24968
G1 X99.345 Y103.034 E4.27191
G1 X99.941 Y102.917 E4.29413
G1 X100.528 Y102.88 E4.31565
G1 X106.471 Y102.88 E4.53308
G1 X107.077 Y102.92 E4.5553
G1 X107.673 Y103.039 E4.57754
G1 X108.248 Y103.235 E4.59976
G1 X108.792 Y103.506 E4.622
G1 X109.297 Y103.845 E4.64425
G1 X109.738 Y104.233 E4.66574
G1 X109.867 Y104.362 E4.67242
G1 X110.267 Y104.819 E4.69464
G1 X110.499 Y105.168 E4.70997
G1 X110.744 Y104.803 E4.72605
G1 X111.132 Y104.362 E4.74754
G1 X111.261 Y104.233 E4.75422
G1 X111.718 Y103.833 E4.77644
G1 X112.224 Y103.496 E4.79868
G1 X112.769 Y103.228 E4.8209
G1 X113.345 Y103.034 E4.84314
G1 X113.941 Y102.917 E4.86536
G1 X114.528 Y102.88 E4.88688
G1 X120.471 Y102.88 E5.10431
G1 X121.077 Y102.92 E5.12653
G1 X121.673 Y103.039 E5.14876
G1 X122.248 Y103.235 E5.17099
G1 X122.792 Y103.506 E5.19323
G1 X123.297 Y103.845 E5.21548
G1 X123.738 Y104.233 E5.23697
G1 X123.867 Y104.362 E5.24364
G1 X124.267 Y104.819 E5.26586
G1 X124.604 Y105.325 E5.28811
G1 X124.872 Y105.87 E5.31033
G1 X125.066 Y106.446 E5.33256
G1 X125.183 Y107.042 E5.35478
G1 X125.22 Y107.629 E5.3763
G1 X125.221 Y127.371 E6.09859
G1 X125.181 Y127.977 E6.12081
G1 X125.062 Y128.573 E6.14304
G1 X124.866 Y129.148 E6.16527
G1 X124.596 Y129.692 E6.18749
G1 X124.256 Y130.196 E6.20973
G1 X123.868 Y130.638 E6.23125
G1 X123.739 Y130.767 E6.23792
G1 X123.282 Y131.167 E6.26014
G1 X122.776 Y131.504 E6.28238
G1 X122.231 Y131.772 E6.3046
G1 X121.655 Y131.966 E6.32684
G1 X121.059 Y132.083 E6.34906
G1 X120.472 Y132.12 E6.37058
G1 X114.528 Y132.12 E6.58805
G1 X113.922 Y132.08 E6.61027
G1 X113.326 Y131.961 E6.6325
G1 X112.751 Y131.765 E6.65473
G1 X112.207 Y131.494 E6.67697
G1 X111.702 Y131.155 E6.69922
G1 X111.261 Y130.767 E6.72071
G1 X111.132 Y130.638 E6.72738
G1 X110.732 Y130.181 E6.7496
G1 X110.501 Y129.833 E6.76489
G1 X110.256 Y130.196 E6.78091
G1 X109.868 Y130.638 E6.80243
G1 X109.739 Y130.767 E6.8091
G1 X109.282 Y131.167 E6.83132
G1 X108.776 Y131.504 E6.85356
G1 X108.231 Y131.772 E6.87578
G1 X107.655 Y131.966 E6.89802
G1 X107.059 Y132.083 E6.92024
G1 X106.472 Y132.12 E6.94176
G1 X100.528 Y132.12 E7.15923
G1 X99.922 Y132.08 E7.18145
G1 X99.326 Y131.961 E7.20368
G1 X98.751 Y131.765 E7.22591
G1 X98.207 Y131.494 E7.24814
G1 X97.702 Y131.155 E7.2704
G1 X97.261 Y130.767 E7.29189
G1 X97.132 Y130.638 E7.29856
G1 X96.732 Y130.181 E7.32078
G1 X96.395 Y129.675 E7.34302
G1 X96.127 Y129.13 E7.36524
G1 X95.933 Y128.554 E7.38748
G1 X95.816 Y127.958 E7.4097
G1 X95.779 Y127.371 E7.43122
G1 X95.779 Y107.629 E8.1535
G1 X95.819 Y107.023 E8.17572
G1 X95.938 Y106.427 E8.19796
G1 X96.134 Y105.852 E8.22019
G1 X96.405 Y105.308 E8.24242
G1 X96.744 Y104.803 E8.26467
G1 X96.772 Y104.771 E8.26623
G0 F810 X97.132 Y104.362
G0 X97.261 Y104.233
M204 S5000
M205 X30 Y30
G0 F7200 X97.572 Y104.544
M204 S500
M205 X20 Y20
G1 F6000 E8.29283
G1 F900 X98.008 Y104.165 E8.31396
G1 X98.492 Y103.849 E8.33511
G1 X99.015 Y103.603 E8.35626
G1 X99.567 Y103.432 E8.3774
G1 X100.138 Y103.338 E8.39857
G1 X100.528 Y103.32 E8.41286
G1 X106.471 Y103.32 E8.63029
G1 X107.048 Y103.36 E8.65145
G1 X107.613 Y103.479 E8.67257
G1 X108.157 Y103.675 E8.69373
G1 X108.668 Y103.944 E8.71486
G1 X109.138 Y104.281 E8.73601
G1 X109.427 Y104.544 E8.75031
G1 X109.556 Y104.673 E8.75698
G1 X109.935 Y105.109 E8.77812
G1 X110.251 Y105.593 E8.79927
G1 X110.497 Y106.116 E8.82041
G1 X110.504 Y106.138 E8.82126
G1 X110.574 Y105.943 E8.82884
G1 X110.843 Y105.432 E8.84997
G1 X111.18 Y104.962 E8.87113
G1 X111.443 Y104.673 E8.88542
G1 X111.572 Y104.544 E8.8921
G1 X112.008 Y104.165 E8.91323
G1 X112.492 Y103.849 E8.93438
G1 X113.015 Y103.603 E8.95553
G1 X113.567 Y103.432 E8.97667
G1 X114.138 Y103.338 E8.99784
G1 X114.528 Y103.32 E9.01212
G1 X120.471 Y103.32 E9.22955
G1 X121.048 Y103.36 E9.25072
G1 X121.613 Y103.479 E9.27184
G1 X122.157 Y103.675 E9.293
G1 X122.668 Y103.944 E9.31412
G1 X123.138 Y104.281 E9.33528
G1 X123.427 Y104.544 E9.34958
G1 X123.556 Y104.673 E9.35625
G1 X123.935 Y105.109 E9.37739
G1 X124.251 Y105.593 E9.39854
G1 X124.497 Y106.116 E9.41968
G1 X124.668 Y106.668 E9.44082
G1 X124.762 Y107.239 E9.462
G1 X124.78 Y107.629 E9.47628
G1 X124.781 Y127.371 E10.19856
G1 X124.741 Y127.947 E10.21969
G1 X124.622 Y128.513 E10.24085
G1 X124.426 Y129.057 E10.262
G1 X124.157 Y129.568 E10.28313
G1 X123.82 Y130.038 E10.30429
G1 X123.557 Y130.327 E10.31859
G1 X123.428 Y130.456 E10.32526
G1 X122.992 Y130.835 E10.3464
G1 X122.508 Y131.151 E10.36755
G1 X121.985 Y131.397 E10.38869
G1 X121.433 Y131.568 E10.40983
G1 X120.862 Y131.662 E10.431
G1 X120.472 Y131.68 E10.44529
G1 X114.528 Y131.68 E10.66276
G1 X113.951 Y131.64 E10.68392
G1 X113.386 Y131.521 E10.70504
G1 X112.842 Y131.325 E10.7262
G1 X112.331 Y131.056 E10.74733
G1 X111.861 Y130.719 E10.76848
G1 X111.572 Y130.456 E10.78278
G1 X111.443 Y130.327 E10.78946
G1 X111.064 Y129.891 E10.81059
G1 X110.748 Y129.407 E10.83174
G1 X110.502 Y128.884 E10.85288
G1 X110.496 Y128.864 E10.85365
G1 X110.426 Y129.057 E10.86116
G1 X110.157 Y129.568 E10.88229
G1 X109.82 Y130.038 E10.90345
G1 X109.557 Y130.327 E10.91774
G1 X109.428 Y130.456 E10.92442
G1 X108.992 Y130.835 E10.94555
G1 X108.508 Y131.151 E10.9667
G1 X107.985 Y131.397 E10.98785
G1 X107.433 Y131.568 E11.00899
G1 X106.862 Y131.662 E11.03016
G1 X106.472 Y131.68 E11.04444
G1 X100.528 Y131.68 E11.26191
G1 X99.951 Y131.64 E11.28307
G1 X99.386 Y131.521 E11.3042
G1 X98.842 Y131.325 E11.32535
G1 X98.331 Y131.056 E11.34648
G1 X97.861 Y130.719 E11.36764
G1 X97.572 Y130.456 E11.38194
G1 X97.443 Y130.327 E11.38861
G1 X97.064 Y129.891 E11.40975
G1 X96.748 Y129.407 E11.43089
G1 X96.502 Y128.884 E11.45204
G1 X96.331 Y128.332 E11.47318
G1 X96.237 Y127.761 E11.49435
G1 X96.219 Y127.371 E11.50864
G1 X96.219 Y107.629 E12.23092
G1 X96.259 Y107.052 E12.25208
G1 X96.378 Y106.487 E12.27321
G1 X96.574 Y105.943 E12.29436
G1 X96.843 Y105.432 E12.31549
G1 X97.09 Y105.088 E12.33098
G0 F810 X97.18 Y104.962
G0 X97.443 Y104.673
G0 X97.572 Y104.544
M204 S5000
M205 X30 Y30
G0 F7200 X97.883 Y104.855
M204 S500
M205 X20 Y20
G1 F6000 E12.35758
G1 F900 X98.297 Y104.498 E12.37758
G1 X98.759 Y104.205 E12.3976
G1 X99.258 Y103.982 E12.41759
G1 X99.784 Y103.835 E12.43758
G1 X100.528 Y103.76 E12.46493
G1 X106.471 Y103.76 E12.68237
G1 X107.016 Y103.8 E12.70236
G1 X107.55 Y103.919 E12.72237
G1 X108.06 Y104.114 E12.74235
G1 X108.537 Y104.382 E12.76237
G1 X109.116 Y104.855 E12.78972
G1 X109.245 Y104.984 E12.7964
G1 X109.602 Y105.398 E12.8164
G1 X109.895 Y105.86 E12.83641
G1 X110.118 Y106.359 E12.85641
G1 X110.265 Y106.885 E12.87639
G1 X110.34 Y107.629 E12.90375
G1 X110.341 Y127.371 E13.62603
G1 X110.301 Y127.916 E13.64603
G1 X110.182 Y128.45 E13.66604
G1 X109.987 Y128.96 E13.68602
G1 X109.719 Y129.437 E13.70604
G1 X109.246 Y130.016 E13.73339
G1 X109.117 Y130.145 E13.74006
G1 X108.703 Y130.502 E13.76006
G1 X108.241 Y130.795 E13.78008
G1 X107.742 Y131.018 E13.80008
G1 X107.216 Y131.165 E13.82006
G1 X106.472 Y131.24 E13.84742
G1 X100.528 Y131.24 E14.06488
G1 X99.983 Y131.2 E14.08488
G1 X99.449 Y131.081 E14.10489
G1 X98.939 Y130.886 E14.12487
G1 X98.462 Y130.618 E14.14489
G1 X97.883 Y130.145 E14.17224
G1 X97.754 Y130.016 E14.17891
G1 X97.397 Y129.602 E14.19892
G1 X97.104 Y129.14 E14.21893
G1 X96.881 Y128.641 E14.23893
G1 X96.734 Y128.115 E14.25891
G1 X96.659 Y127.371 E14.28627
G1 X96.659 Y107.629 E15.00855
G1 X96.699 Y107.084 E15.02854
G1 X96.818 Y106.55 E15.04856
G1 X97.013 Y106.04 E15.06854
G1 X97.281 Y105.563 E15.08855
G1 X97.409 Y105.406 E15.09596
G0 F810 X97.754 Y104.984
G0 X97.883 Y104.855
M204 S5000
M205 X30 Y30
G0 F7200 X98.195 Y105.167
M204 S500
M205 X20 Y20
G1 F6000 E15.12256
G1 F900 X98.585 Y104.833 E15.14135
G1 X99.022 Y104.564 E15.16012
G1 X99.496 Y104.366 E15.17892
G1 X99.994 Y104.243 E15.19769
G1 X100.528 Y104.2 E15.21729
G1 X106.471 Y104.2 E15.43472
G1 X106.983 Y104.24 E15.45351
G1 X107.482 Y104.359 E15.47227
G1 X107.957 Y104.554 E15.49106
G1 X108.396 Y104.82 E15.50984
G1 X108.804 Y105.167 E15.52944
G1 X108.933 Y105.296 E15.53611
G1 X109.267 Y105.686 E15.5549
G1 X109.536 Y106.123 E15.57367
G1 X109.734 Y106.597 E15.59246
G1 X109.857 Y107.095 E15.61123
G1 X109.9 Y107.629 E15.63083
G1 X109.901 Y127.371 E16.35312
G1 X109.861 Y127.883 E16.37191
G1 X109.742 Y128.382 E16.39067
G1 X109.547 Y128.857 E16.40946
G1 X109.281 Y129.296 E16.42824
G1 X108.934 Y129.704 E16.44783
G1 X108.805 Y129.833 E16.45451
G1 X108.415 Y130.167 E16.4733
G1 X107.978 Y130.436 E16.49207
G1 X107.504 Y130.634 E16.51086
G1 X107.006 Y130.757 E16.52963
G1 X106.472 Y130.8 E16.54923
G1 X100.528 Y130.8 E16.7667
G1 X100.016 Y130.76 E16.78549
G1 X99.517 Y130.641 E16.80426
G1 X99.042 Y130.446 E16.82304
G1 X98.603 Y130.18 E16.84182
G1 X98.195 Y129.833 E16.86142
G1 X98.066 Y129.704 E16.86809
G1 X97.732 Y129.314 E16.88688
G1 X97.463 Y128.877 E16.90565
G1 X97.265 Y128.403 E16.92445
G1 X97.142 Y127.905 E16.94322
G1 X97.099 Y127.371 E16.96282
G1 X97.099 Y107.629 E17.6851
G1 X97.139 Y107.117 E17.70389
G1 X97.258 Y106.618 E17.72266
G1 X97.453 Y106.143 E17.74144
G1 X97.714 Y105.712 E17.75988
G0 F810 X97.719 Y105.704
G0 X98.066 Y105.296
G0 X98.195 Y105.167
M204 S5000
M205 X30 Y30
G0 F7200 X98.506 Y105.478
M204 S500
M205 X20 Y20
G1 F6000 E17.78648
G1 F900 X98.871 Y105.169 E17.80397
G1 X99.282 Y104.926 E17.82144
G1 X99.728 Y104.754 E17.83893
G1 X100.196 Y104.659 E17.8564
G1 X100.528 Y104.64 E17.86857
G1 X106.471 Y104.64 E18.086
G1 X106.947 Y104.68 E18.10348
G1 X107.41 Y104.799 E18.12097
G1 X107.847 Y104.993 E18.13846
G1 X108.245 Y105.257 E18.15593
G1 X108.493 Y105.478 E18.16808
G1 X108.622 Y105.607 E18.17476
G1 X108.931 Y105.972 E18.19226
G1 X109.174 Y106.383 E18.20972
G1 X109.346 Y106.829 E18.22721
G1 X109.441 Y107.297 E18.24468
G1 X109.46 Y107.629 E18.25685
G1 X109.461 Y127.371 E18.97913
G1 X109.421 Y127.847 E18.99661
G1 X109.302 Y128.31 E19.0141
G1 X109.108 Y128.747 E19.03159
G1 X108.844 Y129.145 E19.04907
G1 X108.623 Y129.393 E19.06122
G1 X108.494 Y129.522 E19.0679
G1 X108.129 Y129.831 E19.08539
G1 X107.718 Y130.074 E19.10286
G1 X107.272 Y130.246 E19.12035
G1 X106.804 Y130.341 E19.13782
G1 X106.472 Y130.36 E19.14999
G1 X100.528 Y130.36 E19.36746
G1 X100.052 Y130.32 E19.38493
G1 X99.589 Y130.201 E19.40242
G1 X99.152 Y130.007 E19.41991
G1 X98.754 Y129.743 E19.43739
G1 X98.506 Y129.522 E19.44954
G1 X98.377 Y129.393 E19.45622
G1 X98.068 Y129.028 E19.47371
G1 X97.825 Y128.617 E19.49118
G1 X97.653 Y128.171 E19.50867
G1 X97.558 Y127.703 E19.52614
G1 X97.539 Y127.371 E19.53831
G1 X97.539 Y107.629 E20.26059
G1 X97.579 Y107.153 E20.27807
G1 X97.698 Y106.69 E20.29556
G1 X97.892 Y106.253 E20.31305
G1 X98.039 Y106.032 E20.32276
G0 F810 X98.156 Y105.855
G0 X98.377 Y105.607
G0 X98.506 Y105.478
M204 S5000
M205 X30 Y30
G0 F7200 X98.817 Y105.789
M204 S500
M205 X20 Y20
G1 F6000 E20.34936
G1 F900 X99.155 Y105.508 E20.36544
G1 X99.538 Y105.292 E20.38153
G1 X99.953 Y105.149 E20.39759
G1 X100.528 Y105.08 E20.41878
G1 X106.471 Y105.08 E20.63621
G1 X106.909 Y105.12 E20.6523
G1 X107.332 Y105.238 E20.66837
G1 X107.727 Y105.431 E20.68445
G1 X108.182 Y105.789 E20.70563
G1 X108.311 Y105.918 E20.71231
G1 X108.592 Y106.256 E20.72839
G1 X108.808 Y106.639 E20.74447
G1 X108.951 Y107.054 E20.76053
G1 X109.02 Y107.629 E20.78172
G1 X109.021 Y127.371 E21.50401
G1 X108.981 Y127.809 E21.5201
G1 X108.863 Y128.232 E21.53616
G1 X108.67 Y128.627 E21.55225
G1 X108.312 Y129.082 E21.57343
G1 X108.183 Y129.211 E21.5801
G1 X107.845 Y129.492 E21.59619
G1 X107.462 Y129.708 E21.61227
G1 X107.047 Y129.851 E21.62833
G1 X106.472 Y129.92 E21.64952
G1 X100.528 Y129.92 E21.86699
G1 X100.09 Y129.88 E21.88308
G1 X99.667 Y129.762 E21.89915
G1 X99.272 Y129.569 E21.91523
G1 X98.817 Y129.211 E21.93641
G1 X98.688 Y129.082 E21.94309
G1 X98.407 Y128.744 E21.95917
G1 X98.191 Y128.361 E21.97526
G1 X98.048 Y127.946 E21.99132
G1 X97.979 Y127.371 E22.0125
G1 X97.979 Y107.629 E22.73479
G1 X98.019 Y107.191 E22.75088
G1 X98.137 Y106.768 E22.76695
G1 X98.33 Y106.373 E22.78303
G1 X98.351 Y106.347 E22.78425
G0 F810 X98.688 Y105.918
G0 X98.817 Y105.789
M204 S5000
M205 X30 Y30
G0 F7200 X99.128 Y106.1
M204 S500
M205 X20 Y20
G1 F6000 E22.81085
G1 F900 X99.436 Y105.848 E22.82541
G1 X99.788 Y105.664 E22.83994
G1 X100.169 Y105.553 E22.85446
G1 X100.528 Y105.52 E22.86765
G1 X106.471 Y105.52 E23.08508
G1 X106.866 Y105.56 E23.09961
G1 X107.246 Y105.678 E23.11417
G1 X107.594 Y105.87 E23.12871
G1 X107.871 Y106.1 E23.14188
G1 X108 Y106.229 E23.14855
G1 X108.252 Y106.537 E23.16311
G1 X108.436 Y106.889 E23.17765
G1 X108.547 Y107.27 E23.19216
G1 X108.58 Y107.629 E23.20535
G1 X108.581 Y127.371 E23.92764
