;FLAVOR:Marlin
;TIME:5146
;Filament used: 6.45522m
;Layer height: 0.2
;Generated with Cura_SteamEngine 3.6.0
M140 S70
M105
M190 S70
M104 S215
M105
M109 S215
M82 ;absolute extrusion mode
G28 ; home all axes
M117 Purge extruder
G92 E0 ; reset extruder
G1 Z1.0 F3000 ; move z up little to prevent scratching of surface
G1 X0.1 Y20 Z0.3 F5000.0 ; move to start-line position G1 X0.1 Y200.0 Z0.3 F1500.0 E15 ; draw 1st line
G1 X0.4 Y200.0 Z0.3 F5000.0 ; move to side a little
G1 X0.4 Y20 Z0.3 F1500.0 E30 ; draw 2nd line
G92 E0 ; reset extruder
G1 Z1.0 F3000 ; move z up little to prevent scratching of surface
M117 All systems go!
G92 E0
G1 F6000 E-5
;LAYER_COUNT:61
;LAYER:0
M107
M204 S5000
M205 X30 Y30
G0 F7200 X92.267 Y93.976 Z0.2
M204 S500
M205 X20 Y20
;TYPE:SKIRT
G1 F6000 E0
G1 F900 X94.677 Y91.633 E0.12297
G1 X95.036 Y91.315 E0.14052
G1 X96.746 Y89.942 E0.22075
G1 X97.133 Y89.661 E0.23825
G1 X99.982 Y87.787 E0.36301
G1 X100.489 Y87.494 E0.38444
G1 X103.545 Y85.957 E0.50959
G1 X104.087 Y85.723 E0.53119
G1 X107.306 Y84.55 E0.65653
G1 X107.868 Y84.381 E0.678
G1 X111.208 Y83.587 E0.80361
G1 X111.793 Y83.484 E0.82534
G1 X115.187 Y83.089 E0.95035
G1 X115.771 Y83.055 E0.97175
G1 X119.186 Y83.054 E1.0967
G1 X119.772 Y83.088 E1.11817
G1 X123.183 Y83.485 E1.24381
G1 X123.766 Y83.588 E1.26547
G1 X127.088 Y84.376 E1.39038
G1 X127.65 Y84.544 E1.41184
G1 X130.869 Y85.715 E1.53716
G1 X131.41 Y85.948 E1.55871
G1 X134.471 Y87.485 E1.68403
G1 X134.98 Y87.779 E1.70553
G1 X137.841 Y89.66 E1.8308
G1 X138.313 Y90.011 E1.85232
G1 X140.933 Y92.209 E1.97744
G1 X141.36 Y92.612 E1.99893
G1 X143.714 Y95.105 E2.12437
G1 X144.093 Y95.556 E2.14592
G1 X146.129 Y98.289 E2.27061
G1 X146.452 Y98.779 E2.29208
G1 X148.172 Y101.754 E2.41781
G1 X148.437 Y102.283 E2.43945
G1 X149.79 Y105.419 E2.56441
G1 X149.991 Y105.97 E2.58587
G1 X150.974 Y109.25 E2.71115
G1 X151.11 Y109.822 E2.73266
G1 X151.705 Y113.188 E2.85771
G1 X151.773 Y113.772 E2.87922
G1 X151.974 Y117.195 E3.00467
G1 X151.975 Y117.781 E3.02611
G1 X151.783 Y121.138 E3.14913
G1 X151.718 Y121.708 E3.17012
G1 X151.147 Y125.022 E3.29316
G1 X151.015 Y125.589 E3.31446
G1 X150.07 Y128.806 E3.43713
G1 X149.876 Y129.35 E3.45826
G1 X148.565 Y132.452 E3.58147
G1 X148.311 Y132.969 E3.60254
G1 X146.658 Y135.898 E3.72559
G1 X146.345 Y136.384 E3.74674
G1 X144.374 Y139.098 E3.86946
G1 X144.008 Y139.546 E3.89062
G1 X141.731 Y142.027 E4.01383
G1 X141.318 Y142.429 E4.03491
G1 X138.786 Y144.625 E4.15754
G1 X138.328 Y144.978 E4.17869
G1 X135.551 Y146.878 E4.3018
G1 X135.057 Y147.176 E4.3229
G1 X132.082 Y148.747 E4.44599
G1 X131.555 Y148.988 E4.46719
G1 X128.425 Y150.207 E4.59008
G1 X127.878 Y150.385 E4.61113
G1 X124.629 Y151.241 E4.73405
G1 X124.06 Y151.356 E4.75529
G1 X120.73 Y151.835 E4.87838
G1 X120.156 Y151.885 E4.89946
G1 X116.799 Y151.982 E5.02233
G1 X116.22 Y151.965 E5.04352
G1 X112.863 Y151.677 E5.16679
G1 X112.289 Y151.595 E5.18801
G1 X109.005 Y150.928 E5.31061
G1 X108.45 Y150.782 E5.33161
G1 X105.252 Y149.744 E5.45462
G1 X104.713 Y149.534 E5.47578
G1 X101.659 Y148.14 E5.5986
G1 X101.15 Y147.872 E5.61965
G1 X98.27 Y146.138 E5.74264
G1 X97.789 Y145.809 E5.76396
G1 X95.118 Y143.748 E5.88739
G1 X94.816 Y143.496 E5.90178
G1 X93.901 Y142.669 E5.94691
G1 X93.615 Y142.389 E5.96155
G1 X91.258 Y139.893 E6.08715
G1 X90.879 Y139.442 E6.1087
G1 X88.841 Y136.706 E6.23352
G1 X88.517 Y136.213 E6.25511
G1 X86.799 Y133.238 E6.3808
G1 X86.534 Y132.711 E6.40238
G1 X85.179 Y129.568 E6.5276
G1 X84.979 Y129.016 E6.54908
G1 X84 Y125.746 E6.67396
G1 X83.89 Y125.309 E6.69045
G1 X83.526 Y123.529 E6.75692
G1 X83.456 Y123.092 E6.77311
G1 X83.074 Y119.764 E6.89567
G1 X83.041 Y119.189 E6.91674
G1 X83.04 Y115.82 E7.04
G1 X83.073 Y115.241 E7.06122
G1 X83.455 Y111.914 E7.18374
G1 X83.525 Y111.476 E7.19997
G1 X83.89 Y109.693 E7.26655
G1 X83.955 Y109.414 E7.27703
G1 X84.353 Y107.91 E7.33395
G1 X84.48 Y107.502 E7.34959
G1 X85.611 Y104.336 E7.47259
G1 X85.835 Y103.807 E7.49361
G1 X87.311 Y100.803 E7.61606
G1 X87.595 Y100.299 E7.63723
G1 X89.419 Y97.46 E7.76068
G1 X89.758 Y96.993 E7.7818
G1 X91.782 Y94.517 E7.8988
G0 F810 X91.876 Y94.402
G0 X92.267 Y93.976
M204 S5000
M205 X30 Y30
G0 F7200 X92.574 Y94.291
M204 S500
M205 X20 Y20
G1 F6000 E7.9254
G1 F900 X94.984 Y91.948 E8.04837
G1 X95.311 Y91.659 E8.06434
G1 X97.021 Y90.286 E8.14457
G1 X97.375 Y90.028 E8.1606
G1 X100.224 Y88.154 E8.28536
G1 X100.687 Y87.887 E8.30491
G1 X103.743 Y86.35 E8.43007
G1 X104.237 Y86.136 E8.44976
G1 X107.456 Y84.963 E8.57511
G1 X107.969 Y84.809 E8.5947
G1 X111.309 Y84.015 E8.72031
G1 X111.844 Y83.921 E8.74018
G1 X115.238 Y83.526 E8.86519
G1 X115.771 Y83.495 E8.88473
G1 X119.186 Y83.494 E9.00967
G1 X119.721 Y83.525 E9.02927
G1 X123.132 Y83.922 E9.15491
G1 X123.664 Y84.016 E9.17468
G1 X126.986 Y84.804 E9.29959
G1 X127.499 Y84.957 E9.31917
G1 X130.718 Y86.128 E9.4445
G1 X131.212 Y86.341 E9.46418
G1 X134.273 Y87.878 E9.58949
G1 X134.738 Y88.147 E9.60915
G1 X137.599 Y90.028 E9.73442
G1 X138.03 Y90.349 E9.75408
G1 X140.65 Y92.547 E9.8792
G1 X141.04 Y92.914 E9.89879
G1 X143.394 Y95.407 E10.02424
G1 X143.74 Y95.819 E10.04392
G1 X145.776 Y98.552 E10.16861
G1 X146.071 Y99 E10.18823
G1 X147.791 Y101.975 E10.31396
G1 X148.033 Y102.457 E10.33369
G1 X149.386 Y105.593 E10.45865
G1 X149.57 Y106.097 E10.47828
G1 X150.553 Y109.377 E10.60355
G1 X150.676 Y109.899 E10.62317
G1 X151.271 Y113.265 E10.74823
G1 X151.334 Y113.798 E10.76787
G1 X151.535 Y117.221 E10.89332
G1 X151.535 Y117.756 E10.91289
G1 X151.343 Y121.113 E11.03591
G1 X151.284 Y121.633 E11.05506
G1 X150.713 Y124.947 E11.17809
G1 X150.593 Y125.465 E11.19754
G1 X149.648 Y128.682 E11.32022
G1 X149.471 Y129.179 E11.33952
G1 X148.16 Y132.281 E11.46273
G1 X147.927 Y132.753 E11.48199
G1 X146.274 Y135.682 E11.60503
G1 X145.989 Y136.126 E11.62434
G1 X144.018 Y138.84 E11.74705
G1 X143.684 Y139.249 E11.76637
G1 X141.407 Y141.73 E11.88958
G1 X141.03 Y142.096 E11.9088
G1 X138.498 Y144.292 E12.03142
G1 X138.08 Y144.615 E12.05075
G1 X135.303 Y146.515 E12.17386
G1 X134.851 Y146.787 E12.19316
G1 X131.876 Y148.358 E12.31624
G1 X131.396 Y148.578 E12.33556
G1 X128.266 Y149.797 E12.45845
G1 X127.766 Y149.96 E12.47769
G1 X124.517 Y150.816 E12.60062
G1 X123.998 Y150.921 E12.61999
G1 X120.668 Y151.4 E12.74308
G1 X120.143 Y151.445 E12.76236
G1 X116.786 Y151.542 E12.88523
G1 X116.258 Y151.527 E12.90455
G1 X112.901 Y151.239 E13.02782
G1 X112.376 Y151.164 E13.04723
G1 X109.092 Y150.497 E13.16983
G1 X108.586 Y150.363 E13.18898
G1 X105.388 Y149.325 E13.31199
G1 X104.896 Y149.134 E13.3313
G1 X101.842 Y147.74 E13.45412
G1 X101.377 Y147.495 E13.47335
G1 X98.497 Y145.761 E13.59634
G1 X98.058 Y145.461 E13.6158
G1 X95.387 Y143.4 E13.73923
G1 X95.111 Y143.169 E13.7524
G1 X94.196 Y142.342 E13.79752
G1 X93.935 Y142.087 E13.81087
G1 X91.578 Y139.591 E13.93647
G1 X91.232 Y139.179 E13.95615
G1 X89.194 Y136.443 E14.08097
G1 X88.898 Y135.993 E14.10068
G1 X87.18 Y133.018 E14.22637
G1 X86.938 Y132.537 E14.24607
G1 X85.583 Y129.394 E14.37129
G1 X85.4 Y128.89 E14.39091
G1 X84.421 Y125.62 E14.51579
G1 X84.321 Y125.221 E14.53084
G1 X83.957 Y123.441 E14.59731
G1 X83.893 Y123.042 E14.61209
G1 X83.511 Y119.714 E14.73465
G1 X83.481 Y119.188 E14.75393
G1 X83.48 Y115.819 E14.87719
G1 X83.51 Y115.291 E14.89654
G1 X83.892 Y111.964 E15.01906
G1 X83.956 Y111.564 E15.03388
G1 X84.321 Y109.781 E15.10046
G1 X84.381 Y109.526 E15.11005
G1 X84.779 Y108.022 E15.16697
G1 X84.894 Y107.65 E15.18121
G1 X86.025 Y104.484 E15.30421
G1 X86.229 Y104.001 E15.3234
G1 X87.705 Y100.997 E15.44585
G1 X87.965 Y100.537 E15.46518
G1 X89.789 Y97.698 E15.58864
G1 X90.099 Y97.271 E15.60795
G1 X92.091 Y94.834 E15.7231
G0 F810 X92.217 Y94.68
G0 X92.574 Y94.291
M204 S5000
M205 X30 Y30
G0 F7200 X92.88 Y94.607
M204 S500
M205 X20 Y20
G1 F6000 E15.7497
G1 F900 X95.29 Y92.264 E15.87268
G1 X95.587 Y92.002 E15.88717
G1 X97.297 Y90.629 E15.9674
G1 X97.617 Y90.396 E15.98188
G1 X100.466 Y88.522 E16.10664
G1 X100.885 Y88.28 E16.12435
G1 X103.941 Y86.743 E16.2495
G1 X104.388 Y86.55 E16.26731
G1 X107.607 Y85.377 E16.39266
G1 X108.071 Y85.237 E16.41039
G1 X111.411 Y84.443 E16.53599
G1 X111.895 Y84.358 E16.55397
G1 X115.289 Y83.963 E16.67898
G1 X115.771 Y83.935 E16.69665
G1 X119.186 Y83.934 E16.82159
G1 X119.67 Y83.962 E16.83933
G1 X123.081 Y84.359 E16.96496
G1 X123.563 Y84.444 E16.98287
G1 X126.885 Y85.232 E17.10778
G1 X127.349 Y85.371 E17.1255
G1 X130.568 Y86.542 E17.25082
G1 X131.015 Y86.734 E17.26862
G1 X134.076 Y88.271 E17.39394
G1 X134.496 Y88.514 E17.41169
G1 X137.357 Y90.395 E17.53696
G1 X137.748 Y90.686 E17.55479
G1 X140.368 Y92.884 E17.67991
G1 X140.72 Y93.216 E17.69762
G1 X143.074 Y95.709 E17.82306
G1 X143.387 Y96.082 E17.84088
G1 X145.423 Y98.815 E17.96556
G1 X145.69 Y99.22 E17.98331
G1 X147.41 Y102.195 E18.10904
G1 X147.629 Y102.631 E18.12689
G1 X148.982 Y105.767 E18.25184
G1 X149.148 Y106.223 E18.2696
G1 X150.131 Y109.503 E18.39487
G1 X150.243 Y109.975 E18.41262
G1 X150.838 Y113.341 E18.53768
G1 X150.895 Y113.824 E18.55547
G1 X151.096 Y117.247 E18.68092
G1 X151.096 Y117.731 E18.69863
G1 X150.904 Y121.088 E18.82165
G1 X150.85 Y121.559 E18.839
G1 X150.279 Y124.873 E18.96203
G1 X150.171 Y125.341 E18.9796
G1 X149.226 Y128.558 E19.10227
G1 X149.065 Y129.007 E19.11972
G1 X147.754 Y132.109 E19.24293
G1 X147.544 Y132.536 E19.26034
G1 X145.891 Y135.465 E19.38339
G1 X145.633 Y135.867 E19.40087
G1 X143.662 Y138.581 E19.52358
G1 X143.36 Y138.951 E19.54106
G1 X141.083 Y141.432 E19.66426
G1 X140.742 Y141.764 E19.68167
G1 X138.21 Y143.96 E19.8043
G1 X137.831 Y144.252 E19.8218
G1 X135.054 Y146.152 E19.94491
G1 X134.646 Y146.398 E19.96234
G1 X131.671 Y147.969 E20.08542
G1 X131.236 Y148.168 E20.10293
G1 X128.106 Y149.387 E20.22582
G1 X127.654 Y149.534 E20.24321
G1 X124.405 Y150.39 E20.36613
G1 X123.935 Y150.485 E20.38368
G1 X120.605 Y150.964 E20.50676
G1 X120.131 Y151.005 E20.52417
G1 X116.774 Y151.102 E20.64704
G1 X116.296 Y151.089 E20.66453
G1 X112.939 Y150.801 E20.7878
G1 X112.464 Y150.732 E20.80537
G1 X109.18 Y150.065 E20.92797
G1 X108.722 Y149.945 E20.94529
G1 X105.524 Y148.907 E21.0683
G1 X105.078 Y148.734 E21.0858
G1 X102.024 Y147.34 E21.20863
G1 X101.604 Y147.118 E21.22601
G1 X98.724 Y145.384 E21.349
G1 X98.326 Y145.112 E21.36664
G1 X95.655 Y143.051 E21.49007
G1 X95.406 Y142.843 E21.50194
G1 X94.491 Y142.016 E21.54706
G1 X94.255 Y141.785 E21.55914
G1 X91.898 Y139.289 E21.68474
G1 X91.585 Y138.916 E21.70256
G1 X89.547 Y136.18 E21.82738
G1 X89.279 Y135.773 E21.84521
G1 X87.561 Y132.798 E21.97089
G1 X87.343 Y132.363 E21.9887
G1 X85.988 Y129.22 E22.11392
G1 X85.822 Y128.764 E22.13167
G1 X84.843 Y125.494 E22.25656
G1 X84.752 Y125.132 E22.27021
G1 X84.388 Y123.352 E22.33668
G1 X84.33 Y122.992 E22.35002
G1 X83.948 Y119.664 E22.47258
G1 X83.921 Y119.188 E22.49002
G1 X83.92 Y115.819 E22.61328
G1 X83.947 Y115.341 E22.6308
G1 X84.329 Y112.014 E22.75332
G1 X84.387 Y111.653 E22.7667
G1 X84.752 Y109.87 E22.83328
G1 X84.806 Y109.639 E22.84196
G1 X85.204 Y108.135 E22.89888
G1 X85.309 Y107.798 E22.9118
G1 X86.44 Y104.632 E23.0348
G1 X86.624 Y104.195 E23.05215
G1 X88.1 Y101.191 E23.1746
G1 X88.335 Y100.775 E23.19208
G1 X90.159 Y97.936 E23.31554
G1 X90.44 Y97.549 E23.33304
G1 X92.4 Y95.152 E23.44632
G0 F810 X92.558 Y94.958
G0 X92.88 Y94.607
M204 S5000
M205 X30 Y30
G0 F7200 X93.187 Y94.922
M204 S500
M205 X20 Y20
G1 F6000 E23.47292
G1 F900 X95.597 Y92.579 E23.59589
G1 X95.862 Y92.345 E23.60883
G1 X97.572 Y90.972 E23.68906
G1 X97.859 Y90.763 E23.70205
G1 X100.708 Y88.889 E23.82681
G1 X101.083 Y88.673 E23.84264
G1 X104.139 Y87.136 E23.96779
G1 X104.539 Y86.963 E23.98374
G1 X107.758 Y85.79 E24.10909
G1 X108.173 Y85.665 E24.12494
G1 X111.513 Y84.871 E24.25055
G1 X111.946 Y84.795 E24.26663
G1 X115.34 Y84.4 E24.39164
G1 X115.771 Y84.375 E24.40744
G1 X119.186 Y84.374 E24.53238
G1 X119.619 Y84.399 E24.54825
G1 X123.03 Y84.796 E24.67388
G1 X123.461 Y84.872 E24.6899
G1 X126.783 Y85.66 E24.81481
G1 X127.199 Y85.784 E24.83069
G1 X130.418 Y86.955 E24.95601
G1 X130.817 Y87.128 E24.97192
G1 X133.878 Y88.665 E25.09724
G1 X134.255 Y88.882 E25.11315
G1 X137.116 Y90.763 E25.23842
G1 X137.465 Y91.023 E25.25434
G1 X140.085 Y93.221 E25.37946
G1 X140.4 Y93.518 E25.3953
G1 X142.754 Y96.011 E25.52075
G1 X143.034 Y96.345 E25.53669
G1 X145.07 Y99.078 E25.66138
G1 X145.309 Y99.44 E25.67725
G1 X147.029 Y102.415 E25.80298
G1 X147.225 Y102.805 E25.81895
G1 X148.578 Y105.941 E25.9439
G1 X148.727 Y106.349 E25.95979
G1 X149.71 Y109.629 E26.08507
G1 X149.81 Y110.052 E26.10097
G1 X150.405 Y113.418 E26.22603
G1 X150.456 Y113.85 E26.24195
G1 X150.657 Y117.273 E26.3674
G1 X150.657 Y117.706 E26.38324
G1 X150.465 Y121.063 E26.50626
G1 X150.417 Y121.484 E26.52176
G1 X149.846 Y124.798 E26.64479
G1 X149.748 Y125.217 E26.66054
G1 X148.803 Y128.434 E26.78321
G1 X148.66 Y128.836 E26.79882
G1 X147.349 Y131.938 E26.92203
G1 X147.161 Y132.32 E26.9376
G1 X145.508 Y135.249 E27.06065
G1 X145.277 Y135.609 E27.0763
G1 X143.306 Y138.323 E27.19902
G1 X143.035 Y138.654 E27.21467
G1 X140.758 Y141.135 E27.33787
G1 X140.453 Y141.431 E27.35342
G1 X137.921 Y143.627 E27.47605
G1 X137.583 Y143.889 E27.49169
G1 X134.806 Y145.789 E27.6148
G1 X134.44 Y146.009 E27.63042
G1 X131.465 Y147.58 E27.75351
G1 X131.076 Y147.758 E27.76916
G1 X127.946 Y148.977 E27.89205
G1 X127.542 Y149.109 E27.9076
G1 X124.293 Y149.965 E28.03053
G1 X123.872 Y150.05 E28.04624
G1 X120.542 Y150.529 E28.16933
G1 X120.118 Y150.565 E28.18489
G1 X116.761 Y150.662 E28.30777
G1 X116.333 Y150.65 E28.32343
G1 X112.976 Y150.362 E28.4467
G1 X112.552 Y150.301 E28.46237
G1 X109.268 Y149.634 E28.58498
G1 X108.857 Y149.526 E28.60052
G1 X105.659 Y148.488 E28.72353
G1 X105.261 Y148.333 E28.73916
G1 X102.207 Y146.939 E28.86198
G1 X101.831 Y146.741 E28.87753
G1 X98.951 Y145.007 E29.00052
G1 X98.595 Y144.764 E29.01629
G1 X95.924 Y142.703 E29.13973
G1 X95.701 Y142.517 E29.15035
G1 X94.786 Y141.69 E29.19547
G1 X94.575 Y141.483 E29.20629
G1 X92.218 Y138.987 E29.33189
G1 X91.938 Y138.653 E29.34783
G1 X89.9 Y135.917 E29.47265
G1 X89.66 Y135.553 E29.4886
G1 X87.942 Y132.578 E29.61429
G1 X87.747 Y132.189 E29.63021
G1 X86.392 Y129.046 E29.75543
G1 X86.243 Y128.638 E29.77132
G1 X85.264 Y125.368 E29.89621
G1 X85.183 Y125.044 E29.90843
G1 X84.819 Y123.264 E29.9749
G1 X84.767 Y122.941 E29.98687
G1 X84.385 Y119.613 E30.10943
G1 X84.361 Y119.188 E30.125
G1 X84.36 Y115.819 E30.24826
G1 X84.384 Y115.391 E30.26394
G1 X84.766 Y112.064 E30.38646
G1 X84.818 Y111.741 E30.39843
G1 X85.183 Y109.958 E30.46502
G1 X85.231 Y109.751 E30.47279
G1 X85.629 Y108.247 E30.52971
G1 X85.723 Y107.946 E30.54125
G1 X86.854 Y104.78 E30.66425
G1 X87.019 Y104.389 E30.67978
G1 X88.495 Y101.385 E30.80223
G1 X88.705 Y101.012 E30.81789
G1 X90.529 Y98.173 E30.94135
G1 X90.78 Y97.828 E30.95696
G1 X92.709 Y95.469 E31.06845
G0 F810 X92.898 Y95.237
G0 X93.187 Y94.922
M204 S5000
M205 X30 Y30
G0 F7200 X93.494 Y95.238
M204 S500
M205 X20 Y20
G1 F6000 E31.09505
G1 F900 X95.904 Y92.895 E31.21802
G1 X96.138 Y92.688 E31.22945
G1 X97.848 Y91.315 E31.30968
G1 X98.1 Y91.131 E31.3211
G1 X100.949 Y89.257 E31.44586
G1 X101.28 Y89.066 E31.45984
G1 X104.336 Y87.529 E31.58499
G1 X104.689 Y87.376 E31.59907
G1 X107.908 Y86.203 E31.72442
G1 X108.275 Y86.093 E31.73843
G1 X111.615 Y85.299 E31.86404
G1 X111.997 Y85.232 E31.87823
G1 X115.391 Y84.837 E32.00324
G1 X115.771 Y84.815 E32.01716
G1 X119.186 Y84.814 E32.14211
G1 X119.569 Y84.836 E32.15614
G1 X122.98 Y85.233 E32.28178
G1 X123.36 Y85.3 E32.2959
G1 X126.682 Y86.088 E32.42081
G1 X127.048 Y86.198 E32.43479
G1 X130.267 Y87.369 E32.56011
G1 X130.62 Y87.521 E32.57417
G1 X133.681 Y89.058 E32.69949
G1 X134.013 Y89.25 E32.71352
G1 X136.874 Y91.131 E32.83879
G1 X137.182 Y91.36 E32.85283
G1 X139.802 Y93.558 E32.97795
G1 X140.08 Y93.82 E32.99193
G1 X142.434 Y96.313 E33.11737
G1 X142.681 Y96.608 E33.13145
G1 X144.717 Y99.341 E33.25614
G1 X144.928 Y99.66 E33.27013
G1 X146.648 Y102.635 E33.39585
G1 X146.821 Y102.98 E33.40997
G1 X148.174 Y106.116 E33.53493
G1 X148.305 Y106.476 E33.54895
G1 X149.288 Y109.756 E33.67422
G1 X149.377 Y110.129 E33.68825
G1 X149.972 Y113.495 E33.81331
G1 X150.016 Y113.876 E33.82734
G1 X150.217 Y117.299 E33.95279
G1 X150.218 Y117.68 E33.96673
