;FLAVOR:Marlin
;TIME:2203
;Filament used: 1.7189m
;Layer height: 0.16
;Generated with Cura_SteamEngine 3.6.0
M140 S70
M105
M190 S70
M104 S215
M105
M109 S215
M82 ;absolute extrusion mode
G28 ; home all axes
M117 Purge extruder
G92 E0 ; reset extruder
G1 Z1.0 F3000 ; move z up little to prevent scratching of surface
G1 X0.1 Y20 Z0.3 F5000.0 ; move to start-line position G1 X0.1 Y200.0 Z0.3 F1500.0 E15 ; draw 1st line
G1 X0.4 Y200.0 Z0.3 F5000.0 ; move to side a little
G1 X0.4 Y20 Z0.3 F1500.0 E30 ; draw 2nd line
G92 E0 ; reset extruder
G1 Z1.0 F3000 ; move z up little to prevent scratching of surface
M117 All systems go!
G92 E0
G1 F6000 E-5
;LAYER_COUNT:32
;LAYER:0
M107
M204 S5000
M205 X30 Y30
G0 F7200 X96.69 Y96.351 Z0.2
M204 S500
M205 X20 Y20
;TYPE:SKIRT
G1 F6000 E0
G1 F900 X98.479 Y94.728 E0.08837
G1 X98.861 Y94.414 E0.10647
G1 X100.802 Y92.972 E0.19493
G1 X101.221 Y92.693 E0.21335
G1 X103.294 Y91.452 E0.30174
G1 X103.729 Y91.219 E0.3198
G1 X105.913 Y90.186 E0.40819
G1 X106.369 Y89.997 E0.42625
G1 X108.645 Y89.181 E0.51471
G1 X109.123 Y89.036 E0.53298
G1 X111.453 Y88.452 E0.62087
G1 X111.94 Y88.355 E0.63903
G1 X114.339 Y87.999 E0.72777
G1 X114.833 Y87.95 E0.74593
G1 X117.246 Y87.831 E0.83432
G1 X117.742 Y87.831 E0.85246
G1 X120.154 Y87.949 E0.94082
G1 X120.647 Y87.997 E0.95894
G1 X123.048 Y88.352 E1.04774
G1 X123.537 Y88.449 E1.06597
G1 X125.866 Y89.032 E1.15381
G1 X126.34 Y89.176 E1.17194
G1 X128.617 Y89.99 E1.26041
G1 X129.077 Y90.18 E1.27862
G1 X131.262 Y91.213 E1.36704
G1 X131.696 Y91.446 E1.38506
G1 X133.769 Y92.686 E1.47344
G1 X134.189 Y92.966 E1.49191
G1 X136.129 Y94.407 E1.58032
G1 X136.509 Y94.718 E1.59829
G1 X138.299 Y96.339 E1.68664
G1 X138.651 Y96.691 E1.70485
G1 X140.273 Y98.48 E1.7932
G1 X140.585 Y98.861 E1.81122
G1 X142.026 Y100.8 E1.8996
G1 X142.307 Y101.219 E1.91806
G1 X143.549 Y103.294 E2.00654
G1 X143.78 Y103.728 E2.02452
G1 X144.814 Y105.912 E2.11293
G1 X145.004 Y106.369 E2.13104
G1 X145.82 Y108.645 E2.2195
G1 X145.965 Y109.121 E2.2377
G1 X146.549 Y111.448 E2.32548
G1 X146.646 Y111.938 E2.34376
G1 X147.002 Y114.338 E2.43252
G1 X147.051 Y114.833 E2.45072
G1 X147.169 Y117.247 E2.53915
G1 X147.169 Y117.739 E2.55715
G1 X147.052 Y120.152 E2.64553
G1 X147.004 Y120.647 E2.66373
G1 X146.649 Y123.048 E2.75253
G1 X146.552 Y123.537 E2.77077
G1 X145.969 Y125.866 E2.8586
G1 X145.825 Y126.34 E2.87673
G1 X145.012 Y128.615 E2.96512
G1 X144.821 Y129.075 E2.98334
G1 X143.787 Y131.262 E3.07185
G1 X143.554 Y131.698 E3.08993
G1 X142.313 Y133.771 E3.17833
G1 X142.034 Y134.189 E3.19671
G1 X140.593 Y136.129 E3.28513
G1 X140.283 Y136.507 E3.30301
G1 X138.663 Y138.297 E3.39134
G1 X138.31 Y138.651 E3.40963
G1 X136.521 Y140.273 E3.49798
G1 X136.14 Y140.586 E3.51602
G1 X134.199 Y142.028 E3.60449
G1 X133.78 Y142.307 E3.6229
G1 X131.707 Y143.548 E3.7113
G1 X131.273 Y143.78 E3.7293
G1 X129.089 Y144.814 E3.81771
G1 X128.631 Y145.004 E3.83585
G1 X126.354 Y145.82 E3.92435
G1 X125.878 Y145.965 E3.94255
G1 X123.549 Y146.549 E4.0304
G1 X123.06 Y146.646 E4.04864
G1 X120.66 Y147.002 E4.13741
G1 X120.165 Y147.051 E4.1556
G1 X117.752 Y147.169 E4.24399
G1 X117.26 Y147.169 E4.26199
G1 X114.848 Y147.052 E4.35034
G1 X114.353 Y147.004 E4.36854
G1 X111.953 Y146.649 E4.4573
G1 X111.465 Y146.552 E4.4755
G1 X109.135 Y145.969 E4.56338
G1 X108.659 Y145.824 E4.58158
G1 X106.383 Y145.01 E4.67002
G1 X105.924 Y144.821 E4.68818
G1 X103.739 Y143.788 E4.7766
G1 X103.303 Y143.554 E4.79471
G1 X101.23 Y142.313 E4.8831
G1 X100.811 Y142.034 E4.90152
G1 X98.87 Y140.592 E4.98998
G1 X98.493 Y140.282 E5.00784
G1 X96.702 Y138.661 E5.09622
G1 X96.349 Y138.309 E5.11446
G1 X94.727 Y136.521 E5.20278
G1 X94.413 Y136.138 E5.2209
G1 X92.972 Y134.198 E5.30932
G1 X92.693 Y133.78 E5.3277
G1 X91.452 Y131.707 E5.4161
G1 X91.219 Y131.272 E5.43415
G1 X90.185 Y129.086 E5.52262
G1 X89.995 Y128.629 E5.54073
G1 X89.18 Y126.354 E5.62914
G1 X89.036 Y125.878 E5.64734
G1 X88.452 Y123.549 E5.73519
G1 X88.355 Y123.06 E5.75343
G1 X87.999 Y120.66 E5.84219
G1 X87.95 Y120.167 E5.86032
G1 X87.831 Y117.755 E5.94867
G1 X87.831 Y117.259 E5.96682
G1 X87.949 Y114.846 E6.05521
G1 X87.997 Y114.354 E6.07329
G1 X88.352 Y111.951 E6.16216
G1 X88.45 Y111.46 E6.18048
G1 X89.033 Y109.133 E6.26825
G1 X89.176 Y108.66 E6.28633
G1 X89.989 Y106.386 E6.37468
G1 X90.18 Y105.926 E6.3929
G1 X91.214 Y103.739 E6.48141
G1 X91.446 Y103.305 E6.49942
G1 X92.686 Y101.232 E6.58779
G1 X92.966 Y100.812 E6.60626
G1 X94.407 Y98.872 E6.69467
G1 X94.718 Y98.492 E6.71264
G1 X96.184 Y96.873 E6.79255
G0 F810 X96.339 Y96.702
G0 X96.69 Y96.351
M204 S5000
M205 X30 Y30
G0 F7200 X96.986 Y96.677
M204 S500
M205 X20 Y20
G1 F6000 E6.81915
G1 F900 X98.775 Y95.054 E6.90752
G1 X99.124 Y94.767 E6.92405
G1 X101.065 Y93.325 E7.01252
G1 X101.447 Y93.07 E7.02932
G1 X103.52 Y91.829 E7.11772
G1 X103.918 Y91.617 E7.13421
G1 X106.102 Y90.584 E7.22261
G1 X106.518 Y90.411 E7.23909
G1 X108.794 Y89.595 E7.32755
G1 X109.23 Y89.463 E7.34422
G1 X111.56 Y88.879 E7.4321
G1 X112.005 Y88.79 E7.4487
G1 X114.404 Y88.434 E7.53743
G1 X114.854 Y88.39 E7.55397
G1 X117.267 Y88.271 E7.64236
G1 X117.721 Y88.271 E7.65897
G1 X120.133 Y88.389 E7.74733
G1 X120.583 Y88.433 E7.76387
G1 X122.984 Y88.788 E7.85267
G1 X123.43 Y88.876 E7.8693
G1 X125.759 Y89.459 E7.95714
G1 X126.192 Y89.591 E7.9737
G1 X128.469 Y90.405 E8.06217
G1 X128.889 Y90.578 E8.07879
G1 X131.074 Y91.611 E8.16721
G1 X131.471 Y91.823 E8.18368
G1 X133.544 Y93.063 E8.27205
G1 X133.927 Y93.319 E8.28891
G1 X135.867 Y94.76 E8.37732
G1 X136.213 Y95.045 E8.39372
G1 X138.003 Y96.666 E8.48207
G1 X138.325 Y96.987 E8.49871
G1 X139.947 Y98.776 E8.58706
G1 X140.232 Y99.123 E8.60349
G1 X141.673 Y101.062 E8.69187
G1 X141.929 Y101.445 E8.70873
G1 X143.171 Y103.52 E8.7972
G1 X143.383 Y103.916 E8.81364
G1 X144.417 Y106.1 E8.90204
G1 X144.59 Y106.518 E8.9186
G1 X145.406 Y108.794 E9.00706
G1 X145.538 Y109.228 E9.02365
G1 X146.122 Y111.555 E9.11143
G1 X146.211 Y112.002 E9.1281
G1 X146.567 Y114.402 E9.21687
G1 X146.611 Y114.854 E9.23349
G1 X146.729 Y117.268 E9.32191
G1 X146.73 Y117.718 E9.33837
G1 X146.613 Y120.131 E9.42676
G1 X146.568 Y120.583 E9.44338
G1 X146.213 Y122.984 E9.53218
G1 X146.125 Y123.43 E9.54881
G1 X145.542 Y125.759 E9.63665
G1 X145.411 Y126.192 E9.6532
G1 X144.598 Y128.467 E9.74159
G1 X144.424 Y128.887 E9.75822
G1 X143.39 Y131.074 E9.84673
G1 X143.177 Y131.472 E9.86324
G1 X141.936 Y133.545 E9.95164
G1 X141.681 Y133.927 E9.96844
G1 X140.24 Y135.867 E10.05685
G1 X139.956 Y136.212 E10.0732
G1 X138.336 Y138.002 E10.16153
G1 X138.014 Y138.325 E10.17822
G1 X136.225 Y139.947 E10.26657
G1 X135.877 Y140.233 E10.28305
G1 X133.936 Y141.675 E10.37151
G1 X133.554 Y141.93 E10.38832
G1 X131.481 Y143.171 E10.47671
G1 X131.085 Y143.383 E10.49315
G1 X128.901 Y144.417 E10.58155
G1 X128.483 Y144.59 E10.5981
G1 X126.206 Y145.406 E10.6866
G1 X125.771 Y145.538 E10.70323
G1 X123.442 Y146.122 E10.79108
G1 X122.996 Y146.211 E10.80772
G1 X120.596 Y146.567 E10.89648
G1 X120.144 Y146.611 E10.9131
G1 X117.731 Y146.729 E11.00149
G1 X117.281 Y146.73 E11.01795
G1 X114.869 Y146.613 E11.1063
G1 X114.417 Y146.568 E11.12292
G1 X112.017 Y146.213 E11.21168
G1 X111.572 Y146.125 E11.22828
G1 X109.242 Y145.542 E11.31615
G1 X108.807 Y145.41 E11.33278
G1 X106.531 Y144.596 E11.42122
G1 X106.112 Y144.423 E11.4378
G1 X103.927 Y143.39 E11.52623
G1 X103.529 Y143.177 E11.54274
G1 X101.456 Y141.936 E11.63114
G1 X101.074 Y141.681 E11.64794
G1 X99.133 Y140.239 E11.73641
G1 X98.788 Y139.955 E11.75276
G1 X96.997 Y138.334 E11.84113
G1 X96.675 Y138.013 E11.85777
G1 X95.053 Y136.225 E11.94609
G1 X94.766 Y135.876 E11.96262
G1 X93.325 Y133.936 E12.05104
G1 X93.07 Y133.554 E12.06784
G1 X91.829 Y131.481 E12.15624
G1 X91.617 Y131.083 E12.17273
G1 X90.583 Y128.897 E12.26121
G1 X90.41 Y128.48 E12.27772
G1 X89.595 Y126.205 E12.36614
G1 X89.463 Y125.771 E12.38273
G1 X88.879 Y123.442 E12.47058
G1 X88.79 Y122.996 E12.48722
G1 X88.434 Y120.596 E12.57599
G1 X88.39 Y120.146 E12.59253
G1 X88.271 Y117.734 E12.68088
G1 X88.271 Y117.28 E12.69749
G1 X88.389 Y114.867 E12.78588
G1 X88.433 Y114.418 E12.80239
G1 X88.788 Y112.015 E12.89126
G1 X88.877 Y111.567 E12.90797
G1 X89.46 Y109.24 E12.99574
G1 X89.591 Y108.808 E13.01225
G1 X90.404 Y106.534 E13.10061
G1 X90.577 Y106.114 E13.11723
G1 X91.611 Y103.927 E13.20573
G1 X91.823 Y103.53 E13.2222
G1 X93.063 Y101.457 E13.31057
G1 X93.319 Y101.074 E13.32743
G1 X94.76 Y99.134 E13.41584
G1 X95.045 Y98.788 E13.43224
G1 X96.483 Y97.201 E13.5106
G0 F810 X96.666 Y96.998
G0 X96.986 Y96.677
M204 S5000
M205 X30 Y30
G0 F7200 X97.281 Y97.003
M204 S500
M205 X20 Y20
G1 F6000 E13.53719
G1 F900 X99.07 Y95.38 E13.62557
G1 X99.386 Y95.121 E13.64052
G1 X101.327 Y93.679 E13.72898
G1 X101.673 Y93.448 E13.7442
G1 X103.746 Y92.207 E13.8326
G1 X104.106 Y92.014 E13.84754
G1 X106.29 Y90.981 E13.93593
G1 X106.666 Y90.825 E13.95083
G1 X108.942 Y90.009 E14.03929
G1 X109.337 Y89.889 E14.05439
G1 X111.667 Y89.305 E14.14227
G1 X112.069 Y89.225 E14.15727
G1 X114.468 Y88.869 E14.246
G1 X114.876 Y88.829 E14.261
G1 X117.289 Y88.71 E14.34939
G1 X117.699 Y88.71 E14.36439
G1 X120.111 Y88.828 E14.45274
G1 X120.518 Y88.868 E14.4677
G1 X122.919 Y89.223 E14.5565
G1 X123.323 Y89.303 E14.57157
G1 X125.652 Y89.886 E14.65941
G1 X126.044 Y90.005 E14.6744
G1 X128.321 Y90.819 E14.76287
G1 X128.701 Y90.976 E14.77791
G1 X130.886 Y92.009 E14.86633
G1 X131.245 Y92.201 E14.88123
G1 X133.318 Y93.441 E14.9696
G1 X133.664 Y93.672 E14.98482
G1 X135.604 Y95.113 E15.07324
G1 X135.918 Y95.371 E15.08811
G1 X137.708 Y96.992 E15.17646
G1 X137.999 Y97.282 E15.19149
G1 X139.621 Y99.071 E15.27984
G1 X139.879 Y99.386 E15.29474
G1 X141.32 Y101.325 E15.38312
G1 X141.552 Y101.671 E15.39836
G1 X142.794 Y103.746 E15.48684
G1 X142.985 Y104.104 E15.50168
G1 X144.019 Y106.288 E15.59009
G1 X144.176 Y106.666 E15.60507
G1 X144.992 Y108.942 E15.69353
G1 X145.111 Y109.336 E15.70858
G1 X145.695 Y111.663 E15.79636
G1 X145.776 Y112.067 E15.81144
G1 X146.132 Y114.467 E15.9002
G1 X146.172 Y114.876 E15.91524
G1 X146.29 Y117.29 E16.00366
G1 X146.29 Y117.696 E16.01852
G1 X146.173 Y120.109 E16.1069
G1 X146.133 Y120.518 E16.12194
G1 X145.778 Y122.919 E16.21074
G1 X145.698 Y123.323 E16.2258
G1 X145.115 Y125.652 E16.31364
G1 X144.996 Y126.044 E16.32863
G1 X144.183 Y128.319 E16.41702
G1 X144.026 Y128.699 E16.43206
G1 X142.992 Y130.886 E16.52057
G1 X142.799 Y131.246 E16.53551
G1 X141.558 Y133.319 E16.62391
G1 X141.328 Y133.664 E16.63908
G1 X139.887 Y135.604 E16.72749
G1 X139.63 Y135.917 E16.74231
G1 X138.01 Y137.707 E16.83064
G1 X137.719 Y137.999 E16.84572
G1 X135.93 Y139.621 E16.93407
G1 X135.615 Y139.879 E16.94897
G1 X133.674 Y141.321 E17.03743
G1 X133.328 Y141.552 E17.05265
G1 X131.255 Y142.793 E17.14105
G1 X130.897 Y142.985 E17.15591
G1 X128.713 Y144.019 E17.24432
G1 X128.334 Y144.176 E17.25933
G1 X126.057 Y144.992 E17.34782
G1 X125.664 Y145.111 E17.36284
G1 X123.335 Y145.695 E17.45069
G1 X122.931 Y145.776 E17.46577
G1 X120.531 Y146.132 E17.55453
G1 X120.122 Y146.172 E17.56957
G1 X117.709 Y146.29 E17.65796
G1 X117.302 Y146.29 E17.67285
G1 X114.89 Y146.173 E17.7612
G1 X114.481 Y146.133 E17.77623
G1 X112.081 Y145.778 E17.86499
G1 X111.678 Y145.698 E17.88002
G1 X109.348 Y145.115 E17.9679
G1 X108.955 Y144.996 E17.98292
G1 X106.679 Y144.182 E18.07136
G1 X106.3 Y144.025 E18.08637
G1 X104.115 Y142.992 E18.17479
G1 X103.755 Y142.799 E18.18973
G1 X101.682 Y141.558 E18.27813
G1 X101.336 Y141.327 E18.29335
G1 X99.395 Y139.885 E18.38182
G1 X99.083 Y139.629 E18.39658
G1 X97.292 Y138.008 E18.48496
G1 X97.001 Y137.717 E18.50002
G1 X95.379 Y135.929 E18.58834
G1 X95.119 Y135.613 E18.60331
G1 X93.678 Y133.673 E18.69173
G1 X93.448 Y133.328 E18.7069
G1 X92.207 Y131.255 E18.79529
G1 X92.014 Y130.895 E18.81024
G1 X90.98 Y128.709 E18.89871
G1 X90.824 Y128.332 E18.91364
G1 X90.009 Y126.057 E19.00205
G1 X89.89 Y125.664 E19.01707
G1 X89.306 Y123.335 E19.10492
G1 X89.225 Y122.931 E19.11999
G1 X88.869 Y120.531 E19.20876
G1 X88.829 Y120.124 E19.22372
G1 X88.71 Y117.712 E19.31208
G1 X88.71 Y117.302 E19.32708
G1 X88.828 Y114.889 E19.41547
G1 X88.868 Y114.482 E19.43043
G1 X89.223 Y112.079 E19.5193
G1 X89.303 Y111.674 E19.5344
G1 X89.886 Y109.347 E19.62217
G1 X90.005 Y108.956 E19.63712
G1 X90.818 Y106.682 E19.72548
G1 X90.975 Y106.302 E19.74052
G1 X92.009 Y104.115 E19.82903
G1 X92.201 Y103.756 E19.84392
G1 X93.441 Y101.683 E19.9323
G1 X93.672 Y101.337 E19.94752
G1 X95.113 Y99.397 E20.03593
G1 X95.371 Y99.083 E20.0508
G1 X96.779 Y97.528 E20.12755
G0 F810 X96.992 Y97.293
G0 X97.281 Y97.003
M204 S5000
M205 X30 Y30
G0 F7200 X97.577 Y97.329
M204 S500
M205 X20 Y20
G1 F6000 E20.15415
G1 F900 X99.366 Y95.706 E20.24252
G1 X99.649 Y95.474 E20.25591
G1 X101.59 Y94.032 E20.34438
G1 X101.899 Y93.825 E20.35798
G1 X103.972 Y92.584 E20.44638
G1 X104.294 Y92.412 E20.45973
G1 X106.478 Y91.379 E20.54813
G1 X106.815 Y91.239 E20.56148
G1 X109.091 Y90.423 E20.64994
G1 X109.444 Y90.316 E20.66343
G1 X111.774 Y89.732 E20.75131
G1 X112.134 Y89.661 E20.76474
G1 X114.533 Y89.305 E20.85347
G1 X114.898 Y89.269 E20.86689
G1 X117.311 Y89.15 E20.95528
G1 X117.678 Y89.149 E20.96871
G1 X120.09 Y89.267 E21.05706
G1 X120.454 Y89.303 E21.07044
G1 X122.855 Y89.658 E21.15924
G1 X123.216 Y89.73 E21.17271
G1 X125.545 Y90.313 E21.26054
G1 X125.896 Y90.419 E21.27396
G1 X128.173 Y91.233 E21.36243
G1 X128.513 Y91.374 E21.37589
G1 X130.698 Y92.407 E21.46432
G1 X131.019 Y92.578 E21.47763
G1 X133.092 Y93.818 E21.566
G1 X133.402 Y94.026 E21.57966
G1 X135.342 Y95.467 E21.66807
G1 X135.622 Y95.697 E21.68133
G1 X137.412 Y97.318 E21.76968
G1 X137.673 Y97.578 E21.78316
G1 X139.295 Y99.367 E21.87151
G1 X139.526 Y99.648 E21.88482
G1 X140.967 Y101.587 E21.97321
G1 X141.174 Y101.897 E21.98684
G1 X142.416 Y103.972 E22.07532
G1 X142.587 Y104.293 E22.08863
G1 X143.621 Y106.477 E22.17703
G1 X143.762 Y106.815 E22.19043
G1 X144.578 Y109.091 E22.27889
G1 X144.685 Y109.443 E22.29235
G1 X145.269 Y111.77 E22.38013
G1 X145.341 Y112.131 E22.3936
G1 X145.697 Y114.531 E22.48236
G1 X145.733 Y114.897 E22.49582
G1 X145.851 Y117.311 E22.58424
G1 X145.851 Y117.675 E22.59756
G1 X145.734 Y120.088 E22.68595
G1 X145.698 Y120.454 E22.6994
G1 X145.343 Y122.855 E22.7882
G1 X145.271 Y123.216 E22.80167
G1 X144.688 Y125.545 E22.88951
G1 X144.582 Y125.896 E22.90292
G1 X143.769 Y128.171 E22.99131
G1 X143.628 Y128.511 E23.00478
G1 X142.594 Y130.698 E23.09328
G1 X142.422 Y131.02 E23.10664
G1 X141.181 Y133.093 E23.19503
G1 X140.974 Y133.402 E23.20864
G1 X139.533 Y135.342 E23.29706
G1 X139.304 Y135.622 E23.31029
G1 X137.684 Y137.412 E23.39862
G1 X137.423 Y137.673 E23.41212
G1 X135.634 Y139.295 E23.50047
G1 X135.352 Y139.526 E23.51381
G1 X133.411 Y140.968 E23.60227
G1 X133.102 Y141.175 E23.61588
G1 X131.029 Y142.416 E23.70428
G1 X130.708 Y142.587 E23.71758
G1 X128.524 Y143.621 E23.80599
G1 X128.186 Y143.762 E23.81939
G1 X125.909 Y144.578 E23.90788
G1 X125.557 Y144.685 E23.92134
G1 X123.228 Y145.269 E24.00919
G1 X122.867 Y145.341 E24.02266
G1 X120.467 Y145.697 E24.11143
G1 X120.101 Y145.733 E24.12488
G1 X117.688 Y145.851 E24.21327
G1 X117.324 Y145.851 E24.22659
G1 X114.912 Y145.734 E24.31494
G1 X114.546 Y145.698 E24.32839
G1 X112.146 Y145.343 E24.41715
G1 X111.785 Y145.271 E24.43062
G1 X109.455 Y144.688 E24.51849
G1 X109.104 Y144.582 E24.53191
G1 X106.828 Y143.768 E24.62034
G1 X106.488 Y143.627 E24.63381
G1 X104.303 Y142.594 E24.72224
G1 X103.981 Y142.422 E24.73559
G1 X101.908 Y141.181 E24.82399
G1 X101.599 Y140.974 E24.83759
G1 X99.658 Y139.532 E24.92606
G1 X99.378 Y139.303 E24.93929
G1 X97.587 Y137.682 E25.02767
G1 X97.327 Y137.422 E25.04113
G1 X95.705 Y135.634 E25.12945
G1 X95.473 Y135.351 E25.14284
G1 X94.032 Y133.411 E25.23125
G1 X93.825 Y133.102 E25.24486
G1 X92.584 Y131.029 E25.33325
G1 X92.412 Y130.707 E25.34661
G1 X91.378 Y128.521 E25.43508
G1 X91.238 Y128.183 E25.44847
G1 X90.423 Y125.908 E25.53688
G1 X90.316 Y125.557 E25.55031
G1 X89.732 Y123.228 E25.63815
G1 X89.66 Y122.867 E25.65162
G1 X89.304 Y120.467 E25.74039
G1 X89.269 Y120.102 E25.7538
G1 X89.15 Y117.69 E25.84216
G1 X89.149 Y117.323 E25.85558
G1 X89.267 Y114.91 E25.94397
G1 X89.303 Y114.546 E25.95735
G1 X89.658 Y112.143 E26.04622
G1 X89.73 Y111.781 E26.05973
