;FLAVOR:Marlin
;TIME:2834
;Filament used: 2.32347m
;Layer height: 0.16
;Generated with Cura_SteamEngine 3.6.0
M140 S70
M105
M190 S70
M104 S215
M105
M109 S215
M82 ;absolute extrusion mode
G28 ; home all axes
M117 Purge extruder
G92 E0 ; reset extruder
G1 Z1.0 F3000 ; move z up little to prevent scratching of surface
G1 X0.1 Y20 Z0.3 F5000.0 ; move to start-line position G1 X0.1 Y200.0 Z0.3 F1500.0 E15 ; draw 1st line
G1 X0.4 Y200.0 Z0.3 F5000.0 ; move to side a little
G1 X0.4 Y20 Z0.3 F1500.0 E30 ; draw 2nd line
G92 E0 ; reset extruder
G1 Z1.0 F3000 ; move z up little to prevent scratching of surface
M117 All systems go!
G92 E0
G1 F6000 E-5
;LAYER_COUNT:32
;LAYER:0
M107
M204 S5000
M205 X30 Y30
G0 F7200 X96.839 Y95.67 Z0.2
M204 S500
M205 X20 Y20
;TYPE:SKIRT
G1 F6000 E0
G1 F900 X97.199 Y95.343 E0.01779
G1 X99.621 Y93.347 E0.13262
G1 X100.131 Y92.978 E0.15565
G1 X102.775 Y91.303 E0.27016
G1 X103.193 Y91.065 E0.28776
G1 X104.572 Y90.365 E0.34434
G1 X105.008 Y90.169 E0.36183
G1 X107.969 Y89.003 E0.47826
G1 X108.408 Y88.853 E0.49523
G1 X109.864 Y88.429 E0.55071
G1 X110.329 Y88.317 E0.56821
G1 X113.414 Y87.727 E0.68312
G1 X114.046 Y87.647 E0.70643
G1 X117.122 Y87.453 E0.81919
G1 X117.579 Y87.445 E0.83592
G1 X119.14 Y87.488 E0.89305
G1 X119.463 Y87.507 E0.90489
G1 X121.032 Y87.651 E0.96253
G1 X121.352 Y87.691 E0.97433
G1 X122.957 Y87.942 E1.03377
G1 X123.434 Y88.04 E1.05158
G1 X126.459 Y88.817 E1.16585
G1 X126.905 Y88.954 E1.18292
G1 X128.35 Y89.471 E1.23907
G1 X128.648 Y89.588 E1.25078
G1 X130.17 Y90.244 E1.31142
G1 X130.468 Y90.385 E1.32348
G1 X131.876 Y91.104 E1.38132
G1 X132.292 Y91.342 E1.39885
G1 X134.934 Y93.024 E1.51344
G1 X135.442 Y93.393 E1.53641
G1 X137.831 Y95.369 E1.64984
G1 X138.184 Y95.69 E1.6673
G1 X139.309 Y96.815 E1.7255
G1 X139.631 Y97.17 E1.74304
G1 X141.626 Y99.584 E1.85761
G1 X141.997 Y100.094 E1.88069
G1 X143.677 Y102.739 E1.99533
G1 X143.985 Y103.298 E2.01868
G1 X145.322 Y106.14 E2.13359
G1 X145.555 Y106.73 E2.1568
G1 X146.525 Y109.715 E2.27163
G1 X146.683 Y110.328 E2.29479
G1 X147.273 Y113.412 E2.40967
G1 X147.34 Y113.886 E2.42718
G1 X147.488 Y115.45 E2.48466
G1 X147.511 Y115.929 E2.5022
G1 X147.51 Y119.076 E2.61734
G1 X147.488 Y119.55 E2.6347
G1 X147.34 Y121.115 E2.69221
G1 X147.298 Y121.438 E2.70413
G1 X147.046 Y123.013 E2.76248
G1 X146.951 Y123.474 E2.7797
G1 X146.178 Y126.48 E2.89326
G1 X145.982 Y127.081 E2.91639
G1 X144.827 Y130.002 E3.03131
G1 X144.557 Y130.577 E3.05455
G1 X143.053 Y133.315 E3.16884
G1 X142.805 Y133.72 E3.18621
G1 X141.916 Y135.03 E3.24414
G1 X141.628 Y135.414 E3.2617
G1 X139.619 Y137.843 E3.37702
G1 X139.185 Y138.305 E3.40021
G1 X136.928 Y140.426 E3.51353
G1 X136.563 Y140.739 E3.53112
G1 X135.261 Y141.748 E3.59139
G1 X134.869 Y142.023 E3.60891
G1 X132.228 Y143.696 E3.72328
G1 X131.667 Y144.003 E3.74668
G1 X128.816 Y145.339 E3.86187
G1 X128.225 Y145.572 E3.88512
G1 X125.246 Y146.535 E3.99966
G1 X124.633 Y146.691 E4.0228
G1 X121.545 Y147.277 E4.1378
G1 X121.072 Y147.344 E4.15527
G1 X119.508 Y147.49 E4.21274
G1 X119.03 Y147.512 E4.23025
G1 X115.886 Y147.507 E4.34528
G1 X115.252 Y147.466 E4.36852
G1 X112.146 Y147.069 E4.48308
G1 X111.524 Y146.949 E4.50626
G1 X108.482 Y146.164 E4.6212
G1 X107.878 Y145.967 E4.64444
G1 X104.951 Y144.804 E4.75967
G1 X104.375 Y144.533 E4.78296
G1 X101.637 Y143.023 E4.89736
G1 X101.231 Y142.773 E4.9148
G1 X99.927 Y141.884 E4.97255
G1 X99.552 Y141.602 E4.98971
G1 X97.166 Y139.628 E5.10301
G1 X96.813 Y139.307 E5.12046
G1 X95.721 Y138.215 E5.17697
G1 X95.503 Y137.982 E5.18864
G1 X94.406 Y136.737 E5.24935
G1 X94.105 Y136.361 E5.26697
G1 X92.294 Y133.862 E5.37988
G1 X91.957 Y133.33 E5.40292
G1 X90.44 Y130.57 E5.51815
G1 X90.166 Y129.987 E5.54172
G1 X89.004 Y127.037 E5.65772
G1 X88.811 Y126.441 E5.68064
G1 X88.043 Y123.448 E5.79369
G1 X87.924 Y122.825 E5.81689
G1 X87.533 Y119.735 E5.93084
G1 X87.493 Y119.108 E5.95383
G1 X87.488 Y115.96 E6.069
G1 X87.527 Y115.324 E6.09232
G1 X87.915 Y112.223 E6.20665
G1 X88.033 Y111.598 E6.22992
G1 X88.81 Y108.557 E6.34476
G1 X89.006 Y107.954 E6.36796
G1 X90.157 Y105.035 E6.48275
G1 X90.35 Y104.604 E6.50003
G1 X91.067 Y103.189 E6.55807
G1 X91.306 Y102.768 E6.57578
G1 X92.979 Y100.127 E6.69016
G1 X93.35 Y99.616 E6.71326
G1 X95.342 Y97.2 E6.82782
G1 X95.668 Y96.841 E6.84557
G1 X96.325 Y96.184 E6.87956
G0 F810 X96.839 Y95.67
M204 S5000
M205 X30 Y30
G0 F7200 X97.15 Y95.981
M204 S500
M205 X20 Y20
G1 F6000 E6.90616
G1 F900 X97.479 Y95.683 E6.9224
G1 X99.901 Y93.687 E7.03722
G1 X100.367 Y93.349 E7.05828
G1 X103.011 Y91.674 E7.1728
G1 X103.392 Y91.457 E7.18884
G1 X104.771 Y90.757 E7.24542
G1 X105.169 Y90.578 E7.26138
G1 X108.13 Y89.412 E7.37781
G1 X108.531 Y89.275 E7.39332
G1 X109.987 Y88.851 E7.4488
G1 X110.411 Y88.749 E7.46475
G1 X113.496 Y88.159 E7.57967
G1 X114.073 Y88.086 E7.60095
G1 X117.149 Y87.892 E7.71371
G1 X117.567 Y87.885 E7.729
G1 X119.128 Y87.928 E7.78614
G1 X119.423 Y87.945 E7.79695
G1 X120.992 Y88.089 E7.85459
G1 X121.284 Y88.125 E7.86536
G1 X122.889 Y88.376 E7.92479
G1 X123.324 Y88.466 E7.94104
G1 X126.349 Y89.243 E8.05531
G1 X126.756 Y89.368 E8.07089
G1 X128.201 Y89.885 E8.12703
G1 X128.474 Y89.992 E8.13776
G1 X129.996 Y90.648 E8.1984
G1 X130.268 Y90.776 E8.2094
G1 X131.676 Y91.495 E8.26724
G1 X132.056 Y91.713 E8.28327
G1 X134.698 Y93.395 E8.39785
G1 X135.162 Y93.732 E8.41883
G1 X137.551 Y95.708 E8.53226
G1 X137.873 Y96.001 E8.54819
G1 X138.998 Y97.126 E8.6064
G1 X139.292 Y97.45 E8.6224
G1 X141.287 Y99.864 E8.73698
G1 X141.626 Y100.33 E8.75806
G1 X143.306 Y102.975 E8.8727
G1 X143.586 Y103.485 E8.89399
G1 X144.923 Y106.327 E9.0089
G1 X145.137 Y106.866 E9.03012
G1 X146.107 Y109.851 E9.14495
G1 X146.251 Y110.411 E9.1661
G1 X146.841 Y113.495 E9.28098
G1 X146.902 Y113.928 E9.29698
G1 X147.05 Y115.492 E9.35446
G1 X147.071 Y115.928 E9.37043
G1 X147.07 Y119.075 E9.48556
G1 X147.049 Y119.509 E9.50146
G1 X146.901 Y121.074 E9.55897
G1 X146.864 Y121.369 E9.56985
G1 X146.612 Y122.944 E9.62821
G1 X146.524 Y123.365 E9.64394
G1 X145.751 Y126.371 E9.7575
G1 X145.573 Y126.919 E9.77858
G1 X144.418 Y129.84 E9.8935
G1 X144.171 Y130.365 E9.91472
G1 X142.667 Y133.103 E10.02901
G1 X142.441 Y133.473 E10.04488
G1 X141.552 Y134.783 E10.1028
G1 X141.289 Y135.134 E10.11885
G1 X139.28 Y137.563 E10.23417
G1 X138.884 Y137.985 E10.25534
G1 X136.627 Y140.106 E10.36866
G1 X136.293 Y140.391 E10.38472
G1 X134.991 Y141.4 E10.44499
G1 X134.633 Y141.651 E10.46098
G1 X131.992 Y143.324 E10.57536
G1 X131.48 Y143.604 E10.59671
G1 X128.629 Y144.94 E10.71191
G1 X128.09 Y145.153 E10.73311
G1 X125.111 Y146.116 E10.84765
G1 X124.551 Y146.259 E10.8688
G1 X121.463 Y146.845 E10.98379
G1 X121.031 Y146.906 E10.99975
G1 X119.467 Y147.052 E11.05722
G1 X119.031 Y147.072 E11.07319
G1 X115.887 Y147.067 E11.18822
G1 X115.308 Y147.03 E11.20945
G1 X112.202 Y146.633 E11.32401
G1 X111.634 Y146.523 E11.34517
G1 X108.592 Y145.738 E11.46012
G1 X108.04 Y145.558 E11.48136
G1 X105.113 Y144.395 E11.59659
G1 X104.588 Y144.148 E11.61782
G1 X101.85 Y142.638 E11.73221
G1 X101.479 Y142.409 E11.74816
G1 X100.175 Y141.52 E11.8059
G1 X99.832 Y141.263 E11.82159
G1 X97.446 Y139.289 E11.93488
G1 X97.124 Y138.996 E11.95081
G1 X96.032 Y137.904 E12.00731
G1 X95.833 Y137.691 E12.01798
G1 X94.736 Y136.446 E12.07868
G1 X94.461 Y136.103 E12.09477
G1 X92.65 Y133.604 E12.20768
G1 X92.342 Y133.118 E12.22873
G1 X90.825 Y130.358 E12.34396
G1 X90.575 Y129.826 E12.36546
G1 X89.413 Y126.876 E12.48146
G1 X89.237 Y126.331 E12.50242
G1 X88.469 Y123.338 E12.61547
G1 X88.361 Y122.77 E12.63662
G1 X87.97 Y119.68 E12.75057
G1 X87.933 Y119.107 E12.77158
G1 X87.928 Y115.959 E12.88675
G1 X87.964 Y115.378 E12.90805
G1 X88.352 Y112.277 E13.02239
G1 X88.46 Y111.707 E13.04361
G1 X89.237 Y108.666 E13.15845
G1 X89.415 Y108.115 E13.17963
G1 X90.566 Y105.196 E13.29443
G1 X90.743 Y104.803 E13.3102
G1 X91.46 Y103.388 E13.36824
G1 X91.678 Y103.004 E13.38439
G1 X93.351 Y100.363 E13.49877
G1 X93.689 Y99.896 E13.51986
G1 X95.681 Y97.48 E13.63442
G1 X95.979 Y97.152 E13.65064
G1 X96.636 Y96.495 E13.68463
G0 F810 X97.15 Y95.981
M204 S5000
M205 X30 Y30
G0 F7200 X97.461 Y96.292
M204 S500
M205 X20 Y20
G1 F6000 E13.71123
G1 F900 X97.759 Y96.022 E13.72594
G1 X100.181 Y94.026 E13.84077
G1 X100.602 Y93.721 E13.85979
G1 X103.246 Y92.046 E13.9743
G1 X103.591 Y91.85 E13.98882
G1 X104.97 Y91.15 E14.0454
G1 X105.33 Y90.988 E14.05984
G1 X108.291 Y89.822 E14.17627
G1 X108.654 Y89.698 E14.1903
G1 X110.11 Y89.274 E14.24578
G1 X110.494 Y89.181 E14.26024
G1 X113.579 Y88.591 E14.37515
G1 X114.101 Y88.525 E14.3944
G1 X117.177 Y88.331 E14.50717
G1 X117.555 Y88.325 E14.521
G1 X119.116 Y88.368 E14.57813
G1 X119.383 Y88.383 E14.58791
G1 X120.952 Y88.527 E14.64556
G1 X121.216 Y88.56 E14.65529
G1 X122.821 Y88.811 E14.71473
G1 X123.215 Y88.892 E14.72944
G1 X126.24 Y89.669 E14.84371
G1 X126.608 Y89.782 E14.85779
G1 X128.053 Y90.299 E14.91394
G1 X128.299 Y90.396 E14.92362
G1 X129.821 Y91.052 E14.98425
G1 X130.068 Y91.168 E14.99424
G1 X131.476 Y91.887 E15.05208
G1 X131.82 Y92.084 E15.06658
G1 X134.462 Y93.766 E15.18117
G1 X134.881 Y94.071 E15.20013
G1 X137.27 Y96.047 E15.31356
G1 X137.562 Y96.312 E15.32798
G1 X138.687 Y97.437 E15.38619
G1 X138.953 Y97.73 E15.40067
G1 X140.948 Y100.144 E15.51525
G1 X141.254 Y100.566 E15.53432
G1 X142.934 Y103.211 E15.64896
G1 X143.188 Y103.673 E15.66825
G1 X144.525 Y106.515 E15.78316
G1 X144.718 Y107.002 E15.80232
G1 X145.688 Y109.987 E15.91715
G1 X145.819 Y110.494 E15.93631
G1 X146.409 Y113.578 E16.05119
G1 X146.464 Y113.969 E16.06563
G1 X146.612 Y115.533 E16.12311
G1 X146.631 Y115.928 E16.13758
G1 X146.63 Y119.075 E16.25272
G1 X146.611 Y119.468 E16.26711
G1 X146.463 Y121.033 E16.32462
G1 X146.43 Y121.299 E16.33443
G1 X146.178 Y122.874 E16.39279
G1 X146.098 Y123.255 E16.40703
G1 X145.325 Y126.261 E16.52059
G1 X145.164 Y126.757 E16.53966
G1 X144.009 Y129.678 E16.65458
G1 X143.786 Y130.153 E16.67378
G1 X142.282 Y132.891 E16.78807
G1 X142.077 Y133.226 E16.80244
G1 X141.188 Y134.536 E16.86036
G1 X140.95 Y134.853 E16.87487
G1 X138.941 Y137.282 E16.99019
G1 X138.583 Y137.664 E17.00935
G1 X136.326 Y139.785 E17.12266
G1 X136.023 Y140.043 E17.13722
G1 X134.721 Y141.052 E17.19749
G1 X134.398 Y141.279 E17.21193
G1 X131.757 Y142.952 E17.32631
G1 X131.294 Y143.206 E17.34563
G1 X128.443 Y144.542 E17.46082
G1 X127.955 Y144.734 E17.48001
G1 X124.976 Y145.697 E17.59455
G1 X124.469 Y145.827 E17.6137
G1 X121.381 Y146.413 E17.7287
G1 X120.991 Y146.468 E17.74311
G1 X119.427 Y146.614 E17.80057
G1 X119.031 Y146.632 E17.81508
G1 X115.887 Y146.627 E17.9301
G1 X115.364 Y146.593 E17.94928
G1 X112.258 Y146.196 E18.06384
G1 X111.744 Y146.097 E18.08299
G1 X108.702 Y145.312 E18.19793
G1 X108.203 Y145.15 E18.21713
G1 X105.276 Y143.987 E18.33236
G1 X104.8 Y143.762 E18.35162
G1 X102.062 Y142.252 E18.46602
G1 X101.726 Y142.046 E18.48044
G1 X100.422 Y141.157 E18.53818
G1 X100.112 Y140.924 E18.55237
G1 X97.726 Y138.95 E18.66566
G1 X97.435 Y138.685 E18.68006
G1 X96.343 Y137.593 E18.73656
G1 X96.163 Y137.4 E18.74622
G1 X95.066 Y136.155 E18.80693
G1 X94.817 Y135.845 E18.82148
G1 X93.006 Y133.346 E18.93439
G1 X92.728 Y132.906 E18.95343
G1 X91.211 Y130.146 E19.06866
G1 X90.985 Y129.665 E19.0881
G1 X89.823 Y126.715 E19.2041
G1 X89.663 Y126.222 E19.22306
G1 X88.895 Y123.229 E19.33611
G1 X88.797 Y122.715 E19.35526
G1 X88.406 Y119.625 E19.46921
G1 X88.373 Y119.107 E19.4882
G1 X88.368 Y115.959 E19.60337
G1 X88.4 Y115.433 E19.62265
G1 X88.788 Y112.332 E19.73699
G1 X88.886 Y111.816 E19.75621
G1 X89.663 Y108.775 E19.87104
G1 X89.824 Y108.277 E19.89019
G1 X90.975 Y105.358 E20.00498
G1 X91.135 Y105.002 E20.01926
G1 X91.852 Y103.587 E20.0773
G1 X92.05 Y103.239 E20.09195
G1 X93.723 Y100.598 E20.20633
G1 X94.029 Y100.176 E20.2254
G1 X96.021 Y97.76 E20.33996
G1 X96.29 Y97.463 E20.35462
G1 X96.947 Y96.806 E20.38862
G0 F810 X97.461 Y96.292
M204 S5000
M205 X30 Y30
G0 F7200 X97.772 Y96.603
M204 S500
M205 X20 Y20
G1 F6000 E20.41522
G1 F900 X98.038 Y96.362 E20.42835
G1 X100.46 Y94.366 E20.54317
G1 X100.838 Y94.093 E20.56023
G1 X103.482 Y92.418 E20.67474
G1 X103.79 Y92.242 E20.68772
G1 X105.169 Y91.542 E20.7443
G1 X105.492 Y91.397 E20.75726
G1 X108.453 Y90.231 E20.87368
G1 X108.777 Y90.12 E20.88621
G1 X110.233 Y89.696 E20.9417
G1 X110.576 Y89.614 E20.9546
G1 X113.661 Y89.024 E21.06951
G1 X114.129 Y88.964 E21.08678
G1 X117.205 Y88.77 E21.19954
G1 X117.543 Y88.764 E21.21191
G1 X119.104 Y88.807 E21.26904
G1 X119.343 Y88.822 E21.2778
G1 X120.912 Y88.966 E21.33544
G1 X121.148 Y88.995 E21.34414
G1 X122.753 Y89.246 E21.40358
G1 X123.105 Y89.319 E21.41673
G1 X126.13 Y90.096 E21.531
G1 X126.46 Y90.197 E21.54362
G1 X127.905 Y90.714 E21.59977
G1 X128.125 Y90.8 E21.60841
G1 X129.647 Y91.456 E21.66905
G1 X129.868 Y91.56 E21.67799
G1 X131.276 Y92.279 E21.73583
G1 X131.584 Y92.455 E21.74881
G1 X134.226 Y94.137 E21.86339
G1 X134.601 Y94.41 E21.88036
G1 X136.99 Y96.386 E21.99379
G1 X137.251 Y96.623 E22.00669
G1 X138.376 Y97.748 E22.0649
G1 X138.614 Y98.01 E22.07785
G1 X140.609 Y100.424 E22.19242
G1 X140.883 Y100.802 E22.2095
G1 X142.563 Y103.447 E22.32415
G1 X142.79 Y103.86 E22.34139
G1 X144.127 Y106.702 E22.4563
G1 X144.3 Y107.138 E22.47346
G1 X145.27 Y110.123 E22.58829
G1 X145.386 Y110.576 E22.6054
G1 X145.976 Y113.66 E22.72028
G1 X146.026 Y114.011 E22.73325
G1 X146.174 Y115.575 E22.79072
G1 X146.191 Y115.928 E22.80365
G1 X146.19 Y119.075 E22.91879
G1 X146.173 Y119.426 E22.93165
G1 X146.025 Y120.991 E22.98916
G1 X145.995 Y121.23 E22.99797
G1 X145.743 Y122.805 E23.05633
G1 X145.672 Y123.145 E23.06904
G1 X144.899 Y126.151 E23.18259
G1 X144.755 Y126.595 E23.19967
G1 X143.6 Y129.516 E23.31459
G1 X143.4 Y129.942 E23.33181
G1 X141.896 Y132.68 E23.4461
G1 X141.713 Y132.979 E23.45892
G1 X140.824 Y134.289 E23.51684
G1 X140.611 Y134.573 E23.52983
G1 X138.602 Y137.002 E23.64516
G1 X138.281 Y137.343 E23.66229
G1 X136.024 Y139.464 E23.77561
G1 X135.754 Y139.695 E23.78861
G1 X134.452 Y140.704 E23.84887
G1 X134.162 Y140.907 E23.86182
G1 X131.521 Y142.58 E23.9762
G1 X131.107 Y142.808 E23.99349
G1 X128.256 Y144.144 E24.10869
G1 X127.819 Y144.316 E24.12587
G1 X124.84 Y145.279 E24.24041
G1 X124.387 Y145.394 E24.25751
G1 X121.299 Y145.98 E24.3725
G1 X120.95 Y146.03 E24.3854
G1 X119.386 Y146.176 E24.44287
G1 X119.032 Y146.192 E24.45584
G1 X115.888 Y146.187 E24.57087
G1 X115.42 Y146.157 E24.58802
G1 X112.314 Y145.76 E24.70258
G1 X111.853 Y145.671 E24.71976
G1 X108.811 Y144.886 E24.8347
G1 X108.365 Y144.741 E24.85186
G1 X105.438 Y143.578 E24.96709
G1 X105.013 Y143.377 E24.98429
G1 X102.275 Y141.867 E25.09869
G1 X101.974 Y141.682 E25.11161
G1 X100.67 Y140.793 E25.16936
G1 X100.393 Y140.585 E25.18203
G1 X98.007 Y138.611 E25.29533
G1 X97.746 Y138.374 E25.30822
G1 X96.654 Y137.282 E25.36473
G1 X96.493 Y137.11 E25.37334
G1 X95.396 Y135.865 E25.43405
G1 X95.174 Y135.587 E25.44707
G1 X93.363 Y133.088 E25.55998
G1 X93.113 Y132.694 E25.57705
G1 X91.596 Y129.934 E25.69228
G1 X91.394 Y129.504 E25.70966
G1 X90.232 Y126.554 E25.82566
G1 X90.089 Y126.113 E25.84262
G1 X89.321 Y123.12 E25.95567
G1 X89.234 Y122.66 E25.9728
G1 X88.843 Y119.57 E26.08675
G1 X88.813 Y119.106 E26.10377
G1 X88.808 Y115.958 E26.21894
G1 X88.837 Y115.488 E26.23617
G1 X89.225 Y112.387 E26.3505
G1 X89.312 Y111.925 E26.3677
G1 X90.089 Y108.884 E26.48254
G1 X90.234 Y108.438 E26.4997
G1 X91.385 Y105.519 E26.61449
G1 X91.528 Y105.201 E26.62725
G1 X92.245 Y103.786 E26.68529
G1 X92.422 Y103.475 E26.69838
G1 X94.095 Y100.834 E26.81276
G1 X94.368 Y100.456 E26.82982
G1 X96.36 Y98.04 E26.94438
G1 X96.601 Y97.774 E26.95751
G1 X97.258 Y97.117 E26.99151
G0 F810 X97.772 Y96.603
M204 S5000
M205 X30 Y30
G0 F7200 X98.084 Y96.915
M204 S500
M205 X20 Y20
G1 F6000 E27.0181
G1 F900 X98.318 Y96.701 E27.0297
G1 X100.74 Y94.705 E27.14453
G1 X101.073 Y94.464 E27.15957
G1 X103.717 Y92.789 E27.27408
G1 X103.989 Y92.634 E27.28553
G1 X105.368 Y91.934 E27.34211
G1 X105.653 Y91.806 E27.35355
G1 X108.614 Y90.64 E27.46997
G1 X108.9 Y90.543 E27.48102
G1 X110.356 Y90.119 E27.5365
G1 X110.659 Y90.046 E27.54791
G1 X113.744 Y89.456 E27.66282
G1 X114.156 Y89.404 E27.67801
G1 X117.232 Y89.21 E27.79078
G1 X117.531 Y89.204 E27.80172
G1 X119.092 Y89.247 E27.85885
G1 X119.303 Y89.26 E27.86659
