;FLAVOR:Marlin
;TIME:4836
;Filament used: 3.22231m
;Layer height: 0.16
;Generated with Cura_SteamEngine 3.6.0
M140 S70
M105
M190 S70
M104 S215
M105
M109 S215
M82 ;absolute extrusion mode
G28 ; home all axes
M117 Purge extruder
G92 E0 ; reset extruder
G1 Z1.0 F3000 ; move z up little to prevent scratching of surface
G1 X0.1 Y20 Z0.3 F5000.0 ; move to start-line position G1 X0.1 Y200.0 Z0.3 F1500.0 E15 ; draw 1st line
G1 X0.4 Y200.0 Z0.3 F5000.0 ; move to side a little
G1 X0.4 Y20 Z0.3 F1500.0 E30 ; draw 2nd line
G92 E0 ; reset extruder
G1 Z1.0 F3000 ; move z up little to prevent scratching of surface
M117 All systems go!
G92 E0
G1 F6000 E-5
;LAYER_COUNT:76
;LAYER:0
M107
M204 S5000
M205 X30 Y30
G0 F7200 X86.727 Y95.171 Z0.2
M204 S500
M205 X20 Y20
;TYPE:SKIRT
G1 F6000 E0
G1 F900 X87.102 Y94.88 E0.01737
G1 X87.716 Y94.45 E0.04479
G1 X88.259 Y94.119 E0.06806
G1 X88.839 Y93.858 E0.09133
G1 X89.267 Y93.719 E0.10779
G1 X89.92 Y93.538 E0.13258
G1 X90.543 Y93.407 E0.15587
G1 X91.275 Y93.354 E0.18273
G1 X143.952 Y93.388 E2.10997
G1 X144.587 Y93.428 E2.13325
G1 X145.211 Y93.548 E2.1565
G1 X145.896 Y93.777 E2.18293
G1 X146.575 Y94.06 E2.20984
G1 X147.145 Y94.341 E2.23309
G1 X147.801 Y94.789 E2.26215
G1 X148.165 Y95.082 E2.27925
G1 X148.634 Y95.511 E2.3025
G1 X149.046 Y95.996 E2.32579
G1 X149.267 Y96.317 E2.34004
G1 X149.754 Y97.086 E2.37335
G1 X150.06 Y97.643 E2.3966
G1 X150.293 Y98.235 E2.41987
G1 X150.408 Y98.647 E2.43552
G1 X150.514 Y99.103 E2.45265
G1 X150.618 Y99.731 E2.47594
G1 X150.645 Y100.247 E2.49484
G1 X150.659 Y134.53 E3.74913
G1 X150.619 Y135.165 E3.77241
G1 X150.525 Y135.69 E3.79192
G1 X150.319 Y136.566 E3.82484
G1 X150.134 Y137.175 E3.84813
G1 X149.875 Y137.756 E3.8714
G1 X149.696 Y138.07 E3.88463
G1 X149.451 Y138.466 E3.90166
G1 X149.083 Y138.985 E3.92494
G1 X148.748 Y139.36 E3.94334
G1 X148.429 Y139.683 E3.95995
G1 X147.955 Y140.106 E3.98319
G1 X147.519 Y140.413 E4.0027
G1 X147.084 Y140.686 E4.02149
G1 X146.525 Y140.989 E4.04475
G1 X146.037 Y141.186 E4.064
G1 X145.603 Y141.335 E4.08079
G1 X144.99 Y141.503 E4.10405
G1 X144.515 Y141.578 E4.12164
G1 X144.053 Y141.629 E4.13865
G1 X143.497 Y141.66 E4.15902
G1 X91.259 Y141.646 E6.07021
G1 X90.624 Y141.606 E6.09348
G1 X90.167 Y141.527 E6.11045
G1 X89.724 Y141.429 E6.12705
G1 X89.113 Y141.252 E6.15033
G1 X88.57 Y141.022 E6.1719
G1 X88.114 Y140.796 E6.19052
G1 X87.563 Y140.478 E6.2138
G1 X87.158 Y140.179 E6.23221
G1 X86.796 Y139.883 E6.24932
G1 X86.33 Y139.451 E6.27257
G1 X85.922 Y138.963 E6.29584
G1 X85.71 Y138.651 E6.30964
G1 X85.226 Y137.878 E6.34301
G1 X84.923 Y137.319 E6.36627
G1 X84.693 Y136.726 E6.38954
G1 X84.576 Y136.294 E6.40592
G1 X84.475 Y135.841 E6.4229
G1 X84.376 Y135.213 E6.44616
G1 X84.354 Y134.742 E6.46341
G1 X84.341 Y100.463 E7.71755
G1 X84.381 Y99.828 E7.74082
G1 X84.481 Y99.28 E7.7612
G1 X84.692 Y98.401 E7.79428
G1 X84.879 Y97.793 E7.81755
G1 X85.141 Y97.214 E7.8408
G1 X85.478 Y96.665 E7.86437
G1 X85.871 Y96.108 E7.88931
G1 X86.269 Y95.612 E7.91258
G1 X86.727 Y95.171 E7.93584
M204 S5000
M205 X30 Y30
G0 F7200 X87.053 Y95.471
M204 S500
M205 X20 Y20
G1 F900 X87.355 Y95.241 E7.94973
G1 X87.969 Y94.811 E7.97715
G1 X88.488 Y94.496 E7.99936
G1 X89.045 Y94.251 E8.02163
G1 X89.385 Y94.143 E8.03468
G1 X90.038 Y93.962 E8.05947
G1 X90.633 Y93.838 E8.0817
G1 X91.275 Y93.794 E8.10525
G1 X143.952 Y93.828 E10.0325
G1 X144.558 Y93.868 E10.05472
G1 X145.154 Y93.988 E10.07696
G1 X145.726 Y94.184 E10.09908
G1 X146.405 Y94.467 E10.12599
G1 X146.95 Y94.737 E10.14825
G1 X147.525 Y95.132 E10.17377
G1 X147.889 Y95.425 E10.19087
G1 X148.336 Y95.836 E10.21308
G1 X148.895 Y96.552 E10.24632
G1 X149.382 Y97.321 E10.27962
G1 X149.673 Y97.855 E10.30187
G1 X149.891 Y98.422 E10.32409
G1 X149.979 Y98.747 E10.33641
G1 X150.085 Y99.203 E10.35354
G1 X150.183 Y99.803 E10.37578
G1 X150.205 Y100.247 E10.39205
G1 X150.219 Y134.53 E11.64633
G1 X150.179 Y135.136 E11.66855
G1 X150.096 Y135.59 E11.68543
G1 X149.89 Y136.466 E11.71836
G1 X149.713 Y137.047 E11.74058
G1 X149.322 Y137.839 E11.77289
G1 X149.077 Y138.235 E11.78993
G1 X148.724 Y138.729 E11.81214
G1 X148.435 Y139.05 E11.82795
G1 X148.116 Y139.373 E11.84456
G1 X147.662 Y139.777 E11.86679
G1 X147.285 Y140.04 E11.88361
G1 X146.85 Y140.313 E11.9024
G1 X146.315 Y140.602 E11.92464
G1 X145.894 Y140.77 E11.94123
G1 X145.46 Y140.919 E11.95802
G1 X144.874 Y141.078 E11.98023
G1 X144.467 Y141.141 E11.9953
G1 X144.005 Y141.192 E12.0123
G1 X143.497 Y141.22 E12.03092
G1 X91.259 Y141.206 E13.9421
G1 X90.652 Y141.166 E13.96436
G1 X90.262 Y141.097 E13.97885
G1 X89.819 Y140.999 E13.99545
G1 X89.236 Y140.829 E14.01767
G1 X88.765 Y140.627 E14.03642
G1 X88.309 Y140.401 E14.05504
G1 X87.784 Y140.096 E14.07725
G1 X87.437 Y139.839 E14.09305
G1 X87.075 Y139.543 E14.11016
G1 X86.63 Y139.128 E14.13242
G1 X86.083 Y138.418 E14.16521
G1 X85.599 Y137.645 E14.19858
G1 X85.311 Y137.11 E14.22081
G1 X85.096 Y136.541 E14.24306
G1 X85.006 Y136.198 E14.25604
G1 X84.905 Y135.745 E14.27302
G1 X84.812 Y135.145 E14.29523
G1 X84.794 Y134.742 E14.30999
G1 X84.781 Y100.463 E15.56413
G1 X84.821 Y99.856 E15.58638
G1 X84.909 Y99.383 E15.60398
G1 X85.12 Y98.504 E15.63706
G1 X85.3 Y97.923 E15.65931
G1 X85.555 Y97.372 E15.68152
G1 X85.837 Y96.919 E15.70105
G1 X86.23 Y96.362 E15.72599
G1 X86.612 Y95.889 E15.74823
G1 X87.053 Y95.471 E15.77046
M204 S5000
M205 X30 Y30
G0 F7200 X87.607 Y95.601
M204 S500
M205 X20 Y20
G1 F900 X88.221 Y95.171 E15.79789
G1 X88.716 Y94.873 E15.81902
G1 X89.502 Y94.567 E15.84988
G1 X90.155 Y94.386 E15.87468
G1 X90.722 Y94.27 E15.89585
G1 X91.275 Y94.234 E15.91612
G1 X143.952 Y94.268 E17.84337
G1 X144.528 Y94.308 E17.8645
G1 X145.094 Y94.428 E17.88567
G1 X145.557 Y94.59 E17.90361
G1 X146.236 Y94.873 E17.93053
G1 X146.753 Y95.131 E17.95167
G1 X147.249 Y95.475 E17.97375
G1 X147.613 Y95.768 E17.99084
G1 X148.037 Y96.16 E18.01197
G1 X148.523 Y96.788 E18.04102
G1 X149.01 Y97.557 E18.07433
G1 X149.285 Y98.065 E18.09546
G1 X149.55 Y98.847 E18.12567
G1 X149.656 Y99.303 E18.1428
G1 X149.748 Y99.873 E18.16392
G1 X149.765 Y100.247 E18.17762
G1 X149.779 Y134.53 E19.4319
G1 X149.739 Y135.107 E19.45306
G1 X149.668 Y135.489 E19.46728
G1 X149.462 Y136.365 E19.5002
G1 X149.291 Y136.917 E19.52134
G1 X148.948 Y137.607 E19.54953
G1 X148.703 Y138.003 E19.56657
G1 X148.365 Y138.473 E19.58775
G1 X148.122 Y138.741 E19.60099
G1 X147.803 Y139.064 E19.6176
G1 X147.37 Y139.446 E19.63872
G1 X147.051 Y139.668 E19.65294
G1 X146.616 Y139.941 E19.67173
G1 X146.106 Y140.213 E19.69288
G1 X145.751 Y140.353 E19.70684
G1 X145.317 Y140.502 E19.72363
G1 X144.759 Y140.652 E19.74477
G1 X144.419 Y140.704 E19.75735
G1 X143.957 Y140.755 E19.77436
G1 X143.497 Y140.78 E19.79121
G1 X91.259 Y140.766 E21.7024
G1 X90.682 Y140.726 E21.72356
G1 X90.357 Y140.667 E21.73564
G1 X89.914 Y140.569 E21.75224
G1 X89.36 Y140.406 E21.77337
G1 X88.961 Y140.233 E21.78928
G1 X88.505 Y140.007 E21.8079
G1 X88.006 Y139.715 E21.82905
G1 X87.715 Y139.498 E21.84234
G1 X87.353 Y139.202 E21.85944
G1 X86.932 Y138.806 E21.88059
G1 X86.456 Y138.184 E21.90925
G1 X85.972 Y137.411 E21.94261
G1 X85.7 Y136.901 E21.96376
G1 X85.435 Y136.103 E21.99452
G1 X85.334 Y135.65 E22.0115
G1 X85.248 Y135.078 E22.03267
G1 X85.234 Y134.742 E22.04497
G1 X85.221 Y100.463 E23.29911
G1 X85.261 Y99.886 E23.32027
G1 X85.336 Y99.485 E23.33519
G1 X85.547 Y98.606 E23.36827
G1 X85.721 Y98.055 E23.38941
G1 X85.969 Y97.533 E23.41055
G1 X86.197 Y97.172 E23.42617
G1 X86.59 Y96.615 E23.45111
G1 X86.955 Y96.167 E23.47225
G1 X87.607 Y95.601 E23.50384
M204 S5000
M205 X30 Y30
G0 F7200 X87.86 Y95.962
M204 S500
M205 X20 Y20
G1 F900 X88.474 Y95.532 E23.53127
G1 X88.943 Y95.252 E23.55125
G1 X89.62 Y94.991 E23.5778
G1 X90.273 Y94.81 E23.60259
G1 X90.809 Y94.703 E23.62258
G1 X91.274 Y94.674 E23.63963
G1 X143.951 Y94.708 E25.56688
G1 X144.497 Y94.748 E25.58691
G1 X145.03 Y94.868 E25.6069
G1 X145.388 Y94.996 E25.62081
G1 X146.067 Y95.279 E25.64772
G1 X146.555 Y95.525 E25.66771
G1 X146.973 Y95.818 E25.68639
G1 X147.337 Y96.111 E25.70349
G1 X147.737 Y96.484 E25.7235
G1 X148.152 Y97.023 E25.74838
G1 X148.639 Y97.792 E25.78169
G1 X148.897 Y98.274 E25.80169
G1 X149.122 Y98.946 E25.82762
G1 X149.228 Y99.402 E25.84474
G1 X149.312 Y99.942 E25.86474
G1 X149.325 Y100.247 E25.87591
G1 X149.339 Y134.53 E27.13019
G1 X149.299 Y135.076 E27.15022
G1 X149.24 Y135.388 E27.16184
G1 X149.034 Y136.264 E27.19476
G1 X148.87 Y136.786 E27.21478
G1 X148.574 Y137.376 E27.23893
G1 X148.329 Y137.772 E27.25597
G1 X148.008 Y138.214 E27.27595
G1 X147.809 Y138.432 E27.28675
G1 X147.49 Y138.755 E27.30336
G1 X147.079 Y139.115 E27.32335
G1 X146.817 Y139.295 E27.33498
G1 X146.382 Y139.568 E27.35377
G1 X145.899 Y139.824 E27.37377
G1 X145.608 Y139.937 E27.38519
G1 X145.174 Y140.086 E27.40198
G1 X144.646 Y140.226 E27.42196
G1 X144.37 Y140.266 E27.43217
G1 X143.908 Y140.317 E27.44917
G1 X143.497 Y140.34 E27.46423
G1 X91.259 Y140.326 E29.37542
G1 X90.452 Y140.238 E29.40512
G1 X90.009 Y140.14 E29.42172
G1 X89.486 Y139.983 E29.4417
G1 X89.156 Y139.839 E29.45487
G1 X88.7 Y139.613 E29.47349
G1 X88.229 Y139.335 E29.4935
G1 X87.994 Y139.157 E29.50428
G1 X87.632 Y138.861 E29.52139
G1 X87.235 Y138.485 E29.5414
G1 X86.829 Y137.951 E29.56594
G1 X86.345 Y137.178 E29.59931
G1 X86.09 Y136.695 E29.61929
G1 X85.865 Y136.007 E29.64577
G1 X85.764 Y135.554 E29.66275
G1 X85.674 Y134.741 E29.69268
G1 X85.661 Y100.462 E30.94682
G1 X85.701 Y99.917 E30.96681
G1 X85.764 Y99.588 E30.97907
G1 X85.975 Y98.709 E31.01214
G1 X86.141 Y98.188 E31.03214
G1 X86.382 Y97.697 E31.05215
G1 X86.556 Y97.426 E31.06394
G1 X86.949 Y96.869 E31.08888
G1 X87.296 Y96.446 E31.10889
G1 X87.86 Y95.962 E31.13609
M204 S5000
M205 X30 Y30
G0 F7200 X88.112 Y96.322
M204 S500
M205 X20 Y20
G1 F900 X88.726 Y95.892 E31.16351
G1 X89.168 Y95.631 E31.18229
G1 X89.738 Y95.415 E31.20459
G1 X90.391 Y95.234 E31.22938
G1 X90.894 Y95.136 E31.24813
G1 X91.274 Y95.114 E31.26206
G1 X143.951 Y95.148 E33.18931
G1 X144.463 Y95.188 E33.2081
G1 X144.962 Y95.307 E33.22686
G1 X145.219 Y95.402 E33.23689
G1 X145.898 Y95.685 E33.2638
G1 X146.355 Y95.919 E33.28259
G1 X146.697 Y96.16 E33.29789
G1 X147.061 Y96.453 E33.31499
G1 X147.435 Y96.805 E33.33378
G1 X147.78 Y97.258 E33.35461
G1 X148.267 Y98.027 E33.38791
G1 X148.507 Y98.481 E33.4067
G1 X148.693 Y99.046 E33.42847
G1 X148.799 Y99.502 E33.44559
G1 X148.885 Y100.248 E33.47307
G1 X148.899 Y134.531 E34.72735
G1 X148.811 Y135.287 E34.7552
G1 X148.605 Y136.163 E34.78812
G1 X148.449 Y136.653 E34.80693
G1 X148.199 Y137.144 E34.82709
G1 X147.954 Y137.54 E34.84413
G1 X147.496 Y138.123 E34.87125
G1 X147.177 Y138.446 E34.88786
G1 X146.583 Y138.922 E34.91571
G1 X146.148 Y139.195 E34.9345
G1 X145.466 Y139.521 E34.96216
G1 X145.032 Y139.67 E34.97895
G1 X144.322 Y139.829 E35.00556
G1 X143.86 Y139.88 E35.02257
G1 X143.497 Y139.9 E35.03587
G1 X91.259 Y139.886 E36.94706
G1 X90.547 Y139.808 E36.97326
G1 X90.104 Y139.71 E36.98986
G1 X89.613 Y139.561 E37.00864
G1 X89.352 Y139.445 E37.01909
G1 X88.896 Y139.219 E37.03771
G1 X88.272 Y138.817 E37.06486
G1 X87.91 Y138.521 E37.08197
G1 X87.539 Y138.166 E37.10076
G1 X87.202 Y137.717 E37.1213
G1 X86.718 Y136.944 E37.15466
G1 X86.48 Y136.489 E37.17345
G1 X86.294 Y135.911 E37.19567
G1 X86.193 Y135.458 E37.21265
G1 X86.114 Y134.741 E37.23904
G1 X86.101 Y100.462 E38.49317
G1 X86.141 Y99.95 E38.51196
G1 X86.192 Y99.691 E38.52162
G1 X86.403 Y98.812 E38.55469
G1 X86.561 Y98.323 E38.57349
G1 X86.916 Y97.68 E38.60037
G1 X87.309 Y97.123 E38.62531
G1 X87.636 Y96.727 E38.6441
G1 X88.112 Y96.322 E38.66696
M204 S5000
M205 X30 Y30
G0 F7200 X87.975 Y97.01
M204 S500
M205 X20 Y20
G1 F900 X88.364 Y96.682 E38.68558
G1 X88.978 Y96.252 E38.713
G1 X89.391 Y96.012 E38.73048
G1 X89.855 Y95.839 E38.7486
G1 X90.508 Y95.658 E38.77339
G1 X90.978 Y95.569 E38.79089
G1 X91.274 Y95.554 E38.80173
G1 X143.951 Y95.588 E40.72898
G1 X144.427 Y95.628 E40.74646
G1 X145.049 Y95.808 E40.77015
G1 X145.728 Y96.091 E40.79706
G1 X146.153 Y96.311 E40.81457
G1 X146.421 Y96.503 E40.82663
G1 X146.785 Y96.796 E40.84373
G1 X147.131 Y97.126 E40.86122
G1 X147.408 Y97.494 E40.87807
G1 X147.895 Y98.263 E40.91137
G1 X148.116 Y98.687 E40.92887
G1 X148.265 Y99.145 E40.94649
G1 X148.371 Y99.601 E40.96362
G1 X148.445 Y100.248 E40.98744
G1 X148.459 Y134.531 E42.24173
G1 X148.383 Y135.187 E42.26589
G1 X148.177 Y136.063 E42.29881
G1 X148.029 Y136.517 E42.31628
G1 X147.825 Y136.913 E42.33258
G1 X147.58 Y137.309 E42.34961
G1 X147.183 Y137.814 E42.37312
G1 X146.864 Y138.137 E42.38973
G1 X146.349 Y138.549 E42.41385
G1 X145.914 Y138.822 E42.43264
G1 X145.323 Y139.105 E42.45662
G1 X144.889 Y139.254 E42.47341
G1 X144.274 Y139.392 E42.49647
G1 X143.812 Y139.443 E42.51347
G1 X143.497 Y139.46 E42.52501
G1 X91.259 Y139.446 E44.4362
G1 X90.642 Y139.378 E44.45891
G1 X90.199 Y139.28 E44.47551
G1 X89.547 Y139.051 E44.50079
G1 X89.091 Y138.825 E44.51941
G1 X88.551 Y138.476 E44.54294
G1 X88.189 Y138.18 E44.56004
G1 X87.845 Y137.848 E44.57754
G1 X87.575 Y137.484 E44.59412
G1 X87.091 Y136.711 E44.62748
G1 X86.872 Y136.286 E44.64498
G1 X86.724 Y135.815 E44.66304
G1 X86.623 Y135.362 E44.68002
G1 X86.554 Y134.741 E44.70288
G1 X86.541 Y100.462 E45.95702
G1 X86.62 Y99.793 E45.98166
G1 X86.831 Y98.914 E46.01473
G1 X86.981 Y98.461 E46.03219
G1 X87.275 Y97.933 E46.0543
G1 X87.668 Y97.376 E46.07924
G1 X87.975 Y97.01 E46.09672
M204 S5000
M205 X30 Y30
G0 F7200 X88.313 Y97.295
M204 S500
M205 X20 Y20
G1 F900 X88.617 Y97.043 E46.11117
G1 X89.231 Y96.613 E46.13859
G1 X89.612 Y96.394 E46.15467
G1 X89.973 Y96.263 E46.16872
G1 X90.626 Y96.082 E46.19351
G1 X91.274 Y95.994 E46.21744
G1 X143.951 Y96.028 E48.14469
G1 X144.388 Y96.068 E48.16074
G1 X144.88 Y96.214 E48.17952
G1 X145.559 Y96.497 E48.20643
G1 X145.948 Y96.702 E48.22252
G1 X146.145 Y96.846 E48.23145
G1 X146.509 Y97.139 E48.24854
G1 X146.825 Y97.444 E48.26461
G1 X147.037 Y97.729 E48.27761
G1 X147.524 Y98.498 E48.31091
G1 X147.724 Y98.889 E48.32698
G1 X147.836 Y99.245 E48.34063
G1 X147.942 Y99.701 E48.35776
G1 X148.005 Y100.248 E48.3779
G1 X148.019 Y134.531 E49.63219
G1 X147.955 Y135.086 E49.65263
G1 X147.749 Y135.962 E49.68555
G1 X147.61 Y136.379 E49.70163
G1 X147.451 Y136.681 E49.71412
G1 X147.206 Y137.077 E49.73115
G1 X146.87 Y137.505 E49.75106
G1 X146.551 Y137.828 E49.76767
G1 X146.115 Y138.177 E49.7881
G1 X145.68 Y138.45 E49.80689
G1 X145.18 Y138.689 E49.82717
G1 X144.746 Y138.838 E49.84396
G1 X144.226 Y138.954 E49.86345
G1 X143.764 Y139.005 E49.88046
G1 X143.497 Y139.02 E49.89024
G1 X91.259 Y139.006 E51.80143
G1 X90.737 Y138.949 E51.82064
G1 X90.294 Y138.851 E51.83724
G1 X89.742 Y138.656 E51.85866
G1 X89.286 Y138.43 E51.87728
G1 X88.829 Y138.135 E51.89718
G1 X88.467 Y137.839 E51.91428
G1 X88.154 Y137.531 E51.93035
G1 X87.948 Y137.25 E51.9431
G1 X87.464 Y136.477 E51.97647
G1 X87.265 Y136.085 E51.99255
G1 X87.153 Y135.72 E52.00652
G1 X87.052 Y135.267 E52.0235
G1 X86.994 Y134.741 E52.04286
G1 X86.981 Y100.462 E53.297
G1 X87.048 Y99.896 E53.31785
G1 X87.259 Y99.017 E53.35092
G1 X87.4 Y98.601 E53.36699
G1 X87.635 Y98.187 E53.38441
G1 X88.028 Y97.63 E53.40935
G1 X88.313 Y97.295 E53.42544
M204 S5000
M205 X30 Y30
G0 F7200 X88.648 Y97.583
M204 S500
M205 X20 Y20
G1 F900 X88.869 Y97.403 E53.43587
G1 X89.483 Y96.973 E53.46329
G1 X89.83 Y96.779 E53.47784
G1 X90.09 Y96.687 E53.48793
G1 X90.743 Y96.506 E53.51272
G1 X91.273 Y96.434 E53.53229
G1 X143.95 Y96.468 E55.45954
G1 X144.346 Y96.508 E55.4741
G1 X144.711 Y96.62 E55.48807
G1 X145.39 Y96.903 E55.51498
G1 X145.87 Y97.189 E55.53542
G1 X146.234 Y97.482 E55.55252
G1 X146.517 Y97.761 E55.56706
G1 X146.665 Y97.965 E55.57628
G1 X147.152 Y98.734 E55.60958
G1 X147.33 Y99.089 E55.62411
G1 X147.408 Y99.345 E55.6339
G1 X147.514 Y99.801 E55.65103
G1 X147.565 Y100.248 E55.66749
G1 X147.579 Y134.531 E56.92177
G1 X147.526 Y134.985 E56.9385
G1 X147.32 Y135.861 E56.97142
G1 X147.191 Y136.237 E56.98596
G1 X147.077 Y136.45 E56.9948
G1 X146.832 Y136.846 E57.01184
G1 X146.557 Y137.195 E57.0281
G1 X146.238 Y137.518 E57.0447
G1 X145.882 Y137.804 E57.06141
G1 X145.447 Y138.077 E57.0802
G1 X145.037 Y138.273 E57.09683
G1 X144.603 Y138.422 E57.11362
G1 X144.177 Y138.517 E57.12958
G1 X143.715 Y138.568 E57.14659
G1 X143.497 Y138.58 E57.15458
