;FLAVOR:Marlin
;TIME:4849
;Filament used: 4.50262m
;Layer height: 0.2
;Generated with Cura_SteamEngine 3.6.0
M140 S70
M105
M190 S70
M104 S215
M105
M109 S215
M82 ;absolute extrusion mode
G28 ; home all axes
M117 Purge extruder
G92 E0 ; reset extruder
G1 Z1.0 F3000 ; move z up little to prevent scratching of surface
G1 X0.1 Y20 Z0.3 F5000.0 ; move to start-line position G1 X0.1 Y200.0 Z0.3 F1500.0 E15 ; draw 1st line
G1 X0.4 Y200.0 Z0.3 F5000.0 ; move to side a little
G1 X0.4 Y20 Z0.3 F1500.0 E30 ; draw 2nd line
G92 E0 ; reset extruder
G1 Z1.0 F3000 ; move z up little to prevent scratching of surface
M117 All systems go!
G92 E0
G1 F6000 E-5
;LAYER_COUNT:115
;LAYER:0
M107
M204 S5000
M205 X30 Y30
G0 F7200 X76.693 Y91.377 Z0.2
M204 S500
M205 X20 Y20
;TYPE:SKIRT
G1 F6000 E0
G1 F900 X77.187 Y90.977 E0.02326
G1 X77.643 Y90.689 E0.04299
G1 X78.152 Y90.404 E0.06433
G1 X78.725 Y90.129 E0.08758
G1 X79.574 Y89.869 E0.12007
G1 X86.468 Y88.407 E0.3779
G1 X87.097 Y88.315 E0.40116
G1 X87.783 Y88.304 E0.42626
G1 X136.095 Y90.837 E2.19624
G1 X136.727 Y90.91 E2.21952
G1 X137.344 Y91.062 E2.24276
G1 X137.938 Y91.29 E2.26604
G1 X137.987 Y91.316 E2.26807
G1 X138.068 Y91.343 E2.2712
G1 X138.863 Y91.747 E2.30382
G1 X139.564 Y92.184 E2.33404
G1 X152.972 Y91.485 E2.82526
G1 X153.607 Y91.492 E2.84849
G1 X154.111 Y91.554 E2.86707
G1 X154.475 Y91.618 E2.88059
G1 X155.093 Y91.768 E2.90386
G1 X155.688 Y91.993 E2.92713
G1 X156.25 Y92.292 E2.95042
G1 X156.6 Y92.528 E2.96587
G1 X157.067 Y92.872 E2.98709
G1 X157.554 Y93.281 E3.01035
G1 X157.986 Y93.747 E3.0336
G1 X158.357 Y94.264 E3.05688
G1 X158.675 Y94.857 E3.0815
G1 X158.83 Y95.199 E3.09524
G1 X159.055 Y95.794 E3.11851
G1 X159.205 Y96.412 E3.14178
G1 X159.274 Y97.028 E3.16446
G1 X160.191 Y114.841 E3.81703
G1 X160.184 Y115.477 E3.8403
G1 X160.097 Y116.107 E3.86357
G1 X159.932 Y116.721 E3.88683
G1 X159.629 Y117.432 E3.9151
G1 X159.425 Y117.825 E3.9313
G1 X159.097 Y118.37 E3.95458
G1 X158.704 Y118.87 E3.97784
G1 X158.25 Y119.316 E4.00113
G1 X157.957 Y119.551 E4.01487
G1 X157.545 Y119.858 E4.03367
G1 X157.013 Y120.206 E4.05693
G1 X156.44 Y120.483 E4.08021
G1 X155.838 Y120.687 E4.10347
G1 X155.215 Y120.813 E4.12672
G1 X154.8 Y120.853 E4.14197
G1 X137.53 Y121.803 E4.77477
G1 X100.25 Y145.095 E6.38303
G1 X99.691 Y145.398 E6.40629
G1 X99.098 Y145.628 E6.42956
G1 X98.567 Y145.765 E6.44963
G1 X94.413 Y146.601 E6.60465
G1 X93.783 Y146.687 E6.62792
G1 X93.147 Y146.693 E6.65119
G1 X92.516 Y146.619 E6.67443
G1 X92.153 Y146.54 E6.68802
G1 X91.819 Y146.454 E6.70064
G1 X91.215 Y146.257 E6.72388
G1 X90.639 Y145.986 E6.74717
G1 X90.19 Y145.707 E6.76651
G1 X89.907 Y145.51 E6.77913
G1 X89.409 Y145.114 E6.80241
G1 X88.965 Y144.66 E6.82564
G1 X88.427 Y143.906 E6.85953
G1 X88.15 Y143.431 E6.87965
G1 X87.865 Y142.863 E6.9029
G1 X87.653 Y142.263 E6.92618
G1 X87.573 Y141.942 E6.93828
G1 X86.732 Y138.016 E7.08518
G1 X86.638 Y137.387 E7.10845
G1 X86.623 Y136.79 E7.13029
G1 X86.638 Y136.332 E7.14706
G1 X86.698 Y135.699 E7.17032
G1 X86.838 Y135.079 E7.19358
G1 X87.054 Y134.481 E7.21684
G1 X87.294 Y134.001 E7.23647
G1 X87.555 Y133.541 E7.25582
G1 X87.903 Y133.009 E7.27908
G1 X88.315 Y132.524 E7.30236
G1 X88.784 Y132.095 E7.32562
G1 X89.31 Y131.725 E7.34915
G1 X89.698 Y131.487 E7.3658
G1 X90.26 Y131.189 E7.38907
G1 X90.365 Y131.149 E7.39318
G1 X84.851 Y105.213 E8.36329
G1 X84.687 Y105.261 E8.36954
G1 X83.692 Y105.462 E8.40668
G1 X83.062 Y105.548 E8.42994
G1 X82.729 Y105.562 E8.44214
G1 X82.206 Y105.566 E8.46127
G1 X81.571 Y105.531 E8.48454
G1 X80.894 Y105.403 E8.50975
G1 X80.394 Y105.273 E8.52865
G1 X79.79 Y105.075 E8.5519
G1 X79.138 Y104.759 E8.57841
G1 X78.684 Y104.497 E8.59759
G1 X78.154 Y104.145 E8.62087
G1 X77.673 Y103.729 E8.64413
G1 X77.339 Y103.369 E8.6621
G1 X76.756 Y102.675 E8.69526
G1 X76.378 Y102.163 E8.71855
G1 X76.068 Y101.608 E8.7418
G1 X75.853 Y101.088 E8.76239
G1 X75.684 Y100.604 E8.78115
G1 X75.51 Y99.979 E8.80488
G1 X74.888 Y97.025 E8.91533
G1 X74.796 Y96.395 E8.93862
G1 X74.794 Y95.59 E8.96807
G1 X74.834 Y95.075 E8.98697
G1 X74.923 Y94.446 E9.01021
G1 X75.09 Y93.832 E9.03349
G1 X75.333 Y93.244 E9.05677
G1 X75.637 Y92.709 E9.07928
G1 X75.873 Y92.346 E9.09513
G1 X76.198 Y91.909 E9.11505
G0 F810 X76.252 Y91.836
G0 X76.693 Y91.377
M204 S5000
M205 X30 Y30
G0 F7200 X77.03 Y91.665
M204 S500
M205 X20 Y20
G1 F6000 E9.14165
G1 F900 X77.508 Y91.29 E9.16388
G1 X77.858 Y91.073 E9.17894
G1 X78.367 Y90.788 E9.20029
G1 X78.915 Y90.527 E9.22249
G1 X79.666 Y90.3 E9.2512
G1 X86.56 Y88.838 E9.50903
G1 X87.161 Y88.751 E9.53125
G1 X87.76 Y88.743 E9.55317
G1 X136.072 Y91.276 E11.32314
G1 X136.675 Y91.348 E11.34536
G1 X137.264 Y91.498 E11.3676
G1 X137.828 Y91.724 E11.38983
G1 X137.874 Y91.75 E11.39176
G1 X138.078 Y91.826 E11.39973
G1 X138.63 Y92.12 E11.42261
G1 X139.448 Y92.63 E11.45787
G1 X152.994 Y91.924 E11.95414
G1 X153.602 Y91.933 E11.97639
G1 X154.035 Y91.988 E11.99236
G1 X154.399 Y92.052 E12.00588
G1 X154.989 Y92.196 E12.0281
G1 X155.555 Y92.417 E12.05033
G1 X156.088 Y92.71 E12.07258
G1 X156.339 Y92.882 E12.08372
G1 X156.806 Y93.226 E12.10494
G1 X157.27 Y93.618 E12.12716
G1 X157.68 Y94.067 E12.14941
G1 X158.026 Y94.566 E12.17162
G1 X158.274 Y95.039 E12.19116
G1 X158.429 Y95.381 E12.2049
G1 X158.643 Y95.95 E12.22714
G1 X158.78 Y96.541 E12.24934
G1 X158.835 Y97.05 E12.26807
G1 X159.752 Y114.863 E12.92064
G1 X159.743 Y115.471 E12.94288
G1 X159.655 Y116.072 E12.96511
G1 X159.488 Y116.657 E12.98737
G1 X159.238 Y117.229 E13.0102
G1 X159.034 Y117.622 E13.0264
G1 X158.72 Y118.142 E13.04863
G1 X158.339 Y118.616 E13.07088
G1 X157.694 Y119.199 E13.10269
G1 X157.282 Y119.506 E13.12149
G1 X156.772 Y119.836 E13.14371
G1 X156.223 Y120.096 E13.16593
G1 X155.645 Y120.282 E13.18815
G1 X154.776 Y120.414 E13.22031
G1 X137.393 Y121.371 E13.85725
G1 X100.017 Y144.722 E15.46963
G1 X99.482 Y145.01 E15.49186
G1 X98.913 Y145.224 E15.5141
G1 X98.481 Y145.333 E15.5304
G1 X94.327 Y146.169 E15.68542
G1 X93.724 Y146.25 E15.70768
G1 X93.117 Y146.25 E15.72989
G1 X92.263 Y146.114 E15.76153
G1 X91.929 Y146.028 E15.77415
G1 X91.352 Y145.838 E15.79637
G1 X90.805 Y145.574 E15.8186
G1 X90.442 Y145.346 E15.83428
G1 X90.159 Y145.149 E15.84689
G1 X89.684 Y144.77 E15.86913
G1 X89.263 Y144.331 E15.89138
G1 X88.807 Y143.684 E15.92034
G1 X88.53 Y143.209 E15.94046
G1 X88.259 Y142.665 E15.96269
G1 X88.003 Y141.85 E15.99395
G1 X87.162 Y137.924 E16.14084
G1 X87.075 Y137.322 E16.1631
G1 X87.062 Y136.805 E16.18202
G1 X87.077 Y136.347 E16.19878
G1 X87.137 Y135.742 E16.22103
G1 X87.276 Y135.151 E16.24324
G1 X87.491 Y134.582 E16.26549
G1 X87.677 Y134.218 E16.28045
G1 X87.938 Y133.758 E16.2998
G1 X88.272 Y133.25 E16.32204
G1 X88.669 Y132.791 E16.34424
G1 X89.124 Y132.388 E16.36648
G1 X89.54 Y132.1 E16.38499
G1 X89.928 Y131.862 E16.40165
G1 X90.466 Y131.579 E16.42389
G1 X90.873 Y131.429 E16.43976
G1 X85.185 Y104.668 E17.44071
G1 X84.6 Y104.83 E17.46292
G1 X83.605 Y105.031 E17.50006
G1 X82.725 Y105.122 E17.53242
G1 X82.202 Y105.126 E17.55156
G1 X81.596 Y105.091 E17.57377
G1 X81.004 Y104.977 E17.59582
G1 X80.504 Y104.847 E17.61473
G1 X79.928 Y104.656 E17.63693
G1 X79.358 Y104.377 E17.66015
G1 X78.904 Y104.115 E17.67932
G1 X78.399 Y103.778 E17.70154
G1 X77.942 Y103.377 E17.72378
G1 X77.676 Y103.086 E17.7382
G1 X77.093 Y102.392 E17.77136
G1 X76.733 Y101.902 E17.79361
G1 X76.441 Y101.369 E17.81585
G1 X76.268 Y100.943 E17.83267
G1 X76.099 Y100.459 E17.85142
G1 X75.94 Y99.888 E17.87311
G1 X75.318 Y96.934 E17.98355
G1 X75.232 Y96.332 E18.0058
G1 X75.233 Y95.624 E18.03171
G1 X75.273 Y95.109 E18.0506
G1 X75.36 Y94.508 E18.07282
G1 X75.525 Y93.923 E18.09506
G1 X75.765 Y93.365 E18.11728
G1 X76.006 Y92.949 E18.13487
G1 X76.242 Y92.586 E18.15071
G1 X76.534 Y92.195 E18.16857
G0 F810 X76.606 Y92.099
G0 X77.03 Y91.665
M204 S5000
M205 X30 Y30
G0 F7200 X77.366 Y91.955
M204 S500
M205 X20 Y20
G1 F6000 E18.19517
G1 F900 X78.073 Y91.457 E18.2268
G1 X78.582 Y91.172 E18.24815
G1 X79.104 Y90.925 E18.26928
G1 X79.757 Y90.73 E18.29421
G1 X86.651 Y89.268 E18.55204
G1 X87.223 Y89.187 E18.57318
G1 X87.737 Y89.183 E18.59198
G1 X136.049 Y91.716 E20.36196
G1 X136.623 Y91.786 E20.38312
G1 X137.181 Y91.934 E20.40424
G1 X137.542 Y92.087 E20.41858
G1 X137.544 Y92.087 E20.41866
G1 X138.076 Y92.312 E20.43979
G1 X138.397 Y92.493 E20.45327
G1 X139.334 Y93.077 E20.49367
G1 X153.017 Y92.364 E20.99495
G1 X153.595 Y92.374 E21.0161
G1 X153.959 Y92.421 E21.02953
G1 X154.323 Y92.485 E21.04305
G1 X154.884 Y92.624 E21.0642
G1 X155.42 Y92.84 E21.08534
G1 X156.078 Y93.237 E21.11346
G1 X156.545 Y93.581 E21.13468
G1 X156.986 Y93.955 E21.15583
G1 X157.37 Y94.386 E21.17695
G1 X157.692 Y94.866 E21.1981
G1 X157.873 Y95.22 E21.21265
G1 X158.028 Y95.562 E21.22638
G1 X158.23 Y96.104 E21.24755
G1 X158.355 Y96.668 E21.26868
G1 X158.395 Y97.073 E21.28357
G1 X159.312 Y114.886 E21.93614
G1 X159.302 Y115.464 E21.95729
G1 X159.212 Y116.035 E21.97844
G1 X159.045 Y116.588 E21.99958
G1 X158.848 Y117.027 E22.01718
G1 X158.644 Y117.42 E22.03338
G1 X158.343 Y117.913 E22.05451
G1 X157.977 Y118.36 E22.07565
G1 X157.432 Y118.846 E22.10237
G1 X157.02 Y119.153 E22.12116
G1 X156.533 Y119.465 E22.14233
G1 X156.009 Y119.708 E22.16346
G1 X155.456 Y119.875 E22.18459
G1 X154.752 Y119.975 E22.21061
G1 X137.256 Y120.938 E22.85169
G1 X99.784 Y144.349 E24.46821
G1 X99.274 Y144.621 E24.48936
G1 X98.731 Y144.819 E24.5105
G1 X98.394 Y144.902 E24.5232
G1 X94.24 Y145.738 E24.67823
G1 X93.667 Y145.812 E24.69936
G1 X93.089 Y145.807 E24.72051
G1 X92.373 Y145.688 E24.74707
G1 X92.039 Y145.602 E24.75969
G1 X91.49 Y145.42 E24.78085
G1 X90.972 Y145.163 E24.802
G1 X90.693 Y144.985 E24.81411
G1 X90.41 Y144.788 E24.82673
G1 X89.96 Y144.425 E24.84788
G1 X89.563 Y144.005 E24.86902
G1 X89.187 Y143.463 E24.89316
G1 X88.91 Y142.988 E24.91327
G1 X88.654 Y142.47 E24.93441
G1 X88.434 Y141.758 E24.96168
G1 X87.593 Y137.832 E25.10857
G1 X87.511 Y137.259 E25.12975
G1 X87.502 Y136.819 E25.14585
G1 X87.517 Y136.361 E25.16262
G1 X87.576 Y135.786 E25.18377
G1 X87.714 Y135.225 E25.2049
G1 X88.059 Y134.435 E25.23644
G1 X88.32 Y133.975 E25.25579
G1 X88.64 Y133.493 E25.27696
G1 X89.022 Y133.06 E25.29808
G1 X89.461 Y132.684 E25.31923
G1 X89.77 Y132.475 E25.33288
G1 X90.158 Y132.237 E25.34953
G1 X90.671 Y131.97 E25.37069
G1 X91.388 Y131.736 E25.39829
G1 X85.505 Y104.061 E26.43343
G1 X85.477 Y104.077 E26.43461
G1 X84.939 Y104.289 E26.45577
G1 X84.513 Y104.398 E26.47186
G1 X83.518 Y104.599 E26.50899
G1 X82.722 Y104.682 E26.53827
G1 X82.199 Y104.686 E26.55741
G1 X81.622 Y104.65 E26.57856
G1 X81.115 Y104.551 E26.59746
G1 X80.615 Y104.421 E26.61636
G1 X80.067 Y104.238 E26.6375
G1 X79.578 Y103.996 E26.65746
G1 X79.124 Y103.734 E26.67664
G1 X78.644 Y103.412 E26.69778
G1 X78.214 Y103.026 E26.71893
G1 X78.012 Y102.803 E26.72993
G1 X77.429 Y102.109 E26.76309
G1 X77.089 Y101.642 E26.78423
G1 X76.817 Y101.132 E26.80538
G1 X76.684 Y100.798 E26.81853
G1 X76.515 Y100.314 E26.83729
G1 X76.371 Y99.797 E26.85692
G1 X75.749 Y96.843 E26.96737
G1 X75.669 Y96.271 E26.9885
G1 X75.672 Y95.658 E27.01092
G1 X75.712 Y95.143 E27.02982
G1 X75.796 Y94.572 E27.05094
G1 X75.959 Y94.017 E27.0721
G1 X76.196 Y93.49 E27.09324
G1 X76.375 Y93.189 E27.10605
G1 X76.611 Y92.826 E27.1219
G1 X76.868 Y92.484 E27.13755
G0 F810 X76.958 Y92.364
G0 X77.366 Y91.955
M204 S5000
M205 X30 Y30
G0 F7200 X77.701 Y92.248
M204 S500
M205 X20 Y20
G1 F6000 E27.16414
G1 F900 X78.288 Y91.841 E27.19028
G1 X78.797 Y91.556 E27.21162
G1 X79.292 Y91.324 E27.23162
G1 X79.848 Y91.16 E27.25283
G1 X86.742 Y89.698 E27.51066
G1 X87.284 Y89.624 E27.53068
G1 X87.714 Y89.622 E27.54641
G1 X136.026 Y92.155 E29.31639
G1 X136.568 Y92.224 E29.33638
G1 X137.095 Y92.37 E29.35638
G1 X137.45 Y92.528 E29.3706
G1 X137.568 Y92.565 E29.37513
G1 X138.164 Y92.867 E29.39957
G1 X139.217 Y93.524 E29.44498
G1 X153.04 Y92.803 E29.9514
G1 X153.587 Y92.815 E29.97141
G1 X153.883 Y92.855 E29.98234
G1 X154.247 Y92.919 E29.99586
G1 X154.777 Y93.052 E30.01586
G1 X155.282 Y93.262 E30.03587
G1 X155.817 Y93.591 E30.05884
G1 X156.284 Y93.935 E30.08007
G1 X156.699 Y94.29 E30.10005
G1 X157.058 Y94.702 E30.12004
G1 X157.472 Y95.402 E30.14979
G1 X157.627 Y95.744 E30.16353
G1 X157.816 Y96.257 E30.18353
G1 X157.928 Y96.792 E30.20353
G1 X157.956 Y97.096 E30.2147
G1 X158.873 Y114.909 E30.86727
G1 X158.861 Y115.455 E30.88725
G1 X158.77 Y115.994 E30.90725
G1 X158.601 Y116.514 E30.92726
G1 X158.457 Y116.824 E30.93976
G1 X158.253 Y117.217 E30.95596
G1 X157.967 Y117.683 E30.97597
G1 X157.615 Y118.101 E30.99596
G1 X157.169 Y118.493 E31.01768
G1 X156.757 Y118.8 E31.03648
G1 X156.296 Y119.094 E31.05649
G1 X155.797 Y119.317 E31.07648
G1 X155.271 Y119.465 E31.09647
G1 X154.727 Y119.535 E31.11654
G1 X137.12 Y120.504 E31.76169
G1 X99.551 Y143.976 E33.3824
G1 X99.067 Y144.231 E33.40242
G1 X98.307 Y144.47 E33.43157
G1 X94.153 Y145.306 E33.58659
G1 X93.611 Y145.375 E33.60658
G1 X93.064 Y145.363 E33.6266
G1 X92.482 Y145.262 E33.64821
G1 X92.148 Y145.176 E33.66083
G1 X91.63 Y145.001 E33.68083
G1 X90.944 Y144.624 E33.70947
G1 X90.661 Y144.427 E33.72209
G1 X90.237 Y144.082 E33.74208
G1 X89.867 Y143.68 E33.76207
G1 X89.567 Y143.241 E33.78153
G1 X89.29 Y142.766 E33.80164
G1 X89.05 Y142.275 E33.82164
G1 X88.864 Y141.665 E33.84497
G1 X88.023 Y137.739 E33.99187
G1 X87.948 Y137.198 E34.01185
G1 X87.942 Y136.834 E34.02517
G1 X87.957 Y136.376 E34.04193
G1 X88.015 Y135.832 E34.06195
G1 X88.151 Y135.303 E34.08193
G1 X88.442 Y134.652 E34.10802
G1 X88.703 Y134.192 E34.12737
G1 X89.007 Y133.738 E34.14736
G1 X89.374 Y133.333 E34.16736
G1 X90 Y132.85 E34.19629
G1 X90.388 Y132.612 E34.21294
G1 X90.874 Y132.361 E34.23295
G1 X91.531 Y132.149 E34.25821
G1 X91.909 Y132.065 E34.27238
G1 X85.808 Y103.369 E35.34572
G1 X85.664 Y103.474 E35.35224
G1 X85.18 Y103.729 E35.37225
G1 X84.426 Y103.967 E35.40118
G1 X83.431 Y104.168 E35.43832
G1 X82.719 Y104.242 E35.46451
G1 X82.196 Y104.246 E35.48364
G1 X81.65 Y104.21 E35.50366
G1 X81.226 Y104.126 E35.51948
G1 X80.726 Y103.996 E35.53838
G1 X80.208 Y103.82 E35.55839
G1 X79.798 Y103.615 E35.57517
G1 X79.344 Y103.353 E35.59434
G1 X78.891 Y103.046 E35.61436
G1 X78.349 Y102.52 E35.642
G1 X77.766 Y101.826 E35.67516
G1 X77.446 Y101.383 E35.69515
G1 X77.099 Y100.653 E35.72472
G1 X76.93 Y100.169 E35.74348
G1 X76.801 Y99.707 E35.76103
G1 X76.179 Y96.753 E35.87147
G1 X76.106 Y96.211 E35.89148
G1 X76.11 Y95.692 E35.91047
G1 X76.15 Y95.177 E35.92937
G1 X76.232 Y94.637 E35.94935
G1 X76.392 Y94.114 E35.96936
G1 X76.743 Y93.428 E35.99756
G1 X76.979 Y93.065 E36.0134
G1 X77.201 Y92.774 E36.02679
G0 F810 X77.31 Y92.63
G0 X77.701 Y92.248
M204 S5000
M205 X30 Y30
G0 F7200 X78.033 Y92.544
M204 S500
M205 X20 Y20
G1 F6000 E36.05339
G1 F900 X78.503 Y92.225 E36.07417
G1 X79.012 Y91.94 E36.09551
G1 X79.478 Y91.724 E36.1143
G1 X79.939 Y91.591 E36.13186
G1 X86.833 Y90.129 E36.38969
G1 X87.342 Y90.062 E36.40847
G1 X87.691 Y90.062 E36.42124
G1 X136.003 Y92.595 E38.19122
G1 X136.512 Y92.661 E38.21
G1 X137.004 Y92.806 E38.22876
G1 X137.283 Y92.938 E38.24006
G1 X137.577 Y93.048 E38.25154
G1 X137.932 Y93.24 E38.26631
G1 X139.102 Y93.97 E38.31676
G1 X153.063 Y93.242 E38.82823
G1 X153.806 Y93.288 E38.85547
G1 X154.17 Y93.352 E38.86899
G1 X154.668 Y93.48 E38.8878
G1 X155.139 Y93.683 E38.90657
G1 X155.556 Y93.945 E38.92459
G1 X156.023 Y94.289 E38.94581
G1 X156.412 Y94.625 E38.96461
G1 X156.743 Y95.017 E38.98338
G1 X157.072 Y95.584 E39.00737
G1 X157.227 Y95.926 E39.0211
G1 X157.402 Y96.408 E39.03987
G1 X157.517 Y97.118 E39.06618
G1 X158.434 Y114.931 E39.71875
G1 X158.42 Y115.445 E39.73756
G1 X158.327 Y115.95 E39.75635
G1 X158.067 Y116.621 E39.78268
G1 X157.863 Y117.014 E39.79888
G1 X157.592 Y117.45 E39.81766
G1 X157.256 Y117.839 E39.83647
G1 X156.906 Y118.14 E39.85336
G1 X156.494 Y118.447 E39.87215
G1 X156.059 Y118.721 E39.89096
G1 X155.588 Y118.924 E39.90973
G1 X155.091 Y119.052 E39.9285
G1 X154.703 Y119.096 E39.94279
G1 X136.983 Y120.071 E40.59208
G1 X99.318 Y143.603 E42.21693
G1 X98.862 Y143.84 E42.23574
G1 X98.22 Y144.039 E42.26033
G1 X94.066 Y144.875 E42.41535
G1 X93.556 Y144.937 E42.43415
G1 X93.043 Y144.919 E42.45293
G1 X92.592 Y144.836 E42.46971
G1 X92.258 Y144.75 E42.48233
G1 X91.772 Y144.583 E42.50113
