;FLAVOR:Marlin
;TIME:3883
;Filament used: 3.99701m
;Layer height: 0.2
;Generated with Cura_SteamEngine 3.6.0
M140 S70
M105
M190 S70
M104 S215
M105
M109 S215
M82 ;absolute extrusion mode
G28 ; home all axes
M117 Purge extruder
G92 E0 ; reset extruder
G1 Z1.0 F3000 ; move z up little to prevent scratching of surface
G1 X0.1 Y20 Z0.3 F5000.0 ; move to start-line position G1 X0.1 Y200.0 Z0.3 F1500.0 E15 ; draw 1st line
G1 X0.4 Y200.0 Z0.3 F5000.0 ; move to side a little
G1 X0.4 Y20 Z0.3 F1500.0 E30 ; draw 2nd line
G92 E0 ; reset extruder
G1 Z1.0 F3000 ; move z up little to prevent scratching of surface
M117 All systems go!
G92 E0
G1 F6000 E-5
;LAYER_COUNT:83
;LAYER:0
M107
M204 S5000
M205 X30 Y30
G0 F7200 X100.112 Y99.466 Z0.2
M204 S500
M205 X20 Y20
;TYPE:SKIRT
G1 F6000 E0
G1 F900 X100.578 Y99.028 E0.0234
G1 X102.511 Y97.428 E0.1152
G1 X103.025 Y97.054 E0.13846
G1 X105.148 Y95.706 E0.23047
G1 X105.702 Y95.401 E0.2536
G1 X107.978 Y94.328 E0.34566
G1 X108.572 Y94.093 E0.36903
G1 X110.954 Y93.319 E0.46067
G1 X111.568 Y93.161 E0.48386
G1 X114.033 Y92.69 E0.57568
G1 X114.663 Y92.61 E0.59891
G1 X117.173 Y92.451 E0.69093
G1 X117.809 Y92.451 E0.7142
G1 X120.32 Y92.608 E0.80625
G1 X120.95 Y92.687 E0.82948
G1 X123.415 Y93.156 E0.92128
G1 X124.03 Y93.314 E0.94451
G1 X126.413 Y94.087 E1.03617
G1 X127.006 Y94.322 E1.0595
G1 X129.28 Y95.392 E1.15145
G1 X129.836 Y95.697 E1.17465
G1 X131.962 Y97.045 E1.26675
G1 X132.476 Y97.418 E1.28999
G1 X134.41 Y99.017 E1.3818
G1 X134.875 Y99.454 E1.40514
G1 X136.595 Y101.286 E1.49708
G1 X136.997 Y101.771 E1.52013
G1 X138.471 Y103.796 E1.61176
G1 X138.813 Y104.335 E1.63512
G1 X140.025 Y106.538 E1.72711
G1 X140.296 Y107.113 E1.75037
G1 X141.223 Y109.453 E1.84245
G1 X141.419 Y110.054 E1.86558
G1 X142.044 Y112.479 E1.9572
G1 X142.164 Y113.105 E1.98052
G1 X142.48 Y115.597 E2.07242
G1 X142.52 Y116.232 E2.0957
G1 X142.521 Y118.747 E2.18771
G1 X142.481 Y119.382 E2.21099
G1 X142.167 Y121.873 E2.30285
G1 X142.048 Y122.499 E2.32616
G1 X141.424 Y124.928 E2.41792
G1 X141.229 Y125.528 E2.441
G1 X140.304 Y127.869 E2.53309
G1 X140.033 Y128.447 E2.55645
G1 X138.822 Y130.651 E2.64845
G1 X138.481 Y131.188 E2.67173
G1 X137.009 Y133.214 E2.76335
G1 X136.607 Y133.7 E2.78642
G1 X134.888 Y135.534 E2.87839
G1 X134.422 Y135.972 E2.90179
G1 X132.489 Y137.572 E2.99359
G1 X131.975 Y137.946 E3.01685
G1 X129.852 Y139.294 E3.10885
G1 X129.298 Y139.599 E3.13199
G1 X127.022 Y140.672 E3.22405
G1 X126.428 Y140.907 E3.24742
G1 X124.046 Y141.681 E3.33906
G1 X123.432 Y141.839 E3.36225
G1 X120.967 Y142.31 E3.45407
G1 X120.337 Y142.39 E3.4773
G1 X117.827 Y142.549 E3.56932
G1 X117.191 Y142.549 E3.59259
G1 X114.68 Y142.392 E3.68463
G1 X114.05 Y142.313 E3.70786
G1 X111.585 Y141.844 E3.79967
G1 X110.97 Y141.686 E3.8229
G1 X108.587 Y140.913 E3.91456
G1 X107.994 Y140.678 E3.93789
G1 X105.718 Y139.607 E4.02992
G1 X105.162 Y139.302 E4.05312
G1 X103.038 Y137.955 E4.14514
G1 X102.524 Y137.582 E4.16838
G1 X100.59 Y135.983 E4.26019
G1 X100.125 Y135.546 E4.28353
G1 X98.405 Y133.714 E4.37547
G1 X98.003 Y133.229 E4.39852
G1 X96.529 Y131.204 E4.49015
G1 X96.187 Y130.665 E4.51351
G1 X94.975 Y128.462 E4.6055
G1 X94.704 Y127.887 E4.62875
G1 X93.777 Y125.547 E4.72084
G1 X93.581 Y124.946 E4.74397
G1 X92.955 Y122.517 E4.83574
G1 X92.835 Y121.89 E4.85909
G1 X92.52 Y119.402 E4.95085
G1 X92.48 Y118.768 E4.97409
G1 X92.479 Y116.29 E5.06475
G1 X92.517 Y115.667 E5.08759
G1 X92.825 Y113.178 E5.17934
G1 X92.947 Y112.538 E5.20318
G1 X93.591 Y110.035 E5.29774
G1 X93.785 Y109.437 E5.32074
G1 X94.696 Y107.131 E5.41145
G1 X94.967 Y106.553 E5.43481
G1 X96.178 Y104.349 E5.52681
G1 X96.519 Y103.812 E5.55009
G1 X97.991 Y101.786 E5.64171
G1 X98.393 Y101.3 E5.66478
G1 X99.615 Y99.996 E5.73017
G0 F810 X100.112 Y99.466
M204 S5000
M205 X30 Y30
G0 F7200 X100.433 Y99.767
M204 S500
M205 X20 Y20
G1 F6000 E5.75676
G1 F900 X100.858 Y99.367 E5.77812
G1 X102.791 Y97.767 E5.86992
G1 X103.261 Y97.426 E5.89117
G1 X105.384 Y96.078 E5.98317
G1 X105.89 Y95.799 E6.00431
G1 X108.166 Y94.726 E6.09637
G1 X108.708 Y94.511 E6.11771
G1 X111.09 Y93.737 E6.20934
G1 X111.651 Y93.593 E6.23053
G1 X114.116 Y93.122 E6.32235
G1 X114.691 Y93.049 E6.34355
G1 X117.201 Y92.89 E6.43557
G1 X117.781 Y92.89 E6.45679
G1 X120.292 Y93.047 E6.54884
G1 X120.868 Y93.119 E6.57007
G1 X123.333 Y93.588 E6.66188
G1 X123.895 Y93.732 E6.6831
G1 X126.278 Y94.505 E6.77476
G1 X126.819 Y94.72 E6.79606
G1 X129.093 Y95.79 E6.888
G1 X129.6 Y96.068 E6.90916
G1 X131.726 Y97.416 E7.00126
G1 X132.196 Y97.757 E7.0225
G1 X134.13 Y99.356 E7.11431
G1 X134.554 Y99.755 E7.13561
G1 X136.274 Y101.587 E7.22755
G1 X136.641 Y102.03 E7.2486
G1 X138.115 Y104.055 E7.34023
G1 X138.428 Y104.547 E7.36157
G1 X139.64 Y106.75 E7.45356
G1 X139.887 Y107.275 E7.47479
G1 X140.814 Y109.615 E7.56687
G1 X140.993 Y110.164 E7.588
G1 X141.618 Y112.589 E7.67962
G1 X141.727 Y113.161 E7.70092
G1 X142.043 Y115.653 E7.79283
G1 X142.08 Y116.232 E7.81405
G1 X142.081 Y118.747 E7.90607
G1 X142.045 Y119.327 E7.92733
G1 X141.731 Y121.818 E8.01918
G1 X141.622 Y122.39 E8.04049
G1 X140.998 Y124.819 E8.13224
G1 X140.82 Y125.367 E8.15332
G1 X139.895 Y127.708 E8.24541
G1 X139.647 Y128.235 E8.26672
G1 X138.436 Y130.439 E8.35873
G1 X138.125 Y130.93 E8.37999
G1 X136.653 Y132.956 E8.47162
G1 X136.286 Y133.399 E8.49266
G1 X134.567 Y135.233 E8.58463
G1 X134.142 Y135.633 E8.60598
G1 X132.209 Y137.233 E8.69779
G1 X131.739 Y137.574 E8.71903
G1 X129.616 Y138.922 E8.81104
G1 X129.11 Y139.201 E8.83218
G1 X126.834 Y140.274 E8.92424
G1 X126.292 Y140.489 E8.94557
G1 X123.91 Y141.263 E9.0372
G1 X123.349 Y141.407 E9.05839
G1 X120.884 Y141.878 E9.15021
G1 X120.309 Y141.951 E9.17142
G1 X117.799 Y142.11 E9.26343
G1 X117.219 Y142.11 E9.28465
G1 X114.708 Y141.953 E9.3767
G1 X114.132 Y141.881 E9.39794
G1 X111.667 Y141.412 E9.48974
G1 X111.105 Y141.268 E9.51096
G1 X108.722 Y140.495 E9.60262
G1 X108.181 Y140.28 E9.62392
G1 X105.905 Y139.209 E9.71595
G1 X105.398 Y138.931 E9.7371
G1 X103.274 Y137.584 E9.82912
G1 X102.804 Y137.243 E9.85037
G1 X100.87 Y135.644 E9.94218
G1 X100.446 Y135.245 E9.96348
G1 X98.726 Y133.413 E10.05541
G1 X98.359 Y132.97 E10.07646
G1 X96.885 Y130.945 E10.1681
G1 X96.572 Y130.453 E10.18943
G1 X95.36 Y128.25 E10.28142
G1 X95.113 Y127.725 E10.30265
G1 X94.186 Y125.385 E10.39474
G1 X94.007 Y124.836 E10.41586
G1 X93.381 Y122.407 E10.50763
G1 X93.272 Y121.834 E10.52897
G1 X92.957 Y119.346 E10.62073
G1 X92.92 Y118.768 E10.64192
G1 X92.919 Y116.29 E10.73258
G1 X92.954 Y115.721 E10.75343
G1 X93.262 Y113.232 E10.84519
G1 X93.373 Y112.648 E10.86694
G1 X94.017 Y110.145 E10.9615
G1 X94.194 Y109.599 E10.9825
G1 X95.105 Y107.293 E11.07321
G1 X95.353 Y106.765 E11.09455
G1 X96.564 Y104.561 E11.18656
G1 X96.875 Y104.07 E11.20782
G1 X98.347 Y102.044 E11.29944
G1 X98.714 Y101.601 E11.32049
G1 X99.936 Y100.297 E11.38587
G0 F810 X100.433 Y99.767
M204 S5000
M205 X30 Y30
G0 F7200 X100.754 Y100.067
M204 S500
M205 X20 Y20
G1 F6000 E11.41247
G1 F900 X101.139 Y99.706 E11.43178
G1 X103.072 Y98.106 E11.52359
G1 X103.496 Y97.797 E11.54278
G1 X105.619 Y96.449 E11.63479
G1 X106.078 Y96.197 E11.65395
G1 X108.354 Y95.124 E11.74601
G1 X108.844 Y94.93 E11.76529
G1 X111.226 Y94.156 E11.85692
G1 X111.733 Y94.025 E11.87608
G1 X114.198 Y93.554 E11.9679
G1 X114.719 Y93.488 E11.98711
G1 X117.229 Y93.329 E12.07912
G1 X117.754 Y93.329 E12.09833
G1 X120.265 Y93.486 E12.19038
G1 X120.785 Y93.552 E12.20956
G1 X123.25 Y94.021 E12.30136
G1 X123.759 Y94.151 E12.32058
G1 X126.142 Y94.924 E12.41224
G1 X126.632 Y95.118 E12.43152
G1 X128.906 Y96.188 E12.52346
G1 X129.364 Y96.44 E12.54259
G1 X131.49 Y97.788 E12.63469
G1 X131.915 Y98.096 E12.65389
G1 X133.849 Y99.695 E12.7457
G1 X134.233 Y100.056 E12.76499
G1 X135.953 Y101.888 E12.85692
G1 X136.286 Y102.289 E12.87599
G1 X137.76 Y104.314 E12.96763
G1 X138.042 Y104.759 E12.9869
G1 X139.254 Y106.962 E13.07889
G1 X139.478 Y107.437 E13.09811
G1 X140.405 Y109.777 E13.19019
G1 X140.567 Y110.274 E13.20932
G1 X141.192 Y112.699 E13.30094
G1 X141.291 Y113.216 E13.3202
G1 X141.607 Y115.708 E13.4121
G1 X141.64 Y116.232 E13.43131
G1 X141.641 Y118.747 E13.52332
G1 X141.608 Y119.272 E13.54257
G1 X141.294 Y121.763 E13.63443
G1 X141.196 Y122.28 E13.65368
G1 X140.572 Y124.709 E13.74543
G1 X140.411 Y125.205 E13.76451
G1 X139.486 Y127.546 E13.8566
G1 X139.261 Y128.023 E13.8759
G1 X138.05 Y130.227 E13.9679
G1 X137.769 Y130.671 E13.98713
G1 X136.297 Y132.697 E14.07875
G1 X135.965 Y133.099 E14.09783
G1 X134.246 Y134.933 E14.18979
G1 X133.861 Y135.294 E14.2091
G1 X131.928 Y136.894 E14.3009
G1 X131.504 Y137.203 E14.3201
G1 X129.381 Y138.551 E14.41211
G1 X128.922 Y138.803 E14.43126
G1 X126.646 Y139.876 E14.52332
G1 X126.156 Y140.07 E14.54261
G1 X123.774 Y140.844 E14.63424
G1 X123.267 Y140.975 E14.6534
G1 X120.802 Y141.446 E14.74521
G1 X120.281 Y141.512 E14.76443
G1 X117.771 Y141.671 E14.85644
G1 X117.246 Y141.671 E14.87565
G1 X114.735 Y141.514 E14.9677
G1 X114.215 Y141.448 E14.98687
G1 X111.75 Y140.979 E15.07868
G1 X111.241 Y140.849 E15.0979
G1 X108.858 Y140.076 E15.18955
G1 X108.368 Y139.882 E15.20884
G1 X106.092 Y138.811 E15.30086
G1 X105.633 Y138.559 E15.32002
G1 X103.509 Y137.212 E15.41204
G1 X103.085 Y136.904 E15.43121
G1 X101.151 Y135.305 E15.52302
G1 X100.767 Y134.944 E15.54231
G1 X99.047 Y133.112 E15.63424
G1 X98.714 Y132.711 E15.65331
G1 X97.24 Y130.686 E15.74495
G1 X96.958 Y130.241 E15.76422
G1 X95.746 Y128.038 E15.85622
G1 X95.522 Y127.563 E15.87543
G1 X94.595 Y125.223 E15.96751
G1 X94.433 Y124.726 E15.98664
G1 X93.807 Y122.297 E16.07841
G1 X93.708 Y121.779 E16.0977
G1 X93.393 Y119.291 E16.18946
G1 X93.36 Y118.768 E16.20863
G1 X93.359 Y116.29 E16.29929
G1 X93.391 Y115.775 E16.31817
G1 X93.699 Y113.286 E16.40993
G1 X93.799 Y112.757 E16.42962
G1 X94.443 Y110.254 E16.52418
G1 X94.603 Y109.76 E16.54318
G1 X95.514 Y107.454 E16.63389
G1 X95.739 Y106.977 E16.65319
G1 X96.95 Y104.773 E16.74519
G1 X97.231 Y104.329 E16.76442
G1 X98.703 Y102.303 E16.85604
G1 X99.035 Y101.901 E16.87512
G1 X100.257 Y100.597 E16.9405
G0 F810 X100.754 Y100.067
M204 S5000
M205 X30 Y30
G0 F7200 X101.075 Y100.368
M204 S500
M205 X20 Y20
G1 F6000 E16.9671
G1 F900 X101.419 Y100.045 E16.98436
G1 X103.352 Y98.445 E17.07617
G1 X103.732 Y98.169 E17.09335
G1 X105.855 Y96.821 E17.18535
G1 X106.265 Y96.595 E17.20248
G1 X108.541 Y95.522 E17.29454
G1 X108.98 Y95.348 E17.31182
G1 X111.362 Y94.574 E17.40345
G1 X111.816 Y94.457 E17.42061
G1 X114.281 Y93.986 E17.51242
G1 X114.747 Y93.927 E17.52961
G1 X117.257 Y93.768 E17.62162
G1 X117.726 Y93.768 E17.63878
G1 X120.237 Y93.925 E17.73083
G1 X120.703 Y93.984 E17.74801
G1 X123.168 Y94.453 E17.83982
G1 X123.623 Y94.569 E17.857
G1 X126.006 Y95.342 E17.94865
G1 X126.444 Y95.516 E17.9659
G1 X128.718 Y96.586 E18.05784
G1 X129.129 Y96.811 E18.07499
G1 X131.255 Y98.159 E18.16709
G1 X131.635 Y98.436 E18.18429
G1 X133.569 Y100.035 E18.2761
G1 X133.913 Y100.357 E18.29334
G1 X135.633 Y102.189 E18.38528
G1 X135.93 Y102.548 E18.40232
G1 X137.404 Y104.573 E18.49396
G1 X137.657 Y104.971 E18.51121
G1 X138.869 Y107.174 E18.6032
G1 X139.069 Y107.6 E18.62042
G1 X139.996 Y109.94 E18.71251
G1 X140.141 Y110.384 E18.7296
G1 X140.766 Y112.809 E18.82122
G1 X140.854 Y113.272 E18.83846
G1 X141.17 Y115.764 E18.93036
G1 X141.2 Y116.233 E18.94756
G1 X141.201 Y118.748 E19.03957
G1 X141.172 Y119.217 E19.05676
G1 X140.858 Y121.708 E19.14862
G1 X140.769 Y122.171 E19.16587
G1 X140.145 Y124.6 E19.25762
G1 X140.001 Y125.043 E19.27466
G1 X139.076 Y127.384 E19.36676
G1 X138.876 Y127.811 E19.38401
G1 X137.665 Y130.015 E19.47601
G1 X137.413 Y130.412 E19.49322
G1 X135.941 Y132.438 E19.58484
G1 X135.644 Y132.798 E19.60191
G1 X133.925 Y134.632 E19.69388
G1 X133.581 Y134.955 E19.71114
G1 X131.648 Y136.555 E19.80295
G1 X131.268 Y136.831 E19.82013
G1 X129.145 Y138.179 E19.91214
G1 X128.735 Y138.405 E19.92927
G1 X126.459 Y139.478 E20.02133
G1 X126.02 Y139.652 E20.0386
G1 X123.638 Y140.426 E20.13024
G1 X123.184 Y140.543 E20.14739
G1 X120.719 Y141.014 E20.23921
G1 X120.253 Y141.073 E20.25639
G1 X117.743 Y141.232 E20.34841
G1 X117.274 Y141.232 E20.36557
G1 X114.763 Y141.075 E20.45761
G1 X114.297 Y141.016 E20.4748
G1 X111.832 Y140.547 E20.5666
G1 X111.377 Y140.431 E20.58378
G1 X108.994 Y139.658 E20.67544
G1 X108.556 Y139.484 E20.69268
G1 X106.28 Y138.413 E20.78471
G1 X105.869 Y138.187 E20.80187
G1 X103.745 Y136.84 E20.89389
G1 X103.365 Y136.564 E20.91107
G1 X101.431 Y134.965 E21.00288
G1 X101.087 Y134.643 E21.02012
G1 X99.367 Y132.811 E21.11206
G1 X99.07 Y132.452 E21.1291
G1 X97.596 Y130.427 E21.22074
G1 X97.343 Y130.029 E21.23799
G1 X96.131 Y127.826 E21.32998
G1 X95.931 Y127.4 E21.3472
G1 X95.004 Y125.06 E21.43929
G1 X94.859 Y124.616 E21.45637
G1 X94.233 Y122.187 E21.54815
G1 X94.145 Y121.724 E21.56539
G1 X93.83 Y119.236 E21.65714
G1 X93.8 Y118.768 E21.6743
G1 X93.799 Y116.29 E21.76496
G1 X93.827 Y115.829 E21.78186
G1 X94.135 Y113.34 E21.87361
G1 X94.225 Y112.867 E21.89123
G1 X94.869 Y110.364 E21.98579
G1 X95.013 Y109.922 E22.0028
G1 X95.924 Y107.616 E22.09351
G1 X96.124 Y107.189 E22.11076
G1 X97.335 Y104.985 E22.20277
G1 X97.587 Y104.588 E22.21997
G1 X99.059 Y102.562 E22.31159
G1 X99.356 Y102.202 E22.32867
G1 X100.578 Y100.898 E22.39405
G0 F810 X101.075 Y100.368
M204 S5000
M205 X30 Y30
G0 F7200 X101.396 Y100.669
M204 S500
M205 X20 Y20
G1 F6000 E22.42065
G1 F900 X101.7 Y100.384 E22.43589
G1 X103.633 Y98.784 E22.5277
G1 X103.968 Y98.54 E22.54286
G1 X106.091 Y97.192 E22.63487
G1 X106.453 Y96.993 E22.64998
G1 X108.729 Y95.92 E22.74204
G1 X109.116 Y95.767 E22.75727
G1 X111.498 Y94.993 E22.8489
G1 X111.899 Y94.89 E22.86405
G1 X114.364 Y94.419 E22.95586
G1 X114.774 Y94.367 E22.97098
G1 X117.284 Y94.208 E23.063
G1 X117.699 Y94.207 E23.07818
G1 X120.21 Y94.364 E23.17023
G1 X120.621 Y94.416 E23.18539
G1 X123.086 Y94.885 E23.27719
G1 X123.487 Y94.988 E23.29234
G1 X125.87 Y95.761 E23.38399
G1 X126.257 Y95.914 E23.39922
G1 X128.531 Y96.984 E23.49117
G1 X128.893 Y97.183 E23.50628
G1 X131.019 Y98.531 E23.59838
G1 X131.355 Y98.775 E23.61357
G1 X133.289 Y100.374 E23.70538
G1 X133.592 Y100.658 E23.72057
G1 X135.312 Y102.49 E23.81251
G1 X135.574 Y102.807 E23.82756
G1 X137.048 Y104.832 E23.91919
G1 X137.271 Y105.183 E23.93441
G1 X138.483 Y107.386 E24.0264
G1 X138.66 Y107.762 E24.0416
G1 X139.587 Y110.102 E24.13369
G1 X139.715 Y110.493 E24.14874
G1 X140.34 Y112.918 E24.24036
G1 X140.418 Y113.327 E24.2556
G1 X140.734 Y115.819 E24.3475
G1 X140.76 Y116.233 E24.36267
G1 X140.761 Y118.748 E24.45469
G1 X140.735 Y119.162 E24.46987
G1 X140.421 Y121.653 E24.56172
G1 X140.343 Y122.061 E24.57692
G1 X139.719 Y124.49 E24.66867
G1 X139.592 Y124.882 E24.68375
G1 X138.667 Y127.223 E24.77584
G1 X138.49 Y127.599 E24.79105
G1 X137.279 Y129.803 E24.88305
G1 X137.057 Y130.154 E24.89825
G1 X135.585 Y132.18 E24.98987
G1 X135.323 Y132.497 E25.00491
G1 X133.604 Y134.331 E25.09688
G1 X133.3 Y134.616 E25.11213
G1 X131.367 Y136.216 E25.20393
G1 X131.032 Y136.46 E25.21909
G1 X128.909 Y137.808 E25.3111
G1 X128.547 Y138.007 E25.32621
G1 X126.271 Y139.08 E25.41827
G1 X125.884 Y139.233 E25.4335
G1 X123.502 Y140.007 E25.52513
G1 X123.101 Y140.11 E25.54028
G1 X120.636 Y140.581 E25.6321
G1 X120.226 Y140.633 E25.64722
G1 X117.716 Y140.792 E25.73923
G1 X117.301 Y140.793 E25.75441
G1 X114.79 Y140.636 E25.84646
G1 X114.379 Y140.584 E25.86162
G1 X111.914 Y140.115 E25.95342
G1 X111.513 Y140.012 E25.96857
G1 X109.13 Y139.239 E26.06023
G1 X108.743 Y139.086 E26.07545
G1 X106.467 Y138.015 E26.16748
G1 X106.105 Y137.816 E26.18259
G1 X103.981 Y136.469 E26.27461
G1 X103.645 Y136.225 E26.2898
G1 X101.711 Y134.626 E26.38161
G1 X101.408 Y134.342 E26.39681
G1 X99.688 Y132.51 E26.48874
G1 X99.426 Y132.193 E26.50379
G1 X97.952 Y130.168 E26.59543
G1 X97.729 Y129.817 E26.61064
G1 X96.517 Y127.614 E26.70263
G1 X96.34 Y127.238 E26.71784
G1 X95.413 Y124.898 E26.80992
G1 X95.285 Y124.507 E26.82497
G1 X94.659 Y122.078 E26.91675
G1 X94.581 Y121.668 E26.93201
G1 X94.266 Y119.18 E27.02377
G1 X94.24 Y118.767 E27.03891
G1 X94.239 Y116.289 E27.12957
G1 X94.264 Y115.883 E27.14445
G1 X94.572 Y113.394 E27.23621
G1 X94.651 Y112.977 E27.25174
G1 X95.295 Y110.474 E27.34629
G1 X95.422 Y110.084 E27.3613
G1 X96.333 Y107.778 E27.45201
