;FLAVOR:RepRap
;TIME:2184
;Generated with Cura_SteamEngine 2.3.1
M190 S70
M104 S215
M109 S215
G28 ; home all axes
M117 Purge extruder
G92 E0 ; reset extruder
G1 Z1.0 F3000 ; move z up little to prevent scratching of surface
G1 X0.1 Y20 Z0.3 F5000.0 ; move to start-line position G1 X0.1 Y200.0 Z0.3 F1500.0 E15 ; draw 1st line
G1 X0.4 Y200.0 Z0.3 F5000.0 ; move to side a little
G1 X0.4 Y20 Z0.3 F1500.0 E30 ; draw 2nd line
G92 E0 ; reset extruder
G1 Z1.0 F3000 ; move z up little to prevent scratching of surface

M117 All systems go!
;LAYER_COUNT:43
;LAYER:0
M117 INDICATOR-Layer0
M107
G1 F4200 E-5
G0 F1800 X92.264 Y92.531 Z.16
;TYPE:SKIRT
G1 F4200 E0
G1 F1200 X92.659 Y92.147 E0.01612
G1 X93.105 Y91.823 E0.03226
G1 X93.593 Y91.568 E0.04837
G1 X94.113 Y91.385 E0.06451
G1 X94.654 Y91.28 E0.08064
G1 X95.107 Y91.253 E0.09392
G1 X125.106 Y91.253 E0.97196
G1 X125.656 Y91.293 E0.9881
G1 X126.194 Y91.412 E1.00423
G1 X126.709 Y91.608 E1.02036
G1 X127.19 Y91.876 E1.03647
G1 X127.628 Y92.21 E1.05259
G1 X128.012 Y92.605 E1.06872
G1 X128.336 Y93.051 E1.08485
G1 X128.591 Y93.539 E1.10097
G1 X128.774 Y94.059 E1.1171
G1 X128.879 Y94.6 E1.13323
G1 X128.906 Y95.053 E1.14652
G1 X128.906 Y125.052 E2.02455
G1 X128.866 Y125.602 E2.04069
G1 X128.747 Y126.14 E2.05682
G1 X128.551 Y126.655 E2.07295
G1 X128.283 Y127.136 E2.08907
G1 X127.949 Y127.574 E2.10519
G1 X127.554 Y127.958 E2.12131
G1 X127.108 Y128.282 E2.13745
G1 X126.62 Y128.537 E2.15356
G1 X126.1 Y128.72 E2.1697
G1 X125.559 Y128.825 E2.18583
G1 X125.106 Y128.852 E2.19911
G1 X95.107 Y128.852 E3.07715
G1 X94.557 Y128.812 E3.09329
G1 X94.019 Y128.693 E3.10942
G1 X93.504 Y128.497 E3.12554
G1 X93.023 Y128.229 E3.14166
G1 X92.585 Y127.895 E3.15778
G1 X92.201 Y127.5 E3.17391
G1 X91.877 Y127.054 E3.19004
G1 X91.622 Y126.566 E3.20616
G1 X91.439 Y126.046 E3.22229
G1 X91.334 Y125.505 E3.23842
G1 X91.307 Y125.052 E3.2517
G1 X91.307 Y95.053 E4.12974
G1 X91.347 Y94.503 E4.14588
G1 X91.466 Y93.965 E4.16201
G1 X91.662 Y93.45 E4.17814
G1 X91.93 Y92.969 E4.19425
G1 X92.264 Y92.531 E4.21038
G0 F1800 X92.659 Y92.693
G1 F1200 X93.049 Y92.347 E4.22564
G1 X93.487 Y92.064 E4.2409
G1 X93.962 Y91.851 E4.25613
G1 X94.465 Y91.714 E4.27139
G1 X95.107 Y91.653 E4.29027
G1 X125.106 Y91.653 E5.16831
G1 X125.626 Y91.693 E5.18357
G1 X126.133 Y91.812 E5.19881
G1 X126.616 Y92.007 E5.21406
G1 X127.064 Y92.273 E5.22931
G1 X127.466 Y92.605 E5.24457
G1 X127.812 Y92.995 E5.25983
G1 X128.095 Y93.433 E5.27509
G1 X128.308 Y93.908 E5.29033
G1 X128.445 Y94.411 E5.30559
G1 X128.506 Y95.053 E5.32446
G1 X128.506 Y125.052 E6.2025
G1 X128.466 Y125.572 E6.21777
G1 X128.347 Y126.079 E6.23301
G1 X128.152 Y126.562 E6.24825
G1 X127.886 Y127.01 E6.2635
G1 X127.554 Y127.412 E6.27876
G1 X127.164 Y127.758 E6.29402
G1 X126.726 Y128.041 E6.30929
G1 X126.251 Y128.254 E6.32452
G1 X125.748 Y128.391 E6.33978
G1 X125.106 Y128.452 E6.35866
G1 X95.107 Y128.452 E7.23669
G1 X94.587 Y128.412 E7.25196
G1 X94.08 Y128.293 E7.2672
G1 X93.597 Y128.098 E7.28245
G1 X93.149 Y127.832 E7.2977
G1 X92.747 Y127.5 E7.31296
G1 X92.401 Y127.11 E7.32822
G1 X92.118 Y126.672 E7.34348
G1 X91.905 Y126.197 E7.35872
G1 X91.768 Y125.694 E7.37397
G1 X91.707 Y125.052 E7.39285
G1 X91.707 Y95.053 E8.27089
G1 X91.747 Y94.533 E8.28615
G1 X91.866 Y94.026 E8.3014
G1 X92.061 Y93.543 E8.31664
G1 X92.327 Y93.095 E8.33189
G1 X92.659 Y92.693 E8.34715
G0 F1800 X93.053 Y92.866
G1 F1200 X93.436 Y92.561 E8.36148
G1 X93.864 Y92.323 E8.37581
G1 X94.324 Y92.157 E8.39013
G1 X94.805 Y92.068 E8.40445
G1 X95.107 Y92.053 E8.4133
G1 X125.106 Y92.053 E9.29133
G1 X125.594 Y92.093 E9.30567
G1 X126.069 Y92.212 E9.32
G1 X126.518 Y92.406 E9.33431
G1 X126.93 Y92.671 E9.34865
G1 X127.293 Y92.999 E9.36297
G1 X127.598 Y93.382 E9.3773
G1 X127.836 Y93.81 E9.39163
G1 X128.002 Y94.27 E9.40595
G1 X128.091 Y94.751 E9.42027
G1 X128.106 Y95.053 E9.42912
G1 X128.106 Y125.052 E10.30715
G1 X128.066 Y125.54 E10.32149
G1 X127.947 Y126.015 E10.33582
G1 X127.753 Y126.464 E10.35013
G1 X127.488 Y126.876 E10.36447
G1 X127.16 Y127.239 E10.37879
G1 X126.777 Y127.544 E10.39312
G1 X126.349 Y127.782 E10.40745
G1 X125.889 Y127.948 E10.42177
G1 X125.408 Y128.037 E10.43609
G1 X125.106 Y128.052 E10.44494
G1 X95.107 Y128.052 E11.32297
G1 X94.619 Y128.012 E11.33731
G1 X94.144 Y127.893 E11.35164
G1 X93.695 Y127.699 E11.36595
G1 X93.283 Y127.434 E11.38029
G1 X92.92 Y127.106 E11.39461
G1 X92.615 Y126.723 E11.40894
G1 X92.377 Y126.295 E11.42327
G1 X92.211 Y125.835 E11.43759
G1 X92.122 Y125.354 E11.45191
G1 X92.107 Y125.052 E11.46076
G1 X92.107 Y95.053 E12.33879
G1 X92.147 Y94.565 E12.35313
G1 X92.266 Y94.09 E12.36746
G1 X92.46 Y93.641 E12.38177
G1 X92.725 Y93.229 E12.39611
G1 X93.053 Y92.866 E12.41043
G0 F1800 X93.445 Y93.053
G1 F1200 X93.82 Y92.794 E12.42377
G1 X94.234 Y92.604 E12.4371
G1 X94.675 Y92.489 E12.45044
G1 X95.107 Y92.453 E12.46313
G1 X125.106 Y92.453 E13.34117
G1 X125.56 Y92.493 E13.35451
G1 X126 Y92.611 E13.36784
G1 X126.412 Y92.805 E13.38117
G1 X126.785 Y93.068 E13.39453
G1 X127.106 Y93.391 E13.40786
G1 X127.365 Y93.766 E13.4212
G1 X127.555 Y94.18 E13.43453
G1 X127.67 Y94.621 E13.44787
G1 X127.706 Y95.053 E13.46056
G1 X127.706 Y125.052 E14.33859
G1 X127.666 Y125.506 E14.35193
G1 X127.548 Y125.946 E14.36527
G1 X127.354 Y126.358 E14.3786
G1 X127.091 Y126.731 E14.39195
G1 X126.768 Y127.052 E14.40528
G1 X126.393 Y127.311 E14.41862
G1 X125.979 Y127.501 E14.43195
G1 X125.538 Y127.616 E14.44529
G1 X125.106 Y127.652 E14.45798
G1 X95.107 Y127.652 E15.33602
G1 X94.653 Y127.612 E15.34936
G1 X94.213 Y127.494 E15.36269
G1 X93.801 Y127.3 E15.37602
G1 X93.428 Y127.037 E15.38938
G1 X93.107 Y126.714 E15.40271
G1 X92.848 Y126.339 E15.41605
G1 X92.658 Y125.925 E15.42938
G1 X92.543 Y125.484 E15.44272
G1 X92.507 Y125.052 E15.45541
G1 X92.507 Y95.053 E16.33345
G1 X92.547 Y94.599 E16.34678
G1 X92.665 Y94.159 E16.36012
G1 X92.859 Y93.747 E16.37345
G1 X93.122 Y93.374 E16.38681
G1 X93.445 Y93.053 E16.40013
G0 F1800 X93.834 Y93.259
G1 F1200 X94.197 Y93.05 E16.41239
G1 X94.594 Y92.914 E16.42468
G1 X95.107 Y92.853 E16.4398
G1 X125.106 Y92.853 E17.31784
G1 X125.523 Y92.893 E17.3301
G1 X125.925 Y93.011 E17.34236
G1 X126.297 Y93.204 E17.35462
G1 X126.626 Y93.463 E17.36688
G1 X126.9 Y93.78 E17.37914
G1 X127.109 Y94.143 E17.3914
G1 X127.245 Y94.54 E17.40369
G1 X127.306 Y95.053 E17.41881
G1 X127.306 Y125.052 E18.29685
G1 X127.266 Y125.469 E18.30911
G1 X127.148 Y125.871 E18.32137
G1 X126.955 Y126.243 E18.33364
G1 X126.696 Y126.572 E18.34589
G1 X126.379 Y126.846 E18.35815
G1 X126.016 Y127.055 E18.37041
G1 X125.619 Y127.191 E18.3827
G1 X125.106 Y127.252 E18.39782
G1 X95.107 Y127.252 E19.27586
G1 X94.69 Y127.212 E19.28812
G1 X94.288 Y127.094 E19.30038
G1 X93.916 Y126.901 E19.31265
G1 X93.587 Y126.642 E19.3249
G1 X93.313 Y126.325 E19.33717
G1 X93.104 Y125.962 E19.34942
G1 X92.968 Y125.565 E19.36171
G1 X92.907 Y125.052 E19.37683
G1 X92.907 Y95.053 E20.25487
G1 X92.947 Y94.636 E20.26713
G1 X93.065 Y94.234 E20.27939
G1 X93.258 Y93.862 E20.29166
G1 X93.517 Y93.533 E20.30391
G1 X93.834 Y93.259 E20.31618
G0 F1800 X94.219 Y93.488
G1 F1200 X94.566 Y93.336 E20.32726
G1 X95.107 Y93.253 E20.34328
G1 X125.106 Y93.253 E21.22132
G1 X125.483 Y93.293 E21.23242
G1 X125.843 Y93.411 E21.24351
G1 X126.17 Y93.601 E21.25458
G1 X126.451 Y93.856 E21.26568
G1 X126.671 Y94.165 E21.27678
G1 X126.823 Y94.512 E21.28787
G1 X126.906 Y95.053 E21.30389
G1 X126.906 Y125.052 E22.18193
G1 X126.866 Y125.429 E22.19303
G1 X126.748 Y125.789 E22.20411
G1 X126.558 Y126.116 E22.21518
G1 X126.303 Y126.397 E22.22629
G1 X125.994 Y126.617 E22.23739
G1 X125.647 Y126.769 E22.24848
G1 X125.106 Y126.852 E22.2645
G1 X95.107 Y126.852 E23.14254
G1 X94.73 Y126.812 E23.15363
G1 X94.37 Y126.694 E23.16472
G1 X94.043 Y126.504 E23.17579
G1 X93.762 Y126.249 E23.1869
G1 X93.542 Y125.94 E23.198
G1 X93.39 Y125.593 E23.20909
G1 X93.307 Y125.052 E23.22511
G1 X93.307 Y95.053 E24.10315
G1 X93.347 Y94.676 E24.11424
G1 X93.465 Y94.316 E24.12533
G1 X93.655 Y93.989 E24.1364
G1 X93.91 Y93.708 E24.14751
G1 X94.219 Y93.488 E24.15861
G1 F4200 E19.15861
G0 F1800 X95.107 Y93.653
G1 F4200 E24.15861
G1 F1200 X125.106 Y93.653 E25.03665
G1 X125.438 Y93.693 E25.04644
G1 X125.75 Y93.81 E25.05619
G1 X126.027 Y93.998 E25.06599
G1 X126.25 Y94.246 E25.07575
G1 X126.409 Y94.54 E25.08553
G1 X126.493 Y94.864 E25.09533
G1 X126.506 Y95.053 E25.10087
G1 X126.506 Y125.052 E25.97891
G1 X126.466 Y125.384 E25.9887
G1 X126.349 Y125.696 E25.99845
G1 X126.161 Y125.973 E26.00825
G1 X125.913 Y126.196 E26.01801
G1 X125.619 Y126.355 E26.02779
G1 X125.295 Y126.439 E26.03759
G1 X125.106 Y126.452 E26.04314
G1 X95.107 Y126.452 E26.92117
G1 X94.775 Y126.412 E26.93096
G1 X94.463 Y126.295 E26.94071
G1 X94.186 Y126.107 E26.95051
G1 X93.963 Y125.859 E26.96027
G1 X93.804 Y125.565 E26.97006
G1 X93.72 Y125.241 E26.97985
G1 X93.707 Y125.052 E26.9854
G1 X93.707 Y95.053 E27.86344
G1 X93.747 Y94.721 E27.87322
G1 X93.864 Y94.409 E27.88298
G1 X94.052 Y94.132 E27.89278
G1 X94.3 Y93.909 E27.90254
G1 X94.594 Y93.75 E27.91232
G1 X94.918 Y93.666 E27.92212
G1 X95.107 Y93.653 E27.92766
G0 F1800 X95.107 Y94.053
G1 F1200 X125.106 Y94.053 E28.8057
G1 X125.385 Y94.093 E28.81395
G1 X125.642 Y94.209 E28.8222
G1 X125.857 Y94.392 E28.83047
G1 X126.011 Y94.628 E28.83871
G1 X126.094 Y94.898 E28.84698
G1 X126.106 Y95.053 E28.85153
G1 X126.106 Y125.052 E29.72957
G1 X126.066 Y125.331 E29.73782
G1 X125.95 Y125.588 E29.74607
G1 X125.767 Y125.803 E29.75434
G1 X125.531 Y125.957 E29.76258
G1 X125.261 Y126.04 E29.77085
G1 X125.106 Y126.052 E29.7754
G1 X95.107 Y126.052 E30.65344
G1 X94.828 Y126.012 E30.66169
G1 X94.571 Y125.896 E30.66994
G1 X94.356 Y125.713 E30.67821
G1 X94.202 Y125.477 E30.68646
G1 X94.119 Y125.207 E30.69472
G1 X94.107 Y125.052 E30.69927
G1 X94.107 Y95.053 E31.57731
G1 X94.147 Y94.774 E31.58556
G1 X94.263 Y94.517 E31.59381
G1 X94.446 Y94.302 E31.60208
G1 X94.682 Y94.148 E31.61033
G1 X94.952 Y94.065 E31.61859
G1 X95.107 Y94.053 E31.62314
G0 F1800 X95.107 Y94.453
G1 F1200 X125.106 Y94.453 E32.50118
G1 X125.321 Y94.493 E32.50758
G1 X125.507 Y94.606 E32.51395
G1 X125.64 Y94.779 E32.52034
G1 X125.706 Y95.053 E32.52859
G1 X125.706 Y125.052 E33.40663
G1 X125.666 Y125.267 E33.41303
G1 X125.553 Y125.453 E33.4194
G1 X125.38 Y125.586 E33.42578
G1 X125.106 Y125.652 E33.43403
G1 X95.107 Y125.652 E34.31207
G1 X94.892 Y125.612 E34.31847
G1 X94.706 Y125.499 E34.32484
G1 X94.573 Y125.326 E34.33123
G1 X94.507 Y125.052 E34.33948
G1 X94.507 Y95.053 E35.21752
G1 X94.547 Y94.838 E35.22392
G1 X94.66 Y94.652 E35.23029
G1 X94.833 Y94.519 E35.23667
G1 X95.107 Y94.453 E35.24492
G0 F1800 X94.907 Y95.053
G1 F1200 X94.946 Y94.934 E35.24859
G1 X95.107 Y94.853 E35.25386
G1 X125.106 Y94.853 E36.1319
G1 X125.225 Y94.892 E36.13557
G1 X125.306 Y95.053 E36.14084
G1 X125.306 Y125.052 E37.01888
G1 X125.267 Y125.171 E37.02255
G1 X125.106 Y125.252 E37.02782
G1 X95.107 Y125.252 E37.90586
G1 X94.988 Y125.213 E37.90952
G1 X94.907 Y125.052 E37.9148
G1 X94.907 Y95.053 E38.79284
G1 F4200 E33.79284
G0 F1800 X95.735 Y95.681
G0 X101.307 Y101.253
;TYPE:WALL-INNER
G1 F4200 E38.79284
G1 F1200 X118.906 Y101.253 E39.30794
G1 X118.906 Y118.852 E39.82305
G1 X101.307 Y118.852 E40.33815
G1 X101.307 Y101.253 E40.85325
G0 F1800 X100.907 Y100.853
G1 F1200 X119.306 Y100.853 E41.39177
G1 X119.306 Y119.252 E41.93029
G1 X100.907 Y119.252 E42.46881
G1 X100.907 Y100.853 E43.00733
G0 F1800 X100.507 Y100.453
G1 F1200 X119.706 Y100.453 E43.56926
G1 X119.706 Y119.652 E44.1312
G1 X100.507 Y119.652 E44.69313
G1 X100.507 Y100.453 E45.25506
G0 F1800 X100.107 Y100.053
G1 F1200 X120.106 Y100.053 E45.84041
G1 X120.106 Y120.052 E46.42576
G1 X100.107 Y120.052 E47.01111
G1 X100.107 Y100.053 E47.59646
G0 F1800 X99.707 Y99.653
G1 F1200 X120.506 Y99.653 E48.20522
G1 X120.506 Y120.452 E48.81399
G1 X99.707 Y120.452 E49.42275
G1 X99.707 Y99.653 E50.03152
G0 F1800 X99.307 Y99.253
G1 F1200 X120.906 Y99.253 E50.6637
G1 X120.906 Y120.852 E51.29588
G1 X99.307 Y120.852 E51.92806
G1 X99.307 Y99.253 E52.56023
G0 F1800 X98.907 Y98.853
G1 F1200 X121.306 Y98.853 E53.21583
G1 X121.306 Y121.252 E53.87142
G1 X98.907 Y121.252 E54.52702
G1 X98.907 Y98.853 E55.18261
G0 F1800 X98.507 Y98.453
G1 F1200 X121.706 Y98.453 E55.86162
G1 X121.706 Y121.652 E56.54063
G1 X98.507 Y121.652 E57.21964
G1 X98.507 Y98.453 E57.89865
G0 F1800 X98.107 Y98.053
G1 F1200 X122.106 Y98.053 E58.60108
G1 X122.106 Y122.052 E59.3035
G1 X98.107 Y122.052 E60.00593
G1 X98.107 Y98.053 E60.70835
G0 F1800 X97.707 Y97.653
G1 F1200 X122.506 Y97.653 E61.43419
G1 X122.506 Y122.452 E62.16003
G1 X97.707 Y122.452 E62.88587
G1 X97.707 Y97.653 E63.61171
G0 F1800 X97.307 Y97.253
G1 F1200 X122.906 Y97.253 E64.36097
G1 X122.906 Y122.852 E65.11022
G1 X97.307 Y122.852 E65.85948
G1 X97.307 Y97.253 E66.60873
G0 F1800 X96.907 Y96.853
G1 F1200 X123.306 Y96.853 E67.3814
G1 X123.306 Y123.252 E68.15407
G1 X96.907 Y123.252 E68.92674
G1 X96.907 Y96.853 E69.69941
G0 F1800 X96.507 Y96.453
G1 F1200 X123.706 Y96.453 E70.4955
G1 X123.706 Y123.652 E71.29158
G1 X96.507 Y123.652 E72.08767
G1 X96.507 Y96.453 E72.88375
G0 F1800 X96.107 Y96.053
G1 F1200 X124.106 Y96.053 E73.70325
G1 X124.106 Y124.052 E74.52275
G1 X96.107 Y124.052 E75.34225
G1 X96.107 Y96.053 E76.16175
G0 F1800 X95.707 Y95.653
G1 F1200 X124.506 Y95.653 E77.00467
G1 X124.506 Y124.452 E77.84759
G1 X95.707 Y124.452 E78.6905
G1 X95.707 Y95.653 E79.53342
G0 F1800 X95.307 Y95.253
;TYPE:WALL-OUTER
G1 F1200 X124.906 Y95.253 E80.39975
G1 X124.906 Y124.852 E81.26608
G1 X95.307 Y124.852 E82.13241
G1 X95.307 Y95.253 E82.99874
G0 F1800 X95.777 Y95.723
G0 X101.486 Y101.486
;TYPE:SKIN
G1 F1200 X118.67 Y118.67 E83.71003
G0 X118.74 Y118.74
G0 F1800 X118.725 Y118.159
G1 F1200 X101.998 Y101.433 E84.40238
G0 X101.928 Y101.363
G0 F1800 X102.564 Y101.433
G1 F1200 X118.725 Y117.593 E85.0713
G0 X118.795 Y117.663
G0 F1800 X118.725 Y117.028
G1 F1200 X103.13 Y101.433 E85.71682
G0 X103.06 Y101.363
G0 F1800 X103.695 Y101.433
G1 F1200 X118.725 Y116.462 E86.33893
G0 X118.795 Y116.532
G0 F1800 X118.725 Y115.896
G1 F1200 X104.261 Y101.433 E86.93761
G0 X104.191 Y101.363
G0 F1800 X104.827 Y101.433
G1 F1200 X118.725 Y115.331 E87.51288
G0 X118.795 Y115.401
G0 F1800 X118.725 Y114.765
G1 F1200 X105.392 Y101.433 E88.06475
G0 X105.322 Y101.363
G0 F1800 X105.958 Y101.433
G1 F1200 X118.725 Y114.199 E88.59318
G0 X118.795 Y114.269
G0 F1800 X118.725 Y113.634
G1 F1200 X106.524 Y101.433 E89.09821
G0 X106.454 Y101.363
G0 F1800 X107.089 Y101.433
G1 F1200 X118.725 Y113.068 E89.57984
G0 X118.795 Y113.138
G0 F1800 X118.725 Y112.502
G1 F1200 X107.655 Y101.433 E90.03803
G0 X107.585 Y101.363
G0 F1800 X108.221 Y101.433
G1 F1200 X118.725 Y111.937 E90.47282
G0 X118.795 Y112.007
G0 F1800 X118.725 Y111.371
G1 F1200 X108.786 Y101.433 E90.8842
G0 X108.716 Y101.363
G0 F1800 X109.352 Y101.433
G1 F1200 X118.725 Y110.805 E91.27215
G0 X118.795 Y110.875
G0 F1800 X118.725 Y110.24
G1 F1200 X109.918 Y101.433 E91.63669
G0 X109.848 Y101.363
G0 F1800 X110.484 Y101.433
G1 F1200 X118.725 Y109.674 E91.97781
G0 X118.795 Y109.744
G0 F1800 X118.725 Y109.108
G1 F1200 X111.049 Y101.433 E92.29552
G0 X110.979 Y101.363
G0 F1800 X111.615 Y101.433
G1 F1200 X118.725 Y108.543 E92.58982
G0 X118.795 Y108.613
G0 F1800 X118.725 Y107.977
G1 F1200 X112.181 Y101.433 E92.86069
G0 X112.111 Y101.363
G0 F1800 X112.746 Y101.433
G1 F1200 X118.725 Y107.411 E93.10815
G0 X118.795 Y107.481
G0 F1800 X118.725 Y106.845
G1 F1200 X113.312 Y101.433 E93.33219
G0 X113.242 Y101.363
G0 F1800 X113.878 Y101.433
G1 F1200 X118.725 Y106.28 E93.53282
G0 X118.795 Y106.35
G0 F1800 X118.725 Y105.714
G1 F1200 X114.443 Y101.433 E93.71004
G0 X114.373 Y101.363
G0 F1800 X115.009 Y101.433
G1 F1200 X118.725 Y105.148 E93.86384
G0 X118.795 Y105.218
G0 F1800 X118.725 Y104.583
G1 F1200 X115.575 Y101.433 E93.99422
G0 X115.505 Y101.363
G0 F1800 X116.14 Y101.433
G1 F1200 X118.725 Y104.017 E94.1012
G0 X118.795 Y104.087
G0 F1800 X118.725 Y103.451
G1 F1200 X116.706 Y101.433 E94.18475
G0 X116.636 Y101.363
G0 F1800 X117.272 Y101.433
G1 F1200 X118.725 Y102.886 E94.2449
G0 X118.795 Y102.956
G0 F1800 X118.725 Y102.32
G1 F1200 X117.837 Y101.433 E94.28163
G0 X117.767 Y101.363
G0 F1800 X118.403 Y101.433
