;FLAVOR:RepRap
;TIME:1185
;Generated with Cura_SteamEngine 2.3.1
M190 S70
M104 S215
M109 S215
G28 ; home all axes
M117 Purge extruder
G92 E0 ; reset extruder
G1 Z1.0 F3000 ; move z up little to prevent scratching of surface
G1 X0.1 Y20 Z0.3 F5000.0 ; move to start-line position G1 X0.1 Y200.0 Z0.3 F1500.0 E15 ; draw 1st line
G1 X0.4 Y200.0 Z0.3 F5000.0 ; move to side a little
G1 X0.4 Y20 Z0.3 F1500.0 E30 ; draw 2nd line
G92 E0 ; reset extruder
G1 Z1.0 F3000 ; move z up little to prevent scratching of surface

M117 All systems go!
;LAYER_COUNT:19
;LAYER:0
M117 INDICATOR-Layer0
M107
G1 F4200 E-5
G0 F1800 X96.662 Y95.43 Z.16
;TYPE:SKIRT
G1 F4200 E0
G1 F1200 X96.909 Y95.2 E0.00988
G1 X97.836 Y94.408 E0.04556
G1 X98.186 Y94.142 E0.05843
G1 X99.613 Y93.184 E0.10874
G1 X100.091 Y92.911 E0.12485
G1 X100.198 Y92.87 E0.1282
G1 X100.432 Y92.715 E0.13642
G1 X101.075 Y92.372 E0.15775
G1 X101.444 Y92.218 E0.16945
G1 X101.564 Y92.133 E0.17376
G1 X102.054 Y91.882 E0.18987
G1 X102.508 Y91.74 E0.20379
G1 X102.754 Y91.616 E0.21186
G1 X103.263 Y91.404 E0.22799
G1 X103.747 Y91.296 E0.24251
G1 X104.253 Y91.109 E0.2583
G1 X104.51 Y91.024 E0.26622
G1 X105.696 Y90.68 E0.30236
G1 X106.235 Y90.566 E0.31849
G1 X106.59 Y90.534 E0.32892
G1 X106.842 Y90.523 E0.3363
G1 X107.048 Y90.458 E0.34263
G1 X107.717 Y90.361 E0.36241
G1 X109.75 Y90.249 E0.42201
G1 X110.158 Y90.248 E0.43395
G1 X112.203 Y90.355 E0.49388
G1 X112.749 Y90.424 E0.50999
G1 X113.08 Y90.516 E0.52005
G1 X113.51 Y90.547 E0.53267
G1 X114.055 Y90.627 E0.54879
G1 X114.655 Y90.813 E0.56717
G1 X114.659 Y90.815 E0.56731
G1 X114.863 Y90.835 E0.57331
G1 X115.397 Y90.969 E0.58942
G1 X115.754 Y91.126 E0.60083
G1 X116.03 Y91.184 E0.60909
G1 X116.618 Y91.409 E0.62752
G1 X116.635 Y91.417 E0.62807
G1 X116.66 Y91.422 E0.62881
G1 X117.192 Y91.566 E0.64494
G1 X117.698 Y91.785 E0.66108
G1 X117.956 Y91.956 E0.67014
G1 X118.166 Y92.011 E0.67649
G1 X118.673 Y92.225 E0.6926
G1 X119.017 Y92.434 E0.70438
G1 X119.185 Y92.504 E0.70971
G1 X119.59 Y92.741 E0.72344
G1 X119.694 Y92.811 E0.72711
G1 X120.106 Y92.998 E0.74036
G1 X120.487 Y93.235 E0.75349
G1 X122.429 Y94.611 E0.82315
G1 X122.948 Y95.054 E0.84312
G1 X124.48 Y96.619 E0.90722
G1 X124.961 Y97.072 E0.92656
G1 X125.418 Y97.587 E0.94671
G1 X126.023 Y98.41 E0.97661
G1 X126.195 Y98.666 E0.98564
G1 X127.474 Y100.74 E1.05696
G1 X127.678 Y101.116 E1.06948
G1 X128.229 Y102.286 E1.10733
G1 X128.368 Y102.624 E1.11803
G1 X128.872 Y104.031 E1.16177
G1 X128.978 Y104.377 E1.17236
G1 X129.345 Y105.823 E1.21603
G1 X129.416 Y106.171 E1.22642
G1 X129.656 Y107.706 E1.27189
G1 X129.702 Y108.266 E1.28834
G1 X129.725 Y111.496 E1.38288
G1 X129.685 Y112.071 E1.39975
G1 X129.455 Y113.648 E1.4464
G1 X129.38 Y114.026 E1.45768
G1 X128.981 Y115.614 E1.5056
G1 X128.856 Y116.017 E1.51795
G1 X128.235 Y117.68 E1.56991
G1 X128.005 Y118.181 E1.58604
G1 X126.613 Y120.714 E1.67064
G1 X126.361 Y121.112 E1.68443
G1 X125.462 Y122.354 E1.7293
G1 X125.189 Y122.69 E1.74197
G1 X124.212 Y123.759 E1.78436
G1 X123.985 Y123.987 E1.79378
G1 X122.994 Y124.902 E1.83326
G1 X122.7 Y125.147 E1.84446
G1 X120.873 Y126.521 E1.91137
G1 X120.273 Y126.89 E1.93198
G1 X119.968 Y127.041 E1.94194
G1 X119.832 Y127.143 E1.94692
G1 X119.369 Y127.442 E1.96305
G1 X118.722 Y127.717 E1.98363
G1 X118.457 Y127.867 E1.99254
G1 X117.067 Y128.467 E2.03685
G1 X116.627 Y128.62 E2.05049
G1 X116.533 Y128.669 E2.05359
G1 X116.012 Y128.849 E2.06972
G1 X115.727 Y128.902 E2.07821
G1 X115.566 Y128.975 E2.08338
G1 X115.037 Y129.129 E2.09951
G1 X114.66 Y129.189 E2.11068
G1 X114.384 Y129.219 E2.11881
G1 X113.6 Y129.413 E2.14245
G1 X112.91 Y129.518 E2.16287
G1 X112.828 Y129.523 E2.16528
G1 X112.607 Y129.594 E2.17207
G1 X111.926 Y129.697 E2.19223
G1 X110.762 Y129.766 E2.22636
G1 X110.556 Y129.773 E2.23239
G1 X109.58 Y129.778 E2.26096
G1 X109.203 Y129.761 E2.272
G1 X107.828 Y129.631 E2.31243
G1 X107.635 Y129.608 E2.31812
G1 X106.067 Y129.378 E2.3645
G1 X105.529 Y129.258 E2.38064
G1 X105.281 Y129.157 E2.38847
G1 X104.817 Y129.09 E2.4022
G1 X104.289 Y128.933 E2.41832
G1 X104.285 Y128.931 E2.41845
G1 X104.284 Y128.931 E2.41848
G1 X103.754 Y128.782 E2.43459
G1 X103.272 Y128.56 E2.45012
G1 X102.672 Y128.376 E2.46849
G1 X102.098 Y128.146 E2.48659
G1 X101.602 Y127.905 E2.50273
G1 X101.493 Y127.831 E2.50659
G1 X100.921 Y127.565 E2.52505
G1 X100.33 Y127.223 E2.54504
G1 X100.262 Y127.175 E2.54747
G1 X100.118 Y127.119 E2.552
G1 X99.676 Y126.872 E2.56682
G1 X98.673 Y126.219 E2.60185
G1 X98.115 Y125.767 E2.62286
G1 X98.113 Y125.766 E2.62293
G1 X97.65 Y125.468 E2.63904
G1 X97.239 Y125.111 E2.65498
G1 X96.452 Y124.321 E2.68762
G1 X96.348 Y124.256 E2.69121
G1 X95.928 Y123.899 E2.70734
G1 X95.564 Y123.485 E2.72348
G1 X95.556 Y123.472 E2.72392
G1 X95.272 Y123.204 E2.73535
G1 X94.836 Y122.721 E2.7544
G1 X94.576 Y122.4 E2.76649
G1 X93.635 Y121.097 E2.81353
G1 X93.378 Y120.689 E2.82764
G1 X91.88 Y117.937 E2.91935
G1 X91.615 Y117.327 E2.93882
G1 X91.049 Y115.638 E2.99095
G1 X90.954 Y115.305 E3.00109
G1 X90.556 Y113.62 E3.05176
G1 X90.492 Y113.281 E3.06186
G1 X90.311 Y112.008 E3.0995
G1 X90.273 Y111.44 E3.11616
G1 X90.301 Y108.243 E3.20973
G1 X90.345 Y107.702 E3.22562
G1 X90.558 Y106.309 E3.26687
G1 X90.633 Y105.94 E3.27789
G1 X91.064 Y104.258 E3.32871
G1 X91.236 Y103.742 E3.34463
G1 X92.336 Y101.097 E3.42847
G1 X92.597 Y100.584 E3.44532
G1 X93.58 Y98.965 E3.50076
G1 X93.806 Y98.633 E3.51251
G1 X94.649 Y97.527 E3.55321
G1 X94.956 Y97.172 E3.56695
G1 X96.662 Y95.43 E3.63831
G0 F1800 X96.948 Y95.71
G1 F1200 X97.168 Y95.504 E3.64714
G1 X98.095 Y94.712 E3.68282
G1 X98.409 Y94.474 E3.69435
G1 X99.836 Y93.516 E3.74466
G1 X100.29 Y93.26 E3.75992
G1 X100.391 Y93.222 E3.76307
G1 X100.653 Y93.048 E3.77228
G1 X101.229 Y92.741 E3.79138
G1 X101.646 Y92.568 E3.8046
G1 X101.869 Y92.418 E3.81246
G1 X102.342 Y92.197 E3.82774
G1 X102.688 Y92.097 E3.83829
G1 X102.934 Y91.973 E3.84635
G1 X103.416 Y91.774 E3.86161
G1 X103.883 Y91.672 E3.8756
G1 X104.392 Y91.484 E3.89148
G1 X104.622 Y91.409 E3.89856
G1 X105.808 Y91.065 E3.93471
G1 X106.318 Y90.958 E3.94996
G1 X106.608 Y90.933 E3.95848
G1 X106.898 Y90.92 E3.96698
G1 X107.306 Y90.812 E3.97933
G1 X107.739 Y90.76 E3.99209
G1 X109.772 Y90.648 E4.05169
G1 X110.137 Y90.648 E4.06237
G1 X112.182 Y90.755 E4.12231
G1 X112.698 Y90.822 E4.13754
G1 X113.007 Y90.912 E4.14696
G1 X113.481 Y90.946 E4.16087
G1 X113.996 Y91.024 E4.17611
G1 X114.505 Y91.184 E4.19173
G1 X114.562 Y91.207 E4.19353
G1 X114.822 Y91.234 E4.20118
G1 X115.326 Y91.367 E4.21643
G1 X115.648 Y91.512 E4.22677
G1 X115.946 Y91.576 E4.23569
G1 X116.444 Y91.769 E4.25132
G1 X116.51 Y91.801 E4.25347
G1 X116.584 Y91.815 E4.25568
G1 X117.087 Y91.953 E4.27094
G1 X117.562 Y92.166 E4.28618
G1 X117.805 Y92.33 E4.29476
G1 X118.064 Y92.398 E4.3026
G1 X118.541 Y92.608 E4.31785
G1 X118.821 Y92.786 E4.32756
G1 X119.03 Y92.874 E4.3342
G1 X119.367 Y93.073 E4.34565
G1 X119.49 Y93.155 E4.34998
G1 X119.492 Y93.156 E4.35005
G1 X119.964 Y93.377 E4.3653
G1 X120.256 Y93.562 E4.37542
G1 X122.198 Y94.938 E4.44508
G1 X122.662 Y95.334 E4.46293
G1 X124.19 Y96.895 E4.52687
G1 X124.687 Y97.363 E4.54685
G1 X125.095 Y97.824 E4.56487
G1 X125.7 Y98.647 E4.59476
G1 X125.855 Y98.876 E4.60286
G1 X127.134 Y100.95 E4.67418
G1 X127.316 Y101.286 E4.68536
G1 X127.867 Y102.456 E4.72321
G1 X127.992 Y102.758 E4.73278
G1 X128.496 Y104.165 E4.77652
G1 X128.591 Y104.476 E4.78604
G1 X128.958 Y105.922 E4.82971
G1 X129.021 Y106.233 E4.83899
G1 X129.261 Y107.768 E4.88447
G1 X129.302 Y108.269 E4.89918
G1 X129.325 Y111.499 E4.99372
G1 X129.289 Y112.014 E5.00883
G1 X129.059 Y113.591 E5.05548
G1 X128.993 Y113.929 E5.06556
G1 X128.594 Y115.517 E5.11348
G1 X128.481 Y115.877 E5.12452
G1 X127.86 Y117.54 E5.17648
G1 X127.655 Y117.988 E5.1909
G1 X126.263 Y120.521 E5.2755
G1 X126.037 Y120.878 E5.28786
G1 X125.138 Y122.12 E5.33274
G1 X124.894 Y122.42 E5.34406
G1 X123.917 Y123.489 E5.38644
G1 X123.713 Y123.693 E5.39489
G1 X122.722 Y124.608 E5.43437
G1 X122.46 Y124.827 E5.44436
G1 X120.633 Y126.201 E5.51127
G1 X120.096 Y126.532 E5.52973
G1 X119.758 Y126.699 E5.54077
G1 X119.592 Y126.824 E5.54685
G1 X119.153 Y127.104 E5.56209
G1 X118.576 Y127.347 E5.58042
G1 X118.566 Y127.35 E5.58072
G1 X118.298 Y127.5 E5.58971
G1 X116.908 Y128.1 E5.63402
G1 X116.472 Y128.25 E5.64752
G1 X116.349 Y128.313 E5.65156
G1 X115.854 Y128.477 E5.66683
G1 X115.594 Y128.523 E5.67455
G1 X115.4 Y128.61 E5.68078
G1 X114.898 Y128.749 E5.69602
G1 X114.616 Y128.792 E5.70437
G1 X114.314 Y128.825 E5.71326
G1 X113.505 Y129.025 E5.73765
G1 X112.886 Y129.118 E5.75598
G1 X112.758 Y129.125 E5.75973
G1 X112.484 Y129.213 E5.76815
G1 X111.902 Y129.298 E5.78537
G1 X110.738 Y129.367 E5.81949
G1 X110.554 Y129.373 E5.82488
G1 X109.578 Y129.378 E5.85345
G1 X109.241 Y129.363 E5.86332
G1 X107.866 Y129.233 E5.90375
G1 X107.693 Y129.212 E5.90885
G1 X106.125 Y128.982 E5.95523
G1 X105.616 Y128.867 E5.97051
G1 X105.375 Y128.768 E5.97813
G1 X104.875 Y128.693 E5.99293
G1 X104.381 Y128.539 E6.00808
G1 X104.337 Y128.533 E6.00938
G1 X103.837 Y128.386 E6.02463
G1 X103.398 Y128.179 E6.03883
G1 X103.359 Y128.171 E6.04
G1 X102.82 Y128.005 E6.05651
G1 X102.246 Y127.775 E6.07461
G1 X101.779 Y127.545 E6.08984
G1 X101.681 Y127.476 E6.09335
G1 X101.677 Y127.475 E6.09347
G1 X101.089 Y127.202 E6.11245
G1 X100.561 Y126.896 E6.13031
G1 X100.455 Y126.821 E6.13411
G1 X100.264 Y126.746 E6.14011
G1 X99.894 Y126.536 E6.15257
G1 X98.891 Y125.883 E6.1876
G1 X98.345 Y125.442 E6.20814
G1 X98.333 Y125.431 E6.20862
G1 X98.305 Y125.415 E6.20956
G1 X97.868 Y125.131 E6.22481
G1 X97.523 Y124.829 E6.23823
G1 X96.701 Y124.004 E6.27232
G1 X96.539 Y123.9 E6.27795
G1 X96.149 Y123.554 E6.29321
G1 X95.888 Y123.238 E6.30521
G1 X95.569 Y122.936 E6.31807
G1 X95.133 Y122.453 E6.33711
G1 X94.901 Y122.166 E6.34791
G1 X93.96 Y120.863 E6.39496
G1 X93.73 Y120.498 E6.40758
G1 X92.232 Y117.746 E6.49929
G1 X91.994 Y117.2 E6.51672
G1 X91.428 Y115.511 E6.56886
G1 X91.343 Y115.213 E6.57793
G1 X90.945 Y113.528 E6.62861
G1 X90.888 Y113.225 E6.63763
G1 X90.707 Y111.952 E6.67527
G1 X90.673 Y111.443 E6.6902
G1 X90.701 Y108.246 E6.78377
G1 X90.74 Y107.762 E6.79798
G1 X90.953 Y106.369 E6.83923
G1 X91.02 Y106.039 E6.84909
G1 X91.451 Y104.357 E6.89991
G1 X91.606 Y103.895 E6.91417
G1 X92.706 Y101.25 E6.99801
G1 X92.939 Y100.791 E7.01308
G1 X93.922 Y99.172 E7.06852
G1 X94.124 Y98.876 E7.07901
G1 X94.967 Y97.77 E7.11971
G1 X95.242 Y97.452 E7.13201
G1 X96.948 Y95.71 E7.20338
G0 F1800 X97.234 Y95.99
G1 F1200 X97.428 Y95.808 E7.21116
G1 X98.355 Y95.016 E7.24685
G1 X98.632 Y94.806 E7.25702
G1 X100.059 Y93.848 E7.30733
G1 X100.486 Y93.609 E7.32165
G1 X100.589 Y93.571 E7.32487
G1 X100.875 Y93.381 E7.33492
G1 X101.382 Y93.11 E7.35174
G1 X101.817 Y92.929 E7.36553
G1 X102.17 Y92.71 E7.37769
G1 X102.623 Y92.523 E7.39203
G1 X102.851 Y92.463 E7.39894
G1 X103.115 Y92.33 E7.40759
G1 X103.568 Y92.146 E7.4219
G1 X104.012 Y92.051 E7.43519
G1 X104.53 Y91.86 E7.45135
G1 X104.733 Y91.793 E7.4576
G1 X105.919 Y91.449 E7.49375
G1 X106.625 Y91.333 E7.51469
G1 X106.972 Y91.318 E7.52485
G1 X107.076 Y91.278 E7.52812
G1 X107.761 Y91.16 E7.54846
G1 X109.794 Y91.048 E7.60805
G1 X110.116 Y91.047 E7.61748
G1 X112.161 Y91.154 E7.67742
G1 X112.646 Y91.219 E7.69174
G1 X112.933 Y91.307 E7.70052
G1 X113.452 Y91.345 E7.71576
G1 X113.935 Y91.42 E7.73006
G1 X114.356 Y91.555 E7.743
G1 X114.464 Y91.599 E7.74642
G1 X114.779 Y91.633 E7.75569
G1 X115.251 Y91.765 E7.77003
G1 X115.535 Y91.896 E7.77919
G1 X115.86 Y91.968 E7.78893
G1 X116.271 Y92.13 E7.80186
G1 X116.383 Y92.184 E7.8055
G1 X116.508 Y92.208 E7.80923
G1 X116.98 Y92.339 E7.82356
G1 X117.423 Y92.546 E7.83787
G1 X117.649 Y92.702 E7.84591
G1 X117.96 Y92.786 E7.85534
G1 X118.405 Y92.989 E7.86966
G1 X118.628 Y93.138 E7.87751
G1 X118.873 Y93.243 E7.88531
G1 X119.144 Y93.405 E7.89455
G1 X119.319 Y93.523 E7.90073
G1 X119.378 Y93.54 E7.90252
G1 X119.819 Y93.755 E7.91688
G1 X120.024 Y93.888 E7.92404
G1 X121.966 Y95.264 E7.9937
G1 X122.376 Y95.613 E8.00946
G1 X123.913 Y97.183 E8.07376
G1 X124.413 Y97.654 E8.09387
G1 X124.773 Y98.061 E8.10977
G1 X125.378 Y98.884 E8.13967
G1 X125.514 Y99.086 E8.1468
G1 X126.793 Y101.16 E8.21812
G1 X126.954 Y101.457 E8.228
G1 X127.505 Y102.627 E8.26586
G1 X127.615 Y102.893 E8.27428
G1 X128.119 Y104.3 E8.31802
G1 X128.203 Y104.574 E8.32641
G1 X128.57 Y106.02 E8.37008
G1 X128.626 Y106.295 E8.37829
G1 X128.866 Y107.83 E8.42377
G1 X128.902 Y108.272 E8.43674
G1 X128.925 Y111.502 E8.53129
G1 X128.894 Y111.956 E8.5446
G1 X128.664 Y113.533 E8.59125
G1 X128.605 Y113.831 E8.60014
G1 X128.206 Y115.419 E8.64807
G1 X128.106 Y115.737 E8.65782
G1 X127.485 Y117.4 E8.70978
G1 X127.304 Y117.796 E8.72252
G1 X125.912 Y120.329 E8.80712
G1 X125.713 Y120.643 E8.818
G1 X124.814 Y121.885 E8.86288
G1 X124.598 Y122.15 E8.87288
G1 X123.621 Y123.219 E8.91527
G1 X123.442 Y123.399 E8.9227
G1 X122.451 Y124.314 E8.96218
G1 X122.219 Y124.508 E8.97103
G1 X120.392 Y125.882 E9.03794
G1 X119.919 Y126.173 E9.05419
G1 X119.549 Y126.356 E9.06627
G1 X119.352 Y126.504 E9.07349
G1 X118.938 Y126.765 E9.08781
G1 X118.456 Y126.966 E9.1031
G1 X118.419 Y126.978 E9.10423
G1 X118.14 Y127.132 E9.11356
G1 X116.75 Y127.732 E9.15787
G1 X116.318 Y127.878 E9.17122
G1 X116.166 Y127.955 E9.17621
G1 X115.7 Y128.103 E9.19052
G1 X115.465 Y128.142 E9.19749
G1 X115.236 Y128.243 E9.20482
G1 X114.573 Y128.394 E9.22472
G1 X114.241 Y128.431 E9.2345
G1 X113.409 Y128.636 E9.25958
G1 X112.863 Y128.719 E9.27574
G1 X112.682 Y128.73 E9.28105
G1 X112.363 Y128.83 E9.29083
G1 X111.879 Y128.899 E9.30514
G1 X110.715 Y128.968 E9.33927
G1 X110.552 Y128.973 E9.34404
G1 X109.576 Y128.978 E9.37261
G1 X109.279 Y128.965 E9.38131
G1 X107.904 Y128.835 E9.42174
G1 X107.751 Y128.816 E9.42625
G1 X106.183 Y128.586 E9.47263
G1 X105.706 Y128.476 E9.48696
G1 X105.462 Y128.374 E9.4947
G1 X105.419 Y128.371 E9.49596
G1 X104.935 Y128.297 E9.51029
G1 X104.48 Y128.147 E9.52432
G1 X104.391 Y128.135 E9.52694
G1 X103.923 Y127.99 E9.54128
G1 X103.564 Y127.817 E9.55295
G1 X103.532 Y127.799 E9.55402
G1 X103.445 Y127.78 E9.55663
G1 X102.969 Y127.634 E9.5712
G1 X102.395 Y127.404 E9.5893
G1 X101.957 Y127.185 E9.60363
G1 X101.865 Y127.118 E9.60697
G1 X101.846 Y127.112 E9.60755
G1 X101.258 Y126.839 E9.62652
G1 X100.791 Y126.569 E9.64231
G1 X100.644 Y126.465 E9.64758
G1 X100.412 Y126.373 E9.65489
G1 X100.112 Y126.201 E9.66501
G1 X99.109 Y125.548 E9.70004
G1 X98.628 Y125.158 E9.71816
G1 X98.579 Y125.109 E9.72019
G1 X98.496 Y125.064 E9.72295
G1 X98.087 Y124.795 E9.73728
G1 X97.806 Y124.547 E9.74825
G1 X96.951 Y123.689 E9.78371
G1 X96.734 Y123.544 E9.79134
G1 X96.376 Y123.211 E9.80565
G1 X96.203 Y122.986 E9.81396
G1 X95.866 Y122.668 E9.82752
G1 X95.43 Y122.185 E9.84657
G1 X95.225 Y121.931 E9.85612
G1 X94.284 Y120.628 E9.90316
G1 X94.081 Y120.306 E9.91431
G1 X92.583 Y117.554 E10.00601
G1 X92.373 Y117.073 E10.02138
G1 X91.807 Y115.384 E10.07351
G1 X91.732 Y115.121 E10.08152
G1 X91.334 Y113.436 E10.13219
G1 X91.284 Y113.168 E10.14017
G1 X91.103 Y111.895 E10.17781
G1 X91.073 Y111.447 E10.19095
G1 X91.101 Y108.25 E10.28452
G1 X91.135 Y107.823 E10.29706
G1 X91.348 Y106.43 E10.33831
G1 X91.408 Y106.138 E10.34703
G1 X91.839 Y104.456 E10.39785
G1 X91.975 Y104.049 E10.41041
G1 X93.075 Y101.404 E10.49426
G1 X93.281 Y100.999 E10.50756
G1 X94.264 Y99.38 E10.56299
G1 X94.442 Y99.118 E10.57226
G1 X95.285 Y98.012 E10.61297
G1 X95.528 Y97.732 E10.62382
G1 X97.234 Y95.99 E10.69518
G0 F1800 X97.519 Y96.27
G1 F1200 X97.688 Y96.112 E10.70195
G1 X98.615 Y95.32 E10.73764
G1 X98.855 Y95.138 E10.74646
G1 X100.282 Y94.18 E10.79676
G1 X100.681 Y93.96 E10.8101
G1 X100.778 Y93.925 E10.81312
G1 X101.096 Y93.714 E10.82429
G1 X101.536 Y93.48 E10.83887
G1 X102.012 Y93.282 E10.85396
G1 X102.069 Y93.235 E10.85612
G1 X102.466 Y93.011 E10.86947
G1 X102.988 Y92.842 E10.88552
G1 X103.295 Y92.687 E10.89559
G1 X103.718 Y92.518 E10.90892
G1 X104.137 Y92.431 E10.92145
G1 X104.669 Y92.235 E10.93804
G1 X104.845 Y92.177 E10.94347
G1 X106.031 Y91.833 E10.97961
G1 X106.642 Y91.732 E10.99774
G1 X107.057 Y91.714 E11.00989
G1 X107.342 Y91.622 E11.01866
G1 X107.783 Y91.559 E11.0317
G1 X109.816 Y91.447 E11.09129
G1 X110.095 Y91.447 E11.09946
G1 X112.14 Y91.554 E11.15939
