;FLAVOR:RepRap
;TIME:769
;Generated with Cura_SteamEngine 2.3.1
M190 S70
M104 S215
M109 S215
G28 ; home all axes
M117 Purge extruder
G92 E0 ; reset extruder
G1 Z1.0 F3000 ; move z up little to prevent scratching of surface
G1 X0.1 Y20 Z0.3 F5000.0 ; move to start-line position G1 X0.1 Y200.0 Z0.3 F1500.0 E15 ; draw 1st line
G1 X0.4 Y200.0 Z0.3 F5000.0 ; move to side a little
G1 X0.4 Y20 Z0.3 F1500.0 E30 ; draw 2nd line
G92 E0 ; reset extruder
G1 Z1.0 F3000 ; move z up little to prevent scratching of surface

M117 All systems go!
;LAYER_COUNT:14
;LAYER:0
M117 INDICATOR-Layer0
M107
G1 F4200 E-5
G0 F1800 X96.865 Y96.566 Z.16
;TYPE:SKIRT
G1 F4200 E0
G1 F1200 X98.118 Y95.446 E0.04919
G1 X98.453 Y95.178 E0.06175
G1 X99.825 Y94.206 E0.11096
G1 X100.182 Y93.982 E0.12329
G1 X101.655 Y93.167 E0.17257
G1 X102.04 Y92.981 E0.18508
G1 X103.599 Y92.335 E0.23447
G1 X104.003 Y92.194 E0.247
G1 X105.611 Y91.731 E0.29597
G1 X106.027 Y91.636 E0.30846
G1 X107.685 Y91.355 E0.35768
G1 X108.105 Y91.308 E0.37005
G1 X109.784 Y91.213 E0.41927
G1 X110.213 Y91.213 E0.43183
G1 X111.894 Y91.308 E0.48111
G1 X112.315 Y91.355 E0.49351
G1 X113.973 Y91.636 E0.54273
G1 X114.389 Y91.731 E0.55522
G1 X115.998 Y92.194 E0.60422
G1 X116.404 Y92.337 E0.61682
G1 X117.962 Y92.984 E0.6662
G1 X118.343 Y93.167 E0.67857
G1 X119.816 Y93.981 E0.72783
G1 X120.175 Y94.207 E0.74024
G1 X121.545 Y95.178 E0.78939
G1 X121.88 Y95.445 E0.80193
G1 X123.132 Y96.564 E0.85108
G1 X123.433 Y96.864 E0.86352
G1 X124.554 Y98.118 E0.91275
G1 X124.821 Y98.453 E0.92529
G1 X125.794 Y99.825 E0.97452
G1 X126.018 Y100.182 E0.98685
G1 X126.834 Y101.655 E1.03614
G1 X127.021 Y102.042 E1.04872
G1 X127.664 Y103.595 E1.09792
G1 X127.806 Y104.001 E1.11051
G1 X128.269 Y105.614 E1.15962
G1 X128.362 Y106.024 E1.17193
G1 X128.644 Y107.679 E1.22107
G1 X128.692 Y108.103 E1.23355
G1 X128.787 Y109.784 E1.28283
G1 X128.787 Y110.212 E1.29536
G1 X128.692 Y111.895 E1.3447
G1 X128.644 Y112.317 E1.35713
G1 X128.363 Y113.971 E1.40624
G1 X128.27 Y114.383 E1.4186
G1 X127.807 Y115.997 E1.46774
G1 X127.665 Y116.403 E1.48033
G1 X127.022 Y117.956 E1.52953
G1 X126.835 Y118.343 E1.54211
G1 X126.019 Y119.816 E1.59139
G1 X125.795 Y120.172 E1.60371
G1 X124.822 Y121.545 E1.65296
G1 X124.554 Y121.882 E1.66556
G1 X123.434 Y123.134 E1.71473
G1 X123.136 Y123.432 E1.72706
G1 X121.883 Y124.553 E1.77627
G1 X121.546 Y124.822 E1.78889
G1 X120.171 Y125.796 E1.83821
G1 X119.817 Y126.018 E1.85044
G1 X118.347 Y126.833 E1.89964
G1 X117.958 Y127.021 E1.91228
G1 X116.405 Y127.664 E1.96148
G1 X115.999 Y127.806 E1.97407
G1 X114.386 Y128.269 E2.02319
G1 X113.976 Y128.362 E2.03549
G1 X112.319 Y128.644 E2.08469
G1 X111.895 Y128.692 E2.09718
G1 X110.213 Y128.787 E2.14649
G1 X109.784 Y128.787 E2.15904
G1 X108.104 Y128.692 E2.20829
G1 X107.681 Y128.644 E2.22075
G1 X106.024 Y128.362 E2.26995
G1 X105.613 Y128.268 E2.28229
G1 X104.001 Y127.805 E2.33138
G1 X103.597 Y127.664 E2.3439
G1 X102.043 Y127.021 E2.39313
G1 X101.653 Y126.833 E2.4058
G1 X100.183 Y126.018 E2.45499
G1 X99.829 Y125.796 E2.46722
G1 X98.454 Y124.822 E2.51654
G1 X98.118 Y124.554 E2.52912
G1 X96.864 Y123.433 E2.57835
G1 X96.564 Y123.132 E2.59079
G1 X95.445 Y121.88 E2.63994
G1 X95.178 Y121.545 E2.65248
G1 X94.207 Y120.175 E2.70163
G1 X93.98 Y119.814 E2.71411
G1 X93.167 Y118.341 E2.76335
G1 X92.986 Y117.965 E2.77557
G1 X92.337 Y116.405 E2.82502
G1 X92.193 Y115.995 E2.83774
G1 X91.73 Y114.385 E2.88677
G1 X91.635 Y113.969 E2.89926
G1 X91.355 Y112.314 E2.94839
G1 X91.308 Y111.895 E2.96073
G1 X91.213 Y110.215 E3.00998
G1 X91.213 Y109.785 E3.02256
G1 X91.308 Y108.105 E3.07181
G1 X91.355 Y107.686 E3.08416
G1 X91.635 Y106.031 E3.13328
G1 X91.73 Y105.615 E3.14577
G1 X92.193 Y104.005 E3.19481
G1 X92.337 Y103.593 E3.20758
G1 X92.987 Y102.033 E3.25704
G1 X93.168 Y101.66 E3.26918
G1 X93.98 Y100.188 E3.31838
G1 X94.205 Y99.828 E3.33081
G1 X95.176 Y98.456 E3.38001
G1 X95.445 Y98.119 E3.39263
G1 X96.564 Y96.867 E3.44177
G1 X96.865 Y96.566 E3.45423
G0 F1800 X97.131 Y96.864
G1 F1200 X98.384 Y95.744 E3.50342
G1 X98.685 Y95.505 E3.51467
G1 X100.057 Y94.533 E3.56389
G1 X100.376 Y94.332 E3.57492
G1 X101.849 Y93.517 E3.62419
G1 X102.193 Y93.351 E3.63537
G1 X103.752 Y92.705 E3.68477
G1 X104.113 Y92.579 E3.69596
G1 X105.721 Y92.116 E3.74493
G1 X106.094 Y92.031 E3.75613
G1 X107.752 Y91.75 E3.80535
G1 X108.128 Y91.707 E3.81643
G1 X109.807 Y91.612 E3.86565
G1 X110.191 Y91.612 E3.87689
G1 X111.872 Y91.707 E3.92617
G1 X112.248 Y91.75 E3.93724
G1 X113.906 Y92.031 E3.98646
G1 X114.278 Y92.116 E3.99763
G1 X115.887 Y92.579 E4.04664
G1 X116.251 Y92.706 E4.05792
G1 X117.809 Y93.353 E4.1073
G1 X118.149 Y93.517 E4.11835
G1 X119.622 Y94.331 E4.1676
G1 X119.944 Y94.533 E4.17873
G1 X121.314 Y95.504 E4.22788
G1 X121.614 Y95.743 E4.2391
G1 X122.866 Y96.862 E4.28825
G1 X123.135 Y97.131 E4.29939
G1 X124.256 Y98.385 E4.34862
G1 X124.494 Y98.684 E4.3598
G1 X125.467 Y100.056 E4.40903
G1 X125.668 Y100.375 E4.42007
G1 X126.484 Y101.848 E4.46936
G1 X126.651 Y102.195 E4.48063
G1 X127.294 Y103.748 E4.52982
G1 X127.421 Y104.111 E4.54108
G1 X127.884 Y105.724 E4.5902
G1 X127.968 Y106.091 E4.60122
G1 X128.25 Y107.746 E4.65035
G1 X128.293 Y108.125 E4.66152
G1 X128.388 Y109.806 E4.7108
G1 X128.388 Y110.19 E4.72204
G1 X128.293 Y111.873 E4.77138
G1 X128.25 Y112.25 E4.78248
G1 X127.969 Y113.904 E4.83159
G1 X127.885 Y114.273 E4.84266
G1 X127.422 Y115.887 E4.89181
G1 X127.295 Y116.25 E4.90306
G1 X126.652 Y117.803 E4.95226
G1 X126.485 Y118.15 E4.96353
G1 X125.669 Y119.623 E5.01282
G1 X125.469 Y119.941 E5.02381
G1 X124.496 Y121.314 E5.07307
G1 X124.256 Y121.615 E5.08434
G1 X123.136 Y122.867 E5.1335
G1 X122.869 Y123.134 E5.14455
G1 X121.616 Y124.255 E5.19376
G1 X121.314 Y124.495 E5.20505
G1 X119.939 Y125.469 E5.25437
G1 X119.623 Y125.669 E5.26532
G1 X118.153 Y126.484 E5.31451
G1 X117.805 Y126.651 E5.32581
G1 X116.252 Y127.294 E5.37501
G1 X115.889 Y127.421 E5.38626
G1 X114.276 Y127.884 E5.43538
G1 X113.908 Y127.968 E5.44643
G1 X112.251 Y128.25 E5.49563
G1 X111.873 Y128.293 E5.50676
G1 X110.191 Y128.388 E5.55607
G1 X109.807 Y128.388 E5.56731
G1 X108.127 Y128.293 E5.61656
G1 X107.749 Y128.25 E5.62769
G1 X106.092 Y127.968 E5.67689
G1 X105.723 Y127.884 E5.68797
G1 X104.111 Y127.421 E5.73706
G1 X103.75 Y127.295 E5.74825
G1 X102.196 Y126.652 E5.79747
G1 X101.847 Y126.484 E5.80881
G1 X100.377 Y125.669 E5.858
G1 X100.061 Y125.469 E5.86895
G1 X98.686 Y124.495 E5.91827
G1 X98.385 Y124.256 E5.92952
G1 X97.131 Y123.135 E5.97875
G1 X96.862 Y122.866 E5.98988
G1 X95.743 Y121.614 E6.03903
G1 X95.504 Y121.314 E6.05026
G1 X94.533 Y119.944 E6.0994
G1 X94.33 Y119.621 E6.11057
G1 X93.517 Y118.148 E6.15981
G1 X93.355 Y117.811 E6.17076
G1 X92.706 Y116.251 E6.22021
G1 X92.577 Y115.885 E6.23157
G1 X92.114 Y114.275 E6.2806
G1 X92.03 Y113.902 E6.29179
G1 X91.75 Y112.247 E6.34092
G1 X91.707 Y111.872 E6.35197
G1 X91.612 Y110.192 E6.40122
G1 X91.612 Y109.808 E6.41246
G1 X91.707 Y108.128 E6.46171
G1 X91.75 Y107.753 E6.47276
G1 X92.03 Y106.098 E6.52189
G1 X92.114 Y105.725 E6.53308
G1 X92.577 Y104.115 E6.58211
G1 X92.707 Y103.747 E6.59353
G1 X93.357 Y102.187 E6.643
G1 X93.518 Y101.853 E6.65385
G1 X94.33 Y100.381 E6.70305
G1 X94.532 Y100.059 E6.71418
G1 X95.503 Y98.687 E6.76338
G1 X95.743 Y98.385 E6.77467
G1 X96.862 Y97.133 E6.82381
G1 X97.131 Y96.864 E6.83495
G0 F1800 X97.398 Y97.162
G1 F1200 X98.651 Y96.042 E6.88414
G1 X98.916 Y95.831 E6.89405
G1 X100.288 Y94.859 E6.94327
G1 X100.57 Y94.682 E6.95301
G1 X102.043 Y93.867 E7.00228
G1 X102.347 Y93.721 E7.01215
G1 X103.906 Y93.075 E7.06155
G1 X104.224 Y92.963 E7.07141
G1 X105.832 Y92.5 E7.12039
G1 X106.161 Y92.425 E7.13027
G1 X107.819 Y92.144 E7.17949
G1 X108.151 Y92.107 E7.18927
G1 X109.83 Y92.012 E7.23849
G1 X110.168 Y92.012 E7.24838
G1 X111.849 Y92.107 E7.29766
G1 X112.181 Y92.144 E7.30744
G1 X113.839 Y92.425 E7.35666
G1 X114.168 Y92.5 E7.36653
G1 X115.777 Y92.963 E7.41554
G1 X116.098 Y93.075 E7.42549
G1 X117.656 Y93.722 E7.47486
G1 X117.956 Y93.867 E7.48462
G1 X119.429 Y94.681 E7.53388
G1 X119.713 Y94.859 E7.54369
G1 X121.083 Y95.83 E7.59283
G1 X121.347 Y96.041 E7.60273
G1 X122.599 Y97.16 E7.65187
G1 X122.837 Y97.398 E7.66173
G1 X123.958 Y98.652 E7.71096
G1 X124.168 Y98.916 E7.72083
G1 X125.141 Y100.288 E7.77006
G1 X125.318 Y100.569 E7.77978
G1 X126.134 Y102.042 E7.82907
G1 X126.282 Y102.348 E7.83902
G1 X126.925 Y103.901 E7.88821
G1 X127.037 Y104.221 E7.89814
G1 X127.5 Y105.834 E7.94725
G1 X127.573 Y106.158 E7.95697
G1 X127.855 Y107.813 E8.00611
G1 X127.893 Y108.148 E8.01598
G1 X127.988 Y109.829 E8.06526
G1 X127.988 Y110.167 E8.07515
G1 X127.893 Y111.85 E8.12449
G1 X127.856 Y112.183 E8.1343
G1 X127.575 Y113.837 E8.1834
G1 X127.501 Y114.162 E8.19316
G1 X127.038 Y115.776 E8.2423
G1 X126.926 Y116.097 E8.25225
G1 X126.283 Y117.65 E8.30145
G1 X126.135 Y117.956 E8.3114
G1 X125.319 Y119.429 E8.36068
G1 X125.143 Y119.71 E8.37039
G1 X124.17 Y121.083 E8.41964
G1 X123.958 Y121.348 E8.42958
G1 X122.838 Y122.6 E8.47874
G1 X122.602 Y122.836 E8.48851
G1 X121.349 Y123.957 E8.53772
G1 X121.083 Y124.169 E8.54768
G1 X119.708 Y125.143 E8.597
G1 X119.429 Y125.319 E8.60665
G1 X117.959 Y126.134 E8.65585
G1 X117.652 Y126.282 E8.66582
G1 X116.099 Y126.925 E8.71502
G1 X115.779 Y127.037 E8.72494
G1 X114.166 Y127.5 E8.77406
G1 X113.841 Y127.573 E8.78381
G1 X112.184 Y127.855 E8.833
G1 X111.85 Y127.893 E8.84284
G1 X110.168 Y127.988 E8.89215
G1 X109.83 Y127.988 E8.90204
G1 X108.15 Y127.893 E8.95129
G1 X107.816 Y127.855 E8.96113
G1 X106.159 Y127.573 E9.01033
G1 X105.834 Y127.499 E9.02009
G1 X104.222 Y127.036 E9.06917
G1 X103.903 Y126.925 E9.07906
G1 X102.349 Y126.282 E9.12828
G1 X102.041 Y126.134 E9.13829
G1 X100.571 Y125.319 E9.18748
G1 X100.292 Y125.143 E9.19714
G1 X98.917 Y124.169 E9.24646
G1 X98.652 Y123.958 E9.25637
G1 X97.398 Y122.837 E9.3056
G1 X97.16 Y122.599 E9.31545
G1 X96.041 Y121.347 E9.3646
G1 X95.83 Y121.083 E9.37449
G1 X94.859 Y119.713 E9.42364
G1 X94.681 Y119.428 E9.43347
G1 X93.868 Y117.955 E9.48272
G1 X93.724 Y117.657 E9.49241
G1 X93.075 Y116.097 E9.54186
G1 X92.962 Y115.774 E9.55187
G1 X92.499 Y114.164 E9.60091
G1 X92.424 Y113.835 E9.61078
G1 X92.144 Y112.18 E9.65991
G1 X92.107 Y111.849 E9.66966
G1 X92.012 Y110.169 E9.71891
G1 X92.012 Y109.831 E9.7288
G1 X92.107 Y108.151 E9.77805
G1 X92.144 Y107.82 E9.7878
G1 X92.424 Y106.165 E9.83693
G1 X92.499 Y105.836 E9.84681
G1 X92.962 Y104.226 E9.89584
G1 X93.076 Y103.901 E9.90592
G1 X93.726 Y102.341 E9.95539
G1 X93.868 Y102.046 E9.96497
G1 X94.68 Y100.574 E10.01417
G1 X94.858 Y100.29 E10.02398
G1 X95.829 Y98.918 E10.07318
G1 X96.041 Y98.652 E10.08313
G1 X97.16 Y97.4 E10.13228
G1 X97.398 Y97.162 E10.14213
G0 F1800 X97.664 Y97.461
G1 F1200 X98.917 Y96.341 E10.19132
G1 X99.147 Y96.157 E10.19994
G1 X100.519 Y95.185 E10.24916
G1 X100.763 Y95.032 E10.25759
G1 X102.236 Y94.217 E10.30686
G1 X102.5 Y94.09 E10.31543
G1 X104.059 Y93.444 E10.36483
G1 X104.335 Y93.348 E10.37338
G1 X105.943 Y92.885 E10.42236
G1 X106.228 Y92.82 E10.43091
G1 X107.886 Y92.539 E10.48013
G1 X108.173 Y92.506 E10.48859
G1 X109.852 Y92.411 E10.53781
G1 X110.146 Y92.411 E10.54641
G1 X111.827 Y92.506 E10.59569
G1 X112.114 Y92.539 E10.60415
G1 X113.772 Y92.82 E10.65337
G1 X114.057 Y92.884 E10.66192
G1 X115.666 Y93.347 E10.71092
G1 X115.944 Y93.445 E10.71955
G1 X117.502 Y94.092 E10.76893
G1 X117.763 Y94.217 E10.7774
G1 X119.236 Y95.031 E10.82666
G1 X119.481 Y95.186 E10.83514
G1 X120.851 Y96.157 E10.88429
G1 X121.081 Y96.339 E10.89287
G1 X122.333 Y97.458 E10.94202
G1 X122.538 Y97.664 E10.95053
G1 X123.659 Y98.918 E10.99976
G1 X123.842 Y99.147 E11.00834
G1 X124.815 Y100.519 E11.05757
G1 X124.968 Y100.763 E11.066
G1 X125.784 Y102.236 E11.11528
G1 X125.912 Y102.501 E11.1239
G1 X126.555 Y104.054 E11.17309
G1 X126.652 Y104.332 E11.18171
G1 X127.115 Y105.945 E11.23083
G1 X127.179 Y106.225 E11.23924
G1 X127.461 Y107.88 E11.28837
G1 X127.494 Y108.17 E11.29692
G1 X127.589 Y109.851 E11.3462
G1 X127.589 Y110.145 E11.3548
G1 X127.494 Y111.828 E11.40414
G1 X127.461 Y112.116 E11.41262
G1 X127.18 Y113.77 E11.46173
G1 X127.116 Y114.052 E11.47019
G1 X126.653 Y115.666 E11.51934
G1 X126.556 Y115.944 E11.52796
G1 X125.913 Y117.497 E11.57715
G1 X125.785 Y117.762 E11.58577
G1 X124.969 Y119.235 E11.63505
G1 X124.816 Y119.478 E11.64346
G1 X123.843 Y120.851 E11.69271
G1 X123.66 Y121.081 E11.70131
G1 X122.54 Y122.333 E11.75048
G1 X122.336 Y122.538 E11.75895
G1 X121.083 Y123.659 E11.80816
G1 X120.852 Y123.843 E11.8168
G1 X119.477 Y124.817 E11.86612
G1 X119.235 Y124.969 E11.87448
G1 X117.765 Y125.784 E11.92368
G1 X117.499 Y125.912 E11.93232
G1 X115.946 Y126.555 E11.98151
G1 X115.668 Y126.652 E11.99013
G1 X114.055 Y127.115 E12.03925
G1 X113.774 Y127.179 E12.04769
G1 X112.117 Y127.461 E12.09688
G1 X111.828 Y127.494 E12.10539
G1 X110.146 Y127.589 E12.1547
G1 X109.852 Y127.589 E12.16331
G1 X108.172 Y127.494 E12.21256
G1 X107.883 Y127.461 E12.22107
G1 X106.226 Y127.179 E12.27027
G1 X105.944 Y127.115 E12.27873
G1 X104.332 Y126.652 E12.32782
G1 X104.056 Y126.555 E12.33638
G1 X102.502 Y125.912 E12.38561
G1 X102.235 Y125.784 E12.39427
G1 X100.765 Y124.969 E12.44347
G1 X100.523 Y124.817 E12.45183
G1 X99.148 Y123.843 E12.50115
G1 X98.918 Y123.659 E12.50977
G1 X97.664 Y122.538 E12.559
G1 X97.458 Y122.333 E12.56751
G1 X96.339 Y121.081 E12.61666
G1 X96.157 Y120.851 E12.62524
G1 X95.186 Y119.481 E12.67439
G1 X95.031 Y119.234 E12.68293
G1 X94.218 Y117.761 E12.73217
G1 X94.093 Y117.504 E12.74054
G1 X93.444 Y115.944 E12.78999
G1 X93.346 Y115.664 E12.79867
G1 X92.883 Y114.054 E12.8477
G1 X92.818 Y113.769 E12.85626
G1 X92.538 Y112.114 E12.90539
G1 X92.506 Y111.827 E12.91384
G1 X92.411 Y110.147 E12.96309
G1 X92.411 Y109.853 E12.9717
G1 X92.506 Y108.173 E13.02095
G1 X92.538 Y107.886 E13.0294
G1 X92.818 Y106.231 E13.07853
G1 X92.883 Y105.946 E13.08708
G1 X93.346 Y104.336 E13.13612
G1 X93.445 Y104.055 E13.14484
G1 X94.095 Y102.495 E13.1943
G1 X94.218 Y102.239 E13.20261
G1 X95.03 Y100.767 E13.25182
G1 X95.185 Y100.521 E13.26033
G1 X96.156 Y99.149 E13.30952
G1 X96.339 Y98.918 E13.31815
G1 X97.458 Y97.666 E13.3673
G1 X97.664 Y97.461 E13.3758
G0 F1800 X97.931 Y97.759
G1 F1200 X99.184 Y96.639 E13.42499
G1 X99.378 Y96.484 E13.43226
G1 X100.75 Y95.512 E13.48147
G1 X100.957 Y95.382 E13.48863
G1 X102.43 Y94.567 E13.5379
G1 X102.653 Y94.46 E13.54514
G1 X104.212 Y93.814 E13.59453
G1 X104.445 Y93.732 E13.60176
G1 X106.053 Y93.269 E13.65074
G1 X106.294 Y93.214 E13.65797
G1 X107.952 Y92.933 E13.70719
G1 X108.196 Y92.906 E13.71438
G1 X109.875 Y92.811 E13.7636
G1 X110.123 Y92.811 E13.77086
G1 X111.804 Y92.906 E13.82014
G1 X112.048 Y92.933 E13.82732
G1 X113.706 Y93.214 E13.87654
G1 X113.946 Y93.269 E13.88375
G1 X115.555 Y93.732 E13.93276
G1 X115.791 Y93.814 E13.94007
G1 X117.349 Y94.461 E13.98944
G1 X117.569 Y94.567 E13.99659
G1 X119.042 Y95.381 E14.04585
G1 X119.25 Y95.512 E14.05304
G1 X120.62 Y96.483 E14.10219
G1 X120.814 Y96.638 E14.10946
G1 X122.066 Y97.757 E14.15861
G1 X122.24 Y97.931 E14.16581
G1 X123.361 Y99.185 E14.21504
G1 X123.516 Y99.378 E14.22229
G1 X124.489 Y100.75 E14.27152
G1 X124.618 Y100.957 E14.27866
G1 X125.434 Y102.43 E14.32794
G1 X125.543 Y102.654 E14.33523
G1 X126.186 Y104.207 E14.38443
G1 X126.268 Y104.442 E14.39172
G1 X126.731 Y106.055 E14.44083
G1 X126.785 Y106.292 E14.44795
G1 X127.067 Y107.947 E14.49709
G1 X127.094 Y108.193 E14.50433
G1 X127.189 Y109.874 E14.55361
G1 X127.19 Y110.122 E14.56087
G1 X127.095 Y111.805 E14.61021
G1 X127.067 Y112.049 E14.61739
G1 X126.786 Y113.703 E14.6665
G1 X126.732 Y113.942 E14.67367
G1 X126.269 Y115.556 E14.72282
G1 X126.187 Y115.791 E14.7301
G1 X125.544 Y117.344 E14.7793
G1 X125.435 Y117.568 E14.78659
G1 X124.619 Y119.041 E14.83587
G1 X124.49 Y119.247 E14.84299
G1 X123.517 Y120.62 E14.89224
G1 X123.362 Y120.815 E14.89953
G1 X122.242 Y122.067 E14.9487
G1 X122.069 Y122.24 E14.95586
G1 X120.816 Y123.361 E15.00507
G1 X120.621 Y123.516 E15.01236
G1 X119.246 Y124.49 E15.06168
G1 X119.041 Y124.619 E15.06877
G1 X117.571 Y125.434 E15.11797
G1 X117.346 Y125.543 E15.12528
G1 X115.793 Y126.186 E15.17448
G1 X115.558 Y126.268 E15.18176
G1 X113.945 Y126.731 E15.23088
G1 X113.707 Y126.785 E15.23802
G1 X112.05 Y127.067 E15.28722
