;FLAVOR:RepRap
;TIME:981
;Generated with Cura_SteamEngine 2.3.1
M190 S70
M104 S215
M109 S215
G28 ; home all axes
M117 Purge extruder
G92 E0 ; reset extruder
G1 Z1.0 F3000 ; move z up little to prevent scratching of surface
G1 X0.1 Y20 Z0.3 F5000.0 ; move to start-line position G1 X0.1 Y200.0 Z0.3 F1500.0 E15 ; draw 1st line
G1 X0.4 Y200.0 Z0.3 F5000.0 ; move to side a little
G1 X0.4 Y20 Z0.3 F1500.0 E30 ; draw 2nd line
G92 E0 ; reset extruder
G1 Z1.0 F3000 ; move z up little to prevent scratching of surface

M117 All systems go!
;LAYER_COUNT:19
;LAYER:0
M117 INDICATOR-Layer0
M107
G1 F4200 E-5
G0 F1800 X97.238 Y96.213 Z.16
;TYPE:SKIRT
G1 F4200 E0
G1 F1200 X97.513 Y95.963 E0.01088
G1 X98.665 Y95.017 E0.05451
G1 X98.969 Y94.793 E0.06556
G1 X100.188 Y93.98 E0.10845
G1 X100.501 Y93.792 E0.11913
G1 X101.79 Y93.101 E0.16194
G1 X102.13 Y92.94 E0.17295
G1 X103.498 Y92.373 E0.21629
G1 X103.857 Y92.244 E0.22746
G1 X105.258 Y91.822 E0.27028
G1 X105.607 Y91.735 E0.28081
G1 X107.054 Y91.445 E0.32401
G1 X107.429 Y91.389 E0.3351
G1 X108.894 Y91.245 E0.37819
G1 X109.266 Y91.227 E0.38909
G1 X110.734 Y91.227 E0.43206
G1 X111.106 Y91.245 E0.44296
G1 X112.571 Y91.389 E0.48604
G1 X112.946 Y91.445 E0.49714
G1 X114.393 Y91.735 E0.54033
G1 X114.742 Y91.822 E0.55086
G1 X116.143 Y92.244 E0.59369
G1 X116.502 Y92.373 E0.60485
G1 X117.87 Y92.94 E0.6482
G1 X118.21 Y93.101 E0.65921
G1 X119.499 Y93.792 E0.70201
G1 X119.812 Y93.98 E0.7127
G1 X121.031 Y94.793 E0.75559
G1 X121.334 Y95.017 E0.76661
G1 X122.485 Y95.962 E0.8102
G1 X122.761 Y96.212 E0.8211
G1 X123.787 Y97.238 E0.86357
G1 X124.037 Y97.513 E0.87445
G1 X124.983 Y98.665 E0.91808
G1 X125.207 Y98.968 E0.92911
G1 X126.019 Y100.185 E0.97193
G1 X126.207 Y100.499 E0.98264
G1 X126.899 Y101.79 E1.02551
G1 X127.06 Y102.13 E1.03652
G1 X127.627 Y103.498 E1.07987
G1 X127.756 Y103.857 E1.09103
G1 X128.178 Y105.258 E1.13386
G1 X128.265 Y105.606 E1.14436
G1 X128.555 Y107.051 E1.18749
G1 X128.611 Y107.427 E1.19862
G1 X128.755 Y108.892 E1.2417
G1 X128.773 Y109.264 E1.25261
G1 X128.773 Y110.734 E1.29563
G1 X128.755 Y111.106 E1.30653
G1 X128.611 Y112.571 E1.34962
G1 X128.555 Y112.946 E1.36071
G1 X128.265 Y114.393 E1.40391
G1 X128.178 Y114.741 E1.41441
G1 X127.757 Y116.14 E1.45717
G1 X127.628 Y116.5 E1.46836
G1 X127.06 Y117.87 E1.51177
G1 X126.899 Y118.21 E1.52278
G1 X126.208 Y119.499 E1.56559
G1 X126.02 Y119.812 E1.57627
G1 X125.207 Y121.031 E1.61916
G1 X124.983 Y121.334 E1.63019
G1 X124.038 Y122.485 E1.67378
G1 X123.787 Y122.762 E1.68472
G1 X122.76 Y123.788 E1.72721
G1 X122.486 Y124.036 E1.73802
G1 X121.337 Y124.98 E1.78155
G1 X121.033 Y125.205 E1.79262
G1 X119.811 Y126.02 E1.83561
G1 X119.499 Y126.208 E1.84627
G1 X118.211 Y126.899 E1.88905
G1 X117.87 Y127.06 E1.90009
G1 X116.502 Y127.627 E1.94343
G1 X116.143 Y127.756 E1.9546
G1 X114.742 Y128.178 E1.99742
G1 X114.393 Y128.265 E2.00795
G1 X112.946 Y128.555 E2.05115
G1 X112.571 Y128.611 E2.06224
G1 X111.106 Y128.755 E2.10533
G1 X110.734 Y128.773 E2.11623
G1 X109.266 Y128.773 E2.1592
G1 X108.894 Y128.755 E2.1701
G1 X107.429 Y128.611 E2.21318
G1 X107.054 Y128.555 E2.22428
G1 X105.607 Y128.265 E2.26747
G1 X105.258 Y128.178 E2.278
G1 X103.857 Y127.756 E2.32083
G1 X103.498 Y127.627 E2.33199
G1 X102.13 Y127.06 E2.37534
G1 X101.789 Y126.899 E2.38637
G1 X100.501 Y126.208 E2.42915
G1 X100.189 Y126.02 E2.43982
G1 X98.967 Y125.205 E2.48281
G1 X98.663 Y124.98 E2.49388
G1 X97.514 Y124.036 E2.5374
G1 X97.24 Y123.788 E2.54822
G1 X96.213 Y122.762 E2.59071
G1 X95.962 Y122.485 E2.60165
G1 X95.017 Y121.334 E2.64524
G1 X94.793 Y121.031 E2.65627
G1 X93.98 Y119.812 E2.69915
G1 X93.792 Y119.499 E2.70984
G1 X93.101 Y118.21 E2.75265
G1 X92.94 Y117.87 E2.76366
G1 X92.372 Y116.5 E2.80706
G1 X92.243 Y116.14 E2.81826
G1 X91.822 Y114.741 E2.86102
G1 X91.735 Y114.393 E2.87152
G1 X91.445 Y112.946 E2.91471
G1 X91.389 Y112.571 E2.92581
G1 X91.245 Y111.108 E2.96884
G1 X91.227 Y110.736 E2.97974
G1 X91.227 Y109.266 E3.02276
G1 X91.245 Y108.894 E3.03366
G1 X91.389 Y107.429 E3.07675
G1 X91.445 Y107.054 E3.08785
G1 X91.735 Y105.607 E3.13104
G1 X91.822 Y105.259 E3.14154
G1 X92.243 Y103.86 E3.1843
G1 X92.372 Y103.5 E3.19549
G1 X92.94 Y102.13 E3.2389
G1 X93.101 Y101.79 E3.24991
G1 X93.792 Y100.501 E3.29272
G1 X93.98 Y100.188 E3.30341
G1 X94.793 Y98.969 E3.34629
G1 X95.017 Y98.666 E3.35732
G1 X95.962 Y97.515 E3.40091
G1 X96.212 Y97.239 E3.41181
G1 X97.238 Y96.213 E3.45428
G0 F1800 X97.521 Y96.496
G1 F1200 X97.767 Y96.272 E3.46402
G1 X98.919 Y95.326 E3.50765
G1 X99.19 Y95.125 E3.51752
G1 X100.409 Y94.312 E3.56041
G1 X100.69 Y94.144 E3.56999
G1 X101.979 Y93.453 E3.6128
G1 X102.283 Y93.309 E3.62264
G1 X103.651 Y92.742 E3.66598
G1 X103.972 Y92.627 E3.67596
G1 X105.373 Y92.205 E3.71879
G1 X105.686 Y92.127 E3.72823
G1 X107.133 Y91.837 E3.77143
G1 X107.468 Y91.787 E3.78134
G1 X108.933 Y91.643 E3.82442
G1 X109.266 Y91.627 E3.83418
G1 X110.734 Y91.627 E3.87715
G1 X111.067 Y91.643 E3.88691
G1 X112.532 Y91.787 E3.92999
G1 X112.867 Y91.837 E3.93991
G1 X114.314 Y92.127 E3.9831
G1 X114.627 Y92.205 E3.99254
G1 X116.028 Y92.627 E4.03537
G1 X116.349 Y92.742 E4.04535
G1 X117.717 Y93.309 E4.08869
G1 X118.021 Y93.453 E4.09854
G1 X119.31 Y94.144 E4.14134
G1 X119.591 Y94.312 E4.15093
G1 X120.81 Y95.125 E4.19381
G1 X121.08 Y95.326 E4.20366
G1 X122.231 Y96.271 E4.24725
G1 X122.478 Y96.495 E4.25701
G1 X123.504 Y97.521 E4.29948
G1 X123.728 Y97.767 E4.30922
G1 X124.674 Y98.919 E4.35285
G1 X124.874 Y99.19 E4.36271
G1 X125.686 Y100.407 E4.40553
G1 X125.855 Y100.688 E4.41512
G1 X126.547 Y101.979 E4.458
G1 X126.691 Y102.283 E4.46784
G1 X127.258 Y103.651 E4.51118
G1 X127.373 Y103.972 E4.52116
G1 X127.795 Y105.373 E4.56399
G1 X127.873 Y105.685 E4.5734
G1 X128.163 Y107.13 E4.61654
G1 X128.213 Y107.466 E4.62648
G1 X128.357 Y108.931 E4.66957
G1 X128.373 Y109.264 E4.67933
G1 X128.373 Y110.734 E4.72235
G1 X128.357 Y111.067 E4.73211
G1 X128.213 Y112.532 E4.77519
G1 X128.163 Y112.867 E4.78511
G1 X127.873 Y114.314 E4.8283
G1 X127.795 Y114.626 E4.83772
G1 X127.374 Y116.025 E4.88048
G1 X127.259 Y116.347 E4.89048
G1 X126.691 Y117.717 E4.93389
G1 X126.547 Y118.021 E4.94374
G1 X125.856 Y119.31 E4.98654
G1 X125.688 Y119.591 E4.99613
G1 X124.875 Y120.81 E5.03901
G1 X124.674 Y121.08 E5.04886
G1 X123.729 Y122.231 E5.09245
G1 X123.504 Y122.479 E5.10225
G1 X122.477 Y123.505 E5.14474
G1 X122.232 Y123.727 E5.15442
G1 X121.083 Y124.671 E5.19794
G1 X120.812 Y124.873 E5.20784
G1 X119.59 Y125.688 E5.25083
G1 X119.31 Y125.855 E5.26037
G1 X118.022 Y126.546 E5.30315
G1 X117.717 Y126.691 E5.31304
G1 X116.349 Y127.258 E5.35638
G1 X116.028 Y127.373 E5.36636
G1 X114.627 Y127.795 E5.40919
G1 X114.314 Y127.873 E5.41863
G1 X112.867 Y128.163 E5.46182
G1 X112.532 Y128.213 E5.47173
G1 X111.067 Y128.357 E5.51482
G1 X110.734 Y128.373 E5.52458
G1 X109.266 Y128.373 E5.56755
G1 X108.933 Y128.357 E5.5773
G1 X107.468 Y128.213 E5.62039
G1 X107.133 Y128.163 E5.6303
G1 X105.686 Y127.873 E5.6735
G1 X105.373 Y127.795 E5.68294
G1 X103.972 Y127.373 E5.72576
G1 X103.651 Y127.258 E5.73574
G1 X102.283 Y126.691 E5.77909
G1 X101.978 Y126.546 E5.78897
G1 X100.69 Y125.855 E5.83175
G1 X100.41 Y125.688 E5.84129
G1 X99.188 Y124.873 E5.88429
G1 X98.917 Y124.671 E5.89418
G1 X97.768 Y123.727 E5.9377
G1 X97.523 Y123.505 E5.94738
G1 X96.496 Y122.479 E5.98987
G1 X96.271 Y122.231 E5.99967
G1 X95.326 Y121.08 E6.04326
G1 X95.125 Y120.81 E6.05311
G1 X94.312 Y119.591 E6.096
G1 X94.144 Y119.31 E6.10558
G1 X93.453 Y118.021 E6.14839
G1 X93.309 Y117.717 E6.15823
G1 X92.741 Y116.347 E6.20164
G1 X92.626 Y116.025 E6.21165
G1 X92.205 Y114.626 E6.25441
G1 X92.127 Y114.314 E6.26382
G1 X91.837 Y112.867 E6.30702
G1 X91.787 Y112.532 E6.31693
G1 X91.643 Y111.069 E6.35996
G1 X91.627 Y110.736 E6.36971
G1 X91.627 Y109.266 E6.41274
G1 X91.643 Y108.933 E6.4225
G1 X91.787 Y107.468 E6.46558
G1 X91.837 Y107.133 E6.4755
G1 X92.127 Y105.686 E6.51869
G1 X92.205 Y105.374 E6.5281
G1 X92.626 Y103.975 E6.57086
G1 X92.741 Y103.653 E6.58087
G1 X93.309 Y102.283 E6.62428
G1 X93.453 Y101.979 E6.63413
G1 X94.144 Y100.69 E6.67693
G1 X94.312 Y100.409 E6.68652
G1 X95.125 Y99.19 E6.7294
G1 X95.326 Y98.92 E6.73925
G1 X96.271 Y97.769 E6.78284
G1 X96.495 Y97.522 E6.7926
G1 X97.521 Y96.496 E6.83507
G0 F1800 X97.804 Y96.779
G1 F1200 X98.021 Y96.582 E6.84365
G1 X99.173 Y95.636 E6.88728
G1 X99.412 Y95.458 E6.896
G1 X100.631 Y94.645 E6.93889
G1 X100.879 Y94.497 E6.94734
G1 X102.168 Y93.806 E6.99015
G1 X102.436 Y93.679 E6.99883
G1 X103.804 Y93.112 E7.04217
G1 X104.088 Y93.01 E7.051
G1 X105.489 Y92.588 E7.09383
G1 X105.764 Y92.519 E7.10212
G1 X107.211 Y92.229 E7.14532
G1 X107.508 Y92.185 E7.15411
G1 X108.973 Y92.041 E7.19719
G1 X109.266 Y92.027 E7.20578
G1 X110.734 Y92.027 E7.24874
G1 X111.027 Y92.041 E7.25733
G1 X112.492 Y92.185 E7.30042
G1 X112.789 Y92.229 E7.3092
G1 X114.236 Y92.519 E7.3524
G1 X114.511 Y92.588 E7.3607
G1 X115.912 Y93.01 E7.40352
G1 X116.196 Y93.112 E7.41235
G1 X117.564 Y93.679 E7.4557
G1 X117.832 Y93.806 E7.46438
G1 X119.121 Y94.497 E7.50718
G1 X119.369 Y94.645 E7.51564
G1 X120.588 Y95.458 E7.55852
G1 X120.827 Y95.635 E7.56723
G1 X121.978 Y96.58 E7.61082
G1 X122.195 Y96.778 E7.61941
G1 X123.221 Y97.804 E7.66188
G1 X123.418 Y98.021 E7.67046
G1 X124.364 Y99.173 E7.71409
G1 X124.542 Y99.412 E7.72281
G1 X125.354 Y100.629 E7.76563
G1 X125.502 Y100.877 E7.77409
G1 X126.194 Y102.168 E7.81696
G1 X126.321 Y102.436 E7.82564
G1 X126.888 Y103.804 E7.86898
G1 X126.99 Y104.088 E7.87781
G1 X127.412 Y105.489 E7.92064
G1 X127.48 Y105.764 E7.92893
G1 X127.77 Y107.209 E7.97207
G1 X127.815 Y107.506 E7.98086
G1 X127.959 Y108.971 E8.02395
G1 X127.973 Y109.264 E8.03253
G1 X127.973 Y110.734 E8.07556
G1 X127.959 Y111.027 E8.08414
G1 X127.815 Y112.492 E8.12723
G1 X127.771 Y112.789 E8.13602
G1 X127.481 Y114.236 E8.17921
G1 X127.412 Y114.51 E8.18748
G1 X126.991 Y115.909 E8.23024
G1 X126.889 Y116.194 E8.2391
G1 X126.321 Y117.564 E8.28251
G1 X126.194 Y117.832 E8.29119
G1 X125.503 Y119.121 E8.334
G1 X125.355 Y119.369 E8.34245
G1 X124.542 Y120.588 E8.38534
G1 X124.365 Y120.827 E8.39404
G1 X123.42 Y121.978 E8.43763
G1 X123.221 Y122.196 E8.44627
G1 X122.194 Y123.222 E8.48876
G1 X121.978 Y123.418 E8.49729
G1 X120.829 Y124.362 E8.54082
G1 X120.59 Y124.54 E8.54954
G1 X119.368 Y125.355 E8.59253
G1 X119.121 Y125.503 E8.60096
G1 X117.833 Y126.194 E8.64374
G1 X117.564 Y126.321 E8.65245
G1 X116.196 Y126.888 E8.69579
G1 X115.912 Y126.99 E8.70462
G1 X114.511 Y127.412 E8.74745
G1 X114.236 Y127.481 E8.75575
G1 X112.789 Y127.771 E8.79894
G1 X112.492 Y127.815 E8.80773
G1 X111.027 Y127.959 E8.85081
G1 X110.734 Y127.973 E8.8594
G1 X109.266 Y127.973 E8.90237
G1 X108.973 Y127.959 E8.91095
G1 X107.508 Y127.815 E8.95404
G1 X107.211 Y127.771 E8.96283
G1 X105.764 Y127.481 E9.00602
G1 X105.489 Y127.412 E9.01432
G1 X104.088 Y126.99 E9.05714
G1 X103.804 Y126.888 E9.06598
G1 X102.436 Y126.321 E9.10932
G1 X102.167 Y126.194 E9.11803
G1 X100.879 Y125.503 E9.16081
G1 X100.632 Y125.355 E9.16923
G1 X99.41 Y124.54 E9.21223
G1 X99.171 Y124.362 E9.22095
G1 X98.022 Y123.418 E9.26447
G1 X97.806 Y123.222 E9.27301
G1 X96.779 Y122.196 E9.3155
G1 X96.58 Y121.978 E9.32414
G1 X95.635 Y120.827 E9.36773
G1 X95.458 Y120.588 E9.37643
G1 X94.645 Y119.369 E9.41932
G1 X94.497 Y119.121 E9.42777
G1 X93.806 Y117.832 E9.47058
G1 X93.679 Y117.564 E9.47926
G1 X93.111 Y116.194 E9.52267
G1 X93.009 Y115.909 E9.53153
G1 X92.588 Y114.51 E9.57429
G1 X92.519 Y114.236 E9.58256
G1 X92.229 Y112.789 E9.62575
G1 X92.185 Y112.493 E9.63451
G1 X92.041 Y111.03 E9.67754
G1 X92.027 Y110.736 E9.68615
G1 X92.027 Y109.266 E9.72918
G1 X92.041 Y108.973 E9.73776
G1 X92.185 Y107.508 E9.78085
G1 X92.229 Y107.211 E9.78964
G1 X92.519 Y105.764 E9.83283
G1 X92.588 Y105.49 E9.8411
G1 X93.009 Y104.091 E9.88386
G1 X93.111 Y103.806 E9.89272
G1 X93.679 Y102.436 E9.93613
G1 X93.806 Y102.168 E9.94481
G1 X94.497 Y100.879 E9.98762
G1 X94.645 Y100.631 E9.99607
G1 X95.458 Y99.412 E10.03896
G1 X95.635 Y99.173 E10.04766
G1 X96.58 Y98.022 E10.09125
G1 X96.778 Y97.805 E10.09985
G1 X97.804 Y96.779 E10.14232
G0 F1800 X98.087 Y97.062
G1 F1200 X98.275 Y96.891 E10.14975
G1 X99.427 Y95.945 E10.19338
G1 X99.634 Y95.791 E10.20093
G1 X100.853 Y94.978 E10.24382
G1 X101.068 Y94.849 E10.25116
G1 X102.357 Y94.158 E10.29397
G1 X102.589 Y94.048 E10.30148
G1 X103.957 Y93.481 E10.34482
G1 X104.203 Y93.393 E10.35247
G1 X105.604 Y92.971 E10.3953
G1 X105.843 Y92.912 E10.4025
G1 X107.29 Y92.622 E10.4457
G1 X107.547 Y92.583 E10.4533
G1 X109.012 Y92.439 E10.49639
G1 X109.266 Y92.427 E10.50383
G1 X110.734 Y92.427 E10.5468
G1 X110.988 Y92.439 E10.55424
G1 X112.453 Y92.583 E10.59733
G1 X112.71 Y92.622 E10.60494
G1 X114.157 Y92.912 E10.64813
G1 X114.396 Y92.971 E10.65534
G1 X115.797 Y93.393 E10.69816
G1 X116.043 Y93.481 E10.70581
G1 X117.411 Y94.048 E10.74915
G1 X117.643 Y94.158 E10.75667
G1 X118.932 Y94.849 E10.79947
G1 X119.147 Y94.978 E10.80681
G1 X120.366 Y95.791 E10.8497
G1 X120.573 Y95.945 E10.85725
G1 X121.724 Y96.89 E10.90084
G1 X121.912 Y97.061 E10.90828
G1 X122.938 Y98.087 E10.95074
G1 X123.109 Y98.275 E10.95818
G1 X124.055 Y99.427 E11.00181
G1 X124.209 Y99.634 E11.00936
G1 X125.021 Y100.851 E11.05218
G1 X125.15 Y101.066 E11.05952
G1 X125.842 Y102.357 E11.1024
G1 X125.952 Y102.589 E11.10991
G1 X126.519 Y103.957 E11.15325
G1 X126.607 Y104.203 E11.1609
G1 X127.029 Y105.604 E11.20373
G1 X127.088 Y105.842 E11.2109
G1 X127.378 Y107.287 E11.25404
G1 X127.417 Y107.545 E11.26168
G1 X127.561 Y109.01 E11.30476
G1 X127.573 Y109.264 E11.3122
G1 X127.573 Y110.734 E11.35523
G1 X127.561 Y110.988 E11.36267
G1 X127.417 Y112.453 E11.40576
G1 X127.378 Y112.71 E11.41337
G1 X127.088 Y114.157 E11.45656
G1 X127.029 Y114.395 E11.46374
G1 X126.608 Y115.794 E11.5065
G1 X126.52 Y116.041 E11.51417
G1 X125.952 Y117.411 E11.55758
G1 X125.842 Y117.643 E11.5651
G1 X125.151 Y118.932 E11.6079
G1 X125.022 Y119.147 E11.61524
G1 X124.209 Y120.366 E11.65813
G1 X124.055 Y120.573 E11.66568
G1 X123.11 Y121.724 E11.70927
G1 X122.939 Y121.913 E11.71673
G1 X121.912 Y122.939 E11.75922
G1 X121.725 Y123.109 E11.76661
G1 X120.576 Y124.053 E11.81014
G1 X120.368 Y124.207 E11.81771
G1 X119.146 Y125.022 E11.8607
G1 X118.932 Y125.15 E11.868
G1 X117.644 Y125.841 E11.91078
G1 X117.411 Y125.952 E11.91834
G1 X116.043 Y126.519 E11.96168
G1 X115.797 Y126.607 E11.96933
G1 X114.396 Y127.029 E12.01215
G1 X114.157 Y127.088 E12.01936
G1 X112.71 Y127.378 E12.06255
G1 X112.453 Y127.417 E12.07016
G1 X110.988 Y127.561 E12.11325
G1 X110.734 Y127.573 E12.12069
G1 X109.266 Y127.573 E12.16366
G1 X109.012 Y127.561 E12.1711
G1 X107.547 Y127.417 E12.21418
G1 X107.29 Y127.378 E12.22179
G1 X105.843 Y127.088 E12.26499
G1 X105.604 Y127.029 E12.27219
G1 X104.203 Y126.607 E12.31502
G1 X103.957 Y126.519 E12.32266
G1 X102.589 Y125.952 E12.36601
G1 X102.356 Y125.841 E12.37356
G1 X101.068 Y125.15 E12.41634
G1 X100.854 Y125.022 E12.42364
G1 X99.632 Y124.207 E12.46663
G1 X99.424 Y124.053 E12.47421
G1 X98.275 Y123.109 E12.51773
G1 X98.088 Y122.939 E12.52513
G1 X97.061 Y121.913 E12.56762
G1 X96.89 Y121.724 E12.57508
G1 X95.945 Y120.573 E12.61867
G1 X95.791 Y120.366 E12.62622
G1 X94.978 Y119.147 E12.6691
G1 X94.849 Y118.932 E12.67644
G1 X94.158 Y117.643 E12.71925
G1 X94.048 Y117.411 E12.72676
G1 X93.48 Y116.041 E12.77017
G1 X93.392 Y115.794 E12.77785
G1 X92.971 Y114.395 E12.82061
G1 X92.912 Y114.157 E12.82779
G1 X92.622 Y112.71 E12.87098
G1 X92.584 Y112.454 E12.87855
G1 X92.44 Y110.991 E12.92158
G1 X92.427 Y110.736 E12.92906
G1 X92.427 Y109.266 E12.97208
G1 X92.439 Y109.012 E12.97952
G1 X92.583 Y107.547 E13.02261
G1 X92.622 Y107.29 E13.03022
G1 X92.912 Y105.843 E13.07341
G1 X92.971 Y105.605 E13.08059
G1 X93.392 Y104.206 E13.12335
G1 X93.48 Y103.959 E13.13102
G1 X94.048 Y102.589 E13.17443
G1 X94.158 Y102.357 E13.18195
G1 X94.849 Y101.068 E13.22475
G1 X94.978 Y100.853 E13.23209
G1 X95.791 Y99.634 E13.27498
G1 X95.945 Y99.427 E13.28253
G1 X96.89 Y98.276 E13.32612
G1 X97.061 Y98.088 E13.33356
G1 X98.087 Y97.062 E13.37602
G0 F1800 X98.529 Y97.2
G1 F1200 X99.681 Y96.254 E13.41965
G1 X99.856 Y96.124 E13.42604
G1 X101.075 Y95.311 E13.46892
G1 X101.257 Y95.202 E13.47513
G1 X102.546 Y94.511 E13.51794
G1 X102.743 Y94.418 E13.52431
G1 X104.111 Y93.851 E13.56766
