;FLAVOR:RepRap
;TIME:1198
;Generated with Cura_SteamEngine 2.3.1
M190 S70
M104 S215
M109 S215
G28 ; home all axes
M117 Purge extruder
G92 E0 ; reset extruder
G1 Z1.0 F3000 ; move z up little to prevent scratching of surface
G1 X0.1 Y20 Z0.3 F5000.0 ; move to start-line position G1 X0.1 Y200.0 Z0.3 F1500.0 E15 ; draw 1st line
G1 X0.4 Y200.0 Z0.3 F5000.0 ; move to side a little
G1 X0.4 Y20 Z0.3 F1500.0 E30 ; draw 2nd line
G92 E0 ; reset extruder
G1 Z1.0 F3000 ; move z up little to prevent scratching of surface

M117 All systems go!
;LAYER_COUNT:28
;LAYER:0
M117 INDICATOR-Layer0
M107
G1 F4200 E-5
G0 F1800 X100.634 Y94.689 Z.16
;TYPE:SKIRT
G1 F4200 E0
G1 F1200 X101.014 Y94.29 E0.01613
G1 X101.447 Y93.95 E0.03224
G1 X101.926 Y93.676 E0.04839
G1 X102.438 Y93.474 E0.0645
G1 X102.975 Y93.349 E0.08064
G1 X103.568 Y93.302 E0.09805
G1 X105.243 Y93.301 E0.14708
G1 X105.792 Y93.341 E0.16319
G1 X106.3 Y93.45 E0.17839
G1 X106.777 Y93.588 E0.19293
G1 X108.649 Y93.71 E0.24784
G1 X108.96 Y93.613 E0.25737
G1 X109.495 Y93.487 E0.27346
G1 X110.166 Y93.38 E0.29335
G1 X110.982 Y93.339 E0.31726
G1 X111.539 Y93.371 E0.33359
G1 X112.085 Y93.443 E0.34971
G1 X112.616 Y93.592 E0.36585
G1 X113.119 Y93.817 E0.38198
G1 X113.436 Y94.018 E0.39296
G1 X113.67 Y94.038 E0.39984
G1 X114.207 Y94.164 E0.41598
G1 X114.72 Y94.365 E0.43211
G1 X114.753 Y94.384 E0.43322
G1 X115.142 Y94.412 E0.44464
G1 X115.68 Y94.531 E0.46077
G1 X116.195 Y94.727 E0.47689
G1 X116.197 Y94.728 E0.47696
G1 X116.659 Y94.878 E0.49118
G1 X117.153 Y95.122 E0.5073
G1 X117.607 Y95.435 E0.52344
G1 X118.01 Y95.81 E0.53956
G1 X118.355 Y96.239 E0.55567
G1 X118.635 Y96.714 E0.57181
G1 X118.842 Y97.225 E0.58794
G1 X118.94 Y97.624 E0.59997
G1 X119.356 Y97.681 E0.61226
G1 X119.886 Y97.835 E0.62841
G1 X120.387 Y98.063 E0.64452
G1 X120.85 Y98.362 E0.66066
G1 X121.252 Y98.711 E0.67624
G1 X124.338 Y101.797 E0.80397
G1 X124.402 Y101.802 E0.80585
G1 X124.94 Y101.921 E0.82198
G1 X125.456 Y102.116 E0.83813
G1 X125.937 Y102.384 E0.85424
G1 X126.375 Y102.718 E0.87036
G1 X126.76 Y103.112 E0.88649
G1 X127.084 Y103.558 E0.90262
G1 X127.34 Y104.046 E0.91875
G1 X127.493 Y104.461 E0.9317
G1 X127.93 Y105.903 E0.9758
G1 X128.051 Y106.44 E0.99191
G1 X128.093 Y107.004 E1.00846
G1 X128.094 Y112.801 E1.17813
G1 X128.054 Y113.351 E1.19428
G1 X127.935 Y113.889 E1.2104
G1 X127.74 Y114.404 E1.22652
G1 X127.472 Y114.886 E1.24266
G1 X127.137 Y115.323 E1.25878
G1 X126.743 Y115.708 E1.2749
G1 X126.419 Y115.952 E1.28677
G1 X126.204 Y116.097 E1.29436
G1 X126.156 Y116.124 E1.29598
G1 X126.112 Y116.158 E1.2976
G1 X121.027 Y119.565 E1.47675
G1 X121.264 Y119.79 E1.48632
G1 X121.605 Y120.224 E1.50247
G1 X121.878 Y120.702 E1.51858
G1 X122.08 Y121.215 E1.53472
G1 X122.206 Y121.751 E1.55084
G1 X122.253 Y122.3 E1.56697
G1 X122.22 Y122.85 E1.58309
G1 X122.107 Y123.39 E1.59924
G1 X121.918 Y123.907 E1.61535
G1 X121.656 Y124.392 E1.63149
G1 X121.327 Y124.833 E1.64759
G1 X120.937 Y125.223 E1.66373
G1 X120.495 Y125.552 E1.67986
G1 X120.109 Y125.767 E1.69279
G1 X117.448 Y127.055 E1.77932
G1 X116.936 Y127.259 E1.79545
G1 X116.399 Y127.386 E1.8116
G1 X115.851 Y127.435 E1.82771
G1 X115.3 Y127.403 E1.84386
G1 X114.611 Y127.247 E1.86454
G1 X114.29 Y127.142 E1.87442
G1 X113.78 Y126.933 E1.89055
G1 X113.305 Y126.653 E1.90669
G1 X113.24 Y126.6 E1.90915
G1 X113.038 Y126.603 E1.91506
G1 X112.232 Y126.467 E1.93898
G1 X111.545 Y126.273 E1.95988
G1 X111.07 Y126.433 E1.97455
G1 X110.536 Y126.57 E1.99068
G1 X109.988 Y126.629 E2.00682
G1 X109.874 Y126.621 E2.01016
G1 X109.688 Y126.65 E2.01567
G1 X109.137 Y126.657 E2.0318
G1 X108.591 Y126.584 E2.04792
G1 X108.081 Y126.44 E2.06343
G1 X105.76 Y125.605 E2.13563
G1 X105.256 Y125.381 E2.15177
G1 X104.79 Y125.087 E2.1679
G1 X104.372 Y124.729 E2.18401
G1 X104.104 Y124.422 E2.19593
G1 X102.964 Y124.975 E2.23302
G1 X102.452 Y125.179 E2.24915
G1 X101.916 Y125.307 E2.26528
G1 X101.367 Y125.356 E2.28141
G1 X100.817 Y125.324 E2.29754
G1 X100.277 Y125.214 E2.31367
G1 X99.759 Y125.027 E2.32979
G1 X99.273 Y124.767 E2.34592
G1 X98.943 Y124.532 E2.35778
G1 X97.139 Y123.1 E2.42519
G1 X96.734 Y122.727 E2.44131
G1 X96.386 Y122.3 E2.45743
G1 X96.105 Y121.826 E2.47356
G1 X95.894 Y121.317 E2.48968
G1 X95.76 Y120.783 E2.5058
G1 X95.756 Y120.745 E2.50692
G1 X95.494 Y120.278 E2.52259
G1 X95.296 Y119.764 E2.53871
G1 X95.175 Y119.226 E2.55485
G1 X95.133 Y118.677 E2.57097
G1 X95.171 Y118.127 E2.5871
G1 X95.247 Y117.777 E2.59759
G1 X95.198 Y117.752 E2.5992
G1 X94.751 Y117.43 E2.61532
G1 X94.354 Y117.047 E2.63147
G1 X94.018 Y116.611 E2.64758
G1 X93.748 Y116.131 E2.6637
G1 X93.55 Y115.616 E2.67985
G1 X93.428 Y115.079 E2.69596
G1 X93.393 Y114.741 E2.70591
G1 X93.37 Y114.361 E2.71705
G1 X92.924 Y113.226 E2.75274
G1 X92.85 Y113.109 E2.7568
G1 X92.6 Y112.532 E2.7752
G1 X92.363 Y111.83 E2.79689
G1 X92.225 Y111.296 E2.81303
G1 X92.18 Y110.976 E2.82249
G1 X92.027 Y109.376 E2.86953
G1 X92.028 Y108.645 E2.89093
G1 X92.175 Y107.139 E2.93522
G1 X92.324 Y106.394 E2.95745
G1 X92.889 Y104.552 E3.01385
G1 X93.088 Y104.038 E3.02998
G1 X93.36 Y103.559 E3.0461
G1 X93.698 Y103.123 E3.06225
G1 X94.095 Y102.742 E3.07835
G1 X94.682 Y102.341 E3.09916
G1 X94.926 Y102.206 E3.10732
G1 X95.427 Y101.975 E3.12347
G1 X95.955 Y101.819 E3.13958
G1 X96.5 Y101.74 E3.1557
G1 X97.222 Y101.758 E3.17684
G1 X97.413 Y101.781 E3.18247
G1 X97.437 Y101.777 E3.18318
G1 X97.754 Y101.749 E3.1925
G1 X98.305 Y101.74 E3.20863
G1 X98.758 Y101.799 E3.222
G1 X99.908 Y101.778 E3.25566
G1 X99.716 Y101.416 E3.26766
G1 X99.531 Y100.896 E3.28381
G1 X99.423 Y100.356 E3.29993
G1 X99.394 Y99.885 E3.31374
G1 X99.394 Y99.425 E3.32721
G1 X99.244 Y99.033 E3.33949
G1 X99.124 Y98.495 E3.35562
G1 X99.083 Y97.946 E3.37174
G1 X99.122 Y97.396 E3.38788
G1 X99.24 Y96.858 E3.404
G1 X99.434 Y96.342 E3.42013
G1 X99.701 Y95.86 E3.43626
G1 X99.947 Y95.525 E3.44842
G1 X100.634 Y94.689 E3.48009
G0 F1800 X100.943 Y94.943
G1 F1200 X101.304 Y94.567 E3.49535
G1 X101.718 Y94.251 E3.51059
G1 X102.175 Y94.001 E3.52584
G1 X102.666 Y93.824 E3.54112
G1 X103.177 Y93.725 E3.55635
G1 X103.568 Y93.702 E3.56782
G1 X105.243 Y93.701 E3.61684
G1 X105.763 Y93.741 E3.63211
G1 X106.189 Y93.835 E3.64487
G1 X106.704 Y93.984 E3.66057
G1 X108.698 Y94.114 E3.71905
G1 X109.079 Y93.995 E3.73074
G1 X109.558 Y93.882 E3.74514
G1 X110.229 Y93.775 E3.76503
G1 X110.959 Y93.739 E3.78642
G1 X111.516 Y93.771 E3.80275
G1 X112.032 Y93.84 E3.81799
G1 X112.532 Y93.988 E3.83325
G1 X113.004 Y94.211 E3.84853
G1 X113.294 Y94.407 E3.85877
G1 X113.636 Y94.438 E3.86882
G1 X114.142 Y94.563 E3.88408
G1 X114.622 Y94.764 E3.89931
G1 X114.641 Y94.776 E3.89997
G1 X115.112 Y94.812 E3.91379
G1 X115.619 Y94.931 E3.92904
G1 X115.974 Y95.087 E3.94039
G1 X116.067 Y95.103 E3.94315
G1 X116.561 Y95.27 E3.95841
G1 X117.023 Y95.511 E3.97366
G1 X117.443 Y95.819 E3.98891
G1 X117.811 Y96.188 E4.00416
G1 X118.119 Y96.608 E4.0194
G1 X118.358 Y97.071 E4.03465
G1 X118.524 Y97.565 E4.04991
G1 X118.601 Y98.008 E4.06307
G1 X118.869 Y98.012 E4.07091
G1 X119.383 Y98.098 E4.08617
G1 X119.878 Y98.262 E4.10143
G1 X120.342 Y98.499 E4.11668
G1 X120.764 Y98.805 E4.13194
G1 X120.969 Y98.994 E4.1401
G1 X124.16 Y102.186 E4.2722
G1 X124.373 Y102.202 E4.27845
G1 X124.88 Y102.321 E4.29369
G1 X125.364 Y102.516 E4.30897
G1 X125.812 Y102.782 E4.32422
G1 X126.214 Y103.113 E4.33946
G1 X126.56 Y103.502 E4.3547
G1 X126.844 Y103.94 E4.36998
G1 X127.11 Y104.577 E4.39018
G1 X127.547 Y106.019 E4.43428
G1 X127.659 Y106.528 E4.44954
G1 X127.693 Y107.004 E4.4635
G1 X127.694 Y112.801 E4.63317
G1 X127.654 Y113.321 E4.64844
G1 X127.535 Y113.828 E4.66368
G1 X127.34 Y114.312 E4.67895
G1 X127.074 Y114.76 E4.6942
G1 X126.742 Y115.161 E4.70944
G1 X126.195 Y115.621 E4.73036
G1 X125.98 Y115.766 E4.73795
G1 X125.921 Y115.799 E4.73993
G1 X125.889 Y115.826 E4.74115
G1 X120.371 Y119.523 E4.93556
G1 X120.611 Y119.72 E4.94465
G1 X120.987 Y120.081 E4.9599
G1 X121.304 Y120.494 E4.97514
G1 X121.554 Y120.952 E4.99041
G1 X121.73 Y121.442 E5.00565
G1 X121.83 Y121.954 E5.02092
G1 X121.851 Y122.474 E5.03615
G1 X121.791 Y122.992 E5.05142
G1 X121.653 Y123.495 E5.06668
G1 X121.44 Y123.97 E5.08192
G1 X121.157 Y124.408 E5.09718
G1 X120.81 Y124.797 E5.11244
G1 X120.408 Y125.129 E5.1277
G1 X119.934 Y125.407 E5.14378
G1 X117.273 Y126.695 E5.23031
G1 X116.788 Y126.886 E5.24557
G1 X116.28 Y127 E5.26081
G1 X115.76 Y127.035 E5.27606
G1 X115.24 Y126.99 E5.29134
G1 X114.735 Y126.867 E5.30655
G1 X114.414 Y126.762 E5.31644
G1 X113.933 Y126.562 E5.33168
G1 X113.487 Y126.291 E5.34696
G1 X113.377 Y126.199 E5.35115
G1 X113.075 Y126.205 E5.36
G1 X112.34 Y126.082 E5.38181
G1 X111.535 Y125.855 E5.40629
G1 X110.942 Y126.054 E5.4246
G1 X110.437 Y126.182 E5.43984
G1 X109.918 Y126.23 E5.4551
G1 X109.829 Y126.223 E5.45771
G1 X109.626 Y126.254 E5.46372
G1 X109.105 Y126.254 E5.47897
G1 X108.59 Y126.174 E5.49423
G1 X108.216 Y126.063 E5.50564
G1 X105.895 Y125.228 E5.57784
G1 X105.42 Y125.015 E5.59308
G1 X104.982 Y124.731 E5.60835
G1 X104.594 Y124.384 E5.62359
G1 X104.263 Y123.982 E5.63883
G1 X104.225 Y123.919 E5.64099
G1 X102.789 Y124.615 E5.68769
G1 X102.304 Y124.806 E5.70295
G1 X101.796 Y124.921 E5.71819
G1 X101.276 Y124.956 E5.73345
G1 X100.757 Y124.911 E5.7487
G1 X100.25 Y124.788 E5.76396
G1 X99.769 Y124.589 E5.7792
G1 X99.192 Y124.219 E5.79926
G1 X97.388 Y122.787 E5.86668
G1 X97.006 Y122.433 E5.88192
G1 X96.682 Y122.024 E5.89719
G1 X96.425 Y121.571 E5.91244
G1 X96.24 Y121.084 E5.92768
G1 X96.137 Y120.599 E5.9422
G1 X96.097 Y120.538 E5.94433
G1 X95.844 Y120.083 E5.95957
G1 X95.663 Y119.594 E5.97483
G1 X95.559 Y119.083 E5.99009
G1 X95.534 Y118.563 E6.00533
G1 X95.59 Y118.044 E6.02061
G1 X95.712 Y117.584 E6.03454
G1 X95.464 Y117.437 E6.04298
G1 X95.359 Y117.381 E6.04646
G1 X94.943 Y117.068 E6.0617
G1 X94.579 Y116.695 E6.07695
G1 X94.276 Y116.271 E6.0922
G1 X94.041 Y115.805 E6.10748
G1 X93.881 Y115.31 E6.12271
G1 X93.792 Y114.717 E6.14026
G1 X93.765 Y114.274 E6.15325
G1 X93.279 Y113.037 E6.19215
G1 X93.138 Y112.795 E6.20034
G1 X92.979 Y112.404 E6.2127
G1 X92.742 Y111.702 E6.23438
G1 X92.613 Y111.196 E6.24967
G1 X92.578 Y110.938 E6.25729
G1 X92.425 Y109.338 E6.30433
G1 X92.426 Y108.684 E6.32347
G1 X92.573 Y107.178 E6.36776
G1 X92.706 Y106.511 E6.38767
G1 X93.271 Y104.669 E6.44406
G1 X93.462 Y104.184 E6.45932
G1 X93.724 Y103.734 E6.47456
G1 X94.053 Y103.329 E6.48983
G1 X94.439 Y102.979 E6.50508
G1 X94.876 Y102.691 E6.5204
G1 X95.12 Y102.556 E6.52856
G1 X95.594 Y102.339 E6.54382
G1 X96.096 Y102.198 E6.55908
G1 X96.613 Y102.134 E6.57433
G1 X97.174 Y102.156 E6.59076
G1 X97.41 Y102.185 E6.59772
G1 X97.472 Y102.175 E6.59956
G1 X97.789 Y102.147 E6.60887
G1 X98.31 Y102.141 E6.62412
G1 X98.719 Y102.2 E6.63622
G1 X100.61 Y102.166 E6.69158
G1 X100.68 Y102.159 E6.69364
G1 X100.498 Y101.956 E6.70162
G1 X100.213 Y101.52 E6.71686
G1 X99.998 Y101.045 E6.73212
G1 X99.858 Y100.543 E6.74738
G1 X99.794 Y99.885 E6.76673
G1 X99.794 Y99.354 E6.78227
G1 X99.619 Y98.891 E6.79675
G1 X99.512 Y98.381 E6.81201
G1 X99.484 Y97.86 E6.82728
G1 X99.536 Y97.342 E6.84251
G1 X99.666 Y96.837 E6.85778
G1 X99.872 Y96.359 E6.87301
G1 X100.256 Y95.779 E6.89337
G1 X100.943 Y94.943 E6.92504
G0 F1800 X101.252 Y95.197
G1 F1200 X101.593 Y94.846 E6.93937
G1 X101.986 Y94.554 E6.9537
G1 X102.421 Y94.331 E6.968
G1 X102.887 Y94.181 E6.98233
G1 X103.568 Y94.102 E7.0024
G1 X105.243 Y94.101 E7.05142
G1 X105.731 Y94.141 E7.06575
G1 X106.078 Y94.219 E7.07616
G1 X106.635 Y94.38 E7.09313
G1 X108.745 Y94.518 E7.15502
G1 X109.199 Y94.376 E7.16895
G1 X109.621 Y94.277 E7.18163
G1 X110.292 Y94.17 E7.20152
G1 X110.936 Y94.138 E7.22039
G1 X111.493 Y94.17 E7.23672
G1 X111.978 Y94.238 E7.25106
G1 X112.445 Y94.384 E7.26538
G1 X112.882 Y94.603 E7.27968
G1 X113.145 Y94.794 E7.2892
G1 X113.599 Y94.837 E7.30255
G1 X114.072 Y94.962 E7.31687
G1 X114.519 Y95.162 E7.3312
G1 X114.534 Y95.172 E7.33173
G1 X114.592 Y95.172 E7.33342
G1 X115.08 Y95.212 E7.34775
G1 X115.555 Y95.331 E7.36209
G1 X115.878 Y95.477 E7.37246
G1 X115.997 Y95.498 E7.376
G1 X116.458 Y95.662 E7.39032
G1 X116.887 Y95.898 E7.40465
G1 X117.271 Y96.202 E7.41899
G1 X117.601 Y96.563 E7.4333
G1 X117.868 Y96.973 E7.44762
G1 X118.065 Y97.422 E7.46197
G1 X118.186 Y97.896 E7.47629
G1 X118.228 Y98.384 E7.49063
G1 X118.225 Y98.427 E7.49189
G1 X118.433 Y98.401 E7.49802
G1 X118.922 Y98.419 E7.51235
G1 X119.402 Y98.517 E7.52669
G1 X119.859 Y98.691 E7.541
G1 X120.282 Y98.938 E7.55534
G1 X120.687 Y99.277 E7.57079
G1 X123.983 Y102.574 E7.70724
G1 X124.341 Y102.603 E7.71776
G1 X124.816 Y102.721 E7.73208
G1 X125.266 Y102.915 E7.74642
G1 X125.678 Y103.179 E7.76075
G1 X126.041 Y103.507 E7.77507
G1 X126.346 Y103.89 E7.7894
G1 X126.585 Y104.317 E7.80372
G1 X126.727 Y104.693 E7.81548
G1 X127.164 Y106.135 E7.85958
G1 X127.267 Y106.613 E7.8739
G1 X127.293 Y107.004 E7.88537
G1 X127.294 Y112.801 E8.05504
G1 X127.254 Y113.289 E8.06937
G1 X127.135 Y113.764 E8.0837
G1 X126.941 Y114.214 E8.09804
G1 X126.676 Y114.625 E8.11236
G1 X126.348 Y114.988 E8.12668
G1 X125.971 Y115.289 E8.1408
G1 X125.756 Y115.434 E8.14839
G1 X125.71 Y115.46 E8.14993
G1 X125.667 Y115.493 E8.15152
G1 X119.692 Y119.496 E8.36202
G1 X119.808 Y119.578 E8.36618
G1 X120.357 Y120.029 E8.38697
G1 X120.709 Y120.369 E8.4013
G1 X121 Y120.763 E8.41563
G1 X121.224 Y121.198 E8.42996
G1 X121.374 Y121.664 E8.44428
G1 X121.446 Y122.148 E8.45861
G1 X121.439 Y122.637 E8.47292
G1 X121.352 Y123.119 E8.48726
G1 X121.188 Y123.58 E8.50158
G1 X120.951 Y124.009 E8.51592
G1 X120.647 Y124.393 E8.53026
G1 X120.285 Y124.722 E8.54457
G1 X119.76 Y125.047 E8.56265
G1 X117.099 Y126.335 E8.64917
G1 X116.643 Y126.512 E8.66349
G1 X116.163 Y126.612 E8.67784
G1 X115.674 Y126.633 E8.69217
G1 X115.188 Y126.574 E8.7065
G1 X114.859 Y126.486 E8.71647
G1 X114.538 Y126.381 E8.72635
G1 X114.087 Y126.192 E8.74066
G1 X113.673 Y125.931 E8.75499
G1 X113.519 Y125.795 E8.761
G1 X113.082 Y125.805 E8.77379
G1 X112.449 Y125.697 E8.79259
G1 X111.525 Y125.437 E8.82068
G1 X110.815 Y125.675 E8.8426
G1 X110.34 Y125.792 E8.85692
G1 X109.852 Y125.831 E8.87125
G1 X109.783 Y125.825 E8.87328
G1 X109.566 Y125.857 E8.8797
G1 X109.077 Y125.85 E8.89401
G1 X108.595 Y125.763 E8.90835
G1 X108.351 Y125.687 E8.91583
G1 X106.03 Y124.852 E8.98802
G1 X105.585 Y124.649 E9.00234
G1 X105.178 Y124.377 E9.01666
G1 X104.821 Y124.042 E9.03099
G1 X104.524 Y123.653 E9.04532
G1 X104.387 Y123.396 E9.05384
G1 X102.615 Y124.255 E9.11148
G1 X102.158 Y124.432 E9.12582
G1 X101.679 Y124.533 E9.14015
G1 X101.19 Y124.554 E9.15448
G1 X100.704 Y124.495 E9.16881
G1 X100.234 Y124.358 E9.18314
G1 X99.793 Y124.147 E9.19744
G1 X99.441 Y123.906 E9.20993
G1 X97.637 Y122.474 E9.27734
G1 X97.28 Y122.139 E9.29167
G1 X96.981 Y121.751 E9.30601
G1 X96.75 Y121.319 E9.32035
G1 X96.593 Y120.856 E9.33466
G1 X96.527 Y120.462 E9.34635
G1 X96.431 Y120.317 E9.35144
G1 X96.195 Y119.888 E9.36577
G1 X96.032 Y119.427 E9.38008
G1 X95.946 Y118.945 E9.39441
G1 X95.94 Y118.455 E9.40876
G1 X96.014 Y117.971 E9.42309
G1 X96.165 Y117.506 E9.4374
G1 X96.222 Y117.396 E9.44102
G1 X96.01 Y117.304 E9.44779
G1 X95.74 Y117.13 E9.45719
G1 X95.524 Y117.011 E9.46441
G1 X95.14 Y116.707 E9.47874
G1 X94.811 Y116.346 E9.49304
G1 X94.544 Y115.935 E9.50738
G1 X94.348 Y115.486 E9.52172
G1 X94.228 Y115.012 E9.53603
G1 X94.191 Y114.693 E9.54543
G1 X94.161 Y114.185 E9.56033
G1 X93.654 Y112.898 E9.60081
G1 X93.358 Y112.276 E9.62098
G1 X93.121 Y111.574 E9.64266
G1 X92.977 Y110.9 E9.66283
G1 X92.824 Y109.3 E9.70988
G1 X92.824 Y108.723 E9.72677
G1 X92.971 Y107.217 E9.77105
G1 X93.089 Y106.628 E9.78864
G1 X93.654 Y104.786 E9.84503
G1 X93.835 Y104.332 E9.85933
G1 X94.088 Y103.912 E9.87369
G1 X94.405 Y103.54 E9.88799
G1 X94.779 Y103.224 E9.90232
G1 X95.07 Y103.041 E9.91238
G1 X95.314 Y102.906 E9.92054
G1 X95.76 Y102.705 E9.93486
G1 X96.233 Y102.579 E9.94919
G1 X96.72 Y102.531 E9.96351
G1 X97.126 Y102.553 E9.97541
G1 X97.391 Y102.585 E9.98323
G1 X97.406 Y102.588 E9.98367
G1 X97.507 Y102.574 E9.98666
G1 X97.824 Y102.546 E9.99597
G1 X98.314 Y102.542 E10.01031
G1 X98.675 Y102.6 E10.02102
G1 X100.68 Y102.564 E10.07971
G1 X100.752 Y102.547 E10.08188
G1 X101.241 Y102.518 E10.09621
G1 X101.413 Y102.533 E10.10127
G1 X101.753 Y102.512 E10.11124
G1 X101.382 Y102.276 E10.12411
