;FLAVOR:RepRap
;TIME:770
;Generated with Cura_SteamEngine 2.3.1
M190 S70
M104 S215
M109 S215
G28 ; home all axes
M117 Purge extruder
G92 E0 ; reset extruder
G1 Z1.0 F3000 ; move z up little to prevent scratching of surface
G1 X0.1 Y20 Z0.3 F5000.0 ; move to start-line position G1 X0.1 Y200.0 Z0.3 F1500.0 E15 ; draw 1st line
G1 X0.4 Y200.0 Z0.3 F5000.0 ; move to side a little
G1 X0.4 Y20 Z0.3 F1500.0 E30 ; draw 2nd line
G92 E0 ; reset extruder
G1 Z1.0 F3000 ; move z up little to prevent scratching of surface

M117 All systems go!
;LAYER_COUNT:17
;LAYER:0
M117 INDICATOR-Layer0
M107
G1 F4200 E-5
G0 F1800 X97.703 Y97.127 Z.16
G0 X96.459 Y99.355
;TYPE:SKIRT
G1 F4200 E0
G1 F1200 X96.539 Y98.965 E0.01165
G1 X96.726 Y98.446 E0.0278
G1 X96.987 Y97.961 E0.04392
G1 X97.314 Y97.518 E0.06004
G1 X97.703 Y97.127 E0.07618
G1 X97.983 Y96.906 E0.08662
G1 X100.565 Y95.055 E0.1796
G1 X101.035 Y94.767 E0.19574
G1 X101.541 Y94.55 E0.21185
G1 X102.074 Y94.409 E0.22799
G1 X102.621 Y94.346 E0.24411
G1 X102.982 Y94.348 E0.25467
G1 X104.5 Y94.429 E0.29917
G1 X104.718 Y94.365 E0.30582
G1 X105.256 Y94.248 E0.32193
G1 X105.75 Y94.214 E0.33642
G1 X106.946 Y92.91 E0.38821
G1 X107.346 Y92.532 E0.40432
G1 X107.798 Y92.216 E0.42046
G1 X108.29 Y91.969 E0.43658
G1 X108.813 Y91.795 E0.45271
G1 X109.356 Y91.699 E0.46885
G1 X109.906 Y91.682 E0.48495
G1 X110.262 Y91.714 E0.49541
G1 X113.558 Y92.166 E0.59279
G1 X114.097 Y92.28 E0.60891
G1 X114.614 Y92.471 E0.62504
G1 X115.098 Y92.735 E0.64118
G1 X115.538 Y93.066 E0.6573
G1 X115.788 Y93.304 E0.6674
G1 X117.177 Y94.756 E0.72621
G1 X117.528 Y95.181 E0.74234
G1 X117.814 Y95.652 E0.75847
G1 X117.856 Y95.752 E0.76165
G1 X118.549 Y95.657 E0.78212
G1 X119.099 Y95.622 E0.79825
G1 X119.648 Y95.667 E0.81437
G1 X120.185 Y95.791 E0.8305
G1 X120.698 Y95.992 E0.84663
G1 X121.177 Y96.264 E0.86275
G1 X121.611 Y96.603 E0.87887
G1 X121.992 Y97.001 E0.895
G1 X122.312 Y97.45 E0.91114
G1 X122.562 Y97.941 E0.92726
G1 X122.7 Y98.337 E0.93954
G1 X122.828 Y98.41 E0.94385
G1 X123.286 Y98.716 E0.95997
G1 X123.695 Y99.085 E0.97609
G1 X123.94 Y99.367 E0.98703
G1 X124.683 Y100.314 E1.02226
G1 X124.99 Y100.771 E1.03837
G1 X125.229 Y101.268 E1.05451
G1 X125.393 Y101.794 E1.07064
G1 X125.479 Y102.338 E1.08676
G1 X125.486 Y102.889 E1.10289
G1 X125.413 Y103.435 E1.11901
G1 X125.262 Y103.965 E1.13514
G1 X125.06 Y104.415 E1.14958
G1 X125.382 Y104.595 E1.16038
G1 X125.82 Y104.929 E1.1765
G1 X126.204 Y105.324 E1.19262
G1 X126.528 Y105.77 E1.20876
G1 X126.783 Y106.258 E1.22487
G1 X126.966 Y106.778 E1.24101
G1 X127.071 Y107.319 E1.25714
G1 X127.098 Y107.759 E1.27004
G1 X127.104 Y109.544 E1.32228
G1 X127.079 Y109.901 E1.33276
G1 X127.103 Y110.297 E1.34437
G1 X127.103 Y111.853 E1.38991
G1 X127.137 Y111.967 E1.3934
G1 X127.256 Y112.505 E1.40952
G1 X127.296 Y113.055 E1.42566
G1 X127.256 Y113.604 E1.44177
G1 X127.137 Y114.142 E1.4579
G1 X126.941 Y114.657 E1.47403
G1 X126.673 Y115.138 E1.49015
G1 X126.338 Y115.576 E1.50629
G1 X125.943 Y115.96 E1.52241
G1 X125.598 Y116.218 E1.53502
G1 X125.333 Y116.394 E1.54433
G1 X124.853 Y116.665 E1.56046
G1 X124.339 Y116.864 E1.5766
G1 X123.802 Y116.986 E1.59271
G1 X123.253 Y117.029 E1.60883
G1 X122.831 Y117.001 E1.62121
G1 X122.795 Y117.536 E1.6369
G1 X122.701 Y117.997 E1.65068
G1 X121.934 Y120.846 E1.73703
G1 X121.753 Y121.366 E1.75315
G1 X121.498 Y121.855 E1.76929
G1 X121.175 Y122.301 E1.78541
G1 X120.791 Y122.696 E1.80153
G1 X120.354 Y123.032 E1.81766
G1 X119.873 Y123.301 E1.83379
G1 X119.454 Y123.461 E1.84692
G1 X119.445 Y123.51 E1.84838
G1 X119.27 Y124.032 E1.86449
G1 X119.02 Y124.523 E1.88062
G1 X118.703 Y124.973 E1.89673
G1 X118.323 Y125.373 E1.91288
G1 X117.89 Y125.713 E1.92899
G1 X117.555 Y125.915 E1.94044
G1 X116.596 Y126.427 E1.97226
G1 X116.092 Y126.651 E1.98841
G1 X115.561 Y126.799 E2.00454
G1 X115.015 Y126.869 E2.02065
G1 X114.464 Y126.86 E2.03678
G1 X113.92 Y126.77 E2.05292
G1 X113.395 Y126.603 E2.06904
G1 X113.221 Y126.518 E2.07471
G1 X112.79 Y126.475 E2.08739
G1 X112.663 Y126.443 E2.09122
G1 X112.484 Y126.618 E2.09855
G1 X112.062 Y126.973 E2.11469
G1 X111.594 Y127.263 E2.1308
G1 X111.088 Y127.482 E2.14694
G1 X110.556 Y127.626 E2.16307
G1 X110.009 Y127.692 E2.1792
G1 X109.459 Y127.678 E2.1953
G1 X108.916 Y127.584 E2.21143
G1 X108.392 Y127.413 E2.22757
G1 X107.898 Y127.167 E2.24372
G1 X107.446 Y126.853 E2.25983
G1 X107.389 Y126.804 E2.26203
G1 X107.352 Y126.821 E2.26322
G1 X106.824 Y126.977 E2.27933
G1 X106.279 Y127.056 E2.29545
G1 X105.728 Y127.054 E2.31158
G1 X105.369 Y127.01 E2.32216
G1 X103.119 Y126.624 E2.38898
G1 X102.585 Y126.492 E2.40508
G1 X102.074 Y126.284 E2.42123
G1 X101.6 Y126.004 E2.43734
G1 X101.171 Y125.658 E2.45347
G1 X100.796 Y125.254 E2.46961
G1 X100.728 Y125.159 E2.47303
G1 X100.23 Y125.062 E2.48788
G1 X99.711 Y124.878 E2.50399
G1 X99.223 Y124.621 E2.52014
G1 X98.778 Y124.297 E2.53625
G1 X98.384 Y123.912 E2.55237
G1 X98.05 Y123.473 E2.56852
G1 X97.981 Y123.349 E2.57267
G1 X97.591 Y123.057 E2.58693
G1 X97.202 Y122.667 E2.60305
G1 X96.873 Y122.225 E2.61918
G1 X96.612 Y121.74 E2.6353
G1 X96.424 Y121.222 E2.65143
G1 X96.313 Y120.682 E2.66756
G1 X96.286 Y120.398 E2.67591
G1 X96.226 Y120.366 E2.6779
G1 X95.783 Y120.038 E2.69404
G1 X95.392 Y119.649 E2.71018
G1 X95.062 Y119.208 E2.7263
G1 X94.714 Y118.523 E2.74879
G1 X94.016 Y116.712 E2.8056
G1 X93.856 Y116.184 E2.82175
G1 X93.773 Y115.64 E2.83785
G1 X93.771 Y115.089 E2.85398
G1 X93.848 Y114.543 E2.87012
G1 X94.003 Y114.014 E2.88625
G1 X94.232 Y113.514 E2.90235
G1 X94.532 Y113.051 E2.9185
G1 X94.61 Y112.962 E2.92196
G1 X94.579 Y112.94 E2.92307
G1 X94.158 Y112.585 E2.93919
G1 X93.793 Y112.172 E2.95532
G1 X93.491 Y111.711 E2.97145
G1 X93.26 Y111.211 E2.98757
G1 X93.103 Y110.683 E3.0037
G1 X93.024 Y110.137 E3.01984
G1 X93.015 Y109.782 E3.03024
G1 X93.016 Y109.724 E3.03194
G1 X92.964 Y109.291 E3.0447
G1 X92.978 Y108.74 E3.06083
G1 X93.072 Y108.197 E3.07696
G1 X93.244 Y107.673 E3.0931
G1 X93.489 Y107.18 E3.10922
G1 X93.494 Y107.173 E3.10947
G1 X93.587 Y106.767 E3.12166
G1 X93.786 Y106.253 E3.13779
G1 X94.21 Y105.56 E3.16157
G1 X94.368 Y105.355 E3.16915
G1 X94.735 Y104.944 E3.18527
G1 X94.863 Y104.837 E3.19016
G1 X94.665 Y104.37 E3.205
G1 X94.527 Y103.837 E3.22112
G1 X94.467 Y103.289 E3.23725
G1 X94.507 Y102.577 E3.25813
G1 X94.583 Y102.078 E3.2729
G1 X94.706 Y101.541 E3.28902
G1 X94.904 Y101.027 E3.30515
G1 X95.175 Y100.547 E3.32128
G1 X95.513 Y100.111 E3.33743
G1 X95.909 Y99.729 E3.35353
G1 X96.357 Y99.408 E3.36966
G1 X96.459 Y99.355 E3.37303
G0 F1800 X96.824 Y99.615
G1 F1200 X96.829 Y99.528 E3.37558
G1 X96.94 Y99.019 E3.39082
G1 X97.127 Y98.532 E3.40609
G1 X97.387 Y98.08 E3.42136
G1 X97.712 Y97.673 E3.4366
G1 X98.216 Y97.231 E3.45622
G1 X100.798 Y95.38 E3.54921
G1 X101.244 Y95.109 E3.56448
G1 X101.725 Y94.91 E3.57972
G1 X102.232 Y94.787 E3.59499
G1 X102.961 Y94.748 E3.61635
G1 X104.547 Y94.833 E3.66284
G1 X104.831 Y94.749 E3.67151
G1 X105.341 Y94.64 E3.68677
G1 X105.861 Y94.611 E3.70202
G1 X105.923 Y94.617 E3.70384
G1 X107.24 Y93.181 E3.76087
G1 X107.621 Y92.825 E3.77613
G1 X108.052 Y92.531 E3.7914
G1 X108.522 Y92.307 E3.80664
G1 X109.021 Y92.157 E3.82189
G1 X109.537 Y92.085 E3.83714
G1 X110.208 Y92.111 E3.8568
G1 X113.504 Y92.563 E3.95417
G1 X114.013 Y92.673 E3.96941
G1 X114.5 Y92.859 E3.98467
G1 X114.952 Y93.118 E3.99992
G1 X115.499 Y93.581 E4.02089
G1 X116.888 Y95.033 E4.0797
G1 X117.218 Y95.436 E4.09495
G1 X117.483 Y95.885 E4.11021
G1 X117.604 Y96.189 E4.11979
G1 X118.603 Y96.053 E4.1493
G1 X119.123 Y96.023 E4.16454
G1 X119.642 Y96.072 E4.1798
G1 X120.147 Y96.2 E4.19505
G1 X120.627 Y96.403 E4.2103
G1 X121.07 Y96.678 E4.22556
G1 X121.466 Y97.017 E4.24082
G1 X121.805 Y97.412 E4.25605
G1 X122.08 Y97.855 E4.27132
G1 X122.34 Y98.517 E4.29213
G1 X122.365 Y98.606 E4.29484
G1 X122.63 Y98.757 E4.30377
G1 X123.062 Y99.049 E4.31903
G1 X123.445 Y99.403 E4.33429
G1 X123.625 Y99.614 E4.34241
G1 X124.368 Y100.561 E4.37764
G1 X124.657 Y100.995 E4.3929
G1 X124.877 Y101.467 E4.40814
G1 X125.022 Y101.968 E4.42341
G1 X125.088 Y102.485 E4.43866
G1 X125.075 Y103.006 E4.45392
G1 X124.983 Y103.519 E4.46917
G1 X124.813 Y104.011 E4.48441
G1 X124.57 Y104.472 E4.49966
G1 X124.481 Y104.594 E4.50408
G1 X124.808 Y104.726 E4.5144
G1 X125.256 Y104.992 E4.52965
G1 X125.658 Y105.324 E4.54491
G1 X126.004 Y105.714 E4.56017
G1 X126.287 Y106.152 E4.57543
G1 X126.5 Y106.627 E4.59067
G1 X126.637 Y107.13 E4.60593
G1 X126.698 Y107.761 E4.62448
G1 X126.704 Y109.546 E4.67673
G1 X126.672 Y109.977 E4.68938
G1 X126.703 Y110.297 E4.69879
G1 X126.703 Y111.909 E4.74597
G1 X126.754 Y112.081 E4.75122
G1 X126.864 Y112.591 E4.76649
G1 X126.896 Y113.111 E4.78174
G1 X126.847 Y113.63 E4.797
G1 X126.719 Y114.135 E4.81225
G1 X126.516 Y114.615 E4.8275
G1 X126.242 Y115.058 E4.84275
G1 X125.903 Y115.454 E4.858
G1 X125.377 Y115.885 E4.87791
G1 X125.112 Y116.061 E4.88722
G1 X124.657 Y116.315 E4.90247
G1 X124.169 Y116.497 E4.91771
G1 X123.658 Y116.602 E4.93298
G1 X123.138 Y116.628 E4.94822
G1 X122.619 Y116.574 E4.96349
G1 X122.385 Y116.512 E4.97058
G1 X122.424 Y116.778 E4.97845
G1 X122.42 Y117.299 E4.9937
G1 X122.315 Y117.893 E5.01135
G1 X121.548 Y120.742 E5.09771
G1 X121.374 Y121.233 E5.11296
G1 X121.128 Y121.692 E5.1282
G1 X120.814 Y122.108 E5.14345
G1 X120.44 Y122.471 E5.15871
G1 X120.015 Y122.773 E5.17397
G1 X119.549 Y123.006 E5.18922
G1 X119.105 Y123.148 E5.20286
G1 X119.036 Y123.492 E5.21313
G1 X118.855 Y123.981 E5.22839
G1 X118.602 Y124.436 E5.24363
G1 X118.283 Y124.848 E5.25888
G1 X117.904 Y125.206 E5.27414
G1 X117.366 Y125.562 E5.29302
G1 X116.407 Y126.074 E5.32484
G1 X115.93 Y126.284 E5.3401
G1 X115.427 Y126.418 E5.35533
G1 X114.908 Y126.473 E5.37061
G1 X114.388 Y126.449 E5.38584
G1 X113.877 Y126.346 E5.4011
G1 X113.388 Y126.165 E5.41636
G1 X113.323 Y126.129 E5.41854
G1 X113.321 Y126.129 E5.41859
G1 X112.803 Y126.071 E5.43385
G1 X112.607 Y126.018 E5.43979
G1 X112.487 Y126.057 E5.44349
G1 X112.205 Y126.331 E5.45499
G1 X111.804 Y126.665 E5.47027
G1 X111.358 Y126.934 E5.48551
G1 X110.876 Y127.132 E5.50077
G1 X110.369 Y127.253 E5.51602
G1 X109.85 Y127.296 E5.53126
G1 X109.33 Y127.259 E5.54652
G1 X108.822 Y127.142 E5.56178
G1 X108.337 Y126.95 E5.57705
G1 X107.888 Y126.686 E5.59229
G1 X107.508 Y126.378 E5.60661
G1 X107.458 Y126.332 E5.6086
G1 X107.158 Y126.466 E5.61822
G1 X106.656 Y126.604 E5.63345
G1 X106.138 Y126.663 E5.64871
G1 X105.437 Y126.616 E5.66928
G1 X103.187 Y126.23 E5.73609
G1 X102.682 Y126.103 E5.75133
G1 X102.202 Y125.9 E5.76659
G1 X101.758 Y125.626 E5.78186
G1 X101.362 Y125.287 E5.79712
G1 X100.963 Y124.797 E5.81561
G1 X100.951 Y124.787 E5.81607
G1 X100.819 Y124.771 E5.81996
G1 X100.308 Y124.668 E5.83522
G1 X99.819 Y124.489 E5.85046
G1 X99.363 Y124.236 E5.86572
G1 X98.951 Y123.917 E5.88097
G1 X98.592 Y123.539 E5.89623
G1 X98.296 Y123.11 E5.91149
G1 X98.269 Y123.055 E5.91328
G1 X98.154 Y122.988 E5.91718
G1 X97.748 Y122.66 E5.93245
G1 X97.397 Y122.275 E5.9477
G1 X97.11 Y121.84 E5.96295
G1 X96.892 Y121.367 E5.9782
G1 X96.749 Y120.866 E5.99345
G1 X96.685 Y120.366 E6.0082
G1 X96.676 Y120.205 E6.01292
G1 X96.65 Y120.14 E6.01497
G1 X96.369 Y119.982 E6.02441
G1 X95.959 Y119.659 E6.03968
G1 X95.604 Y119.278 E6.05492
G1 X95.311 Y118.848 E6.07015
G1 X95.087 Y118.379 E6.08537
G1 X94.389 Y116.568 E6.14217
G1 X94.24 Y116.069 E6.15742
G1 X94.168 Y115.552 E6.17269
G1 X94.177 Y115.031 E6.18794
G1 X94.264 Y114.518 E6.20317
G1 X94.429 Y114.023 E6.21845
G1 X94.668 Y113.56 E6.2337
G1 X94.975 Y113.139 E6.24895
G1 X95.214 Y112.899 E6.25886
G1 X95.133 Y112.849 E6.26165
G1 X94.814 Y112.617 E6.27319
G1 X94.417 Y112.279 E6.28845
G1 X94.077 Y111.884 E6.30371
G1 X93.801 Y111.442 E6.31896
G1 X93.596 Y110.963 E6.33421
G1 X93.466 Y110.458 E6.34947
G1 X93.415 Y109.791 E6.36905
G1 X93.417 Y109.724 E6.37101
G1 X93.412 Y109.706 E6.37156
G1 X93.361 Y109.188 E6.38679
G1 X93.389 Y108.667 E6.40206
G1 X93.497 Y108.157 E6.41732
G1 X93.682 Y107.67 E6.43257
G1 X93.863 Y107.351 E6.44331
G1 X93.864 Y107.337 E6.44372
G1 X93.986 Y106.83 E6.45898
G1 X94.185 Y106.348 E6.47424
G1 X94.527 Y105.804 E6.49305
G1 X94.685 Y105.599 E6.50062
G1 X95.034 Y105.212 E6.51588
G1 X95.373 Y104.936 E6.52867
G1 X95.14 Y104.491 E6.54337
G1 X94.972 Y103.998 E6.55862
G1 X94.881 Y103.485 E6.57387
G1 X94.869 Y102.964 E6.58912
G1 X94.903 Y102.637 E6.59874
G1 X94.979 Y102.138 E6.61352
G1 X95.096 Y101.63 E6.62878
G1 X95.29 Y101.147 E6.64401
G1 X95.556 Y100.698 E6.65928
G1 X95.887 Y100.296 E6.67453
G1 X96.276 Y99.948 E6.6898
G1 X96.713 Y99.665 E6.70504
G1 X96.824 Y99.615 E6.7086
G0 F1800 X97.208 Y99.881
G1 F1200 X97.23 Y99.553 E6.71823
G1 X97.341 Y99.077 E6.73253
G1 X97.528 Y98.624 E6.74688
G1 X97.786 Y98.209 E6.76118
G1 X98.109 Y97.84 E6.77553
G1 X98.449 Y97.556 E6.7885
G1 X101.031 Y95.705 E6.88148
G1 X101.451 Y95.453 E6.89582
G1 X101.906 Y95.273 E6.91014
G1 X102.384 Y95.169 E6.92446
G1 X102.939 Y95.147 E6.94072
G1 X104.593 Y95.235 E6.9892
G1 X104.944 Y95.132 E6.9999
G1 X105.423 Y95.033 E7.01422
G1 X105.912 Y95.012 E7.02854
G1 X106.084 Y95.033 E7.03362
G1 X107.535 Y93.451 E7.09645
G1 X107.894 Y93.119 E7.11076
G1 X108.303 Y92.849 E7.1251
G1 X108.75 Y92.649 E7.13943
G1 X109.223 Y92.525 E7.15375
G1 X109.711 Y92.479 E7.16809
G1 X110.154 Y92.507 E7.18109
G1 X113.45 Y92.959 E7.27846
G1 X113.928 Y93.065 E7.29279
G1 X114.382 Y93.247 E7.30711
G1 X114.801 Y93.5 E7.32143
G1 X115.21 Y93.857 E7.33732
G1 X116.599 Y95.309 E7.39613
G1 X116.907 Y95.689 E7.41045
G1 X117.15 Y96.115 E7.4248
G1 X117.32 Y96.574 E7.43913
G1 X117.329 Y96.631 E7.44082
G1 X118.657 Y96.45 E7.48005
G1 X119.146 Y96.423 E7.49438
G1 X119.632 Y96.477 E7.50869
G1 X120.104 Y96.608 E7.52303
G1 X120.548 Y96.815 E7.53737
G1 X120.952 Y97.091 E7.55169
G1 X121.306 Y97.429 E7.56602
G1 X121.6 Y97.821 E7.58036
G1 X121.826 Y98.254 E7.59465
G1 X121.955 Y98.624 E7.60612
G1 X122.024 Y98.872 E7.61366
G1 X122.433 Y99.105 E7.62743
G1 X122.837 Y99.381 E7.64176
G1 X123.31 Y99.861 E7.66148
G1 X124.053 Y100.808 E7.69671
G1 X124.323 Y101.217 E7.71105
G1 X124.523 Y101.664 E7.72539
G1 X124.647 Y102.137 E7.7397
G1 X124.693 Y102.624 E7.75402
G1 X124.659 Y103.113 E7.76836
G1 X124.546 Y103.589 E7.78268
G1 X124.357 Y104.04 E7.797
G1 X123.985 Y104.595 E7.81655
G1 X123.799 Y104.815 E7.82498
G1 X124.261 Y104.931 E7.83893
G1 X124.71 Y105.125 E7.85324
G1 X125.122 Y105.39 E7.86758
G1 X125.485 Y105.718 E7.8819
G1 X125.79 Y106.101 E7.89623
G1 X126.028 Y106.529 E7.91056
G1 X126.194 Y106.989 E7.92488
G1 X126.283 Y107.47 E7.93919
G1 X126.298 Y107.762 E7.94775
G1 X126.304 Y109.547 E8
G1 X126.275 Y109.924 E8.01106
G1 X126.288 Y109.997 E8.01323
G1 X126.303 Y110.297 E8.02203
G1 X126.303 Y111.968 E8.07093
G1 X126.371 Y112.196 E8.0779
G1 X126.472 Y112.675 E8.09223
G1 X126.494 Y113.164 E8.10655
G1 X126.436 Y113.65 E8.12088
G1 X126.3 Y114.12 E8.1352
G1 X126.089 Y114.562 E8.14953
G1 X125.809 Y114.963 E8.16385
G1 X125.468 Y115.314 E8.17817
G1 X125.156 Y115.552 E8.18966
G1 X124.891 Y115.728 E8.19897
G1 X124.462 Y115.965 E8.21331
G1 X124.001 Y116.129 E8.22764
G1 X123.519 Y116.215 E8.24197
G1 X123.03 Y116.222 E8.25628
G1 X122.546 Y116.15 E8.2706
G1 X122.08 Y115.999 E8.28494
G1 X122.004 Y115.961 E8.28743
G1 X121.92 Y115.977 E8.28993
G1 X121.841 Y115.981 E8.29224
G1 X121.902 Y116.135 E8.29709
G1 X122.006 Y116.613 E8.31141
G1 X122.031 Y117.102 E8.32574
G1 X121.929 Y117.789 E8.34607
G1 X121.162 Y120.638 E8.43243
G1 X120.996 Y121.099 E8.44677
G1 X120.758 Y121.526 E8.46107
G1 X120.454 Y121.91 E8.47541
G1 X120.091 Y122.238 E8.48973
G1 X119.68 Y122.503 E8.50404
G1 X119.231 Y122.698 E8.51837
G1 X118.756 Y122.818 E8.53271
G1 X118.745 Y122.819 E8.53303
G1 X118.734 Y122.991 E8.53808
G1 X118.625 Y123.468 E8.5524
G1 X118.44 Y123.921 E8.56672
G1 X118.184 Y124.338 E8.58104
G1 X117.863 Y124.708 E8.59538
G1 X117.486 Y125.02 E8.6097
G1 X117.178 Y125.209 E8.62028
G1 X116.219 Y125.721 E8.6521
G1 X115.77 Y125.916 E8.66643
G1 X115.295 Y126.035 E8.68076
G1 X114.807 Y126.075 E8.69509
G1 X114.319 Y126.035 E8.70942
G1 X113.844 Y125.917 E8.72375
G1 X113.401 Y125.724 E8.73789
G1 X113.305 Y125.728 E8.7407
G1 X112.819 Y125.666 E8.75504
G1 X112.598 Y125.6 E8.76179
G1 X112.275 Y125.704 E8.77172
G1 X111.925 Y126.045 E8.78603
G1 X111.548 Y126.357 E8.80035
