;FLAVOR:Marlin
;TIME:1215
;Filament used: 0.182546m
;Layer height: 0.08
;Generated with Cura_SteamEngine 3.6.0
M140 S70
M105
M190 S70
M104 S215
M105
M109 S215
M82 ;absolute extrusion mode
G28 ; home all axes
M117 Purge extruder
G92 E0 ; reset extruder
G1 Z1.0 F3000 ; move z up little to prevent scratching of surface
G1 X0.1 Y20 Z0.3 F5000.0 ; move to start-line position G1 X0.1 Y200.0 Z0.3 F1500.0 E15 ; draw 1st line
G1 X0.4 Y200.0 Z0.3 F5000.0 ; move to side a little
G1 X0.4 Y20 Z0.3 F1500.0 E30 ; draw 2nd line
G92 E0 ; reset extruder
G1 Z1.0 F3000 ; move z up little to prevent scratching of surface
M117 All systems go!
G92 E0
G1 F6000 E-5
;LAYER_COUNT:174
;LAYER:0
M107
M204 S5000
M205 X30 Y30
G0 F7200 X112.549 Y113.114 Z0.2
M204 S500
M205 X20 Y20
;TYPE:SKIRT
G1 F6000 E0
G1 F900 X113.135 Y112.584 E0.02891
G1 X113.861 Y112.024 E0.06245
G1 X114.387 Y111.668 E0.08569
G1 X114.955 Y111.381 E0.10897
G1 X115.554 Y111.168 E0.13223
G1 X116.286 Y111.015 E0.15959
G1 X117.191 Y110.895 E0.19299
G1 X117.825 Y110.851 E0.21624
G1 X118.46 Y110.887 E0.23951
G1 X119.086 Y111.003 E0.26281
G1 X119.771 Y111.228 E0.28919
G1 X120.617 Y111.574 E0.32263
G1 X121.19 Y111.851 E0.34591
G1 X121.723 Y112.198 E0.36918
G1 X122.208 Y112.609 E0.39244
G1 X122.713 Y113.172 E0.42011
G1 X123.273 Y113.9 E0.45371
G1 X123.628 Y114.427 E0.47696
G1 X123.914 Y114.995 E0.50023
G1 X124.127 Y115.594 E0.52349
G1 X124.279 Y116.325 E0.5508
G1 X124.398 Y117.229 E0.58416
G1 X124.441 Y117.863 E0.60741
G1 X124.404 Y118.498 E0.63068
G1 X124.288 Y119.123 E0.65394
G1 X124.064 Y119.806 E0.68024
G1 X123.718 Y120.651 E0.71364
G1 X123.44 Y121.224 E0.73694
G1 X123.093 Y121.756 E0.76018
G1 X122.682 Y122.242 E0.78347
G1 X122.125 Y122.741 E0.81083
G1 X121.399 Y123.301 E0.84437
G1 X120.873 Y123.657 E0.86761
G1 X120.305 Y123.944 E0.89089
G1 X119.706 Y124.157 E0.91415
G1 X119.067 Y124.297 E0.93809
G1 X118.222 Y124.425 E0.96936
G1 X117.588 Y124.48 E0.99264
G1 X116.953 Y124.456 E1.01589
G1 X116.334 Y124.354 E1.03884
G1 X115.88 Y124.25 E1.05588
G1 X115.27 Y124.07 E1.07915
G1 X114.557 Y123.744 E1.10783
G1 X114.106 Y123.494 E1.1267
G1 X113.57 Y123.151 E1.14998
G1 X113.07 Y122.733 E1.17382
G1 X112.779 Y122.456 E1.18852
G1 X112.347 Y121.99 E1.21177
G1 X111.935 Y121.404 E1.23798
G1 X111.666 Y120.958 E1.25703
G1 X111.373 Y120.394 E1.28029
G1 X111.152 Y119.798 E1.30354
G1 X110.995 Y119.098 E1.32979
G1 X110.867 Y118.248 E1.36124
G1 X110.812 Y117.615 E1.38448
G1 X110.837 Y116.98 E1.40773
G1 X110.939 Y116.363 E1.43061
G1 X111.043 Y115.91 E1.44762
G1 X111.224 Y115.3 E1.4709
G1 X111.549 Y114.589 E1.4995
G1 X111.799 Y114.138 E1.51837
G1 X112.093 Y113.679 E1.53831
G0 F810 X112.142 Y113.602
G0 X112.549 Y113.114
M204 S5000
M205 X30 Y30
G0 F7200 X112.906 Y113.377
M204 S500
M205 X20 Y20
G1 F6000 E1.56491
G1 F900 X113.403 Y112.933 E1.58929
G1 X114.129 Y112.373 E1.62283
G1 X114.634 Y112.034 E1.64509
G1 X115.178 Y111.765 E1.66729
G1 X115.754 Y111.569 E1.68955
G1 X116.344 Y111.451 E1.71156
G1 X117.249 Y111.331 E1.74496
G1 X117.855 Y111.291 E1.76718
G1 X118.461 Y111.331 E1.7894
G1 X119.057 Y111.45 E1.81164
G1 X119.605 Y111.635 E1.8328
G1 X120.451 Y111.981 E1.86624
G1 X120.997 Y112.247 E1.88846
G1 X121.503 Y112.583 E1.91068
G1 X121.961 Y112.983 E1.93293
G1 X122.364 Y113.44 E1.95522
G1 X122.924 Y114.168 E1.98883
G1 X123.262 Y114.673 E2.01106
G1 X123.531 Y115.218 E2.03329
G1 X123.726 Y115.793 E2.05551
G1 X123.842 Y116.382 E2.07747
G1 X123.961 Y117.286 E2.11083
G1 X124.001 Y117.892 E2.13305
G1 X123.961 Y118.499 E2.15531
G1 X123.841 Y119.094 E2.17751
G1 X123.656 Y119.64 E2.1986
G1 X123.31 Y120.485 E2.23201
G1 X123.044 Y121.031 E2.25423
G1 X122.708 Y121.537 E2.27645
G1 X122.308 Y121.995 E2.2987
G1 X121.857 Y122.392 E2.32068
G1 X121.131 Y122.952 E2.35423
G1 X120.626 Y123.291 E2.37648
G1 X120.082 Y123.56 E2.39869
G1 X119.506 Y123.756 E2.42095
G1 X119.001 Y123.862 E2.43982
G1 X118.156 Y123.99 E2.47109
G1 X117.55 Y124.041 E2.49334
G1 X116.944 Y124.013 E2.51554
G1 X116.432 Y123.925 E2.53454
G1 X115.978 Y123.821 E2.55158
G1 X115.396 Y123.647 E2.57381
G1 X114.77 Y123.359 E2.59902
G1 X114.319 Y123.109 E2.61788
G1 X113.808 Y122.78 E2.64012
G1 X113.374 Y122.414 E2.66089
G1 X113.083 Y122.137 E2.67559
G1 X112.671 Y121.69 E2.69783
G1 X112.312 Y121.177 E2.72074
G1 X112.043 Y120.731 E2.73979
G1 X111.764 Y120.191 E2.76203
G1 X111.558 Y119.62 E2.78424
G1 X111.431 Y119.033 E2.80621
G1 X111.303 Y118.183 E2.83766
G1 X111.252 Y117.577 E2.85991
G1 X111.281 Y116.971 E2.88211
G1 X111.368 Y116.461 E2.90104
G1 X111.472 Y116.008 E2.91804
G1 X111.647 Y115.426 E2.94028
G1 X111.934 Y114.802 E2.96541
G1 X112.184 Y114.351 E2.98427
G1 X112.448 Y113.941 E3.00211
G0 F810 X112.513 Y113.84
G0 X112.906 Y113.377
M204 S5000
M205 X30 Y30
G0 F7200 X113.262 Y113.643
M204 S500
M205 X20 Y20
G1 F6000 E3.02871
G1 F900 X113.672 Y113.281 E3.04872
G1 X114.398 Y112.721 E3.08227
G1 X114.879 Y112.401 E3.1034
G1 X115.399 Y112.15 E3.12453
G1 X115.95 Y111.973 E3.1457
G1 X116.402 Y111.887 E3.16253
G1 X117.307 Y111.767 E3.19594
G1 X117.883 Y111.731 E3.21705
G1 X118.46 Y111.775 E3.23822
G1 X119.024 Y111.898 E3.25934
G1 X119.438 Y112.042 E3.27538
G1 X120.284 Y112.388 E3.30882
G1 X120.803 Y112.643 E3.32997
G1 X121.281 Y112.968 E3.35112
G1 X121.71 Y113.355 E3.37226
G1 X122.015 Y113.708 E3.38933
G1 X122.575 Y114.436 E3.42293
G1 X122.895 Y114.918 E3.4441
G1 X123.145 Y115.439 E3.46524
G1 X123.322 Y115.989 E3.48638
G1 X123.406 Y116.439 E3.50313
G1 X123.525 Y117.343 E3.53649
G1 X123.561 Y117.92 E3.55764
G1 X123.517 Y118.497 E3.57881
G1 X123.393 Y119.061 E3.59994
G1 X123.249 Y119.473 E3.6159
G1 X122.903 Y120.318 E3.64931
G1 X122.648 Y120.836 E3.67043
G1 X122.323 Y121.315 E3.69161
G1 X121.936 Y121.743 E3.71272
G1 X121.588 Y122.044 E3.72956
G1 X120.862 Y122.604 E3.7631
G1 X120.381 Y122.924 E3.78424
G1 X119.861 Y123.175 E3.80536
G1 X119.31 Y123.352 E3.82654
G1 X118.935 Y123.427 E3.84053
G1 X118.09 Y123.555 E3.8718
G1 X117.514 Y123.602 E3.89294
G1 X116.937 Y123.569 E3.91409
G1 X116.531 Y123.496 E3.92918
G1 X116.077 Y123.392 E3.94622
G1 X115.524 Y123.225 E3.96735
G1 X114.983 Y122.974 E3.98917
G1 X114.532 Y122.724 E4.00804
G1 X114.048 Y122.409 E4.02917
G1 X113.677 Y122.096 E4.04692
G1 X113.386 Y121.819 E4.06162
G1 X112.996 Y121.392 E4.08278
G1 X112.689 Y120.95 E4.10247
G1 X112.42 Y120.504 E4.12153
G1 X112.156 Y119.99 E4.14267
G1 X111.966 Y119.444 E4.16382
G1 X111.866 Y118.967 E4.18165
G1 X111.738 Y118.117 E4.2131
G1 X111.691 Y117.541 E4.23424
G1 X111.725 Y116.964 E4.25539
G1 X111.797 Y116.56 E4.2704
G1 X111.901 Y116.107 E4.28741
G1 X112.069 Y115.554 E4.30855
G1 X112.319 Y115.015 E4.33029
G1 X112.569 Y114.564 E4.34916
G1 X112.803 Y114.205 E4.36483
G0 F810 X112.884 Y114.08
G0 X113.262 Y113.643
M204 S5000
M205 X30 Y30
G0 F7200 X113.616 Y113.911
M204 S500
M205 X20 Y20
G1 F6000 E4.39143
G1 F900 X113.941 Y113.63 E4.40715
G1 X114.667 Y113.07 E4.4407
G1 X115.123 Y112.768 E4.46071
G1 X115.618 Y112.537 E4.48069
G1 X116.142 Y112.38 E4.5007
G1 X116.459 Y112.323 E4.51249
G1 X117.364 Y112.203 E4.54589
G1 X117.91 Y112.171 E4.5659
G1 X118.455 Y112.219 E4.58592
G1 X118.986 Y112.346 E4.60589
G1 X119.272 Y112.449 E4.61701
G1 X120.118 Y112.795 E4.65045
G1 X120.607 Y113.039 E4.67045
G1 X121.056 Y113.351 E4.69045
G1 X121.455 Y113.725 E4.71046
G1 X121.666 Y113.977 E4.72248
G1 X122.226 Y114.705 E4.75609
G1 X122.527 Y115.161 E4.77608
G1 X122.758 Y115.657 E4.79609
G1 X122.914 Y116.18 E4.81606
G1 X122.97 Y116.497 E4.82784
G1 X123.089 Y117.401 E4.8612
G1 X123.121 Y117.947 E4.88121
G1 X123.072 Y118.491 E4.90119
G1 X122.945 Y119.023 E4.9212
G1 X122.842 Y119.306 E4.93222
G1 X122.496 Y120.151 E4.96563
G1 X122.253 Y120.641 E4.98564
G1 X121.94 Y121.089 E5.00563
G1 X121.566 Y121.488 E5.02564
G1 X121.319 Y121.695 E5.03743
G1 X120.593 Y122.255 E5.07098
G1 X120.137 Y122.557 E5.09099
G1 X119.642 Y122.788 E5.11097
G1 X118.869 Y122.992 E5.14022
G1 X118.024 Y123.12 E5.17149
G1 X117.479 Y123.162 E5.19149
G1 X116.934 Y123.124 E5.21148
G1 X116.629 Y123.068 E5.22282
G1 X116.175 Y122.964 E5.23986
G1 X115.652 Y122.803 E5.25988
G1 X115.197 Y122.589 E5.27828
G1 X114.746 Y122.339 E5.29715
G1 X114.288 Y122.04 E5.31716
G1 X113.98 Y121.777 E5.33197
G1 X113.689 Y121.5 E5.34667
G1 X113.322 Y121.095 E5.36667
G1 X113.065 Y120.723 E5.38321
G1 X112.796 Y120.277 E5.40227
G1 X112.549 Y119.789 E5.42228
G1 X112.375 Y119.271 E5.44227
G1 X112.301 Y118.902 E5.45604
G1 X112.173 Y118.052 E5.48749
G1 X112.131 Y117.507 E5.50749
G1 X112.169 Y116.962 E5.52747
G1 X112.226 Y116.658 E5.53879
G1 X112.33 Y116.205 E5.55579
G1 X112.491 Y115.683 E5.57578
G1 X112.704 Y115.229 E5.59413
G1 X112.954 Y114.778 E5.61299
G1 X113.154 Y114.471 E5.6264
G0 F810 X113.253 Y114.32
G0 X113.616 Y113.911
M204 S5000
M205 X30 Y30
G0 F7200 X113.968 Y114.184
M204 S500
M205 X20 Y20
G1 F6000 E5.653
G1 F900 X114.209 Y113.978 E5.6646
G1 X114.935 Y113.418 E5.69814
G1 X115.365 Y113.137 E5.71694
G1 X115.833 Y112.926 E5.73572
G1 X116.517 Y112.76 E5.76147
G1 X117.422 Y112.64 E5.79487
G1 X117.935 Y112.612 E5.81367
G1 X118.446 Y112.664 E5.83246
G1 X119.105 Y112.857 E5.85758
G1 X119.951 Y113.203 E5.89102
G1 X120.41 Y113.433 E5.9098
G1 X120.827 Y113.732 E5.92858
G1 X121.318 Y114.245 E5.95456
G1 X121.878 Y114.973 E5.98816
G1 X122.158 Y115.403 E6.00693
G1 X122.368 Y115.871 E6.0257
G1 X122.534 Y116.554 E6.05142
G1 X122.653 Y117.458 E6.08478
G1 X122.68 Y117.971 E6.10357
G1 X122.627 Y118.482 E6.12237
G1 X122.435 Y119.139 E6.14741
G1 X122.089 Y119.984 E6.18082
G1 X121.858 Y120.443 E6.19962
G1 X121.559 Y120.86 E6.21839
G1 X121.051 Y121.347 E6.24414
G1 X120.325 Y121.907 E6.27768
G1 X119.895 Y122.188 E6.29647
G1 X119.427 Y122.399 E6.31526
G1 X118.803 Y122.557 E6.33881
G1 X117.958 Y122.685 E6.37007
G1 X117.446 Y122.722 E6.38886
G1 X116.727 Y122.639 E6.41534
G1 X116.273 Y122.535 E6.43238
G1 X115.783 Y122.381 E6.45117
G1 X115.41 Y122.204 E6.46627
G1 X114.959 Y121.954 E6.48514
G1 X114.531 Y121.671 E6.50391
G1 X114.284 Y121.458 E6.51584
G1 X113.993 Y121.181 E6.53054
G1 X113.65 Y120.799 E6.54933
G1 X113.442 Y120.495 E6.5628
G1 X113.173 Y120.049 E6.58186
G1 X112.943 Y119.59 E6.60064
G1 X112.787 Y119.101 E6.61942
G1 X112.736 Y118.836 E6.62929
G1 X112.608 Y117.986 E6.66074
G1 X112.571 Y117.474 E6.67952
G1 X112.655 Y116.757 E6.70593
G1 X112.759 Y116.304 E6.72294
G1 X112.912 Y115.814 E6.74172
G1 X113.089 Y115.442 E6.75679
G1 X113.339 Y114.991 E6.77566
G1 X113.504 Y114.741 E6.78662
G0 F810 X113.622 Y114.563
G0 X113.968 Y114.184
M204 S5000
M205 X30 Y30
G0 F7200 X113.989 Y114.807
M204 S500
M205 X20 Y20
G1 F6000 E6.81322
G1 F900 X114.478 Y114.326 E6.83831
G1 X115.204 Y113.766 E6.87186
G1 X115.606 Y113.507 E6.88935
G1 X116.045 Y113.318 E6.90684
G1 X116.575 Y113.196 E6.92674
G1 X117.48 Y113.076 E6.96014
G1 X117.957 Y113.053 E6.97761
G1 X118.432 Y113.11 E6.99511
G1 X118.939 Y113.264 E7.0145
G1 X119.785 Y113.61 E7.04794
G1 X120.21 Y113.827 E7.0654
G1 X120.594 Y114.112 E7.08289
G1 X120.969 Y114.513 E7.10298
G1 X121.529 Y115.241 E7.13658
G1 X121.788 Y115.643 E7.15408
G1 X121.976 Y116.082 E7.17155
G1 X122.098 Y116.612 E7.19145
G1 X122.217 Y117.516 E7.22481
G1 X122.239 Y117.993 E7.24228
G1 X122.182 Y118.468 E7.25978
G1 X122.028 Y118.973 E7.2791
G1 X121.682 Y119.818 E7.3125
G1 X121.464 Y120.243 E7.32998
G1 X121.179 Y120.627 E7.34747
G1 X120.782 Y120.999 E7.36738
G1 X120.056 Y121.559 E7.40092
G1 X119.654 Y121.818 E7.41842
G1 X119.215 Y122.007 E7.43591
G1 X118.737 Y122.122 E7.45389
G1 X117.892 Y122.25 E7.48516
G1 X117.415 Y122.282 E7.50265
G1 X116.825 Y122.21 E7.5244
G1 X116.371 Y122.106 E7.54144
G1 X115.916 Y121.961 E7.55891
G1 X115.623 Y121.819 E7.57082
G1 X115.172 Y121.569 E7.58969
G1 X114.775 Y121.304 E7.60715
G1 X114.587 Y121.14 E7.61628
G1 X114.296 Y120.863 E7.63098
G1 X113.979 Y120.505 E7.64847
G1 X113.819 Y120.268 E7.65893
G1 X113.55 Y119.822 E7.67799
G1 X113.338 Y119.394 E7.69546
G1 X113.171 Y118.771 E7.71906
G1 X113.043 Y117.921 E7.75051
G1 X113.011 Y117.444 E7.768
G1 X113.084 Y116.855 E7.78972
G1 X113.188 Y116.402 E7.80672
G1 X113.333 Y115.947 E7.82419
G1 X113.474 Y115.655 E7.83606
G1 X113.603 Y115.422 E7.8458
G0 F810 X113.724 Y115.204
G0 X113.989 Y114.807
M204 S5000
M205 X30 Y30
G0 F7200 X114.356 Y115.054
M204 S500
M205 X20 Y20
G1 F6000 E7.8724
G1 F900 X114.747 Y114.675 E7.89232
G1 X115.473 Y114.115 E7.92587
G1 X115.844 Y113.879 E7.94195
G1 X116.251 Y113.714 E7.95802
G1 X116.633 Y113.632 E7.97231
G1 X117.538 Y113.512 E8.00571
G1 X117.977 Y113.494 E8.02179
G1 X118.412 Y113.556 E8.03787
G1 X118.772 Y113.671 E8.05169
G1 X119.618 Y114.017 E8.08513
G1 X120.008 Y114.22 E8.10122
G1 X120.355 Y114.49 E8.1173
G1 X120.62 Y114.781 E8.1317
G1 X121.18 Y115.509 E8.16531
G1 X121.415 Y115.881 E8.18141
G1 X121.58 Y116.289 E8.19751
G1 X121.661 Y116.669 E8.21172
G1 X121.78 Y117.573 E8.24508
G1 X121.798 Y118.012 E8.26116
G1 X121.736 Y118.447 E8.27723
G1 X121.621 Y118.806 E8.29102
G1 X121.275 Y119.651 E8.32443
G1 X121.072 Y120.041 E8.34052
G1 X120.802 Y120.388 E8.3566
G1 X120.513 Y120.65 E8.37087
G1 X119.787 Y121.21 E8.40442
G1 X119.416 Y121.446 E8.42051
G1 X119.009 Y121.611 E8.43657
G1 X118.671 Y121.687 E8.44925
G1 X117.826 Y121.815 E8.48052
G1 X117.388 Y121.841 E8.49657
G1 X116.924 Y121.781 E8.51369
G1 X116.47 Y121.677 E8.53073
G1 X116.052 Y121.54 E8.54682
G1 X115.837 Y121.435 E8.55557
G1 X115.386 Y121.185 E8.57444
G1 X114.89 Y120.821 E8.59695
G1 X114.599 Y120.544 E8.61165
G1 X114.196 Y120.041 E8.63523
G1 X113.927 Y119.595 E8.65428
G1 X113.735 Y119.199 E8.67039
G1 X113.606 Y118.705 E8.68907
G1 X113.478 Y117.855 E8.72051
G1 X113.452 Y117.417 E8.73657
G1 X113.512 Y116.954 E8.75365
G1 X113.616 Y116.501 E8.77065
G1 X113.753 Y116.083 E8.78675
G1 X113.858 Y115.869 E8.79547
G1 X113.969 Y115.669 E8.80384
G0 F810 X114.108 Y115.418
G0 X114.356 Y115.054
M204 S5000
M205 X30 Y30
G0 F7200 X114.72 Y115.305
M204 S500
M205 X20 Y20
G1 F6000 E8.83043
G1 F900 X115.016 Y115.023 E8.84539
G1 X115.742 Y114.463 E8.87894
G1 X116.079 Y114.253 E8.89346
G1 X116.452 Y114.115 E8.90801
G1 X116.691 Y114.068 E8.91693
G1 X117.596 Y113.948 E8.95033
G1 X117.993 Y113.936 E8.96486
G1 X118.385 Y114.003 E8.97941
G1 X118.606 Y114.078 E8.98795
G1 X119.452 Y114.424 E9.02139
G1 X119.802 Y114.611 E9.0359
G1 X120.109 Y114.864 E9.05046
G1 X120.271 Y115.05 E9.05948
G1 X120.831 Y115.778 E9.09309
G1 X121.041 Y116.116 E9.10765
G1 X121.179 Y116.488 E9.12216
G1 X121.225 Y116.727 E9.13107
G1 X121.344 Y117.631 E9.16443
G1 X121.356 Y118.028 E9.17896
G1 X121.289 Y118.42 E9.19351
G1 X121.213 Y118.639 E9.20199
G1 X120.867 Y119.484 E9.23539
G1 X120.681 Y119.835 E9.24993
G1 X120.427 Y120.142 E9.26451
G1 X120.244 Y120.302 E9.2734
G1 X119.518 Y120.862 E9.30694
G1 X119.181 Y121.072 E9.32147
G1 X118.808 Y121.21 E9.33602
G1 X118.606 Y121.252 E9.34357
G1 X117.761 Y121.38 E9.37484
G1 X117.364 Y121.399 E9.38938
G1 X117.022 Y121.352 E9.40201
G1 X116.568 Y121.248 E9.41905
G1 X116.05 Y121.05 E9.43934
G1 X115.599 Y120.8 E9.45821
G1 X115.194 Y120.502 E9.4766
G1 X114.903 Y120.225 E9.4913
G1 X114.573 Y119.814 E9.51058
G1 X114.304 Y119.368 E9.52964
G1 X114.133 Y119.008 E9.54422
G1 X114.041 Y118.64 E9.5581
G1 X113.913 Y117.79 E9.58955
G1 X113.894 Y117.393 E9.60409
G1 X113.941 Y117.052 E9.61668
G1 X114.045 Y116.599 E9.63369
G1 X114.243 Y116.082 E9.65394
G1 X114.333 Y115.919 E9.66076
G0 F810 X114.493 Y115.631
G0 X114.72 Y115.305
M204 S5000
M205 X30 Y30
G0 F7200 X115.082 Y115.559
M204 S500
M205 X20 Y20
G1 F6000 E9.68735
G1 F900 X115.284 Y115.372 E9.69742
G1 X116.01 Y114.812 E9.73097
G1 X116.31 Y114.631 E9.74379
G1 X116.749 Y114.504 E9.76051
G1 X117.654 Y114.384 E9.79391
G1 X118.004 Y114.378 E9.80672
G1 X118.439 Y114.486 E9.82311
G1 X119.285 Y114.832 E9.85655
G1 X119.592 Y115 E9.86936
G1 X119.923 Y115.318 E9.88615
G1 X120.483 Y116.046 E9.91975
G1 X120.663 Y116.346 E9.93255
G1 X120.789 Y116.784 E9.94923
G1 X120.908 Y117.688 E9.98259
G1 X120.914 Y118.038 E9.9954
G1 X120.806 Y118.473 E10.01179
G1 X120.46 Y119.318 E10.0452
G1 X120.291 Y119.625 E10.05802
G1 X119.976 Y119.953 E10.07466
G1 X119.25 Y120.513 E10.1082
G1 X118.95 Y120.694 E10.12102
G1 X118.54 Y120.817 E10.13668
G1 X117.695 Y120.945 E10.16795
G1 X117.344 Y120.957 E10.1808
G1 X117.12 Y120.923 E10.18909
G1 X116.666 Y120.819 E10.20613
