;FLAVOR:Marlin
;TIME:817
;Filament used: 0.275526m
;Layer height: 0.16
;Generated with Cura_SteamEngine 3.6.0
M140 S70
M105
M190 S70
M104 S215
M105
M109 S215
M82 ;absolute extrusion mode
G28 ; home all axes
M117 Purge extruder
G92 E0 ; reset extruder
G1 Z1.0 F3000 ; move z up little to prevent scratching of surface
G1 X0.1 Y20 Z0.3 F5000.0 ; move to start-line position G1 X0.1 Y200.0 Z0.3 F1500.0 E15 ; draw 1st line
G1 X0.4 Y200.0 Z0.3 F5000.0 ; move to side a little
G1 X0.4 Y20 Z0.3 F1500.0 E30 ; draw 2nd line
G92 E0 ; reset extruder
G1 Z1.0 F3000 ; move z up little to prevent scratching of surface
M117 All systems go!
G92 E0
G1 F6000 E-5
;LAYER_COUNT:106
;LAYER:0
M107
M204 S5000
M205 X30 Y30
G0 F7200 X111.451 Y106.492 Z0.2
M204 S500
M205 X20 Y20
;TYPE:SKIRT
G1 F6000 E0
G1 F900 X111.941 Y106.087 E0.02326
G1 X112.205 Y105.909 E0.03491
G1 X113.166 Y105.301 E0.07651
G1 X113.723 Y104.995 E0.09976
G1 X114.315 Y104.762 E0.12304
G1 X114.931 Y104.605 E0.1463
G1 X115.562 Y104.526 E0.16956
G1 X116.132 Y104.524 E0.19042
G1 X117.78 Y104.609 E0.25079
G1 X118.411 Y104.681 E0.27403
G1 X119.029 Y104.833 E0.29731
G1 X119.623 Y105.06 E0.32058
G1 X120.183 Y105.36 E0.34382
G1 X120.496 Y105.57 E0.35761
G1 X121.373 Y106.208 E0.39729
G1 X121.862 Y106.614 E0.42054
G1 X122.297 Y107.078 E0.44381
G1 X122.671 Y107.593 E0.4671
G1 X122.715 Y107.672 E0.47041
G1 X122.952 Y107.657 E0.47909
G1 X123.288 Y107.668 E0.49139
G1 X124.785 Y107.766 E0.54628
G1 X125.415 Y107.847 E0.56952
G1 X126.031 Y108.007 E0.5928
G1 X126.621 Y108.243 E0.61605
G1 X127.178 Y108.551 E0.63934
G1 X127.452 Y108.739 E0.6515
G1 X129.109 Y109.958 E0.72676
G1 X129.597 Y110.366 E0.75003
G1 X130.03 Y110.833 E0.77333
G1 X130.4 Y111.349 E0.79656
G1 X130.703 Y111.909 E0.81985
G1 X130.922 Y112.468 E0.84182
G1 X131.326 Y113.709 E0.88957
G1 X131.485 Y114.325 E0.91284
G1 X131.56 Y114.913 E0.93453
G1 X131.69 Y115.418 E0.95361
G1 X131.77 Y116.048 E0.97684
G1 X131.75 Y116.925 E1.00894
G1 X131.634 Y117.977 E1.04766
G1 X131.524 Y118.603 E1.07091
G1 X131.416 Y118.987 E1.08551
G1 X131.023 Y120.195 E1.13198
G1 X130.788 Y120.787 E1.15529
G1 X130.482 Y121.344 E1.17854
G1 X130.108 Y121.858 E1.20179
G1 X129.672 Y122.321 E1.22506
G1 X129.194 Y122.717 E1.24777
G1 X128.994 Y122.863 E1.25683
G1 X128.458 Y123.205 E1.28009
G1 X127.883 Y123.477 E1.30337
G1 X127.279 Y123.675 E1.32662
G1 X126.655 Y123.795 E1.34987
G1 X126.02 Y123.836 E1.37315
G1 X125.385 Y123.797 E1.39643
G1 X124.76 Y123.679 E1.4197
G1 X124.575 Y123.619 E1.42681
G1 X124.562 Y123.64 E1.42772
G1 X124.529 Y123.679 E1.42958
G1 X124.309 Y123.987 E1.44343
G1 X124.118 Y124.234 E1.45486
G1 X123.698 Y124.712 E1.47814
G1 X123.222 Y125.133 E1.50139
G1 X122.696 Y125.491 E1.52466
G1 X122.13 Y125.781 E1.54793
G1 X121.532 Y125.997 E1.57119
G1 X120.911 Y126.136 E1.59448
G1 X120.392 Y126.191 E1.61357
G1 X120.191 Y126.202 E1.62093
G1 X119.555 Y126.197 E1.6442
G1 X118.924 Y126.112 E1.6675
G1 X118.31 Y125.949 E1.69074
G1 X118.266 Y125.931 E1.69248
G1 X117.984 Y126.208 E1.70694
G1 X117.478 Y126.593 E1.7302
G1 X116.927 Y126.912 E1.7535
G1 X116.341 Y127.159 E1.77676
G1 X115.729 Y127.331 E1.80002
G1 X115.1 Y127.424 E1.82329
G1 X114.464 Y127.438 E1.84656
G1 X113.739 Y127.355 E1.87326
G1 X112.637 Y127.148 E1.91428
G1 X112.02 Y126.992 E1.93756
G1 X111.429 Y126.759 E1.96081
G1 X110.871 Y126.454 E1.98407
G1 X110.502 Y126.198 E2.0005
G1 X109.718 Y125.6 E2.03658
G1 X109.238 Y125.184 E2.05982
G1 X108.814 Y124.71 E2.08309
G1 X108.452 Y124.187 E2.10636
G1 X108.078 Y123.429 E2.13728
G1 X107.549 Y122.084 E2.19016
G1 X107.354 Y121.479 E2.21341
G1 X107.297 Y121.185 E2.22437
G1 X107.012 Y120.792 E2.24213
G1 X106.707 Y120.234 E2.2654
G1 X106.477 Y119.652 E2.28829
G1 X106.113 Y118.533 E2.33134
G1 X105.955 Y117.917 E2.35461
G1 X105.875 Y117.286 E2.37788
G1 X105.875 Y116.651 E2.40111
G1 X105.955 Y116.02 E2.42438
G1 X106.113 Y115.403 E2.44769
G1 X106.477 Y114.284 E2.49074
G1 X106.712 Y113.693 E2.51401
G1 X107.018 Y113.135 E2.53729
G1 X107.392 Y112.621 E2.56055
G1 X107.828 Y112.158 E2.58382
G1 X108.31 Y111.759 E2.60671
G1 X108.573 Y111.568 E2.6186
G1 X108.603 Y111.475 E2.62217
G1 X108.838 Y110.884 E2.64544
G1 X109.144 Y110.326 E2.66873
G1 X109.518 Y109.812 E2.69198
G1 X109.811 Y109.501 E2.70762
G1 X110.099 Y108.617 E2.74163
G1 X110.334 Y108.026 E2.7649
G1 X110.64 Y107.469 E2.78815
G1 X111.015 Y106.955 E2.81143
G1 X111.451 Y106.492 E2.8347
M204 S5000
M205 X30 Y30
G0 F7200 X111.831 Y106.74
M204 S500
M205 X20 Y20
G1 F900 X112.44 Y106.281 E2.8626
G1 X113.401 Y105.673 E2.9042
G1 X113.935 Y105.382 E2.92645
G1 X114.502 Y105.165 E2.94867
G1 X115.093 Y105.023 E2.9709
G1 X115.697 Y104.96 E2.99312
G1 X116.109 Y104.963 E3.00819
G1 X117.757 Y105.048 E3.06857
G1 X118.36 Y105.119 E3.09078
G1 X118.949 Y105.269 E3.11302
G1 X119.513 Y105.495 E3.13525
G1 X120.237 Y105.926 E3.16608
G1 X121.114 Y106.564 E3.20575
G1 X121.581 Y106.953 E3.22799
G1 X121.992 Y107.4 E3.25021
G1 X122.342 Y107.897 E3.27245
G1 X122.461 Y108.125 E3.28186
G1 X122.48 Y108.122 E3.28256
G1 X123.259 Y108.107 E3.31107
G1 X124.756 Y108.205 E3.36595
G1 X125.358 Y108.284 E3.38817
G1 X125.945 Y108.442 E3.41041
G1 X126.506 Y108.676 E3.43265
G1 X127.192 Y109.094 E3.46204
G1 X128.849 Y110.313 E3.5373
G1 X129.313 Y110.704 E3.5595
G1 X129.723 Y111.153 E3.58174
G1 X130.07 Y111.652 E3.60398
G1 X130.348 Y112.192 E3.6262
G1 X130.504 Y112.604 E3.64232
G1 X130.908 Y113.845 E3.69007
G1 X131.058 Y114.434 E3.7123
G1 X131.121 Y114.97 E3.73205
G1 X131.262 Y115.527 E3.75307
G1 X131.334 Y116.13 E3.77529
G1 X131.312 Y116.876 E3.80259
G1 X131.196 Y117.928 E3.84131
G1 X131.09 Y118.527 E3.86357
G1 X130.997 Y118.851 E3.8759
G1 X130.604 Y120.059 E3.92238
G1 X130.379 Y120.623 E3.9446
G1 X130.081 Y121.153 E3.96684
G1 X129.717 Y121.639 E3.98906
G1 X129.291 Y122.073 E4.01131
G1 X128.935 Y122.362 E4.02808
G1 X128.735 Y122.508 E4.03714
G1 X128.222 Y122.833 E4.05936
G1 X127.67 Y123.088 E4.08161
G1 X127.09 Y123.268 E4.10382
G1 X126.491 Y123.371 E4.12606
G1 X125.884 Y123.394 E4.14828
G1 X125.279 Y123.338 E4.17051
G1 X124.687 Y123.202 E4.19274
G1 X124.393 Y123.092 E4.20422
G1 X124.192 Y123.4 E4.21768
G1 X124.079 Y123.532 E4.22403
G1 X123.961 Y123.718 E4.23209
G1 X123.77 Y123.965 E4.24352
G1 X123.367 Y124.42 E4.26575
G1 X122.909 Y124.819 E4.28798
G1 X122.401 Y125.154 E4.31024
G1 X121.855 Y125.419 E4.33245
G1 X121.278 Y125.61 E4.35468
G1 X120.681 Y125.724 E4.37692
G1 X120.367 Y125.752 E4.38845
G1 X120.166 Y125.763 E4.39582
G1 X119.559 Y125.756 E4.41803
G1 X118.957 Y125.67 E4.44027
G1 X118.373 Y125.505 E4.46248
G1 X118.15 Y125.409 E4.47136
G1 X117.981 Y125.607 E4.48088
G1 X117.529 Y126.013 E4.50311
G1 X117.028 Y126.357 E4.52535
G1 X116.486 Y126.631 E4.54757
G1 X115.913 Y126.833 E4.5698
G1 X115.318 Y126.957 E4.59203
G1 X114.712 Y127.002 E4.61426
G1 X113.82 Y126.923 E4.64703
G1 X112.718 Y126.716 E4.68805
G1 X112.13 Y126.564 E4.71027
G1 X111.566 Y126.337 E4.73251
G1 X111.037 Y126.038 E4.75474
G1 X110.769 Y125.848 E4.76676
G1 X109.985 Y125.25 E4.80284
G1 X109.527 Y124.851 E4.82506
G1 X109.126 Y124.395 E4.84728
G1 X108.788 Y123.89 E4.86951
G1 X108.488 Y123.268 E4.89478
G1 X107.959 Y121.923 E4.94765
G1 X107.774 Y121.344 E4.96989
G1 X107.709 Y121.005 E4.98252
G1 X107.691 Y120.985 E4.98351
G1 X107.342 Y120.488 E5.00572
G1 X107.061 Y119.949 E5.02796
G1 X106.896 Y119.516 E5.04492
G1 X106.532 Y118.397 E5.08797
G1 X106.382 Y117.808 E5.1102
G1 X106.311 Y117.205 E5.13242
G1 X106.32 Y116.597 E5.15466
G1 X106.408 Y115.996 E5.17689
G1 X106.532 Y115.539 E5.19421
G1 X106.896 Y114.42 E5.23726
G1 X107.121 Y113.856 E5.25948
G1 X107.419 Y113.326 E5.28173
G1 X107.783 Y112.84 E5.30394
G1 X108.209 Y112.406 E5.32619
G1 X108.569 Y112.114 E5.34315
G1 X108.948 Y111.838 E5.3603
G1 X109.022 Y111.611 E5.36904
G1 X109.247 Y111.047 E5.39125
G1 X109.545 Y110.517 E5.4135
G1 X109.909 Y110.031 E5.43571
G1 X110.197 Y109.738 E5.45074
G1 X110.198 Y109.733 E5.45093
G1 X110.517 Y108.754 E5.4886
G1 X110.743 Y108.19 E5.51083
G1 X111.041 Y107.66 E5.53308
G1 X111.406 Y107.174 E5.55532
G1 X111.831 Y106.74 E5.57754
M204 S5000
M205 X30 Y30
G0 F7200 X112.21 Y106.994
M204 S500
M205 X20 Y20
G1 F900 X112.675 Y106.653 E5.59864
G1 X113.636 Y106.045 E5.64024
G1 X114.145 Y105.77 E5.66141
G1 X114.686 Y105.568 E5.68254
G1 X115.251 Y105.443 E5.70371
G1 X116.086 Y105.403 E5.73429
G1 X117.734 Y105.488 E5.79466
G1 X118.308 Y105.557 E5.81582
G1 X118.867 Y105.705 E5.83697
G1 X119.4 Y105.929 E5.85813
G1 X119.978 Y106.282 E5.8829
G1 X120.855 Y106.92 E5.92258
G1 X121.298 Y107.291 E5.94372
G1 X121.685 Y107.72 E5.96486
G1 X122.009 Y108.199 E5.98602
G1 X122.105 Y108.409 E5.99447
G1 X122.213 Y108.516 E6.00003
G1 X122.278 Y108.602 E6.00397
G1 X122.638 Y108.549 E6.01729
G1 X123.23 Y108.546 E6.03894
G1 X124.727 Y108.644 E6.09383
G1 X125.3 Y108.721 E6.11498
G1 X125.856 Y108.877 E6.13611
G1 X126.386 Y109.108 E6.15726
G1 X126.931 Y109.448 E6.18076
G1 X128.588 Y110.667 E6.25603
G1 X129.029 Y111.041 E6.27718
G1 X129.414 Y111.472 E6.29832
G1 X129.736 Y111.952 E6.31947
G1 X130.086 Y112.74 E6.35102
G1 X130.49 Y113.981 E6.39877
G1 X130.63 Y114.542 E6.41992
G1 X130.684 Y115.044 E6.43839
G1 X130.694 Y115.074 E6.43955
G1 X130.835 Y115.635 E6.46071
G1 X130.897 Y116.21 E6.48187
G1 X130.875 Y116.828 E6.5045
G1 X130.759 Y117.88 E6.54322
G1 X130.579 Y118.715 E6.57447
G1 X130.186 Y119.923 E6.62095
G1 X129.97 Y120.459 E6.64209
G1 X129.681 Y120.96 E6.66325
G1 X129.327 Y121.416 E6.68437
G1 X128.913 Y121.82 E6.70553
G1 X128.676 Y122.006 E6.71656
G1 X128.476 Y122.152 E6.72561
G1 X127.986 Y122.46 E6.74679
G1 X127.459 Y122.697 E6.76793
G1 X126.905 Y122.859 E6.78905
G1 X126.333 Y122.944 E6.8102
G1 X125.755 Y122.948 E6.83135
G1 X125.182 Y122.873 E6.85249
G1 X124.625 Y122.719 E6.87364
G1 X124.215 Y122.543 E6.88996
G1 X124.14 Y122.676 E6.89555
G1 X123.823 Y123.159 E6.91669
G1 X123.739 Y123.255 E6.92135
G1 X123.613 Y123.449 E6.92982
G1 X123.422 Y123.696 E6.94124
G1 X123.037 Y124.128 E6.96241
G1 X122.597 Y124.502 E6.98354
G1 X122.11 Y124.812 E7.00466
G1 X121.584 Y125.052 E7.02581
G1 X121.03 Y125.218 E7.04697
G1 X120.343 Y125.313 E7.07234
G1 X120.142 Y125.324 E7.07971
G1 X119.565 Y125.315 E7.10082
G1 X118.993 Y125.227 E7.122
G1 X118.44 Y125.061 E7.14312
G1 X118.021 Y124.87 E7.15997
G1 X117.919 Y125.016 E7.16648
G1 X117.525 Y125.438 E7.18761
G1 X117.076 Y125.802 E7.20875
G1 X116.581 Y126.101 E7.22991
G1 X116.05 Y126.329 E7.25105
G1 X115.492 Y126.481 E7.27221
G1 X114.919 Y126.555 E7.29335
G1 X114.341 Y126.549 E7.3145
G1 X113.901 Y126.49 E7.33074
G1 X112.799 Y126.283 E7.37176
G1 X112.24 Y126.137 E7.3929
G1 X111.706 Y125.916 E7.41404
G1 X111.036 Y125.499 E7.44292
G1 X110.252 Y124.901 E7.47899
G1 X109.818 Y124.519 E7.50014
G1 X109.44 Y124.081 E7.52131
G1 X109.127 Y123.596 E7.54243
G1 X108.897 Y123.107 E7.5622
G1 X108.368 Y121.762 E7.61508
G1 X108.194 Y121.211 E7.63622
G1 X108.117 Y120.796 E7.65166
G1 X107.998 Y120.665 E7.65814
G1 X107.674 Y120.186 E7.67929
G1 X107.419 Y119.667 E7.70045
G1 X107.314 Y119.38 E7.71163
G1 X106.95 Y118.261 E7.75468
G1 X106.81 Y117.7 E7.77584
G1 X106.748 Y117.126 E7.79696
G1 X106.766 Y116.548 E7.81812
G1 X106.864 Y115.979 E7.83924
G1 X106.95 Y115.675 E7.8508
G1 X107.314 Y114.556 E7.89385
G1 X107.53 Y114.02 E7.91499
G1 X107.819 Y113.519 E7.93615
G1 X108.173 Y113.063 E7.95727
G1 X108.587 Y112.66 E7.97841
G1 X108.828 Y112.47 E7.98964
G1 X109.322 Y112.11 E8.012
G1 X109.44 Y111.747 E8.02597
G1 X109.656 Y111.211 E8.04711
G1 X109.945 Y110.71 E8.06827
G1 X110.299 Y110.254 E8.08939
G1 X110.592 Y109.969 E8.10435
G1 X110.617 Y109.869 E8.10812
G1 X110.936 Y108.89 E8.14579
G1 X111.152 Y108.354 E8.16693
G1 X111.441 Y107.853 E8.18809
G1 X111.795 Y107.397 E8.20921
G1 X112.21 Y106.994 E8.23038
M204 S5000
M205 X30 Y30
G0 F7200 X112.183 Y107.625
M204 S500
M205 X20 Y20
G1 F900 X112.586 Y107.255 E8.25039
G1 X112.91 Y107.024 E8.26495
G1 X113.871 Y106.416 E8.30656
G1 X114.353 Y106.159 E8.32654
G1 X114.868 Y105.974 E8.34656
G1 X115.404 Y105.866 E8.36657
G1 X116.064 Y105.842 E8.39073
G1 X117.712 Y105.927 E8.4511
G1 X118.254 Y105.995 E8.47109
G1 X118.781 Y106.141 E8.4911
G1 X119.28 Y106.363 E8.51108
G1 X119.719 Y106.638 E8.53003
G1 X120.596 Y107.276 E8.56971
G1 X121.014 Y107.629 E8.58972
G1 X121.375 Y108.039 E8.60971
G1 X121.673 Y108.497 E8.6297
G1 X121.755 Y108.682 E8.63711
G1 X121.902 Y108.829 E8.64471
G1 X122.094 Y109.087 E8.65648
G1 X122.247 Y109.045 E8.66228
G1 X122.79 Y108.981 E8.68229
G1 X123.201 Y108.985 E8.69732
G1 X124.698 Y109.083 E8.75221
G1 X125.24 Y109.158 E8.77223
G1 X125.764 Y109.312 E8.79221
G1 X126.261 Y109.54 E8.81222
G1 X126.67 Y109.802 E8.82999
G1 X128.327 Y111.021 E8.90525
G1 X128.743 Y111.377 E8.92528
G1 X129.102 Y111.789 E8.94527
G1 X129.397 Y112.249 E8.96527
G1 X129.667 Y112.876 E8.99024
G1 X130.071 Y114.117 E9.03799
G1 X130.202 Y114.648 E9.058
G1 X130.247 Y115.123 E9.07546
G1 X130.276 Y115.211 E9.07885
G1 X130.407 Y115.742 E9.09886
G1 X130.459 Y116.286 E9.11885
G1 X130.437 Y116.78 E9.13694
G1 X130.321 Y117.832 E9.17566
G1 X130.161 Y118.579 E9.20361
G1 X129.768 Y119.787 E9.25009
G1 X129.561 Y120.293 E9.27009
G1 X129.283 Y120.764 E9.2901
G1 X128.939 Y121.189 E9.31011
G1 X128.416 Y121.651 E9.33564
G1 X128.216 Y121.797 E9.3447
G1 X127.752 Y122.086 E9.3647
G1 X127.251 Y122.304 E9.38469
G1 X126.724 Y122.447 E9.40466
G1 X126.181 Y122.512 E9.42467
G1 X125.634 Y122.497 E9.44469
G1 X125.096 Y122.402 E9.46468
G1 X124.577 Y122.23 E9.48468
G1 X124.089 Y121.984 E9.50468
G1 X124.042 Y121.951 E9.50678
G1 X123.756 Y122.46 E9.52814
G1 X123.455 Y122.916 E9.54813
G1 X123.399 Y122.978 E9.55119
G1 X123.265 Y123.18 E9.56005
G1 X123.074 Y123.427 E9.57148
G1 X122.709 Y123.834 E9.59148
G1 X122.288 Y124.183 E9.61149
G1 X121.821 Y124.467 E9.63148
G1 X121.318 Y124.68 E9.65147
G1 X120.789 Y124.818 E9.67147
G1 X120.319 Y124.873 E9.68878
G1 X120.118 Y124.884 E9.69615
G1 X119.572 Y124.874 E9.71613
G1 X119.033 Y124.785 E9.73611
G1 X118.512 Y124.617 E9.75614
G1 X118.022 Y124.376 E9.77612
G1 X117.885 Y124.281 E9.78222
G1 X117.796 Y124.441 E9.78892
G1 X117.462 Y124.874 E9.80893
G1 X117.069 Y125.254 E9.82893
G1 X116.625 Y125.572 E9.84891
G1 X116.139 Y125.823 E9.86892
G1 X115.622 Y126 E9.88891
G1 X115.084 Y126.099 E9.90893
G1 X114.538 Y126.12 E9.92892
G1 X113.983 Y126.058 E9.94935
G1 X112.881 Y125.851 E9.99037
G1 X112.352 Y125.711 E10.01039
G1 X111.85 Y125.495 E10.03039
G1 X111.303 Y125.149 E10.05407
G1 X110.519 Y124.551 E10.09014
G1 X110.11 Y124.188 E10.11015
G1 X109.758 Y123.77 E10.13014
G1 X109.47 Y123.305 E10.15015
G1 X109.307 Y122.946 E10.16458
G1 X108.778 Y121.601 E10.21746
G1 X108.615 Y121.079 E10.23746
G1 X108.551 Y120.729 E10.25048
G1 X108.534 Y120.602 E10.25517
G1 X108.309 Y120.346 E10.26764
G1 X108.011 Y119.888 E10.28763
G1 X107.732 Y119.244 E10.31331
G1 X107.368 Y118.125 E10.35636
G1 X107.238 Y117.594 E10.37636
G1 X107.186 Y117.05 E10.39635
G1 X107.214 Y116.504 E10.41635
G1 X107.368 Y115.811 E10.44233
G1 X107.732 Y114.692 E10.48538
G1 X107.939 Y114.186 E10.50538
G1 X108.217 Y113.715 E10.52539
G1 X108.561 Y113.291 E10.54537
G1 X109.087 Y112.826 E10.57105
G1 X109.695 Y112.383 E10.59858
G1 X109.858 Y111.883 E10.61782
G1 X110.065 Y111.377 E10.63782
G1 X110.343 Y110.906 E10.65783
G1 X110.687 Y110.481 E10.67783
G1 X110.976 Y110.226 E10.69193
G1 X111.035 Y110.005 E10.7003
G1 X111.354 Y109.026 E10.73797
G1 X111.561 Y108.52 E10.75797
G1 X111.839 Y108.05 E10.77795
G1 X112.183 Y107.625 E10.79796
M204 S5000
M205 X30 Y30
G0 F7200 X112.569 Y107.859
M204 S500
M205 X20 Y20
G1 F900 X113.146 Y107.396 E10.82502
G1 X114.107 Y106.788 E10.86663
G1 X114.561 Y106.548 E10.88542
G1 X115.046 Y106.382 E10.90417
G1 X115.552 Y106.292 E10.92297
G1 X116.041 Y106.281 E10.94087
G1 X117.689 Y106.366 E11.00124
G1 X118.198 Y106.433 E11.02003
G1 X118.691 Y106.577 E11.03882
G1 X119.155 Y106.796 E11.05759
G1 X119.46 Y106.993 E11.07087
G1 X120.337 Y107.631 E11.11055
G1 X120.728 Y107.965 E11.12937
G1 X121.062 Y108.355 E11.14815
G1 X121.331 Y108.792 E11.16693
G1 X121.396 Y108.945 E11.17301
G1 X121.589 Y109.14 E11.18305
G1 X121.889 Y109.556 E11.20181
G1 X121.905 Y109.591 E11.20322
G1 X121.924 Y109.583 E11.20397
G1 X122.423 Y109.461 E11.22277
G1 X123.173 Y109.424 E11.25024
G1 X124.67 Y109.522 E11.30513
