;FLAVOR:Marlin
;TIME:2950
;Filament used: 1.74853m
;Layer height: 0.2
;Generated with Cura_SteamEngine 3.6.0
M140 S70
M105
M190 S70
M104 S215
M105
M109 S215
M82 ;absolute extrusion mode
G28 ; home all axes
M117 Purge extruder
G92 E0 ; reset extruder
G1 Z1.0 F3000 ; move z up little to prevent scratching of surface
G1 X0.1 Y20 Z0.3 F5000.0 ; move to start-line position G1 X0.1 Y200.0 Z0.3 F1500.0 E15 ; draw 1st line
G1 X0.4 Y200.0 Z0.3 F5000.0 ; move to side a little
G1 X0.4 Y20 Z0.3 F1500.0 E30 ; draw 2nd line
G92 E0 ; reset extruder
G1 Z1.0 F3000 ; move z up little to prevent scratching of surface
M117 All systems go!
G92 E0
G1 F6000 E-5
;LAYER_COUNT:201
;LAYER:0
M107
M204 S5000
M205 X30 Y30
G0 F7200 X91.776 Y96.948 Z0.2
M204 S500
M205 X20 Y20
;TYPE:SKIRT
G1 F6000 E0
G1 F900 X92.698 Y96.082 E0.04628
G1 X93.674 Y95.276 E0.09259
G1 X94.698 Y94.533 E0.13888
G1 X95.768 Y93.856 E0.1852
G1 X96.877 Y93.249 E0.23146
G1 X98.024 Y92.712 E0.27779
G1 X99.201 Y92.249 E0.32406
G1 X100.406 Y91.862 E0.37037
G1 X101.632 Y91.551 E0.41664
G1 X102.876 Y91.319 E0.46294
G1 X104.132 Y91.165 E0.50924
G1 X105.396 Y91.091 E0.55556
G1 X106.065 Y91.084 E0.58004
G1 X112.975 Y91.13 E0.83286
G1 X114.24 Y91.179 E0.87917
G1 X115.086 Y91.265 E0.91028
G1 X115.549 Y90.996 E0.92987
G1 X116.662 Y90.395 E0.97615
G1 X117.812 Y89.866 E1.02246
G1 X118.992 Y89.41 E1.06875
G1 X120.199 Y89.029 E1.11505
G1 X121.427 Y88.725 E1.16134
G1 X122.672 Y88.5 E1.20763
G1 X123.929 Y88.354 E1.25392
G1 X125.193 Y88.287 E1.30023
G1 X126.458 Y88.301 E1.34652
G1 X127.72 Y88.394 E1.39282
G1 X128.974 Y88.567 E1.43913
G1 X130.778 Y88.961 E1.50669
G1 X130.954 Y89.008 E1.51335
G1 X132.166 Y89.373 E1.55966
G1 X132.45 Y89.479 E1.57075
G1 X133.372 Y89.579 E1.60468
G1 X134.619 Y89.794 E1.65098
G1 X135.85 Y90.088 E1.69728
G1 X137.134 Y90.485 E1.74645
G1 X137.501 Y90.612 E1.76066
G1 X138.683 Y91.063 E1.80695
G1 X139.834 Y91.588 E1.85323
G1 X140.95 Y92.185 E1.89954
G1 X142.026 Y92.851 E1.94583
G1 X143.058 Y93.584 E1.99215
G1 X144.041 Y94.381 E2.03845
G1 X144.712 Y94.988 E2.07155
G1 X144.99 Y95.251 E2.08555
G1 X145.882 Y96.149 E2.13186
G1 X146.715 Y97.102 E2.17817
G1 X147.485 Y98.105 E2.22443
G1 X148.191 Y99.155 E2.27072
G1 X148.83 Y100.248 E2.31704
G1 X149.17 Y100.903 E2.34404
G1 X149.341 Y101.248 E2.35813
G1 X149.866 Y102.399 E2.40441
G1 X150.318 Y103.581 E2.45071
G1 X150.695 Y104.789 E2.49701
G1 X150.994 Y106.019 E2.54332
G1 X151.216 Y107.264 E2.58959
G1 X151.358 Y108.522 E2.63591
G1 X151.423 Y110.076 E2.69281
G1 X151.455 Y120.187 E3.06274
G1 X151.419 Y121.452 E3.10904
G1 X151.303 Y122.712 E3.15533
G1 X151.108 Y123.962 E3.20162
G1 X150.834 Y125.197 E3.2479
G1 X150.483 Y126.413 E3.2942
G1 X150.055 Y127.604 E3.34051
G1 X149.554 Y128.766 E3.3868
G1 X148.979 Y129.893 E3.43309
G1 X148.335 Y130.982 E3.47938
G1 X147.623 Y132.029 E3.5257
G1 X146.847 Y133.028 E3.57198
G1 X146.101 Y133.847 E3.61252
G1 X145.409 Y135.179 E3.66743
G1 X144.538 Y136.687 E3.73115
G1 X143.871 Y137.762 E3.77743
G1 X143.137 Y138.793 E3.82374
G1 X142.34 Y139.776 E3.87003
G1 X141.482 Y140.706 E3.91633
G1 X140.567 Y141.58 E3.96262
G1 X139.598 Y142.394 E4.00892
G1 X138.58 Y143.146 E4.05523
G1 X137.517 Y143.832 E4.10151
G1 X136.413 Y144.449 E4.14779
G1 X135.271 Y144.996 E4.19411
G1 X134.098 Y145.469 E4.24039
G1 X132.367 Y146.016 E4.3068
G1 X132.191 Y146.063 E4.31347
G1 X130.959 Y146.351 E4.35976
G1 X129.711 Y146.56 E4.40605
G1 X128.452 Y146.69 E4.45236
G1 X127.188 Y146.74 E4.49864
G1 X125.923 Y146.711 E4.54493
G1 X124.662 Y146.601 E4.59124
G1 X123.411 Y146.412 E4.63753
G1 X122.174 Y146.144 E4.68384
G1 X120.957 Y145.799 E4.73012
G1 X119.764 Y145.377 E4.77642
G1 X118.6 Y144.881 E4.82271
G1 X117.015 Y144.058 E4.88805
G1 X111.934 Y141.124 E5.10271
G1 X105.932 Y141.124 E5.3223
G1 X104.667 Y141.084 E5.36861
G1 X103.408 Y140.964 E5.41488
G1 X102.158 Y140.765 E5.46118
G1 X100.923 Y140.487 E5.5075
G1 X99.709 Y140.132 E5.55377
G1 X98.519 Y139.701 E5.60008
G1 X97.359 Y139.196 E5.64637
G1 X96.233 Y138.618 E5.69267
G1 X95.146 Y137.97 E5.73897
G1 X94.102 Y137.255 E5.78527
G1 X93.106 Y136.476 E5.83153
G1 X91.776 Y135.26 E5.89746
G1 X91.647 Y135.131 E5.90414
G1 X90.781 Y134.209 E5.95041
G1 X89.975 Y133.233 E5.99673
G1 X89.232 Y132.209 E6.04301
G1 X88.555 Y131.139 E6.08934
G1 X87.948 Y130.03 E6.13559
G1 X87.411 Y128.883 E6.18193
G1 X86.948 Y127.706 E6.2282
G1 X86.561 Y126.501 E6.27451
G1 X86.25 Y125.275 E6.32078
G1 X86.018 Y124.031 E6.36708
G1 X85.864 Y122.775 E6.41337
G1 X85.783 Y121.002 E6.47831
G1 X85.782 Y120.26 E6.50546
G1 X85.82 Y118.995 E6.55176
G1 X85.938 Y117.735 E6.59806
G1 X86.136 Y116.485 E6.64436
G1 X86.22 Y116.112 E6.65835
G1 X86.018 Y115.031 E6.69858
G1 X85.864 Y113.775 E6.74488
G1 X85.783 Y111.975 E6.8108
G1 X85.783 Y111.233 E6.83795
G1 X85.823 Y109.968 E6.88425
G1 X85.943 Y108.709 E6.93052
G1 X86.142 Y107.459 E6.97683
G1 X86.42 Y106.224 E7.02315
G1 X86.775 Y105.01 E7.06942
G1 X87.206 Y103.82 E7.11573
G1 X87.711 Y102.66 E7.16202
G1 X88.289 Y101.534 E7.20832
G1 X88.937 Y100.447 E7.25462
G1 X89.652 Y99.403 E7.30092
G1 X90.431 Y98.407 E7.34718
G1 X91.28 Y97.479 E7.3932
G0 F810 X91.647 Y97.077
G0 X91.776 Y96.948
M204 S5000
M205 X30 Y30
G0 F7200 X92.087 Y97.259
M204 S500
M205 X20 Y20
G1 F6000 E7.41979
G1 F900 X93 Y96.403 E7.46558
G1 X93.965 Y95.607 E7.51135
G1 X94.979 Y94.874 E7.55713
G1 X96.039 Y94.207 E7.60295
G1 X97.138 Y93.61 E7.6487
G1 X98.274 Y93.084 E7.6945
G1 X99.44 Y92.631 E7.74027
G1 X100.634 Y92.254 E7.78608
G1 X101.849 Y91.955 E7.83186
G1 X103.08 Y91.733 E7.87762
G1 X104.323 Y91.59 E7.9234
G1 X106.062 Y91.524 E7.98707
G1 X112.972 Y91.57 E8.23988
G1 X114.223 Y91.619 E8.28569
G1 X115.184 Y91.718 E8.32103
G1 X115.77 Y91.377 E8.34584
G1 X116.872 Y90.783 E8.39164
G1 X118.009 Y90.26 E8.43743
G1 X119.177 Y89.811 E8.48321
G1 X120.371 Y89.438 E8.52898
G1 X121.587 Y89.141 E8.57477
G1 X122.819 Y88.923 E8.62055
G1 X124.063 Y88.784 E8.66634
G1 X125.313 Y88.725 E8.71213
G1 X126.564 Y88.746 E8.7579
G1 X127.811 Y88.847 E8.80368
G1 X129.05 Y89.027 E8.84948
G1 X130.665 Y89.386 E8.91001
G1 X130.841 Y89.433 E8.91667
G1 X132.039 Y89.794 E8.96245
G1 X132.347 Y89.909 E8.97448
G1 X133.366 Y90.022 E9.01199
G1 X134.598 Y90.239 E9.05776
G1 X135.814 Y90.535 E9.10355
G1 X136.99 Y90.901 E9.14861
G1 X137.357 Y91.028 E9.16282
G1 X138.526 Y91.474 E9.20859
G1 X139.664 Y91.995 E9.25438
G1 X140.766 Y92.587 E9.30015
G1 X141.829 Y93.249 E9.34597
G1 X142.847 Y93.977 E9.39175
G1 X143.816 Y94.768 E9.43752
G1 X144.41 Y95.307 E9.46686
G1 X144.688 Y95.57 E9.48087
G1 X145.569 Y96.459 E9.52666
G1 X146.392 Y97.402 E9.57245
G1 X147.152 Y98.396 E9.61823
G1 X147.848 Y99.436 E9.66401
G1 X148.476 Y100.519 E9.70981
G1 X148.775 Y101.099 E9.73369
G1 X148.946 Y101.444 E9.74777
G1 X149.466 Y102.582 E9.79355
G1 X149.912 Y103.751 E9.83933
G1 X150.282 Y104.947 E9.88513
G1 X150.575 Y106.163 E9.93089
G1 X150.79 Y107.396 E9.97668
G1 X150.926 Y108.64 E10.02247
G1 X150.983 Y110.077 E10.07508
G1 X151.015 Y120.188 E10.44501
G1 X150.979 Y121.439 E10.4908
G1 X150.863 Y122.685 E10.53658
G1 X150.668 Y123.921 E10.58236
G1 X150.394 Y125.142 E10.62814
G1 X150.043 Y126.343 E10.67392
G1 X149.616 Y127.519 E10.71969
G1 X149.114 Y128.666 E10.7655
G1 X148.54 Y129.778 E10.81129
G1 X147.897 Y130.851 E10.85705
G1 X147.186 Y131.881 E10.90284
G1 X146.411 Y132.864 E10.94864
G1 X145.75 Y133.584 E10.9844
G1 X145.028 Y134.959 E11.04122
G1 X144.157 Y136.467 E11.10493
G1 X143.497 Y137.53 E11.15071
G1 X142.77 Y138.549 E11.19651
G1 X141.98 Y139.519 E11.24227
G1 X141.129 Y140.437 E11.28807
G1 X140.221 Y141.298 E11.33385
G1 X139.261 Y142.1 E11.37962
G1 X138.251 Y142.839 E11.42541
G1 X137.195 Y143.512 E11.47122
G1 X136.099 Y144.116 E11.517
G1 X134.967 Y144.648 E11.56277
G1 X133.803 Y145.108 E11.60856
G1 X132.254 Y145.591 E11.66792
G1 X132.078 Y145.638 E11.67458
G1 X130.859 Y145.922 E11.72038
G1 X129.625 Y146.128 E11.76615
G1 X128.38 Y146.254 E11.81193
G1 X127.129 Y146.301 E11.85773
G1 X125.878 Y146.267 E11.90352
G1 X124.632 Y146.154 E11.94929
G1 X123.395 Y145.961 E11.9951
G1 X122.174 Y145.69 E12.04086
G1 X120.972 Y145.342 E12.08664
G1 X119.795 Y144.917 E12.13242
G1 X118.647 Y144.418 E12.17822
G1 X117.235 Y143.677 E12.23656
G1 X112.052 Y140.684 E12.45553
G1 X105.932 Y140.684 E12.67944
G1 X104.681 Y140.644 E12.72523
G1 X103.436 Y140.524 E12.77099
G1 X102.2 Y140.325 E12.8168
G1 X100.98 Y140.047 E12.86258
G1 X99.78 Y139.692 E12.90836
G1 X98.605 Y139.261 E12.95415
G1 X97.46 Y138.756 E12.99993
G1 X96.35 Y138.179 E13.0457
G1 X95.279 Y137.532 E13.09148
G1 X94.251 Y136.818 E13.13727
G1 X93.271 Y136.04 E13.18305
G1 X92.087 Y134.949 E13.24196
G1 X91.958 Y134.82 E13.24863
G1 X91.102 Y133.907 E13.29442
G1 X90.306 Y132.942 E13.34019
G1 X89.573 Y131.928 E13.38596
G1 X88.906 Y130.868 E13.43178
G1 X88.309 Y129.769 E13.47754
G1 X87.783 Y128.633 E13.52334
G1 X87.33 Y127.467 E13.56911
G1 X86.953 Y126.273 E13.61492
G1 X86.654 Y125.058 E13.6607
G1 X86.432 Y123.827 E13.70646
G1 X86.289 Y122.584 E13.75224
G1 X86.223 Y121.001 E13.8102
G1 X86.222 Y120.259 E13.83735
G1 X86.26 Y119.009 E13.8831
G1 X86.378 Y117.763 E13.9289
G1 X86.576 Y116.527 E13.97469
G1 X86.669 Y116.117 E13.99007
G1 X86.654 Y116.058 E13.9923
G1 X86.432 Y114.827 E14.03806
G1 X86.289 Y113.584 E14.08384
G1 X86.223 Y111.975 E14.14276
G1 X86.223 Y111.233 E14.16991
G1 X86.263 Y109.982 E14.2157
G1 X86.383 Y108.737 E14.26146
G1 X86.582 Y107.501 E14.30726
G1 X86.86 Y106.281 E14.35304
G1 X87.215 Y105.081 E14.39882
G1 X87.646 Y103.906 E14.44461
G1 X88.151 Y102.761 E14.4904
G1 X88.728 Y101.651 E14.53617
G1 X89.375 Y100.58 E14.58195
G1 X90.089 Y99.552 E14.62774
G1 X90.867 Y98.572 E14.67352
G1 X91.589 Y97.788 E14.71251
G0 F810 X91.958 Y97.388
G0 X92.087 Y97.259
M204 S5000
M205 X30 Y30
G0 F7200 X92.398 Y97.57
M204 S500
M205 X20 Y20
G1 F6000 E14.73911
G1 F900 X93.301 Y96.724 E14.78438
G1 X94.256 Y95.938 E14.82963
G1 X95.26 Y95.215 E14.8749
G1 X96.309 Y94.559 E14.92017
G1 X97.398 Y93.972 E14.96543
G1 X98.523 Y93.456 E15.01071
G1 X99.679 Y93.014 E15.05599
G1 X100.861 Y92.648 E15.10126
G1 X102.064 Y92.359 E15.14652
G1 X103.283 Y92.148 E15.19179
G1 X104.513 Y92.017 E15.23704
G1 X106.059 Y91.964 E15.29364
G1 X112.969 Y92.01 E15.54645
G1 X114.206 Y92.059 E15.59175
G1 X115.28 Y92.171 E15.63125
G1 X115.991 Y91.757 E15.66135
G1 X117.081 Y91.17 E15.70665
G1 X118.205 Y90.655 E15.75188
G1 X119.361 Y90.213 E15.79716
G1 X120.543 Y89.847 E15.84243
G1 X121.746 Y89.558 E15.8877
G1 X122.965 Y89.347 E15.93296
G1 X124.195 Y89.216 E15.97821
G1 X125.431 Y89.164 E16.02347
G1 X126.668 Y89.192 E16.06874
G1 X127.901 Y89.3 E16.11403
G1 X129.124 Y89.488 E16.1593
G1 X130.551 Y89.811 E16.21283
G1 X130.727 Y89.858 E16.21949
G1 X131.912 Y90.216 E16.26478
G1 X132.24 Y90.339 E16.2776
G1 X133.359 Y90.466 E16.3188
G1 X134.577 Y90.684 E16.36407
G1 X135.778 Y90.981 E16.40933
G1 X136.846 Y91.316 E16.45029
G1 X137.213 Y91.443 E16.46449
G1 X138.369 Y91.886 E16.50979
G1 X139.493 Y92.401 E16.55502
G1 X140.582 Y92.989 E16.6003
G1 X141.631 Y93.646 E16.64558
G1 X142.635 Y94.369 E16.69085
G1 X143.59 Y95.155 E16.7361
G1 X144.108 Y95.627 E16.76174
G1 X144.386 Y95.89 E16.77574
G1 X145.257 Y96.769 E16.82102
G1 X146.069 Y97.702 E16.86627
G1 X146.819 Y98.686 E16.91153
G1 X147.504 Y99.716 E16.95679
G1 X148.381 Y101.294 E17.02284
G1 X148.552 Y101.639 E17.03693
G1 X149.065 Y102.765 E17.0822
G1 X149.505 Y103.921 E17.12745
G1 X149.869 Y105.104 E17.17274
G1 X150.156 Y106.307 E17.21798
G1 X150.364 Y107.527 E17.26326
G1 X150.493 Y108.758 E17.30855
G1 X150.543 Y110.078 E17.35688
G1 X150.575 Y120.189 E17.7268
G1 X150.539 Y121.426 E17.77208
G1 X150.423 Y122.658 E17.81735
G1 X150.228 Y123.88 E17.86262
G1 X149.954 Y125.086 E17.90787
G1 X149.603 Y126.273 E17.95316
G1 X149.176 Y127.434 E17.99842
G1 X148.674 Y128.565 E18.04369
G1 X148.101 Y129.662 E18.08897
G1 X147.458 Y130.719 E18.13423
G1 X146.748 Y131.732 E18.17949
G1 X145.975 Y132.697 E18.22473
G1 X145.37 Y133.351 E18.25732
G1 X145.306 Y133.495 E18.26309
G1 X144.647 Y134.739 E18.31459
G1 X143.776 Y136.247 E18.37831
G1 X143.123 Y137.298 E18.42358
G1 X142.403 Y138.304 E18.46884
G1 X141.62 Y139.262 E18.5141
G1 X140.777 Y140.167 E18.55935
G1 X139.877 Y141.016 E18.60462
G1 X138.923 Y141.805 E18.64991
G1 X137.921 Y142.531 E18.69518
G1 X136.874 Y143.19 E18.74045
G1 X135.787 Y143.781 E18.78571
G1 X134.664 Y144.299 E18.83096
G1 X133.51 Y144.745 E18.87622
G1 X132.14 Y145.166 E18.92866
G1 X131.964 Y145.213 E18.93532
G1 X130.759 Y145.493 E18.98059
G1 X129.538 Y145.695 E19.02586
G1 X128.307 Y145.818 E19.07113
G1 X127.071 Y145.861 E19.11637
G1 X125.834 Y145.824 E19.16165
G1 X124.602 Y145.707 E19.20693
G1 X123.381 Y145.511 E19.25217
G1 X122.174 Y145.236 E19.29746
G1 X120.988 Y144.884 E19.34272
G1 X119.828 Y144.456 E19.38796
G1 X118.697 Y143.954 E19.43323
G1 X117.455 Y143.296 E19.48466
G1 X112.17 Y140.244 E19.70794
G1 X105.932 Y140.244 E19.93616
G1 X104.695 Y140.204 E19.98144
G1 X103.464 Y140.084 E20.0267
G1 X102.243 Y139.885 E20.07196
G1 X101.037 Y139.608 E20.11723
G1 X99.852 Y139.253 E20.16249
G1 X98.692 Y138.822 E20.20776
G1 X97.562 Y138.317 E20.25304
G1 X96.468 Y137.74 E20.2983
G1 X95.413 Y137.094 E20.34356
G1 X94.402 Y136.381 E20.38882
G1 X93.439 Y135.604 E20.43409
G1 X92.398 Y134.638 E20.48605
G1 X92.269 Y134.509 E20.49272
G1 X91.423 Y133.606 E20.53799
G1 X90.637 Y132.651 E20.58324
G1 X89.914 Y131.647 E20.62851
G1 X89.258 Y130.598 E20.67377
G1 X88.671 Y129.509 E20.71904
G1 X88.155 Y128.384 E20.76432
G1 X87.713 Y127.228 E20.8096
G1 X87.347 Y126.046 E20.85487
G1 X87.058 Y124.843 E20.90013
G1 X86.847 Y123.624 E20.9454
G1 X86.716 Y122.394 E20.99065
G1 X86.663 Y121.001 E21.04165
G1 X86.662 Y120.259 E21.0688
G1 X86.7 Y119.022 E21.11408
G1 X86.818 Y117.791 E21.15932
G1 X87.016 Y116.569 E21.20461
G1 X87.122 Y116.108 E21.22192
G1 X87.058 Y115.843 E21.23189
G1 X86.847 Y114.624 E21.27716
G1 X86.716 Y113.394 E21.32241
G1 X86.663 Y111.975 E21.37436
G1 X86.663 Y111.233 E21.40151
G1 X86.703 Y109.996 E21.44679
G1 X86.823 Y108.765 E21.49204
G1 X87.022 Y107.544 E21.5373
G1 X87.299 Y106.338 E21.58257
G1 X87.654 Y105.153 E21.62783
G1 X88.085 Y103.993 E21.67311
G1 X88.59 Y102.863 E21.71839
G1 X89.167 Y101.769 E21.76364
G1 X89.813 Y100.714 E21.8089
G1 X90.526 Y99.703 E21.85416
G1 X91.303 Y98.74 E21.89943
G1 X91.899 Y98.098 E21.93148
G0 F810 X92.269 Y97.699
G0 X92.398 Y97.57
M204 S5000
M205 X30 Y30
G0 F7200 X92.709 Y97.881
M204 S500
M205 X20 Y20
G1 F6000 E21.95808
G1 F900 X93.602 Y97.045 E22.00284
G1 X94.547 Y96.269 E22.04757
G1 X95.541 Y95.557 E22.09231
G1 X96.579 Y94.911 E22.13704
G1 X97.658 Y94.334 E22.1818
G1 X98.772 Y93.829 E22.22655
G1 X99.916 Y93.398 E22.27128
G1 X101.086 Y93.043 E22.31601
G1 X102.277 Y92.765 E22.36076
G1 X103.484 Y92.565 E22.40552
G1 X104.701 Y92.445 E22.45026
G1 X106.056 Y92.404 E22.49986
G1 X112.966 Y92.45 E22.75267
G1 X114.188 Y92.499 E22.79742
G1 X115.379 Y92.623 E22.84123
G1 X116.213 Y92.138 E22.87652
G1 X117.289 Y91.558 E22.92125
G1 X118.402 Y91.049 E22.96602
G1 X119.545 Y90.615 E23.01075
G1 X120.714 Y90.256 E23.05549
G1 X121.904 Y89.975 E23.10023
G1 X123.11 Y89.771 E23.14498
G1 X124.327 Y89.647 E23.18973
G1 X125.549 Y89.603 E23.23447
G1 X126.771 Y89.639 E23.2792
G1 X127.989 Y89.755 E23.32396
G1 X129.196 Y89.949 E23.36869
G1 X130.438 Y90.236 E23.41533
G1 X130.614 Y90.283 E23.42199
G1 X131.784 Y90.637 E23.46671
G1 X132.132 Y90.768 E23.48032
G1 X132.136 Y90.768 E23.48046
G1 X133.351 Y90.909 E23.52521
G1 X134.554 Y91.13 E23.56996
G1 X135.74 Y91.428 E23.6147
G1 X136.702 Y91.732 E23.65162
G1 X137.069 Y91.859 E23.66582
G1 X138.211 Y92.297 E23.71057
G1 X139.322 Y92.808 E23.75531
G1 X140.397 Y93.391 E23.80005
G1 X141.432 Y94.042 E23.84479
G1 X142.422 Y94.76 E23.88953
G1 X143.805 Y95.947 E23.95621
G1 X144.083 Y96.21 E23.97021
G1 X144.944 Y97.079 E24.01497
G1 X145.746 Y98.002 E24.05971
G1 X146.485 Y98.976 E24.10444
G1 X147.16 Y99.996 E24.14919
G1 X147.987 Y101.489 E24.21163
G1 X148.158 Y101.834 E24.22572
G1 X148.665 Y102.947 E24.27046
G1 X149.098 Y104.091 E24.31521
G1 X149.455 Y105.261 E24.35997
G1 X149.736 Y106.451 E24.4047
G1 X149.938 Y107.657 E24.44944
G1 X150.06 Y108.874 E24.49419
G1 X150.103 Y110.08 E24.53834
G1 X150.135 Y120.191 E24.90827
G1 X150.099 Y121.413 E24.95299
