;FLAVOR:Marlin
;TIME:3109
;Filament used: 2.75332m
;Layer height: 0.2
;Generated with Cura_SteamEngine 3.6.0
M140 S70
M105
M190 S70
M104 S215
M105
M109 S215
M82 ;absolute extrusion mode
G28 ; home all axes
M117 Purge extruder
G92 E0 ; reset extruder
G1 Z1.0 F3000 ; move z up little to prevent scratching of surface
G1 X0.1 Y20 Z0.3 F5000.0 ; move to start-line position G1 X0.1 Y200.0 Z0.3 F1500.0 E15 ; draw 1st line
G1 X0.4 Y200.0 Z0.3 F5000.0 ; move to side a little
G1 X0.4 Y20 Z0.3 F1500.0 E30 ; draw 2nd line
G92 E0 ; reset extruder
G1 Z1.0 F3000 ; move z up little to prevent scratching of surface
M117 All systems go!
G92 E0
G1 F6000 E-5
;LAYER_COUNT:29
;LAYER:0
M107
M204 S5000
M205 X30 Y30
G0 F7200 X67.121 Y81.672 Z0.2
M204 S500
M205 X20 Y20
;TYPE:SKIRT
G1 F6000 E0
G1 F900 X68.145 Y80.929 E0.04629
G1 X69.215 Y80.252 E0.09261
G1 X70.324 Y79.645 E0.13887
G1 X71.471 Y79.108 E0.1852
G1 X72.648 Y78.645 E0.23148
G1 X73.853 Y78.258 E0.27778
G1 X75.079 Y77.947 E0.32406
G1 X76.323 Y77.715 E0.37035
G1 X77.579 Y77.561 E0.41665
G1 X79.379 Y77.48 E0.48257
G1 X91.593 Y77.48 E0.92943
G1 X92.858 Y77.52 E0.97574
G1 X94.117 Y77.64 E1.02201
G1 X95.367 Y77.839 E1.06832
G1 X96.602 Y78.117 E1.11463
G1 X97.816 Y78.472 E1.16091
G1 X99.006 Y78.903 E1.20721
G1 X100.166 Y79.408 E1.2535
G1 X101.292 Y79.986 E1.29981
G1 X101.488 Y80.103 E1.30816
G1 X102.324 Y79.645 E1.34303
G1 X103.471 Y79.108 E1.38937
G1 X104.648 Y78.645 E1.43564
G1 X105.853 Y78.258 E1.48195
G1 X107.079 Y77.947 E1.52822
G1 X108.323 Y77.715 E1.57452
G1 X109.579 Y77.561 E1.62082
G1 X111.379 Y77.48 E1.68674
G1 X123.593 Y77.48 E2.1336
G1 X124.858 Y77.52 E2.17991
G1 X126.117 Y77.64 E2.22618
G1 X127.367 Y77.839 E2.27249
G1 X128.602 Y78.117 E2.3188
G1 X129.816 Y78.472 E2.36508
G1 X131.006 Y78.903 E2.41138
G1 X132.166 Y79.408 E2.45767
G1 X133.292 Y79.986 E2.50398
G1 X134.379 Y80.634 E2.55027
G1 X135.423 Y81.349 E2.59657
G1 X136.419 Y82.128 E2.64283
G1 X137.749 Y83.344 E2.70876
G1 X137.878 Y83.473 E2.71544
G1 X138.744 Y84.395 E2.76172
G1 X139.55 Y85.371 E2.80803
G1 X140.293 Y86.395 E2.85431
G1 X140.97 Y87.465 E2.90064
G1 X141.577 Y88.574 E2.94689
G1 X142.114 Y89.721 E2.99323
G1 X142.577 Y90.898 E3.0395
G1 X142.964 Y92.103 E3.08581
G1 X143.275 Y93.329 E3.13208
G1 X143.507 Y94.573 E3.17838
G1 X143.661 Y95.829 E3.22468
G1 X143.742 Y97.628 E3.29056
G1 X143.743 Y137.37 E4.74457
G1 X143.703 Y138.635 E4.79087
G1 X143.583 Y139.895 E4.83718
G1 X143.384 Y141.145 E4.88349
G1 X143.106 Y142.379 E4.92977
G1 X142.751 Y143.594 E4.97608
G1 X142.32 Y144.783 E5.02235
G1 X141.815 Y145.943 E5.06864
G1 X141.237 Y147.069 E5.11494
G1 X140.589 Y148.156 E5.16124
G1 X139.874 Y149.2 E5.20754
G1 X139.095 Y150.197 E5.25383
G1 X137.879 Y151.527 E5.31976
G1 X137.75 Y151.656 E5.32643
G1 X136.828 Y152.522 E5.37271
G1 X135.852 Y153.328 E5.41902
G1 X134.828 Y154.071 E5.46531
G1 X133.758 Y154.748 E5.51164
G1 X132.649 Y155.355 E5.55789
G1 X131.502 Y155.892 E5.60422
G1 X130.325 Y156.355 E5.6505
G1 X129.12 Y156.742 E5.6968
G1 X127.894 Y157.053 E5.74308
G1 X126.65 Y157.285 E5.78938
G1 X125.394 Y157.439 E5.83567
G1 X123.594 Y157.52 E5.90159
G1 X111.379 Y157.52 E6.34849
G1 X110.114 Y157.48 E6.3948
G1 X108.855 Y157.36 E6.44107
G1 X107.605 Y157.161 E6.48738
G1 X106.37 Y156.883 E6.53369
G1 X105.156 Y156.528 E6.57997
G1 X103.966 Y156.097 E6.62627
G1 X102.806 Y155.592 E6.67256
G1 X101.68 Y155.014 E6.71887
G1 X101.485 Y154.898 E6.72717
G1 X100.649 Y155.355 E6.76203
G1 X99.502 Y155.892 E6.80836
G1 X98.325 Y156.355 E6.85464
G1 X97.12 Y156.742 E6.90094
G1 X95.894 Y157.053 E6.94721
G1 X94.65 Y157.285 E6.99351
G1 X93.394 Y157.439 E7.03981
G1 X91.594 Y157.52 E7.10573
G1 X79.379 Y157.52 E7.55263
G1 X78.114 Y157.48 E7.59894
G1 X76.855 Y157.36 E7.64521
G1 X75.605 Y157.161 E7.69151
G1 X74.37 Y156.883 E7.73783
G1 X73.156 Y156.528 E7.7841
G1 X71.966 Y156.097 E7.83041
G1 X70.806 Y155.592 E7.8767
G1 X69.68 Y155.014 E7.923
G1 X68.593 Y154.366 E7.9693
G1 X67.549 Y153.651 E8.0156
G1 X66.553 Y152.872 E8.06186
G1 X65.223 Y151.656 E8.12779
G1 X65.094 Y151.527 E8.13447
G1 X64.228 Y150.605 E8.18074
G1 X63.422 Y149.629 E8.22706
G1 X62.679 Y148.605 E8.27334
G1 X62.002 Y147.535 E8.31967
G1 X61.395 Y146.426 E8.36592
G1 X60.858 Y145.279 E8.41226
G1 X60.395 Y144.102 E8.45853
G1 X60.008 Y142.897 E8.50484
G1 X59.697 Y141.671 E8.55111
G1 X59.465 Y140.427 E8.59741
G1 X59.311 Y139.171 E8.6437
G1 X59.23 Y137.371 E8.70963
G1 X59.23 Y97.629 E10.16363
G1 X59.27 Y96.364 E10.20994
G1 X59.39 Y95.105 E10.25621
G1 X59.589 Y93.855 E10.30252
G1 X59.867 Y92.62 E10.34883
G1 X60.222 Y91.406 E10.39511
G1 X60.653 Y90.216 E10.44141
G1 X61.158 Y89.056 E10.4877
G1 X61.736 Y87.93 E10.53401
G1 X62.384 Y86.843 E10.58031
G1 X63.099 Y85.799 E10.6266
G1 X63.878 Y84.803 E10.67286
G1 X65.094 Y83.473 E10.73879
G1 X65.223 Y83.344 E10.74547
G1 X66.145 Y82.478 E10.79175
G1 X66.561 Y82.135 E10.81147
G0 F810 X67.121 Y81.672
M204 S5000
M205 X30 Y30
G0 F7200 X67.412 Y82.003
M204 S500
M205 X20 Y20
G1 F6000 E10.83807
G1 F900 X68.426 Y81.27 E10.88385
G1 X69.486 Y80.603 E10.92967
G1 X70.585 Y80.006 E10.97543
G1 X71.721 Y79.48 E11.02123
G1 X72.887 Y79.027 E11.06699
G1 X74.081 Y78.65 E11.1128
G1 X75.296 Y78.351 E11.15858
G1 X76.527 Y78.129 E11.20435
G1 X77.77 Y77.986 E11.25012
G1 X79.379 Y77.92 E11.30904
G1 X91.593 Y77.92 E11.7559
G1 X92.844 Y77.96 E11.80169
G1 X94.089 Y78.08 E11.84745
G1 X95.325 Y78.279 E11.89326
G1 X96.545 Y78.557 E11.93904
G1 X97.745 Y78.912 E11.98482
G1 X98.92 Y79.343 E12.03061
G1 X100.065 Y79.848 E12.0764
G1 X101.175 Y80.425 E12.12217
G1 X101.478 Y80.608 E12.13512
G1 X101.486 Y80.603 E12.13546
G1 X102.585 Y80.006 E12.18122
G1 X103.721 Y79.48 E12.22702
G1 X104.887 Y79.027 E12.27279
G1 X106.081 Y78.65 E12.3186
G1 X107.296 Y78.351 E12.36437
G1 X108.527 Y78.129 E12.41014
G1 X109.77 Y77.986 E12.45591
G1 X111.379 Y77.92 E12.51483
G1 X123.593 Y77.92 E12.96169
G1 X124.844 Y77.96 E13.00749
G1 X126.089 Y78.08 E13.05325
G1 X127.325 Y78.279 E13.09905
G1 X128.545 Y78.557 E13.14483
G1 X129.745 Y78.912 E13.19061
G1 X130.92 Y79.343 E13.2364
G1 X132.065 Y79.848 E13.28219
G1 X133.175 Y80.425 E13.32796
G1 X134.246 Y81.072 E13.37374
G1 X135.274 Y81.786 E13.41953
G1 X136.254 Y82.564 E13.46531
G1 X137.438 Y83.655 E13.52421
G1 X137.567 Y83.784 E13.53089
G1 X138.423 Y84.697 E13.57667
G1 X139.219 Y85.662 E13.62244
G1 X139.952 Y86.676 E13.66822
G1 X140.619 Y87.736 E13.71404
G1 X141.216 Y88.835 E13.7598
G1 X141.742 Y89.971 E13.8056
G1 X142.195 Y91.137 E13.85136
G1 X142.572 Y92.331 E13.89717
G1 X142.871 Y93.546 E13.94295
G1 X143.093 Y94.777 E13.98872
G1 X143.236 Y96.02 E14.03449
G1 X143.302 Y97.629 E14.09341
G1 X143.303 Y137.371 E15.54741
G1 X143.263 Y138.621 E15.59317
G1 X143.143 Y139.867 E15.63897
G1 X142.944 Y141.102 E15.68474
G1 X142.667 Y142.323 E15.73054
G1 X142.312 Y143.523 E15.77633
G1 X141.881 Y144.697 E15.82208
G1 X141.376 Y145.842 E15.86787
G1 X140.798 Y146.953 E15.91368
G1 X140.151 Y148.024 E15.95946
G1 X139.437 Y149.052 E16.00526
G1 X138.659 Y150.032 E16.05104
G1 X137.568 Y151.216 E16.10994
G1 X137.439 Y151.345 E16.11661
G1 X136.526 Y152.201 E16.1624
G1 X135.561 Y152.997 E16.20817
G1 X134.547 Y153.73 E16.25395
G1 X133.487 Y154.397 E16.29977
G1 X132.388 Y154.994 E16.34552
G1 X131.252 Y155.52 E16.39132
G1 X130.086 Y155.973 E16.43709
G1 X128.892 Y156.35 E16.4829
G1 X127.677 Y156.649 E16.52868
G1 X126.446 Y156.871 E16.57444
G1 X125.203 Y157.014 E16.62022
G1 X123.594 Y157.08 E16.67914
G1 X111.379 Y157.08 E17.12604
G1 X110.128 Y157.04 E17.17183
G1 X108.883 Y156.92 E17.21759
G1 X107.647 Y156.721 E17.26339
G1 X106.427 Y156.443 E17.30917
G1 X105.227 Y156.088 E17.35496
G1 X104.052 Y155.657 E17.40074
G1 X102.907 Y155.152 E17.44653
G1 X101.797 Y154.575 E17.4923
G1 X101.495 Y154.392 E17.50522
G1 X101.487 Y154.397 E17.50556
G1 X100.388 Y154.994 E17.55132
G1 X99.252 Y155.52 E17.59712
G1 X98.086 Y155.973 E17.64289
G1 X96.892 Y156.35 E17.6887
G1 X95.677 Y156.649 E17.73448
G1 X94.446 Y156.871 E17.78024
G1 X93.203 Y157.014 E17.82602
G1 X91.594 Y157.08 E17.88493
G1 X79.379 Y157.08 E18.33183
G1 X78.128 Y157.04 E18.37763
G1 X76.883 Y156.92 E18.42339
G1 X75.647 Y156.721 E18.46919
G1 X74.427 Y156.443 E18.51497
G1 X73.227 Y156.088 E18.56075
G1 X72.052 Y155.657 E18.60654
G1 X70.907 Y155.152 E18.65233
G1 X69.797 Y154.575 E18.6981
G1 X68.726 Y153.928 E18.74388
G1 X67.698 Y153.214 E18.78967
G1 X66.718 Y152.436 E18.83545
G1 X65.534 Y151.345 E18.89435
G1 X65.405 Y151.216 E18.90103
G1 X64.549 Y150.303 E18.94681
G1 X63.753 Y149.338 E18.99258
G1 X63.02 Y148.324 E19.03836
G1 X62.353 Y147.264 E19.08418
G1 X61.756 Y146.165 E19.12994
G1 X61.23 Y145.029 E19.17574
G1 X60.777 Y143.863 E19.2215
G1 X60.4 Y142.669 E19.26731
G1 X60.101 Y141.454 E19.31309
G1 X59.879 Y140.223 E19.35885
G1 X59.736 Y138.98 E19.40463
G1 X59.67 Y137.371 E19.46355
G1 X59.67 Y97.629 E20.91755
G1 X59.71 Y96.378 E20.96335
G1 X59.83 Y95.133 E21.00911
G1 X60.029 Y93.897 E21.05491
G1 X60.307 Y92.677 E21.10069
G1 X60.662 Y91.477 E21.14647
G1 X61.093 Y90.302 E21.19226
G1 X61.598 Y89.157 E21.23805
G1 X62.175 Y88.047 E21.28382
G1 X62.822 Y86.976 E21.3296
G1 X63.536 Y85.948 E21.37539
G1 X64.314 Y84.968 E21.42117
G1 X65.405 Y83.784 E21.48007
G1 X65.534 Y83.655 E21.48675
G1 X66.447 Y82.799 E21.53254
G1 X66.851 Y82.465 E21.55171
G0 F810 X67.412 Y82.003
M204 S5000
M205 X30 Y30
G0 F7200 X67.703 Y82.334
M204 S500
M205 X20 Y20
G1 F6000 E21.57831
G1 F900 X68.707 Y81.611 E21.62358
G1 X69.756 Y80.955 E21.66884
G1 X70.845 Y80.368 E21.7141
G1 X71.97 Y79.852 E21.75939
G1 X73.126 Y79.41 E21.80467
G1 X74.308 Y79.044 E21.84994
G1 X75.511 Y78.755 E21.8952
G1 X76.73 Y78.544 E21.94046
G1 X77.96 Y78.413 E21.98572
G1 X79.379 Y78.36 E22.03767
G1 X91.593 Y78.36 E22.48453
G1 X92.83 Y78.4 E22.52982
G1 X94.061 Y78.52 E22.57507
G1 X95.282 Y78.719 E22.62033
G1 X96.488 Y78.996 E22.6656
G1 X97.673 Y79.351 E22.71086
G1 X98.833 Y79.782 E22.75613
G1 X99.963 Y80.287 E22.80142
G1 X101.057 Y80.864 E22.84667
G1 X101.484 Y81.125 E22.86498
G1 X101.756 Y80.955 E22.87671
G1 X102.845 Y80.368 E22.92197
G1 X103.97 Y79.852 E22.96726
G1 X105.126 Y79.41 E23.01253
G1 X106.308 Y79.044 E23.05781
G1 X107.511 Y78.755 E23.10307
G1 X108.73 Y78.544 E23.14833
G1 X109.96 Y78.413 E23.19359
G1 X111.379 Y78.36 E23.24554
G1 X123.593 Y78.36 E23.6924
G1 X124.83 Y78.4 E23.73768
G1 X126.061 Y78.52 E23.78293
G1 X127.282 Y78.719 E23.8282
G1 X128.488 Y78.996 E23.87347
G1 X129.673 Y79.351 E23.91873
G1 X130.833 Y79.782 E23.964
G1 X131.963 Y80.287 E24.00928
G1 X133.057 Y80.864 E24.05453
G1 X134.112 Y81.51 E24.09979
G1 X135.123 Y82.223 E24.14506
G1 X136.086 Y83 E24.19033
G1 X137.127 Y83.966 E24.24229
G1 X137.256 Y84.095 E24.24896
G1 X138.102 Y84.998 E24.29423
G1 X138.888 Y85.953 E24.33948
G1 X139.611 Y86.957 E24.38475
G1 X140.267 Y88.006 E24.43001
G1 X140.854 Y89.095 E24.47528
G1 X141.37 Y90.22 E24.52056
G1 X141.812 Y91.376 E24.56584
G1 X142.178 Y92.558 E24.61111
G1 X142.467 Y93.761 E24.65637
G1 X142.678 Y94.98 E24.70164
G1 X142.809 Y96.21 E24.74689
G1 X142.862 Y97.629 E24.79884
G1 X142.863 Y137.371 E26.25285
G1 X142.823 Y138.607 E26.29809
G1 X142.703 Y139.839 E26.34338
G1 X142.504 Y141.06 E26.38864
G1 X142.227 Y142.265 E26.43388
G1 X141.872 Y143.451 E26.47917
G1 X141.441 Y144.611 E26.52445
G1 X140.936 Y145.74 E26.5697
G1 X140.36 Y146.835 E26.61496
G1 X139.713 Y147.89 E26.66024
G1 X139 Y148.901 E26.7055
G1 X138.224 Y149.864 E26.75075
G1 X137.257 Y150.905 E26.80273
G1 X137.128 Y151.034 E26.80941
G1 X136.225 Y151.88 E26.85468
G1 X135.27 Y152.666 E26.89993
G1 X134.266 Y153.389 E26.9452
G1 X133.217 Y154.045 E26.99046
G1 X132.128 Y154.632 E27.03572
G1 X131.003 Y155.148 E27.08101
G1 X129.847 Y155.59 E27.12629
G1 X128.665 Y155.956 E27.17156
G1 X127.462 Y156.245 E27.21682
G1 X126.243 Y156.456 E27.26208
G1 X125.013 Y156.587 E27.30734
G1 X123.594 Y156.64 E27.35929
G1 X111.379 Y156.64 E27.80619
G1 X110.142 Y156.6 E27.85147
G1 X108.911 Y156.48 E27.89672
G1 X107.69 Y156.281 E27.94198
G1 X106.484 Y156.004 E27.98726
G1 X105.299 Y155.649 E28.03251
G1 X104.139 Y155.218 E28.07779
G1 X103.009 Y154.713 E28.12307
G1 X101.915 Y154.136 E28.16832
G1 X101.489 Y153.875 E28.1866
G1 X101.217 Y154.045 E28.19834
G1 X100.128 Y154.632 E28.2436
G1 X99.003 Y155.148 E28.28888
G1 X97.847 Y155.59 E28.33416
G1 X96.665 Y155.956 E28.37943
G1 X95.462 Y156.245 E28.4247
G1 X94.243 Y156.456 E28.46996
G1 X93.013 Y156.587 E28.51521
G1 X91.594 Y156.64 E28.56716
G1 X79.379 Y156.64 E29.01406
G1 X78.142 Y156.6 E29.05935
G1 X76.911 Y156.48 E29.1046
G1 X75.69 Y156.281 E29.14986
G1 X74.484 Y156.004 E29.19513
G1 X73.299 Y155.649 E29.24039
G1 X72.139 Y155.218 E29.28566
G1 X71.009 Y154.713 E29.33095
G1 X69.915 Y154.136 E29.3762
G1 X68.86 Y153.49 E29.42146
G1 X67.849 Y152.777 E29.46672
G1 X66.886 Y152 E29.51199
G1 X65.845 Y151.034 E29.56395
G1 X65.716 Y150.905 E29.57062
G1 X64.87 Y150.002 E29.61589
G1 X64.084 Y149.047 E29.66114
G1 X63.361 Y148.043 E29.70641
G1 X62.705 Y146.994 E29.75168
G1 X62.118 Y145.905 E29.79694
G1 X61.602 Y144.78 E29.84222
G1 X61.16 Y143.624 E29.8875
G1 X60.794 Y142.442 E29.93277
G1 X60.505 Y141.239 E29.97804
G1 X60.294 Y140.02 E30.0233
G1 X60.163 Y138.79 E30.06855
G1 X60.11 Y137.371 E30.1205
G1 X60.11 Y97.629 E31.57451
G1 X60.15 Y96.392 E31.61979
G1 X60.27 Y95.161 E31.66504
G1 X60.469 Y93.94 E31.7103
G1 X60.746 Y92.734 E31.75558
G1 X61.101 Y91.549 E31.80083
G1 X61.532 Y90.389 E31.84611
G1 X62.037 Y89.259 E31.89139
G1 X62.614 Y88.165 E31.93664
G1 X63.26 Y87.11 E31.9819
G1 X63.973 Y86.099 E32.02716
G1 X64.75 Y85.136 E32.07243
G1 X65.716 Y84.095 E32.12439
G1 X65.845 Y83.966 E32.13107
G1 X66.748 Y83.12 E32.17634
G1 X67.142 Y82.796 E32.195
G0 F810 X67.703 Y82.334
M204 S5000
M205 X30 Y30
G0 F7200 X67.994 Y82.665
M204 S500
M205 X20 Y20
G1 F6000 E32.2216
G1 F900 X68.988 Y81.953 E32.26633
G1 X70.026 Y81.307 E32.31106
G1 X71.105 Y80.73 E32.35583
G1 X72.219 Y80.225 E32.40058
G1 X73.363 Y79.794 E32.44531
G1 X74.533 Y79.439 E32.49004
G1 X75.724 Y79.161 E32.53478
G1 X76.931 Y78.961 E32.57955
G1 X78.148 Y78.841 E32.62429
G1 X79.379 Y78.8 E32.66935
G1 X91.593 Y78.8 E33.11621
G1 X92.815 Y78.84 E33.16094
G1 X94.032 Y78.96 E33.20569
G1 X95.239 Y79.159 E33.25044
G1 X96.43 Y79.436 E33.29518
G1 X97.6 Y79.791 E33.33991
G1 X98.745 Y80.222 E33.38467
G1 X99.859 Y80.726 E33.42941
G1 X100.938 Y81.302 E33.47416
G1 X101.486 Y81.643 E33.49777
G1 X102.026 Y81.307 E33.52104
G1 X103.105 Y80.73 E33.5658
G1 X104.219 Y80.225 E33.61055
G1 X105.363 Y79.794 E33.65528
G1 X106.533 Y79.439 E33.70001
G1 X107.724 Y79.161 E33.74476
G1 X108.931 Y78.961 E33.78952
G1 X110.148 Y78.841 E33.83426
G1 X111.379 Y78.8 E33.87932
G1 X123.593 Y78.8 E34.32619
G1 X124.815 Y78.84 E34.37092
G1 X126.032 Y78.96 E34.41566
G1 X127.239 Y79.159 E34.46042
G1 X128.43 Y79.436 E34.50515
G1 X129.6 Y79.791 E34.54989
G1 X130.745 Y80.222 E34.59465
G1 X131.859 Y80.726 E34.63938
G1 X132.938 Y81.302 E34.68413
G1 X133.977 Y81.948 E34.72889
G1 X134.971 Y82.66 E34.77363
G1 X135.917 Y83.435 E34.81837
G1 X136.816 Y84.277 E34.86343
G1 X136.945 Y84.406 E34.87011
G1 X137.781 Y85.299 E34.91486
G1 X138.557 Y86.244 E34.9596
G1 X139.269 Y87.238 E35.00433
G1 X139.915 Y88.276 E35.04906
G1 X140.492 Y89.355 E35.09383
G1 X140.997 Y90.469 E35.13858
G1 X141.428 Y91.613 E35.1833
G1 X141.783 Y92.783 E35.22804
G1 X142.061 Y93.974 E35.27278
G1 X142.261 Y95.181 E35.31754
G1 X142.381 Y96.398 E35.36228
G1 X142.422 Y97.629 E35.40735
G1 X142.423 Y137.371 E36.86135
G1 X142.383 Y138.593 E36.90609
G1 X142.263 Y139.81 E36.95083
G1 X142.064 Y141.017 E36.99558
G1 X141.787 Y142.208 E37.04032
G1 X141.432 Y143.378 E37.08505
G1 X141.001 Y144.523 E37.12981
G1 X140.497 Y145.637 E37.17455
G1 X139.921 Y146.715 E37.21926
G1 X139.275 Y147.754 E37.26403
G1 X138.564 Y148.749 E37.30877
G1 X137.788 Y149.694 E37.35351
G1 X136.946 Y150.594 E37.3986
G1 X136.817 Y150.723 E37.40527
G1 X135.924 Y151.559 E37.45002
G1 X134.979 Y152.335 E37.49476
G1 X133.985 Y153.047 E37.5395
G1 X132.947 Y153.693 E37.58423
G1 X131.868 Y154.27 E37.62899
G1 X130.754 Y154.775 E37.67374
G1 X129.61 Y155.206 E37.71847
G1 X128.44 Y155.561 E37.7632
G1 X127.249 Y155.839 E37.80795
G1 X126.042 Y156.039 E37.85271
G1 X124.825 Y156.159 E37.89745
G1 X123.594 Y156.2 E37.94251
G1 X111.379 Y156.2 E38.38941
