;FLAVOR:Marlin
;TIME:3403
;Filament used: 2.87976m
;Layer height: 0.2
;Generated with Cura_SteamEngine 3.6.0
M140 S70
M105
M190 S70
M104 S215
M105
M109 S215
M82 ;absolute extrusion mode
G28 ; home all axes
M117 Purge extruder
G92 E0 ; reset extruder
G1 Z1.0 F3000 ; move z up little to prevent scratching of surface
G1 X0.1 Y20 Z0.3 F5000.0 ; move to start-line position G1 X0.1 Y200.0 Z0.3 F1500.0 E15 ; draw 1st line
G1 X0.4 Y200.0 Z0.3 F5000.0 ; move to side a little
G1 X0.4 Y20 Z0.3 F1500.0 E30 ; draw 2nd line
G92 E0 ; reset extruder
G1 Z1.0 F3000 ; move z up little to prevent scratching of surface
M117 All systems go!
G92 E0
G1 F6000 E-5
;LAYER_COUNT:26
;LAYER:0
M107
M204 S5000
M205 X30 Y30
G0 F7200 X92.563 Y92.984 Z0.2
M204 S500
M205 X20 Y20
;TYPE:SKIRT
G1 F6000 E0
G1 F900 X93.062 Y92.488 E0.02574
G1 X94.397 Y91.254 E0.09225
G1 X94.935 Y90.792 E0.1182
G1 X96.347 Y89.663 E0.18434
G1 X96.915 Y89.241 E0.21023
G1 X98.414 Y88.209 E0.27681
G1 X99.025 Y87.82 E0.30331
G1 X100.601 Y86.897 E0.37013
G1 X101.236 Y86.556 E0.3965
G1 X102.867 Y85.754 E0.463
G1 X103.525 Y85.459 E0.48938
G1 X105.242 Y84.765 E0.55714
G1 X105.929 Y84.517 E0.58386
G1 X107.685 Y83.954 E0.65133
G1 X108.386 Y83.757 E0.67797
G1 X110.214 Y83.316 E0.74677
G1 X111.243 Y83.125 E0.78506
G1 X112.906 Y82.906 E0.84642
G1 X113.698 Y82.834 E0.87552
G1 X118.063 Y82.613 E1.03542
G1 X118.92 Y82.606 E1.06678
G1 X120.45 Y82.661 E1.12279
G1 X121.69 Y82.785 E1.16838
G1 X123.93 Y83.151 E1.25142
G1 X124.667 Y83.3 E1.27893
G1 X126.795 Y83.816 E1.35904
G1 X127.575 Y84.039 E1.38872
G1 X129.595 Y84.708 E1.46658
G1 X130.386 Y85.008 E1.49753
G1 X132.299 Y85.829 E1.57369
G1 X133.089 Y86.21 E1.60578
G1 X134.92 Y87.196 E1.68186
G1 X135.657 Y87.636 E1.71327
G1 X137.411 Y88.787 E1.79002
G1 X138.101 Y89.283 E1.82111
G1 X139.774 Y90.599 E1.89899
G1 X140.371 Y91.108 E1.92769
G1 X141.986 Y92.6 E2.00813
G1 X142.48 Y93.09 E2.03359
G1 X143.776 Y94.468 E2.1028
G1 X144.224 Y94.978 E2.12764
G1 X145.372 Y96.38 E2.19393
G1 X145.808 Y96.954 E2.2203
G1 X146.844 Y98.426 E2.28616
G1 X147.248 Y99.049 E2.31333
G1 X148.158 Y100.573 E2.37827
G1 X148.53 Y101.254 E2.40666
G1 X149.315 Y102.839 E2.47137
G1 X149.614 Y103.504 E2.49804
G1 X150.285 Y105.154 E2.56321
G1 X150.53 Y105.825 E2.58935
G1 X151.121 Y107.645 E2.65936
G1 X151.303 Y108.278 E2.68345
G1 X151.762 Y110.095 E2.75202
G1 X151.998 Y111.38 E2.79982
G1 X152.25 Y113.553 E2.87985
G1 X152.312 Y114.398 E2.91085
G1 X152.396 Y117.213 E3.01389
G1 X152.389 Y117.968 E3.04151
G1 X152.199 Y122.055 E3.1912
G1 X152.089 Y123.138 E3.23103
G1 X151.943 Y124.063 E3.26529
G1 X151.763 Y124.942 E3.29811
G1 X151.298 Y126.785 E3.36766
G1 X151.118 Y127.413 E3.39156
G1 X150.552 Y129.161 E3.45878
G1 X150.305 Y129.837 E3.48511
G1 X149.625 Y131.511 E3.55121
G1 X149.326 Y132.177 E3.57792
G1 X148.541 Y133.763 E3.64267
G1 X148.172 Y134.44 E3.67088
G1 X147.266 Y135.96 E3.73562
G1 X146.861 Y136.585 E3.76287
G1 X145.824 Y138.06 E3.82883
G1 X145.387 Y138.635 E3.85526
G1 X144.235 Y140.043 E3.92181
G1 X143.796 Y140.544 E3.94618
G1 X142.496 Y141.931 E4.01573
G1 X142.038 Y142.389 E4.03943
G1 X140.604 Y143.731 E4.11129
G1 X140.08 Y144.188 E4.13672
G1 X138.605 Y145.386 E4.20625
G1 X137.995 Y145.844 E4.23415
G1 X136.455 Y146.909 E4.30266
G1 X135.804 Y147.322 E4.33086
G1 X134.194 Y148.259 E4.39902
G1 X133.512 Y148.621 E4.42727
G1 X131.852 Y149.421 E4.49468
G1 X131.155 Y149.725 E4.5225
G1 X129.388 Y150.415 E4.59191
G1 X128.684 Y150.66 E4.61918
G1 X126.857 Y151.219 E4.68908
G1 X126.195 Y151.396 E4.71415
G1 X124.275 Y151.841 E4.78626
G1 X123.148 Y152.035 E4.8281
G1 X121.132 Y152.262 E4.90232
G1 X120.323 Y152.319 E4.93199
G1 X117.804 Y152.395 E5.02419
G1 X117.21 Y152.396 E5.04593
G1 X114.694 Y152.321 E5.13802
G1 X113.886 Y152.263 E5.16766
G1 X111.871 Y152.037 E5.24184
G1 X110.748 Y151.845 E5.28352
G1 X108.98 Y151.437 E5.34991
G1 X108.356 Y151.272 E5.37352
G1 X106.643 Y150.757 E5.43896
G1 X105.985 Y150.534 E5.46438
G1 X104.333 Y149.908 E5.52902
G1 X103.438 Y149.517 E5.56475
G1 X100.568 Y148.092 E5.68198
G1 X99.807 Y147.672 E5.71378
G1 X98.572 Y146.917 E5.76674
G1 X97.876 Y146.449 E5.79743
G1 X95.594 Y144.773 E5.90101
G1 X94.741 Y144.07 E5.94146
G1 X92.672 Y142.161 E6.04445
G1 X92.083 Y141.57 E6.07498
G1 X91.129 Y140.528 E6.12667
G1 X90.597 Y139.896 E6.15689
G1 X88.884 Y137.679 E6.25939
G1 X88.255 Y136.763 E6.30005
G1 X86.802 Y134.369 E6.4025
G1 X86.28 Y133.39 E6.44309
G1 X85.093 Y130.825 E6.5465
G1 X84.685 Y129.796 E6.587
G1 X83.776 Y127.067 E6.69223
G1 X83.55 Y126.278 E6.72226
G1 X83.207 Y124.868 E6.77535
G1 X82.99 Y123.65 E6.82062
G1 X82.747 Y121.52 E6.89905
G1 X82.687 Y120.684 E6.92971
G1 X82.604 Y117.815 E7.03472
G1 X82.61 Y117.084 E7.06147
G1 X82.794 Y112.992 E7.21133
G1 X82.897 Y111.945 E7.24982
G1 X83.038 Y111.02 E7.28406
G1 X83.229 Y110.079 E7.31918
G1 X83.692 Y108.253 E7.38811
G1 X83.893 Y107.563 E7.4144
G1 X84.487 Y105.776 E7.4833
G1 X84.741 Y105.097 E7.50982
G1 X85.446 Y103.402 E7.57698
G1 X85.74 Y102.762 E7.60275
G1 X86.573 Y101.103 E7.67067
G1 X86.921 Y100.467 E7.69719
G1 X87.859 Y98.897 E7.7641
G1 X88.245 Y98.301 E7.79008
G1 X89.28 Y96.821 E7.85616
G1 X89.708 Y96.253 E7.88218
G1 X90.863 Y94.831 E7.9492
G1 X91.329 Y94.299 E7.97508
G1 X92.066 Y93.514 E8.01447
G0 F810 X92.563 Y92.984
M204 S5000
M205 X30 Y30
G0 F7200 X92.884 Y93.285
M204 S500
M205 X20 Y20
G1 F6000 E8.04107
G1 F900 X93.361 Y92.811 E8.06567
G1 X94.696 Y91.577 E8.13218
G1 X95.209 Y91.135 E8.15696
G1 X96.621 Y90.006 E8.2231
G1 X97.165 Y89.603 E8.24787
G1 X98.664 Y88.571 E8.31445
G1 X99.247 Y88.2 E8.33974
G1 X100.823 Y87.277 E8.40656
G1 X101.43 Y86.951 E8.43176
G1 X103.061 Y86.149 E8.49826
G1 X103.69 Y85.867 E8.52348
G1 X105.407 Y85.173 E8.59124
G1 X106.064 Y84.936 E8.61679
G1 X107.82 Y84.373 E8.68426
G1 X108.489 Y84.185 E8.70968
G1 X110.317 Y83.744 E8.77848
G1 X111.301 Y83.561 E8.8151
G1 X112.964 Y83.342 E8.87646
G1 X113.721 Y83.273 E8.90427
G1 X118.086 Y83.052 E9.06418
G1 X118.904 Y83.046 E9.09411
G1 X120.434 Y83.101 E9.15012
G1 X121.619 Y83.219 E9.19369
G1 X123.859 Y83.585 E9.27673
G1 X124.563 Y83.727 E9.303
G1 X126.691 Y84.243 E9.38311
G1 X127.436 Y84.457 E9.41147
G1 X129.456 Y85.126 E9.48933
G1 X130.213 Y85.413 E9.51894
G1 X132.126 Y86.234 E9.59511
G1 X132.88 Y86.598 E9.62574
G1 X134.711 Y87.584 E9.70182
G1 X135.416 Y88.004 E9.73185
G1 X137.17 Y89.155 E9.8086
G1 X137.829 Y89.629 E9.8383
G1 X139.502 Y90.945 E9.91618
G1 X140.072 Y91.431 E9.94358
G1 X141.687 Y92.923 E10.02403
G1 X142.159 Y93.391 E10.04834
G1 X143.455 Y94.769 E10.11755
G1 X143.883 Y95.257 E10.1413
G1 X145.031 Y96.659 E10.2076
G1 X145.448 Y97.207 E10.23279
G1 X146.484 Y98.679 E10.29865
G1 X146.87 Y99.274 E10.3246
G1 X147.78 Y100.798 E10.38954
G1 X148.135 Y101.449 E10.41667
G1 X148.92 Y103.034 E10.48138
G1 X149.206 Y103.669 E10.50686
G1 X149.877 Y105.319 E10.57202
G1 X150.112 Y105.961 E10.59704
G1 X150.703 Y107.781 E10.66705
G1 X150.877 Y108.386 E10.69008
G1 X151.336 Y110.203 E10.75864
G1 X151.561 Y111.43 E10.80428
G1 X151.813 Y113.603 E10.88432
G1 X151.872 Y114.411 E10.91396
G1 X151.956 Y117.226 E11.01699
G1 X151.95 Y117.947 E11.04337
G1 X151.76 Y122.034 E11.19306
G1 X151.654 Y123.07 E11.23116
G1 X151.508 Y123.995 E11.26542
G1 X151.337 Y124.834 E11.29675
G1 X150.872 Y126.677 E11.36629
G1 X150.699 Y127.277 E11.38914
G1 X150.133 Y129.025 E11.45636
G1 X149.897 Y129.671 E11.48152
G1 X149.217 Y131.345 E11.54763
G1 X148.931 Y131.981 E11.57314
G1 X148.146 Y133.567 E11.63789
G1 X147.794 Y134.215 E11.66487
G1 X146.888 Y135.735 E11.72961
G1 X146.501 Y136.332 E11.75564
G1 X145.464 Y137.807 E11.8216
G1 X145.047 Y138.356 E11.84683
G1 X143.895 Y139.764 E11.91338
G1 X143.475 Y140.243 E11.93669
G1 X142.175 Y141.63 E12.00624
G1 X141.737 Y142.068 E12.0289
G1 X140.303 Y143.41 E12.10076
G1 X139.803 Y143.846 E12.12503
G1 X138.328 Y145.044 E12.19455
G1 X137.745 Y145.482 E12.22123
G1 X136.205 Y146.547 E12.28973
G1 X135.582 Y146.942 E12.31672
G1 X133.972 Y147.879 E12.38488
G1 X133.321 Y148.225 E12.41185
G1 X131.661 Y149.025 E12.47927
G1 X130.995 Y149.315 E12.50584
G1 X129.228 Y150.005 E12.57524
G1 X128.555 Y150.239 E12.60131
G1 X126.728 Y150.798 E12.67121
G1 X126.096 Y150.968 E12.69516
G1 X124.176 Y151.413 E12.76727
G1 X123.098 Y151.598 E12.80728
G1 X121.082 Y151.825 E12.88151
G1 X120.309 Y151.88 E12.90986
G1 X117.79 Y151.956 E13.00206
G1 X117.223 Y151.956 E13.02281
G1 X114.707 Y151.881 E13.1149
G1 X113.935 Y151.826 E13.14321
G1 X111.92 Y151.6 E13.2174
G1 X110.847 Y151.417 E13.25722
G1 X109.079 Y151.009 E13.3236
G1 X108.482 Y150.85 E13.34621
G1 X106.769 Y150.335 E13.41165
G1 X106.141 Y150.122 E13.43591
G1 X104.489 Y149.496 E13.50055
G1 X103.634 Y149.123 E13.53467
G1 X100.764 Y147.698 E13.65191
G1 X100.037 Y147.296 E13.6823
G1 X98.802 Y146.541 E13.73526
G1 X98.136 Y146.095 E13.76459
G1 X95.854 Y144.419 E13.86817
G1 X95.039 Y143.747 E13.90682
G1 X92.97 Y141.838 E14.00982
G1 X92.408 Y141.273 E14.03897
G1 X91.454 Y140.231 E14.09066
G1 X90.945 Y139.627 E14.11956
G1 X89.232 Y137.41 E14.22206
G1 X88.631 Y136.534 E14.26093
G1 X87.178 Y134.14 E14.36338
G1 X86.68 Y133.205 E14.40214
G1 X85.493 Y130.64 E14.50555
G1 X85.103 Y129.657 E14.54424
G1 X84.194 Y126.928 E14.64947
G1 X83.977 Y126.174 E14.67818
G1 X83.634 Y124.764 E14.73127
G1 X83.427 Y123.6 E14.77453
G1 X83.184 Y121.47 E14.85296
G1 X83.127 Y120.672 E14.88223
G1 X83.044 Y117.803 E14.98724
G1 X83.05 Y117.104 E15.01281
G1 X83.234 Y113.012 E15.16268
G1 X83.332 Y112.011 E15.19947
G1 X83.473 Y111.086 E15.23371
G1 X83.655 Y110.187 E15.26726
G1 X84.118 Y108.361 E15.33619
G1 X84.311 Y107.702 E15.36131
G1 X84.905 Y105.915 E15.4302
G1 X85.147 Y105.266 E15.45555
G1 X85.852 Y103.571 E15.52271
G1 X86.133 Y102.959 E15.54735
G1 X86.966 Y101.3 E15.61527
G1 X87.299 Y100.693 E15.6406
G1 X88.237 Y99.123 E15.70751
G1 X88.606 Y98.554 E15.73232
G1 X89.641 Y97.074 E15.79839
G1 X90.05 Y96.531 E15.82327
G1 X91.205 Y95.109 E15.89029
G1 X91.65 Y94.6 E15.91503
G1 X92.387 Y93.815 E15.95442
G0 F810 X92.884 Y93.285
M204 S5000
M205 X30 Y30
G0 F7200 X93.205 Y93.586
M204 S500
M205 X20 Y20
G1 F6000 E15.98102
G1 F900 X93.659 Y93.134 E16.00446
G1 X94.994 Y91.9 E16.07097
G1 X95.484 Y91.479 E16.0946
G1 X96.896 Y90.35 E16.16075
G1 X97.414 Y89.965 E16.18436
G1 X98.913 Y88.933 E16.25094
G1 X99.47 Y88.58 E16.27507
G1 X101.046 Y87.657 E16.34189
G1 X101.624 Y87.346 E16.3659
G1 X103.255 Y86.544 E16.4324
G1 X103.855 Y86.275 E16.45646
G1 X105.572 Y85.581 E16.52421
G1 X106.198 Y85.355 E16.54856
G1 X107.954 Y84.792 E16.61603
G1 X108.593 Y84.613 E16.64031
G1 X110.421 Y84.172 E16.7091
G1 X111.358 Y83.997 E16.74398
G1 X113.021 Y83.778 E16.80535
G1 X113.743 Y83.713 E16.83187
G1 X118.108 Y83.492 E16.99177
G1 X118.888 Y83.486 E17.02031
G1 X120.418 Y83.541 E17.07632
G1 X121.549 Y83.653 E17.1179
G1 X123.789 Y84.019 E17.20094
G1 X124.46 Y84.155 E17.22599
G1 X126.588 Y84.671 E17.3061
G1 X127.298 Y84.874 E17.33312
G1 X129.318 Y85.543 E17.41097
G1 X130.039 Y85.817 E17.43919
G1 X131.952 Y86.638 E17.51535
G1 X132.672 Y86.985 E17.5446
G1 X134.503 Y87.971 E17.62068
G1 X135.175 Y88.372 E17.64931
G1 X136.929 Y89.523 E17.72607
G1 X137.557 Y89.974 E17.75435
G1 X139.23 Y91.29 E17.83223
G1 X139.774 Y91.755 E17.85841
G1 X141.389 Y93.247 E17.93885
G1 X141.839 Y93.692 E17.96201
G1 X143.135 Y95.07 E18.03122
G1 X143.543 Y95.535 E18.05385
G1 X144.691 Y96.937 E18.12015
G1 X145.088 Y97.461 E18.1442
G1 X146.124 Y98.933 E18.21006
G1 X146.492 Y99.5 E18.23479
G1 X147.402 Y101.024 E18.29973
G1 X147.741 Y101.645 E18.32561
G1 X148.526 Y103.23 E18.39032
G1 X148.799 Y103.835 E18.41461
G1 X149.47 Y105.485 E18.47977
G1 X149.693 Y106.097 E18.50361
G1 X150.284 Y107.917 E18.57362
G1 X150.45 Y108.494 E18.59558
G1 X150.909 Y110.311 E18.66415
G1 X151.124 Y111.481 E18.70767
G1 X151.376 Y113.654 E18.7877
G1 X151.432 Y114.424 E18.81595
G1 X151.516 Y117.239 E18.91899
G1 X151.51 Y117.927 E18.94416
G1 X151.32 Y122.014 E19.09385
G1 X151.22 Y123.001 E19.13014
G1 X151.074 Y123.926 E19.1644
G1 X150.91 Y124.727 E19.19432
G1 X150.445 Y126.57 E19.26386
G1 X150.28 Y127.142 E19.28564
G1 X149.714 Y128.89 E19.35286
G1 X149.49 Y129.506 E19.37684
G1 X148.81 Y131.18 E19.44295
G1 X148.537 Y131.786 E19.46726
G1 X147.752 Y133.372 E19.53201
G1 X147.416 Y133.989 E19.55771
G1 X146.51 Y135.509 E19.62245
G1 X146.141 Y136.079 E19.64729
G1 X145.104 Y137.554 E19.71326
G1 X144.706 Y138.078 E19.73734
G1 X143.554 Y139.486 E19.80389
G1 X143.154 Y139.942 E19.82609
G1 X141.854 Y141.329 E19.89564
G1 X141.436 Y141.747 E19.91726
G1 X140.002 Y143.089 E19.98912
G1 X139.526 Y143.505 E20.01225
G1 X138.051 Y144.703 E20.08177
G1 X137.495 Y145.12 E20.1072
G1 X135.955 Y146.185 E20.1757
G1 X135.361 Y146.562 E20.20144
G1 X133.751 Y147.499 E20.26959
G1 X133.13 Y147.829 E20.29532
G1 X131.47 Y148.629 E20.36274
G1 X130.835 Y148.905 E20.38807
G1 X129.068 Y149.595 E20.45747
G1 X128.426 Y149.818 E20.48234
G1 X126.599 Y150.377 E20.55224
G1 X125.997 Y150.539 E20.57505
G1 X124.077 Y150.984 E20.64716
G1 X123.049 Y151.16 E20.68531
G1 X121.033 Y151.387 E20.75954
G1 X120.296 Y151.44 E20.78657
G1 X117.777 Y151.516 E20.87877
G1 X117.236 Y151.516 E20.89857
G1 X114.72 Y151.441 E20.99066
G1 X113.984 Y151.389 E21.01765
G1 X111.969 Y151.163 E21.09184
G1 X110.946 Y150.988 E21.12981
G1 X109.178 Y150.58 E21.19619
G1 X108.609 Y150.429 E21.21773
G1 X106.896 Y149.914 E21.28317
G1 X106.297 Y149.711 E21.30631
G1 X104.645 Y149.085 E21.37095
G1 X103.83 Y148.729 E21.40348
G1 X100.96 Y147.304 E21.52072
G1 X100.266 Y146.921 E21.54972
G1 X99.031 Y146.166 E21.60268
G1 X98.397 Y145.74 E21.63062
G1 X96.115 Y144.064 E21.73421
G1 X95.337 Y143.423 E21.77109
G1 X93.268 Y141.514 E21.87409
G1 X92.732 Y140.976 E21.90187
G1 X91.778 Y139.934 E21.95356
G1 X91.293 Y139.358 E21.98111
G1 X89.58 Y137.141 E22.08361
G1 X89.007 Y136.306 E22.12066
G1 X87.554 Y133.912 E22.22312
G1 X87.079 Y133.02 E22.26009
G1 X85.892 Y130.455 E22.3635
G1 X85.52 Y129.517 E22.40041
G1 X84.611 Y126.788 E22.50565
G1 X84.405 Y126.07 E22.53298
G1 X84.062 Y124.66 E22.58607
G1 X83.864 Y123.55 E22.62732
G1 X83.621 Y121.42 E22.70576
G1 X83.567 Y120.659 E22.73367
G1 X83.484 Y117.79 E22.83868
G1 X83.489 Y117.124 E22.86305
G1 X83.673 Y113.032 E23.01291
G1 X83.767 Y112.078 E23.04798
G1 X83.908 Y111.153 E23.08221
G1 X84.082 Y110.295 E23.11424
G1 X84.545 Y108.469 E23.18316
G1 X84.728 Y107.841 E23.20709
G1 X85.322 Y106.054 E23.27599
G1 X85.554 Y105.435 E23.30018
G1 X86.259 Y103.74 E23.36734
G1 X86.526 Y103.157 E23.3908
G1 X87.359 Y101.498 E23.45872
G1 X87.677 Y100.919 E23.48289
G1 X88.615 Y99.349 E23.5498
G1 X88.966 Y98.806 E23.57345
G1 X90.001 Y97.326 E23.63953
G1 X90.392 Y96.808 E23.66327
G1 X91.547 Y95.386 E23.7303
G1 X91.971 Y94.901 E23.75387
G1 X92.708 Y94.116 E23.79326
G0 F810 X93.205 Y93.586
M204 S5000
M205 X30 Y30
G0 F7200 X93.525 Y93.887
M204 S500
M205 X20 Y20
G1 F6000 E23.81986
G1 F900 X93.958 Y93.457 E23.84218
G1 X95.293 Y92.223 E23.9087
G1 X95.759 Y91.823 E23.93116
G1 X97.171 Y90.694 E23.99731
G1 X97.664 Y90.328 E24.01977
G1 X99.163 Y89.296 E24.08635
G1 X99.692 Y88.959 E24.1093
G1 X101.268 Y88.036 E24.17612
G1 X101.818 Y87.74 E24.19897
G1 X103.449 Y86.938 E24.26547
G1 X104.02 Y86.683 E24.28835
G1 X105.737 Y85.989 E24.35611
G1 X106.332 Y85.774 E24.37925
G1 X108.088 Y85.211 E24.44672
G1 X108.696 Y85.04 E24.46983
G1 X110.524 Y84.599 E24.53862
G1 X111.416 Y84.433 E24.57182
G1 X113.079 Y84.214 E24.63319
G1 X113.765 Y84.152 E24.65839
G1 X118.13 Y83.931 E24.81829
G1 X118.872 Y83.926 E24.84544
G1 X120.402 Y83.981 E24.90145
G1 X121.478 Y84.087 E24.94101
G1 X123.718 Y84.453 E25.02405
G1 X124.356 Y84.583 E25.04787
G1 X126.484 Y85.099 E25.12798
G1 X127.16 Y85.292 E25.1537
G1 X129.18 Y85.961 E25.23155
G1 X129.866 Y86.221 E25.25839
G1 X131.779 Y87.042 E25.33456
G1 X132.463 Y87.373 E25.36236
G1 X134.294 Y88.359 E25.43844
G1 X134.933 Y88.74 E25.46566
G1 X136.687 Y89.891 E25.54242
G1 X137.285 Y90.32 E25.56934
G1 X138.958 Y91.636 E25.64722
G1 X139.475 Y92.078 E25.6721
G1 X141.09 Y93.57 E25.75255
G1 X141.518 Y93.994 E25.77459
G1 X142.814 Y95.372 E25.8438
G1 X143.202 Y95.814 E25.86531
G1 X144.35 Y97.216 E25.93161
G1 X144.728 Y97.714 E25.95448
G1 X145.764 Y99.186 E26.02034
G1 X146.115 Y99.725 E26.04387
G1 X147.025 Y101.249 E26.10881
