;FLAVOR:Marlin
;TIME:3179
;Filament used: 1.83679m
;Layer height: 0.2
;Generated with Cura_SteamEngine 3.6.0
M140 S70
M105
M190 S70
M104 S215
M105
M109 S215
M82 ;absolute extrusion mode
G28 ; home all axes
M117 Purge extruder
G92 E0 ; reset extruder
G1 Z1.0 F3000 ; move z up little to prevent scratching of surface
G1 X0.1 Y20 Z0.3 F5000.0 ; move to start-line position G1 X0.1 Y200.0 Z0.3 F1500.0 E15 ; draw 1st line
G1 X0.4 Y200.0 Z0.3 F5000.0 ; move to side a little
G1 X0.4 Y20 Z0.3 F1500.0 E30 ; draw 2nd line
G92 E0 ; reset extruder
G1 Z1.0 F3000 ; move z up little to prevent scratching of surface
M117 All systems go!
G92 E0
G1 F6000 E-5
;LAYER_COUNT:201
;LAYER:0
M107
M204 S5000
M205 X30 Y30
G0 F2400 X88.353 Y93.525 Z0.2
M204 S500
M205 X20 Y20
;TYPE:SKIRT
G1 F6000 E0
G1 F900 X89.378 Y92.557 E0.05158
G1 X90.457 Y91.648 E0.1032
G1 X91.585 Y90.802 E0.15478
G1 X92.759 Y90.021 E0.20637
G1 X93.975 Y89.308 E0.25795
G1 X95.23 Y88.665 E0.30954
G1 X96.52 Y88.095 E0.36114
G1 X97.84 Y87.598 E0.41274
G1 X99.185 Y87.177 E0.4643
G1 X100.553 Y86.833 E0.51591
G1 X101.938 Y86.567 E0.56751
G1 X103.335 Y86.38 E0.61907
G1 X104.741 Y86.273 E0.67066
G1 X106.097 Y86.245 E0.72028
G1 X113.007 Y86.291 E0.9731
G1 X114.01 Y86.326 E1.00982
G1 X114.355 Y86.138 E1.02419
G1 X115.629 Y85.536 E1.07575
G1 X116.936 Y85.006 E1.12735
G1 X118.271 Y84.552 E1.17894
G1 X119.63 Y84.174 E1.23054
G1 X121.007 Y83.873 E1.28211
G1 X122.4 Y83.652 E1.33371
G1 X123.803 Y83.509 E1.38531
G1 X125.212 Y83.446 E1.43691
G1 X126.622 Y83.463 E1.4885
G1 X128.028 Y83.561 E1.54007
G1 X129.427 Y83.737 E1.59165
G1 X130.814 Y83.993 E1.64326
G1 X132.027 Y84.285 E1.6889
G1 X132.203 Y84.332 E1.69557
G1 X133.497 Y84.717 E1.74496
G1 X134.802 Y84.904 E1.79319
G1 X136.184 Y85.182 E1.84477
G1 X137.548 Y85.539 E1.89635
G1 X138.717 Y85.911 E1.94124
G1 X139.084 Y86.038 E1.95544
G1 X140.403 Y86.537 E2.00704
G1 X141.691 Y87.109 E2.0586
G1 X142.945 Y87.754 E2.11019
G1 X144.161 Y88.469 E2.1618
G1 X145.334 Y89.252 E2.2134
G1 X146.46 Y90.1 E2.26497
G1 X148.039 Y91.472 E2.3415
G1 X148.317 Y91.735 E2.3555
G1 X149.313 Y92.733 E2.40709
G1 X150.251 Y93.785 E2.45866
G1 X151.129 Y94.889 E2.51026
G1 X151.942 Y96.041 E2.56185
G1 X152.688 Y97.238 E2.61345
G1 X153.506 Y98.754 E2.67648
G1 X153.677 Y99.099 E2.69056
G1 X154.267 Y100.379 E2.74213
G1 X154.784 Y101.692 E2.79376
G1 X155.225 Y103.031 E2.84533
G1 X155.59 Y104.393 E2.89692
G1 X155.877 Y105.774 E2.94853
G1 X156.085 Y107.168 E3.00009
G1 X156.214 Y108.572 E3.05168
G1 X156.263 Y110.06 E3.10615
G1 X156.295 Y120.171 E3.47607
G1 X156.259 Y121.581 E3.52767
G1 X156.144 Y122.986 E3.57925
G1 X155.949 Y124.383 E3.63086
G1 X155.675 Y125.766 E3.68244
G1 X155.324 Y127.132 E3.73404
G1 X154.895 Y128.475 E3.78562
G1 X154.391 Y129.792 E3.83721
G1 X153.813 Y131.078 E3.88879
G1 X153.163 Y132.33 E3.94041
G1 X152.443 Y133.542 E3.99198
G1 X151.656 Y134.712 E4.04357
G1 X150.803 Y135.835 E4.09517
G1 X150.138 Y136.615 E4.13267
G1 X149.6 Y137.6 E4.17373
G1 X148.729 Y139.108 E4.23744
G1 X147.99 Y140.308 E4.289
G1 X147.183 Y141.465 E4.34061
G1 X146.312 Y142.574 E4.3922
G1 X145.38 Y143.632 E4.44379
G1 X144.389 Y144.636 E4.4954
G1 X143.343 Y145.581 E4.54698
G1 X142.245 Y146.466 E4.59857
G1 X141.099 Y147.287 E4.65015
G1 X139.908 Y148.042 E4.70174
G1 X138.676 Y148.728 E4.75333
G1 X137.407 Y149.343 E4.80492
G1 X136.105 Y149.885 E4.85652
G1 X134.775 Y150.353 E4.90811
G1 X133.616 Y150.692 E4.95229
G1 X133.44 Y150.739 E4.95895
G1 X132.068 Y151.064 E5.01054
G1 X130.679 Y151.311 E5.06215
G1 X129.279 Y151.479 E5.11374
G1 X127.872 Y151.567 E5.16532
G1 X126.462 Y151.575 E5.2169
G1 X125.054 Y151.503 E5.26848
G1 X123.652 Y151.351 E5.32008
G1 X122.261 Y151.12 E5.37167
G1 X120.885 Y150.811 E5.42326
G1 X119.529 Y150.424 E5.47486
G1 X118.197 Y149.96 E5.52646
G1 X116.894 Y149.422 E5.57804
G1 X115.623 Y148.811 E5.62963
G1 X114.595 Y148.25 E5.67248
G1 X110.636 Y145.964 E5.83973
G1 X105.932 Y145.964 E6.01184
G1 X104.522 Y145.924 E6.06344
G1 X103.117 Y145.804 E6.11503
G1 X101.722 Y145.605 E6.16659
G1 X100.339 Y145.327 E6.2182
G1 X98.975 Y144.971 E6.26977
G1 X97.633 Y144.538 E6.32136
G1 X96.317 Y144.029 E6.37299
G1 X95.033 Y143.447 E6.42457
G1 X93.784 Y142.794 E6.47613
G1 X92.573 Y142.07 E6.52775
G1 X91.406 Y141.279 E6.57933
G1 X90.286 Y140.423 E6.6309
G1 X89.215 Y139.504 E6.68254
G1 X88.353 Y138.683 E6.72609
G1 X88.224 Y138.554 E6.73276
G1 X87.256 Y137.529 E6.78434
G1 X86.347 Y136.45 E6.83596
G1 X85.501 Y135.322 E6.88755
G1 X84.72 Y134.148 E6.93914
G1 X84.007 Y132.932 E6.99071
G1 X83.364 Y131.677 E7.0423
G1 X82.794 Y130.387 E7.0939
G1 X82.297 Y129.067 E7.1455
G1 X81.876 Y127.722 E7.19706
G1 X81.532 Y126.354 E7.24867
G1 X81.266 Y124.969 E7.30027
G1 X81.079 Y123.572 E7.35184
G1 X80.972 Y122.166 E7.40343
G1 X80.943 Y121.009 E7.44577
G1 X80.942 Y120.267 E7.47292
G1 X80.98 Y118.857 E7.52452
G1 X81.098 Y117.452 E7.57611
G1 X81.29 Y116.096 E7.62621
G1 X81.266 Y115.969 E7.63094
G1 X81.079 Y114.572 E7.68251
G1 X80.972 Y113.166 E7.7341
G1 X80.943 Y111.975 E7.77768
G1 X80.943 Y111.233 E7.80483
G1 X80.983 Y109.823 E7.85644
G1 X81.103 Y108.418 E7.90803
G1 X81.302 Y107.023 E7.95958
G1 X81.58 Y105.64 E8.01119
G1 X81.936 Y104.276 E8.06277
G1 X82.369 Y102.934 E8.11436
G1 X82.878 Y101.618 E8.16598
G1 X83.46 Y100.334 E8.21756
G1 X84.113 Y99.085 E8.26912
G1 X84.837 Y97.874 E8.32074
G1 X85.628 Y96.707 E8.37232
G1 X86.484 Y95.587 E8.4239
G1 X87.403 Y94.516 E8.47553
G1 X87.848 Y94.048 E8.49916
G0 F810 X88.224 Y93.654
G0 X88.353 Y93.525
M204 S5000
M205 X30 Y30
G0 F2400 X88.664 Y93.836
M204 S500
M205 X20 Y20
G1 F6000 E8.52575
G1 F900 X89.681 Y92.877 E8.5769
G1 X90.75 Y91.977 E8.62802
G1 X91.869 Y91.14 E8.67915
G1 X93.034 Y90.368 E8.73028
G1 X94.241 Y89.664 E8.7814
G1 X95.487 Y89.03 E8.83255
G1 X96.767 Y88.469 E8.88368
G1 X98.077 Y87.982 E8.93481
G1 X99.412 Y87.57 E8.98593
G1 X100.769 Y87.236 E9.03706
G1 X102.143 Y86.98 E9.08819
G1 X103.53 Y86.802 E9.13935
G1 X104.924 Y86.705 E9.19048
G1 X106.095 Y86.685 E9.23333
G1 X113.005 Y86.731 E9.48614
G1 X114.115 Y86.77 E9.52678
G1 X114.565 Y86.525 E9.54552
G1 X115.829 Y85.929 E9.59665
G1 X117.125 Y85.406 E9.64778
G1 X118.449 Y84.958 E9.69892
G1 X119.796 Y84.586 E9.75005
G1 X121.162 Y84.292 E9.80117
G1 X122.543 Y84.077 E9.8523
G1 X123.934 Y83.941 E9.90344
G1 X125.33 Y83.885 E9.95455
G1 X126.728 Y83.908 E10.00571
G1 X128.122 Y84.012 E10.05685
G1 X129.507 Y84.195 E10.10796
G1 X130.88 Y84.458 E10.15911
G1 X131.913 Y84.71 E10.19801
G1 X132.089 Y84.757 E10.20467
G1 X133.396 Y85.146 E10.25456
G1 X133.405 Y85.147 E10.2549
G1 X134.788 Y85.348 E10.30603
G1 X136.158 Y85.628 E10.35719
G1 X137.509 Y85.985 E10.40831
G1 X138.573 Y86.327 E10.4492
G1 X138.94 Y86.454 E10.46341
G1 X140.247 Y86.948 E10.51453
G1 X141.524 Y87.517 E10.56568
G1 X142.766 Y88.158 E10.61681
G1 X143.969 Y88.868 E10.66792
G1 X145.13 Y89.647 E10.71907
G1 X146.244 Y90.49 E10.77018
G1 X147.736 Y91.792 E10.84263
G1 X148.014 Y92.055 E10.85663
G1 X149.002 Y93.044 E10.90778
G1 X149.931 Y94.088 E10.9589
G1 X150.799 Y95.183 E11.01003
G1 X151.603 Y96.326 E11.06115
G1 X152.34 Y97.514 E11.1123
G1 X153.112 Y98.949 E11.17192
G1 X153.283 Y99.294 E11.18601
G1 X153.867 Y100.564 E11.23715
G1 X154.378 Y101.864 E11.28825
G1 X154.814 Y103.192 E11.33939
G1 X155.173 Y104.543 E11.39053
G1 X155.454 Y105.912 E11.44166
G1 X155.657 Y107.295 E11.49281
G1 X155.78 Y108.687 E11.54393
G1 X155.823 Y110.062 E11.59426
G1 X155.855 Y120.173 E11.96419
G1 X155.819 Y121.57 E12.01531
G1 X155.704 Y122.963 E12.06645
G1 X155.509 Y124.347 E12.11759
G1 X155.235 Y125.717 E12.1687
G1 X154.883 Y127.07 E12.21985
G1 X154.455 Y128.4 E12.27097
G1 X153.951 Y129.703 E12.32208
G1 X153.373 Y130.976 E12.37323
G1 X152.724 Y132.213 E12.42434
G1 X152.005 Y133.412 E12.47549
G1 X151.218 Y134.567 E12.52662
G1 X150.366 Y135.675 E12.57776
G1 X149.768 Y136.368 E12.61125
G1 X149.698 Y136.511 E12.61708
G1 X149.219 Y137.38 E12.65338
G1 X148.348 Y138.888 E12.71709
G1 X147.615 Y140.077 E12.7682
G1 X146.815 Y141.223 E12.81933
G1 X145.95 Y142.321 E12.87047
G1 X145.024 Y143.368 E12.92161
G1 X144.04 Y144.361 E12.97275
G1 X143.001 Y145.295 E13.02387
G1 X141.91 Y146.168 E13.07499
G1 X140.77 Y146.978 E13.12615
G1 X139.587 Y147.721 E13.17726
G1 X138.362 Y148.395 E13.22842
G1 X137.101 Y148.997 E13.27954
G1 X135.808 Y149.527 E13.33066
G1 X134.487 Y149.982 E13.38178
G1 X133.502 Y150.267 E13.4193
G1 X133.326 Y150.314 E13.42596
G1 X131.966 Y150.636 E13.47709
G1 X130.59 Y150.879 E13.52822
G1 X129.202 Y151.044 E13.57936
G1 X127.807 Y151.128 E13.63049
G1 X126.41 Y151.133 E13.6816
G1 X125.014 Y151.058 E13.73274
G1 X123.625 Y150.903 E13.78388
G1 X122.247 Y150.669 E13.83502
G1 X120.885 Y150.356 E13.88615
G1 X119.543 Y149.966 E13.93727
G1 X118.226 Y149.5 E13.98839
G1 X116.937 Y148.959 E14.03953
G1 X115.681 Y148.346 E14.09066
G1 X114.815 Y147.869 E14.12684
G1 X110.754 Y145.524 E14.2984
G1 X105.932 Y145.524 E14.47482
G1 X104.535 Y145.484 E14.52595
G1 X103.143 Y145.364 E14.57707
G1 X101.759 Y145.165 E14.62823
G1 X100.39 Y144.887 E14.67934
G1 X99.038 Y144.531 E14.73049
G1 X97.709 Y144.098 E14.78163
G1 X96.407 Y143.59 E14.83276
G1 X95.137 Y143.008 E14.88387
G1 X93.901 Y142.355 E14.93501
G1 X92.705 Y141.632 E14.98614
G1 X91.553 Y140.841 E15.03727
G1 X90.447 Y139.987 E15.08839
G1 X89.392 Y139.07 E15.13953
G1 X88.664 Y138.372 E15.17643
G1 X88.535 Y138.243 E15.18311
G1 X87.576 Y137.226 E15.23425
G1 X86.676 Y136.157 E15.28538
G1 X85.839 Y135.038 E15.3365
G1 X85.067 Y133.873 E15.38763
G1 X84.363 Y132.666 E15.43875
G1 X83.729 Y131.42 E15.4899
G1 X83.168 Y130.14 E15.54103
G1 X82.681 Y128.83 E15.59217
G1 X82.269 Y127.495 E15.64328
G1 X81.935 Y126.138 E15.69441
G1 X81.679 Y124.764 E15.74555
G1 X81.501 Y123.377 E15.79671
G1 X81.404 Y121.983 E15.84783
G1 X81.383 Y121.008 E15.88351
G1 X81.382 Y120.266 E15.91066
G1 X81.42 Y118.869 E15.96179
G1 X81.538 Y117.476 E16.01293
G1 X81.736 Y116.093 E16.06405
G1 X81.738 Y116.082 E16.06446
G1 X81.679 Y115.764 E16.07629
G1 X81.501 Y114.377 E16.12745
G1 X81.404 Y112.983 E16.17858
G1 X81.383 Y111.975 E16.21546
G1 X81.383 Y111.233 E16.24261
G1 X81.423 Y109.836 E16.29374
G1 X81.543 Y108.444 E16.34486
G1 X81.742 Y107.06 E16.39601
G1 X82.02 Y105.691 E16.44712
G1 X82.376 Y104.339 E16.49827
G1 X82.809 Y103.01 E16.54941
G1 X83.317 Y101.708 E16.60055
G1 X83.899 Y100.438 E16.65166
G1 X84.552 Y99.202 E16.7028
G1 X85.275 Y98.006 E16.75393
G1 X86.066 Y96.854 E16.80506
G1 X86.92 Y95.748 E16.85618
G1 X87.837 Y94.693 E16.90732
G1 X88.158 Y94.358 E16.9243
G0 F810 X88.535 Y93.965
G0 X88.664 Y93.836
M204 S5000
M205 X30 Y30
G0 F2400 X88.976 Y94.148
M204 S500
M205 X20 Y20
G1 F6000 E16.95089
G1 F900 X89.983 Y93.197 E17.00157
G1 X91.043 Y92.306 E17.05223
G1 X92.153 Y91.478 E17.1029
G1 X93.309 Y90.715 E17.15357
G1 X94.507 Y90.021 E17.20422
G1 X95.743 Y89.396 E17.2549
G1 X97.013 Y88.844 E17.30556
G1 X98.313 Y88.366 E17.35624
G1 X99.639 Y87.965 E17.40692
G1 X100.985 Y87.64 E17.45758
G1 X102.348 Y87.393 E17.50826
G1 X103.723 Y87.226 E17.55893
G1 X105.105 Y87.138 E17.6096
G1 X106.092 Y87.125 E17.64571
G1 X113.002 Y87.171 E17.89853
G1 X114.219 Y87.214 E17.94308
G1 X114.775 Y86.912 E17.96623
G1 X116.028 Y86.322 E18.0169
G1 X117.313 Y85.805 E18.06758
G1 X118.626 Y85.364 E18.11825
G1 X119.962 Y84.998 E18.16893
G1 X121.316 Y84.711 E18.21957
G1 X122.685 Y84.502 E18.27024
G1 X124.064 Y84.373 E18.32091
G1 X125.448 Y84.324 E18.37158
G1 X126.833 Y84.354 E18.42226
G1 X128.213 Y84.464 E18.47291
G1 X129.585 Y84.654 E18.52358
G1 X130.944 Y84.923 E18.57427
G1 X131.8 Y85.135 E18.60653
G1 X131.976 Y85.182 E18.6132
G1 X133.303 Y85.578 E18.66386
G1 X133.314 Y85.582 E18.66429
G1 X133.404 Y85.59 E18.6676
G1 X134.774 Y85.792 E18.71826
G1 X136.13 Y86.074 E18.76893
G1 X137.468 Y86.432 E18.81961
G1 X138.429 Y86.742 E18.85655
G1 X138.796 Y86.869 E18.87076
G1 X140.091 Y87.36 E18.92143
G1 X141.356 Y87.924 E18.9721
G1 X142.586 Y88.561 E19.02278
G1 X143.777 Y89.267 E19.07344
G1 X144.925 Y90.041 E19.12409
G1 X146.027 Y90.881 E19.17479
G1 X147.434 Y92.111 E19.24316
G1 X147.712 Y92.374 E19.25716
G1 X148.69 Y93.355 E19.30784
G1 X149.61 Y94.39 E19.35851
G1 X150.469 Y95.476 E19.40916
G1 X151.263 Y96.611 E19.45984
G1 X151.991 Y97.789 E19.51051
G1 X152.718 Y99.145 E19.5668
G1 X152.889 Y99.49 E19.58089
G1 X153.468 Y100.748 E19.63155
G1 X153.973 Y102.037 E19.6822
G1 X154.403 Y103.354 E19.73289
G1 X154.756 Y104.693 E19.78355
G1 X155.032 Y106.05 E19.83421
G1 X155.228 Y107.421 E19.88488
G1 X155.346 Y108.801 E19.93556
G1 X155.383 Y110.063 E19.98175
G1 X155.415 Y120.174 E20.35167
G1 X155.379 Y121.559 E20.40236
G1 X155.264 Y122.939 E20.45303
G1 X155.069 Y124.31 E20.50369
G1 X154.795 Y125.667 E20.55434
G1 X154.443 Y127.007 E20.60503
G1 X154.015 Y128.324 E20.65569
G1 X153.511 Y129.614 E20.70636
G1 X152.934 Y130.873 E20.75703
G1 X152.285 Y132.096 E20.80769
G1 X151.566 Y133.28 E20.85837
G1 X150.78 Y134.42 E20.90903
G1 X149.93 Y135.514 E20.95971
G1 X149.391 Y136.13 E20.98966
G1 X149.232 Y136.45 E21.00273
G1 X148.838 Y137.16 E21.03244
G1 X147.967 Y138.668 E21.09616
G1 X147.24 Y139.846 E21.1468
G1 X146.446 Y140.981 E21.19748
G1 X145.588 Y142.068 E21.24814
G1 X144.669 Y143.104 E21.29881
G1 X143.691 Y144.085 E21.34949
G1 X142.659 Y145.008 E21.40015
G1 X141.574 Y145.87 E21.45084
G1 X140.442 Y146.667 E21.5015
G1 X139.266 Y147.398 E21.55216
G1 X138.05 Y148.06 E21.60281
G1 X136.797 Y148.651 E21.6535
G1 X135.512 Y149.168 E21.70417
G1 X134.2 Y149.61 E21.75482
G1 X133.389 Y149.842 E21.78568
G1 X133.213 Y149.889 E21.79235
G1 X131.865 Y150.208 E21.84303
G1 X130.501 Y150.448 E21.8937
G1 X129.126 Y150.609 E21.94435
G1 X127.743 Y150.69 E21.99503
G1 X126.358 Y150.692 E22.04571
G1 X124.976 Y150.613 E22.09635
G1 X123.6 Y150.455 E22.14702
G1 X122.235 Y150.218 E22.19771
G1 X120.887 Y149.902 E22.24837
G1 X119.559 Y149.509 E22.29904
G1 X118.256 Y149.04 E22.3497
G1 X116.982 Y148.496 E22.40038
G1 X115.742 Y147.88 E22.45104
G1 X115.035 Y147.488 E22.48062
G1 X110.872 Y145.084 E22.6565
G1 X105.932 Y145.084 E22.83723
G1 X104.548 Y145.044 E22.88789
G1 X103.168 Y144.924 E22.93857
G1 X101.797 Y144.725 E22.98925
G1 X100.441 Y144.447 E23.0399
G1 X99.102 Y144.091 E23.09059
G1 X97.787 Y143.658 E23.14124
G1 X96.498 Y143.15 E23.19193
G1 X95.241 Y142.569 E23.24259
G1 X94.02 Y141.916 E23.29325
G1 X92.838 Y141.194 E23.34392
G1 X91.7 Y140.404 E23.39461
G1 X90.61 Y139.551 E23.44525
G1 X89.571 Y138.635 E23.49592
G1 X88.976 Y138.06 E23.5262
G1 X88.847 Y137.931 E23.53287
G1 X87.896 Y136.924 E23.58355
G1 X87.005 Y135.864 E23.63421
G1 X86.177 Y134.754 E23.68487
G1 X85.414 Y133.598 E23.73555
G1 X84.72 Y132.4 E23.7862
G1 X84.095 Y131.164 E23.83687
G1 X83.543 Y129.894 E23.88754
G1 X83.065 Y128.594 E23.93821
G1 X82.664 Y127.268 E23.9889
G1 X82.339 Y125.922 E24.03956
G1 X82.092 Y124.559 E24.09024
G1 X81.925 Y123.184 E24.14091
G1 X81.837 Y121.802 E24.19158
G1 X81.823 Y121.007 E24.22067
G1 X81.822 Y120.265 E24.24781
G1 X81.86 Y118.881 E24.29847
G1 X81.978 Y117.501 E24.34914
G1 X82.176 Y116.13 E24.39982
G1 X82.186 Y116.079 E24.40172
G1 X82.092 Y115.559 E24.42105
G1 X81.925 Y114.184 E24.47173
G1 X81.837 Y112.802 E24.5224
G1 X81.823 Y111.975 E24.55266
G1 X81.823 Y111.233 E24.5798
G1 X81.863 Y109.849 E24.63046
G1 X81.983 Y108.469 E24.68114
G1 X82.182 Y107.098 E24.73182
G1 X82.46 Y105.742 E24.78247
G1 X82.816 Y104.403 E24.83316
G1 X83.249 Y103.088 E24.88381
G1 X83.757 Y101.799 E24.9345
G1 X84.338 Y100.542 E24.98516
G1 X84.991 Y99.321 E25.03582
G1 X85.713 Y98.139 E25.0865
G1 X86.503 Y97.001 E25.13718
G1 X87.356 Y95.911 E25.18782
G1 X88.272 Y94.872 E25.23849
G1 X88.469 Y94.669 E25.24884
G0 F810 X88.847 Y94.277
G0 X88.976 Y94.148
M204 S5000
M205 X30 Y30
G0 F2400 X89.287 Y94.459
M204 S500
M205 X20 Y20
G1 F6000 E25.27544
G1 F900 X90.285 Y93.517 E25.32565
G1 X91.336 Y92.635 E25.37585
G1 X92.437 Y91.816 E25.42605
G1 X93.584 Y91.063 E25.47625
G1 X94.772 Y90.377 E25.52644
G1 X95.999 Y89.762 E25.57666
G1 X97.259 Y89.22 E25.62684
G1 X98.549 Y88.752 E25.67705
G1 X99.864 Y88.359 E25.72726
G1 X101.2 Y88.045 E25.77747
G1 X102.551 Y87.808 E25.82765
G1 X103.914 Y87.651 E25.87785
G1 X105.284 Y87.573 E25.92805
G1 X106.089 Y87.565 E25.95751
G1 X112.999 Y87.611 E26.21032
G1 X114.324 Y87.658 E26.25883
G1 X114.985 Y87.299 E26.28635
