;FLAVOR:Marlin
;TIME:2701
;Filament used: 1.6032m
;Layer height: 0.2
;Generated with Cura_SteamEngine 3.6.0
M140 S70
M105
M190 S70
M104 S210
M105
M109 S210
M82 ;absolute extrusion mode
G28 ; home all axes
M117 Purge extruder
G92 E0 ; reset extruder
G1 Z1.0 F3000 ; move z up little to prevent scratching of surface
G1 X0.1 Y20 Z0.3 F5000.0 ; move to start-line position G1 X0.1 Y200.0 Z0.3 F1500.0 E15 ; draw 1st line
G1 X0.4 Y200.0 Z0.3 F5000.0 ; move to side a little
G1 X0.4 Y20 Z0.3 F1500.0 E30 ; draw 2nd line
G92 E0 ; reset extruder
G1 Z1.0 F3000 ; move z up little to prevent scratching of surface
M117 All systems go!
G92 E0
G1 F6000 E-5
;LAYER_COUNT:201
;LAYER:0
M107
M204 S5000
M205 X30 Y30
G0 F7200 X98.932 Y104.104 Z0.2
M204 S500
M205 X20 Y20
;TYPE:SKIRT
G1 F6000 E0
G1 F900 X99.588 Y103.503 E0.03255
G1 X100.296 Y102.965 E0.06508
G1 X101.05 Y102.491 E0.09767
G1 X101.843 Y102.088 E0.13021
G1 X102.669 Y101.757 E0.16277
G1 X103.521 Y101.502 E0.19531
G1 X104.393 Y101.324 E0.22787
G1 X105.277 Y101.226 E0.26041
G1 X105.998 Y101.204 E0.2868
G1 X112.908 Y101.25 E0.53961
G1 X113.796 Y101.296 E0.57215
G1 X114.677 Y101.422 E0.60471
G1 X115.543 Y101.626 E0.63726
G1 X116.387 Y101.907 E0.6698
G1 X116.691 Y102.039 E0.68193
G1 X120.636 Y99.745 E0.84889
G1 X121.425 Y99.333 E0.88145
G1 X122.247 Y98.993 E0.914
G1 X123.096 Y98.728 E0.94654
G1 X123.966 Y98.541 E0.97909
G1 X124.849 Y98.432 E1.01165
G1 X125.739 Y98.404 E1.04422
G1 X126.627 Y98.455 E1.07677
G1 X127.507 Y98.586 E1.10932
G1 X128.167 Y98.738 E1.13409
G1 X128.343 Y98.785 E1.14076
G1 X129.192 Y99.053 E1.17333
G1 X130.013 Y99.396 E1.20589
G1 X130.238 Y99.515 E1.2152
G1 X130.356 Y99.507 E1.21952
G1 X131.245 Y99.526 E1.25206
G1 X132.129 Y99.625 E1.2846
G1 X133.001 Y99.803 E1.31716
G1 X133.825 Y100.048 E1.34861
G1 X134.192 Y100.175 E1.36282
G1 X135.018 Y100.504 E1.39535
G1 X135.812 Y100.905 E1.4279
G1 X136.567 Y101.376 E1.46045
G1 X137.277 Y101.913 E1.49302
G1 X137.758 Y102.339 E1.51653
G1 X138.036 Y102.602 E1.53053
G1 X138.654 Y103.242 E1.56308
G1 X139.212 Y103.935 E1.59563
G1 X139.706 Y104.675 E1.62818
G1 X140.102 Y105.397 E1.65831
G1 X140.273 Y105.742 E1.6724
G1 X140.632 Y106.557 E1.70498
G1 X140.916 Y107.4 E1.73753
G1 X141.124 Y108.265 E1.77008
G1 X141.253 Y109.145 E1.80262
G1 X141.303 Y110.108 E1.8379
G1 X141.335 Y120.219 E2.20782
G1 X141.298 Y121.108 E2.24037
G1 X141.181 Y121.99 E2.27292
G1 X140.985 Y122.858 E2.30548
G1 X140.713 Y123.704 E2.33799
G1 X140.365 Y124.523 E2.37055
G1 X139.945 Y125.308 E2.40312
G1 X139.457 Y126.052 E2.43568
G1 X138.904 Y126.748 E2.4682
G1 X138.435 Y127.25 E2.49333
G1 X138.306 Y127.379 E2.50001
G1 X137.65 Y127.98 E2.53256
G1 X137.53 Y128.071 E2.53807
G1 X137.309 Y128.731 E2.56353
G1 X136.952 Y129.546 E2.59609
G1 X136.646 Y130.118 E2.61982
G1 X135.775 Y131.626 E2.68353
G1 X135.296 Y132.375 E2.71606
G1 X134.751 Y133.079 E2.74863
G1 X134.146 Y133.731 E2.78117
G1 X133.484 Y134.326 E2.81374
G1 X132.772 Y134.859 E2.84628
G1 X132.014 Y135.326 E2.87885
G1 X131.218 Y135.723 E2.9114
G1 X130.39 Y136.047 E2.94393
G1 X129.756 Y136.239 E2.96816
G1 X129.58 Y136.286 E2.97483
G1 X128.711 Y136.477 E3.00738
G1 X127.829 Y136.588 E3.0399
G1 X126.939 Y136.621 E3.07249
G1 X126.051 Y136.573 E3.10502
G1 X125.17 Y136.446 E3.13759
G1 X124.305 Y136.24 E3.17012
G1 X123.461 Y135.957 E3.20269
G1 X122.646 Y135.6 E3.23524
G1 X122.075 Y135.294 E3.25894
G1 X114.351 Y130.834 E3.58526
G1 X114.191 Y130.868 E3.59125
G1 X113.308 Y130.975 E3.62379
G1 X112.554 Y131.004 E3.65139
G1 X105.932 Y131.004 E3.89367
G1 X105.043 Y130.964 E3.92623
G1 X104.162 Y130.844 E3.95876
G1 X103.294 Y130.646 E3.99133
G1 X102.448 Y130.371 E4.02387
G1 X101.63 Y130.021 E4.05643
G1 X100.847 Y129.598 E4.08899
G1 X100.105 Y129.108 E4.12152
G1 X99.41 Y128.552 E4.15408
G1 X98.932 Y128.104 E4.17805
G1 X98.803 Y127.975 E4.18472
G1 X98.202 Y127.319 E4.21727
G1 X97.664 Y126.611 E4.24981
G1 X97.19 Y125.857 E4.28239
G1 X96.787 Y125.064 E4.31494
G1 X96.456 Y124.238 E4.34749
G1 X96.201 Y123.386 E4.38003
G1 X96.023 Y122.514 E4.41259
G1 X95.925 Y121.63 E4.44513
G1 X95.903 Y120.988 E4.46863
G1 X95.902 Y120.246 E4.49578
G1 X95.941 Y119.357 E4.52834
G1 X96.059 Y118.476 E4.56086
G1 X96.256 Y117.608 E4.59342
G1 X96.531 Y116.762 E4.62597
G1 X96.81 Y116.108 E4.65198
G1 X96.787 Y116.064 E4.6538
G1 X96.456 Y115.238 E4.68635
G1 X96.201 Y114.386 E4.71889
G1 X96.023 Y113.514 E4.75145
G1 X95.925 Y112.63 E4.78399
G1 X95.903 Y111.975 E4.80797
G1 X95.903 Y111.233 E4.83512
G1 X95.943 Y110.344 E4.86767
G1 X96.063 Y109.463 E4.9002
G1 X96.261 Y108.595 E4.93278
G1 X96.536 Y107.749 E4.96532
G1 X96.886 Y106.931 E4.99788
G1 X97.309 Y106.148 E5.03044
G1 X97.799 Y105.406 E5.06297
G1 X98.355 Y104.711 E5.09553
G1 X98.431 Y104.63 E5.09959
G0 F810 X98.803 Y104.233
G0 X98.932 Y104.104
M204 S5000
M205 X30 Y30
G0 F7200 X99.243 Y104.415
M204 S500
M205 X20 Y20
G1 F6000 E5.12619
G1 F900 X99.885 Y103.829 E5.15799
G1 X100.579 Y103.304 E5.18983
G1 X101.318 Y102.845 E5.22166
G1 X102.096 Y102.457 E5.25347
G1 X102.906 Y102.141 E5.28528
G1 X103.742 Y101.901 E5.3171
G1 X104.597 Y101.739 E5.34894
G1 X105.462 Y101.656 E5.38073
G1 X105.995 Y101.644 E5.40023
G1 X112.905 Y101.69 E5.65305
G1 X113.773 Y101.736 E5.68485
G1 X114.634 Y101.861 E5.71668
G1 X115.48 Y102.065 E5.74852
G1 X116.303 Y102.346 E5.78034
G1 X116.718 Y102.532 E5.79698
G1 X120.857 Y100.125 E5.97215
G1 X121.629 Y99.723 E6.004
G1 X122.433 Y99.393 E6.03579
G1 X123.265 Y99.139 E6.06762
G1 X124.117 Y98.962 E6.09946
G1 X124.981 Y98.864 E6.13127
G1 X125.85 Y98.846 E6.16307
G1 X126.718 Y98.908 E6.19491
G1 X127.576 Y99.049 E6.22672
G1 X128.054 Y99.163 E6.2447
G1 X128.23 Y99.21 E6.25136
G1 X129.059 Y99.473 E6.28318
G1 X129.86 Y99.811 E6.31499
G1 X130.143 Y99.962 E6.32673
G1 X130.385 Y99.946 E6.3356
G1 X131.255 Y99.968 E6.36744
G1 X132.119 Y100.069 E6.39926
G1 X132.969 Y100.249 E6.43105
G1 X133.681 Y100.464 E6.45826
G1 X134.048 Y100.591 E6.47247
G1 X134.856 Y100.913 E6.50429
G1 X135.631 Y101.308 E6.53612
G1 X136.366 Y101.772 E6.56792
G1 X137.056 Y102.302 E6.59975
G1 X137.455 Y102.659 E6.61934
G1 X137.733 Y102.922 E6.63334
G1 X138.337 Y103.548 E6.66517
G1 X138.881 Y104.227 E6.697
G1 X139.359 Y104.953 E6.7288
G1 X139.708 Y105.593 E6.75547
G1 X139.879 Y105.938 E6.76956
G1 X140.229 Y106.734 E6.80137
G1 X140.504 Y107.559 E6.83319
G1 X140.703 Y108.406 E6.86502
G1 X140.823 Y109.267 E6.89682
G1 X140.863 Y110.109 E6.92767
G1 X140.895 Y120.22 E7.29759
G1 X140.858 Y121.089 E7.32941
G1 X140.741 Y121.951 E7.36124
G1 X140.545 Y122.798 E7.39305
G1 X140.273 Y123.624 E7.42486
G1 X139.926 Y124.422 E7.4567
G1 X139.507 Y125.184 E7.48851
G1 X139.019 Y125.904 E7.52034
G1 X138.468 Y126.577 E7.55216
G1 X138.124 Y126.939 E7.57043
G1 X137.995 Y127.068 E7.5771
G1 X137.353 Y127.654 E7.60891
G1 X137.155 Y127.804 E7.61799
G1 X137.136 Y127.879 E7.62082
G1 X136.848 Y128.7 E7.65266
G1 X136.487 Y129.491 E7.68447
G1 X136.265 Y129.897 E7.7014
G1 X135.394 Y131.405 E7.76511
G1 X134.925 Y132.138 E7.79695
G1 X134.39 Y132.824 E7.82878
G1 X133.795 Y133.458 E7.86059
G1 X133.144 Y134.035 E7.89241
G1 X132.443 Y134.55 E7.92424
G1 X131.698 Y134.998 E7.95604
G1 X130.914 Y135.375 E7.98787
G1 X130.099 Y135.679 E8.01969
G1 X129.643 Y135.814 E8.03709
G1 X129.467 Y135.861 E8.04376
G1 X128.617 Y136.046 E8.07558
G1 X127.754 Y136.153 E8.1074
G1 X126.885 Y136.18 E8.13921
G1 X126.016 Y136.127 E8.17106
G1 X125.157 Y135.995 E8.20286
G1 X124.313 Y135.784 E8.23469
G1 X123.492 Y135.496 E8.26652
G1 X122.701 Y135.135 E8.29833
G1 X122.295 Y134.913 E8.31526
G1 X114.424 Y130.368 E8.64779
G1 X114.099 Y130.437 E8.65995
G1 X113.235 Y130.539 E8.69178
G1 X112.554 Y130.564 E8.71671
G1 X105.932 Y130.564 E8.95898
G1 X105.063 Y130.524 E8.99081
G1 X104.202 Y130.404 E9.02261
G1 X103.355 Y130.206 E9.05444
G1 X102.53 Y129.931 E9.08625
G1 X101.734 Y129.581 E9.11807
G1 X100.973 Y129.16 E9.14989
G1 X100.254 Y128.67 E9.18172
G1 X99.583 Y128.117 E9.21353
G1 X99.243 Y127.793 E9.23071
G1 X99.114 Y127.664 E9.23739
G1 X98.528 Y127.022 E9.26919
G1 X98.003 Y126.328 E9.30103
G1 X97.544 Y125.589 E9.33286
G1 X97.156 Y124.811 E9.36466
G1 X96.84 Y124.001 E9.39647
G1 X96.6 Y123.165 E9.42829
G1 X96.438 Y122.31 E9.46013
G1 X96.355 Y121.445 E9.49192
G1 X96.343 Y120.988 E9.50865
G1 X96.342 Y120.246 E9.5358
G1 X96.381 Y119.377 E9.56762
G1 X96.499 Y118.515 E9.59945
G1 X96.696 Y117.668 E9.63127
G1 X96.97 Y116.843 E9.66307
G1 X97.298 Y116.095 E9.69296
G1 X97.156 Y115.811 E9.70457
G1 X96.84 Y115.001 E9.73638
G1 X96.6 Y114.165 E9.7682
G1 X96.438 Y113.31 E9.80004
G1 X96.355 Y112.445 E9.83183
G1 X96.343 Y111.975 E9.84904
G1 X96.343 Y111.233 E9.87618
G1 X96.383 Y110.364 E9.90801
G1 X96.503 Y109.503 E9.93981
G1 X96.701 Y108.656 E9.97164
G1 X96.976 Y107.831 E10.00345
G1 X97.326 Y107.035 E10.03527
G1 X97.747 Y106.274 E10.06709
G1 X98.237 Y105.555 E10.09892
G1 X98.742 Y104.942 E10.12798
G0 F810 X98.79 Y104.884
G0 X99.114 Y104.544
G0 X99.243 Y104.415
M204 S5000
M205 X30 Y30
G0 F7200 X99.554 Y104.726
M204 S500
M205 X20 Y20
G1 F6000 E10.15458
G1 F900 X100.182 Y104.154 E10.18565
G1 X100.861 Y103.644 E10.21672
G1 X101.585 Y103.201 E10.24778
G1 X102.348 Y102.827 E10.27886
G1 X103.142 Y102.526 E10.30993
G1 X103.961 Y102.302 E10.341
G1 X104.798 Y102.156 E10.37208
G1 X105.992 Y102.084 E10.41584
G1 X112.902 Y102.13 E10.66866
G1 X113.75 Y102.176 E10.69973
G1 X114.59 Y102.301 E10.7308
G1 X115.414 Y102.505 E10.76186
G1 X116.216 Y102.785 E10.79294
G1 X116.744 Y103.027 E10.81419
G1 X121.079 Y100.506 E10.99766
G1 X121.832 Y100.114 E11.02872
G1 X122.619 Y99.794 E11.0598
G1 X123.432 Y99.551 E11.09084
G1 X124.265 Y99.384 E11.12193
G1 X125.11 Y99.297 E11.15301
G1 X125.959 Y99.29 E11.18407
G1 X126.805 Y99.362 E11.21513
G1 X127.94 Y99.588 E11.25747
G1 X128.116 Y99.635 E11.26414
G1 X128.925 Y99.893 E11.2952
G1 X129.707 Y100.225 E11.32629
G1 X130.049 Y100.41 E11.34051
G1 X130.415 Y100.386 E11.35393
G1 X131.264 Y100.409 E11.385
G1 X132.107 Y100.513 E11.41608
G1 X132.936 Y100.695 E11.44713
G1 X133.537 Y100.88 E11.47014
G1 X133.904 Y101.007 E11.48435
G1 X134.692 Y101.322 E11.5154
G1 X135.448 Y101.71 E11.54648
G1 X136.163 Y102.167 E11.57753
G1 X136.833 Y102.69 E11.60863
G1 X137.153 Y102.979 E11.6244
G1 X137.431 Y103.242 E11.6384
G1 X138.02 Y103.854 E11.66948
G1 X138.548 Y104.518 E11.70052
G1 X139.012 Y105.23 E11.73161
G1 X139.314 Y105.788 E11.75482
G1 X139.485 Y106.133 E11.76891
G1 X139.826 Y106.911 E11.79999
G1 X140.092 Y107.717 E11.83104
G1 X140.281 Y108.545 E11.86211
G1 X140.392 Y109.387 E11.89319
G1 X140.423 Y110.11 E11.91966
G1 X140.455 Y120.221 E12.28959
G1 X140.418 Y121.07 E12.32068
G1 X140.301 Y121.911 E12.35174
G1 X140.105 Y122.737 E12.3828
G1 X139.833 Y123.542 E12.41389
G1 X139.486 Y124.317 E12.44496
G1 X139.068 Y125.056 E12.47602
G1 X138.582 Y125.753 E12.50711
G1 X137.813 Y126.628 E12.54973
G1 X137.684 Y126.757 E12.5564
G1 X137.056 Y127.329 E12.58748
G1 X136.763 Y127.549 E12.60088
G1 X136.679 Y127.867 E12.61292
G1 X136.387 Y128.665 E12.64401
G1 X135.884 Y129.677 E12.68535
G1 X135.013 Y131.185 E12.74907
G1 X134.554 Y131.9 E12.78015
G1 X134.03 Y132.568 E12.81121
G1 X133.445 Y133.184 E12.84229
G1 X132.805 Y133.742 E12.87336
G1 X132.116 Y134.238 E12.90442
G1 X131.383 Y134.667 E12.93549
G1 X130.612 Y135.024 E12.96658
G1 X129.529 Y135.389 E13.00839
G1 X129.353 Y135.436 E13.01505
G1 X128.523 Y135.616 E13.04613
G1 X127.68 Y135.717 E13.07719
G1 X126.831 Y135.739 E13.10826
G1 X125.984 Y135.681 E13.13932
G1 X125.146 Y135.543 E13.1704
G1 X124.325 Y135.327 E13.20145
G1 X123.527 Y135.035 E13.23254
G1 X122.516 Y134.532 E13.27386
G1 X114.498 Y129.902 E13.6126
G1 X114.007 Y130.006 E13.63096
G1 X113.164 Y130.103 E13.66201
G1 X112.554 Y130.124 E13.68434
G1 X105.932 Y130.124 E13.92661
G1 X105.084 Y130.084 E13.95767
G1 X104.243 Y129.964 E13.98875
G1 X103.417 Y129.766 E14.01983
G1 X102.614 Y129.491 E14.05088
G1 X101.84 Y129.142 E14.08195
G1 X101.102 Y128.722 E14.11301
G1 X100.407 Y128.234 E14.14408
G1 X99.554 Y127.482 E14.18569
G1 X99.425 Y127.353 E14.19236
G1 X98.853 Y126.725 E14.22344
G1 X98.343 Y126.046 E14.25451
G1 X97.9 Y125.322 E14.28556
G1 X97.526 Y124.559 E14.31665
G1 X97.225 Y123.765 E14.34772
G1 X97.001 Y122.946 E14.37878
G1 X96.855 Y122.109 E14.40987
G1 X96.783 Y120.987 E14.451
G1 X96.782 Y120.245 E14.47815
G1 X96.821 Y119.397 E14.50921
G1 X96.939 Y118.556 E14.54028
G1 X97.136 Y117.73 E14.57134
G1 X97.41 Y116.926 E14.60242
G1 X97.758 Y116.151 E14.6335
G1 X97.789 Y116.096 E14.63581
G1 X97.526 Y115.559 E14.65769
G1 X97.225 Y114.765 E14.68875
G1 X97.001 Y113.946 E14.71982
G1 X96.855 Y113.109 E14.7509
G1 X96.783 Y111.975 E14.79248
G1 X96.783 Y111.233 E14.81962
G1 X96.823 Y110.385 E14.85068
G1 X96.943 Y109.544 E14.88176
G1 X97.141 Y108.718 E14.91284
G1 X97.416 Y107.915 E14.94389
G1 X97.765 Y107.141 E14.97496
G1 X98.185 Y106.403 E15.00602
G1 X98.673 Y105.708 E15.03709
G1 X99.065 Y105.263 E15.05879
G0 F810 X99.425 Y104.855
G0 X99.554 Y104.726
M204 S5000
M205 X30 Y30
G0 F7200 X99.865 Y105.037
M204 S500
M205 X20 Y20
G1 F6000 E15.08539
G1 F900 X100.478 Y104.48 E15.11569
G1 X101.142 Y103.985 E15.14599
G1 X101.851 Y103.557 E15.17629
G1 X102.598 Y103.198 E15.20661
G1 X103.376 Y102.914 E15.23691
G1 X104.177 Y102.705 E15.2672
G1 X104.995 Y102.575 E15.2975
G1 X105.989 Y102.524 E15.33392
G1 X112.899 Y102.57 E15.58673
G1 X113.726 Y102.616 E15.61704
G1 X114.545 Y102.741 E15.64735
G1 X115.348 Y102.944 E15.67765
G1 X116.127 Y103.224 E15.70794
G1 X116.746 Y103.534 E15.73327
G1 X121.3 Y100.886 E15.926
G1 X122.035 Y100.505 E15.95629
G1 X122.804 Y100.196 E15.98661
G1 X123.598 Y99.963 E16.01688
G1 X124.412 Y99.807 E16.04721
G1 X125.237 Y99.731 E16.07752
G1 X126.065 Y99.735 E16.10781
G1 X126.889 Y99.818 E16.13811
G1 X127.827 Y100.013 E16.17316
G1 X128.003 Y100.06 E16.17983
G1 X128.792 Y100.313 E16.21014
G1 X129.553 Y100.64 E16.24044
G1 X129.949 Y100.857 E16.25697
G1 X130.444 Y100.825 E16.27511
G1 X131.271 Y100.851 E16.30539
G1 X132.093 Y100.957 E16.33571
G1 X132.9 Y101.142 E16.366
G1 X133.393 Y101.296 E16.3849
G1 X133.76 Y101.423 E16.3991
G1 X134.529 Y101.731 E16.42941
G1 X135.264 Y102.112 E16.4597
G1 X135.959 Y102.562 E16.48999
G1 X136.85 Y103.298 E16.53227
G1 X137.128 Y103.561 E16.54628
G1 X137.702 Y104.159 E16.5766
G1 X138.215 Y104.809 E16.6069
G1 X138.663 Y105.505 E16.63718
G1 X138.92 Y105.984 E16.65707
G1 X139.091 Y106.329 E16.67116
G1 X139.422 Y107.088 E16.70145
G1 X139.679 Y107.875 E16.73174
G1 X139.859 Y108.684 E16.76206
G1 X139.96 Y109.506 E16.79236
G1 X139.983 Y110.112 E16.81455
G1 X140.015 Y120.223 E17.18447
G1 X139.978 Y121.05 E17.21476
G1 X139.861 Y121.87 E17.24506
G1 X139.665 Y122.675 E17.27538
G1 X139.393 Y123.457 E17.30567
G1 X139.047 Y124.21 E17.33599
G1 X138.629 Y124.925 E17.36629
G1 X138.145 Y125.597 E17.39659
G1 X137.502 Y126.317 E17.4319
G1 X137.373 Y126.446 E17.43858
G1 X136.76 Y127.003 E17.46888
G1 X136.378 Y127.288 E17.48632
G1 X136.222 Y127.852 E17.50773
G1 X135.925 Y128.626 E17.53806
G1 X135.503 Y129.457 E17.57216
G1 X134.632 Y130.965 E17.63587
G1 X134.183 Y131.662 E17.66621
G1 X133.67 Y132.312 E17.6965
G1 X133.096 Y132.909 E17.7268
G1 X132.468 Y133.448 E17.75708
G1 X131.79 Y133.924 E17.78739
G1 X131.069 Y134.333 E17.81771
G1 X130.313 Y134.67 E17.848
G1 X129.416 Y134.964 E17.88253
G1 X129.24 Y135.011 E17.8892
G1 X128.43 Y135.185 E17.91951
G1 X127.607 Y135.281 E17.94982
G1 X126.779 Y135.297 E17.98012
G1 X125.954 Y135.234 E18.01039
G1 X125.138 Y135.091 E18.0407
G1 X124.34 Y134.87 E18.071
G1 X123.566 Y134.573 E18.10133
G1 X122.736 Y134.151 E18.13539
G1 X114.572 Y129.437 E18.4803
G1 X113.916 Y129.575 E18.50483
G1 X113.093 Y129.667 E18.53512
G1 X112.554 Y129.684 E18.55485
G1 X105.932 Y129.684 E18.79713
G1 X105.105 Y129.644 E18.82742
G1 X104.285 Y129.524 E18.85774
G1 X103.481 Y129.326 E18.88803
G1 X102.7 Y129.052 E18.91832
G1 X101.948 Y128.703 E18.94865
G1 X101.234 Y128.284 E18.97893
G1 X100.564 Y127.797 E19.00924
G1 X99.865 Y127.171 E19.04357
G1 X99.736 Y127.042 E19.05024
G1 X99.179 Y126.429 E19.08055
G1 X98.684 Y125.765 E19.11085
G1 X98.256 Y125.056 E19.14115
G1 X97.897 Y124.309 E19.17147
G1 X97.613 Y123.531 E19.20177
G1 X97.404 Y122.73 E19.23206
G1 X97.274 Y121.912 E19.26236
G1 X97.223 Y120.987 E19.29625
G1 X97.222 Y120.245 E19.3234
