;FLAVOR:Marlin
;TIME:8054
;Filament used: 7.5814m
;Layer height: 0.2
;Generated with Cura_SteamEngine 3.6.0
M140 S70
M105
M190 S70
M104 S215
M105
M109 S215
M82 ;absolute extrusion mode
G28 ; home all axes
M117 Purge extruder
G92 E0 ; reset extruder
G1 Z1.0 F3000 ; move z up little to prevent scratching of surface
G1 X0.1 Y20 Z0.3 F5000.0 ; move to start-line position G1 X0.1 Y200.0 Z0.3 F1500.0 E15 ; draw 1st line
G1 X0.4 Y200.0 Z0.3 F5000.0 ; move to side a little
G1 X0.4 Y20 Z0.3 F1500.0 E30 ; draw 2nd line
G92 E0 ; reset extruder
G1 Z1.0 F3000 ; move z up little to prevent scratching of surface
M117 All systems go!
G92 E0
G1 F6000 E-5
;LAYER_COUNT:26
;LAYER:0
M107
M204 S5000
M205 X30 Y30
G0 F7200 X81.496 Y64.302 Z0.2
M204 S500
M205 X20 Y20
;TYPE:SKIRT
G1 F6000 E0
G1 F900 X82.052 Y63.607 E0.03256
G1 X82.5 Y63.129 E0.05653
G1 X82.629 Y63 E0.06321
G1 X83.285 Y62.399 E0.09576
G1 X83.993 Y61.861 E0.12829
G1 X84.747 Y61.387 E0.16087
G1 X85.54 Y60.984 E0.19342
G1 X86.366 Y60.653 E0.22597
G1 X87.218 Y60.398 E0.25851
G1 X88.09 Y60.22 E0.29107
G1 X88.974 Y60.122 E0.32361
G1 X89.629 Y60.1 E0.34759
G1 X101.371 Y60.1 E0.77718
G1 X102.26 Y60.14 E0.80974
G1 X103.141 Y60.26 E0.84227
G1 X104.009 Y60.458 E0.87485
G1 X104.855 Y60.733 E0.90739
G1 X105.673 Y61.083 E0.93994
G1 X106.456 Y61.506 E0.9725
G1 X106.506 Y61.539 E0.9747
G1 X106.747 Y61.387 E0.98512
G1 X107.54 Y60.984 E1.01766
G1 X108.366 Y60.653 E1.05022
G1 X109.218 Y60.398 E1.08276
G1 X110.09 Y60.22 E1.11532
G1 X110.974 Y60.122 E1.14786
G1 X111.629 Y60.1 E1.17184
G1 X123.371 Y60.1 E1.60143
G1 X124.26 Y60.14 E1.63399
G1 X125.141 Y60.26 E1.66652
G1 X126.009 Y60.458 E1.69909
G1 X126.855 Y60.733 E1.73164
G1 X127.673 Y61.083 E1.76419
G1 X128.456 Y61.506 E1.79675
G1 X128.506 Y61.539 E1.79894
G1 X128.747 Y61.387 E1.80937
G1 X129.54 Y60.984 E1.84191
G1 X130.366 Y60.653 E1.87447
G1 X131.218 Y60.398 E1.907
G1 X132.09 Y60.22 E1.93957
G1 X132.974 Y60.122 E1.97211
G1 X133.629 Y60.1 E1.99608
G1 X145.371 Y60.1 E2.42568
G1 X146.26 Y60.14 E2.45824
G1 X147.141 Y60.26 E2.49077
G1 X148.009 Y60.458 E2.52334
G1 X148.855 Y60.733 E2.55588
G1 X149.673 Y61.083 E2.58844
G1 X150.456 Y61.506 E2.621
G1 X151.198 Y61.996 E2.65353
G1 X151.893 Y62.552 E2.68609
G1 X152.371 Y63 E2.71006
G1 X152.5 Y63.129 E2.71673
G1 X153.101 Y63.785 E2.74928
G1 X153.639 Y64.493 E2.78182
G1 X154.113 Y65.247 E2.8144
G1 X154.516 Y66.04 E2.84695
G1 X154.847 Y66.866 E2.8795
G1 X155.102 Y67.718 E2.91204
G1 X155.28 Y68.59 E2.9446
G1 X155.378 Y69.474 E2.97714
G1 X155.4 Y70.129 E3.00112
G1 X155.4 Y164.871 E6.46736
G1 X155.36 Y165.76 E6.49992
G1 X155.24 Y166.641 E6.53245
G1 X155.042 Y167.509 E6.56502
G1 X154.767 Y168.355 E6.59757
G1 X154.417 Y169.173 E6.63012
G1 X153.994 Y169.956 E6.66268
G1 X153.504 Y170.698 E6.69521
G1 X152.948 Y171.393 E6.72778
G1 X152.5 Y171.871 E6.75175
G1 X152.371 Y172 E6.75842
G1 X151.715 Y172.601 E6.79097
G1 X151.007 Y173.139 E6.8235
G1 X150.253 Y173.613 E6.85609
G1 X149.46 Y174.016 E6.88863
G1 X148.634 Y174.347 E6.92119
G1 X147.782 Y174.602 E6.95373
G1 X146.91 Y174.78 E6.98629
G1 X146.026 Y174.878 E7.01883
G1 X145.371 Y174.9 E7.0428
G1 X133.629 Y174.9 E7.4724
G1 X132.74 Y174.86 E7.50496
G1 X131.859 Y174.74 E7.53749
G1 X130.991 Y174.542 E7.57006
G1 X130.145 Y174.267 E7.6026
G1 X129.327 Y173.917 E7.63516
G1 X128.544 Y173.494 E7.66772
G1 X128.494 Y173.461 E7.66991
G1 X128.253 Y173.613 E7.68033
G1 X127.46 Y174.016 E7.71288
G1 X126.634 Y174.347 E7.74543
G1 X125.782 Y174.602 E7.77797
G1 X124.91 Y174.78 E7.81053
G1 X124.026 Y174.878 E7.84307
G1 X123.371 Y174.9 E7.86705
G1 X111.629 Y174.9 E8.29664
G1 X110.74 Y174.86 E8.3292
G1 X109.859 Y174.74 E8.36173
G1 X108.991 Y174.542 E8.39431
G1 X108.145 Y174.267 E8.42685
G1 X107.327 Y173.917 E8.4594
G1 X106.544 Y173.494 E8.49196
G1 X106.494 Y173.461 E8.49415
G1 X106.253 Y173.613 E8.50458
G1 X105.46 Y174.016 E8.53712
G1 X104.634 Y174.347 E8.56968
G1 X103.782 Y174.602 E8.60222
G1 X102.91 Y174.78 E8.63478
G1 X102.026 Y174.878 E8.66732
G1 X101.371 Y174.9 E8.6913
G1 X89.629 Y174.9 E9.12089
G1 X88.74 Y174.86 E9.15345
G1 X87.859 Y174.74 E9.18598
G1 X86.991 Y174.542 E9.21855
G1 X86.145 Y174.267 E9.2511
G1 X85.327 Y173.917 E9.28365
G1 X84.544 Y173.494 E9.31621
G1 X83.802 Y173.004 E9.34874
G1 X83.107 Y172.448 E9.3813
G1 X82.629 Y172 E9.40527
G1 X82.5 Y171.871 E9.41195
G1 X81.899 Y171.215 E9.4445
G1 X81.361 Y170.507 E9.47703
G1 X80.887 Y169.753 E9.50961
G1 X80.484 Y168.96 E9.54216
G1 X80.153 Y168.134 E9.57472
G1 X79.898 Y167.282 E9.60725
G1 X79.72 Y166.41 E9.63981
G1 X79.622 Y165.526 E9.67235
G1 X79.6 Y164.871 E9.69633
G1 X79.6 Y70.129 E13.16258
G1 X79.64 Y69.24 E13.19513
G1 X79.76 Y68.359 E13.22766
G1 X79.958 Y67.491 E13.26024
G1 X80.233 Y66.645 E13.29278
G1 X80.583 Y65.827 E13.32534
G1 X81.006 Y65.044 E13.3579
G1 X81.096 Y64.908 E13.36386
G0 F810 X81.496 Y64.302
M204 S5000
M205 X30 Y30
G0 F7200 X81.934 Y64.451
M204 S500
M205 X20 Y20
G1 F6000 E13.39046
G1 F900 X82.487 Y63.78 E13.42227
G1 X82.811 Y63.44 E13.43945
G1 X82.94 Y63.311 E13.44613
G1 X83.582 Y62.725 E13.47793
G1 X84.276 Y62.2 E13.50977
G1 X85.015 Y61.741 E13.5416
G1 X85.793 Y61.353 E13.5734
G1 X86.603 Y61.037 E13.60521
G1 X87.439 Y60.797 E13.63704
G1 X88.294 Y60.635 E13.66887
G1 X89.159 Y60.552 E13.70067
G1 X89.629 Y60.54 E13.71787
G1 X101.371 Y60.54 E14.14746
G1 X102.24 Y60.58 E14.17929
G1 X103.101 Y60.7 E14.21109
G1 X103.948 Y60.898 E14.24292
G1 X104.773 Y61.173 E14.27473
G1 X105.569 Y61.523 E14.30655
G1 X106.33 Y61.944 E14.33837
G1 X106.501 Y62.06 E14.34593
G1 X107.015 Y61.741 E14.36806
G1 X107.793 Y61.353 E14.39987
G1 X108.603 Y61.037 E14.43168
G1 X109.439 Y60.797 E14.4635
G1 X110.294 Y60.635 E14.49533
G1 X111.159 Y60.552 E14.52713
G1 X111.629 Y60.54 E14.54433
G1 X123.371 Y60.54 E14.97392
G1 X124.24 Y60.58 E15.00575
G1 X125.101 Y60.7 E15.03755
G1 X125.948 Y60.898 E15.06938
G1 X126.773 Y61.173 E15.1012
G1 X127.569 Y61.523 E15.13301
G1 X128.33 Y61.944 E15.16483
G1 X128.501 Y62.06 E15.17239
G1 X129.015 Y61.741 E15.19452
G1 X129.793 Y61.353 E15.22633
G1 X130.603 Y61.037 E15.25814
G1 X131.439 Y60.797 E15.28996
G1 X132.294 Y60.635 E15.3218
G1 X133.159 Y60.552 E15.35359
G1 X133.629 Y60.54 E15.37079
G1 X145.371 Y60.54 E15.80038
G1 X146.24 Y60.58 E15.83221
G1 X147.101 Y60.7 E15.86402
G1 X147.948 Y60.898 E15.89584
G1 X148.773 Y61.173 E15.92766
G1 X149.569 Y61.523 E15.95947
G1 X150.33 Y61.944 E15.99129
G1 X151.049 Y62.434 E16.02312
G1 X151.72 Y62.987 E16.05493
G1 X152.06 Y63.311 E16.07212
G1 X152.189 Y63.44 E16.07879
G1 X152.775 Y64.082 E16.11059
G1 X153.3 Y64.776 E16.14243
G1 X153.759 Y65.515 E16.17426
G1 X154.147 Y66.293 E16.20607
G1 X154.463 Y67.103 E16.23788
G1 X154.703 Y67.939 E16.2697
G1 X154.865 Y68.794 E16.30154
G1 X154.948 Y69.659 E16.33333
G1 X154.96 Y70.129 E16.35053
G1 X154.96 Y164.871 E19.81677
G1 X154.92 Y165.74 E19.8486
G1 X154.8 Y166.601 E19.88041
G1 X154.602 Y167.448 E19.91223
G1 X154.327 Y168.273 E19.94405
G1 X153.977 Y169.069 E19.97586
G1 X153.556 Y169.83 E20.00768
G1 X153.066 Y170.549 E20.03951
G1 X152.513 Y171.22 E20.07132
G1 X152.189 Y171.56 E20.08851
G1 X152.06 Y171.689 E20.09518
G1 X151.418 Y172.275 E20.12698
G1 X150.724 Y172.8 E20.15882
G1 X149.985 Y173.259 E20.19065
G1 X149.207 Y173.647 E20.22246
G1 X148.397 Y173.963 E20.25427
G1 X147.561 Y174.203 E20.28609
G1 X146.706 Y174.365 E20.31792
G1 X145.841 Y174.448 E20.34972
G1 X145.371 Y174.46 E20.36692
G1 X133.629 Y174.46 E20.79651
G1 X132.76 Y174.42 E20.82834
G1 X131.899 Y174.3 E20.86015
G1 X131.052 Y174.102 E20.89197
G1 X130.227 Y173.827 E20.92379
G1 X129.431 Y173.477 E20.9556
G1 X128.67 Y173.056 E20.98742
G1 X128.499 Y172.94 E20.99498
G1 X127.985 Y173.259 E21.01711
G1 X127.207 Y173.647 E21.04892
G1 X126.397 Y173.963 E21.08073
G1 X125.561 Y174.203 E21.11255
G1 X124.706 Y174.365 E21.14439
G1 X123.841 Y174.448 E21.17618
G1 X123.371 Y174.46 E21.19338
G1 X111.629 Y174.46 E21.62297
G1 X110.76 Y174.42 E21.6548
G1 X109.899 Y174.3 E21.68661
G1 X109.052 Y174.102 E21.71843
G1 X108.227 Y173.827 E21.75025
G1 X107.431 Y173.477 E21.78206
G1 X106.67 Y173.056 E21.81388
G1 X106.499 Y172.94 E21.82144
G1 X105.985 Y173.259 E21.84357
G1 X105.207 Y173.647 E21.87538
G1 X104.397 Y173.963 E21.90719
G1 X103.561 Y174.203 E21.93901
G1 X102.706 Y174.365 E21.97085
G1 X101.841 Y174.448 E22.00264
G1 X101.371 Y174.46 E22.01984
G1 X89.629 Y174.46 E22.44944
G1 X88.76 Y174.42 E22.48126
G1 X87.899 Y174.3 E22.51307
G1 X87.052 Y174.102 E22.54489
G1 X86.227 Y173.827 E22.57671
G1 X85.431 Y173.477 E22.60852
G1 X84.67 Y173.056 E22.64034
G1 X83.951 Y172.566 E22.67217
G1 X83.28 Y172.013 E22.70399
G1 X82.94 Y171.689 E22.72117
G1 X82.811 Y171.56 E22.72784
G1 X82.225 Y170.918 E22.75965
G1 X81.7 Y170.224 E22.79148
G1 X81.241 Y169.485 E22.82331
G1 X80.853 Y168.707 E22.85512
G1 X80.537 Y167.897 E22.88693
G1 X80.297 Y167.061 E22.91875
G1 X80.135 Y166.206 E22.95059
G1 X80.052 Y165.341 E22.98238
G1 X80.04 Y164.871 E22.99958
G1 X80.04 Y70.129 E26.46583
G1 X80.08 Y69.26 E26.49765
G1 X80.2 Y68.399 E26.52946
G1 X80.398 Y67.552 E26.56128
G1 X80.673 Y66.727 E26.5931
G1 X81.023 Y65.931 E26.62491
G1 X81.444 Y65.17 E26.65673
G1 X81.525 Y65.051 E26.662
G0 F810 X81.934 Y64.451
M204 S5000
M205 X30 Y30
G0 F7200 X82.37 Y64.604
M204 S500
M205 X20 Y20
G1 F6000 E26.68859
G1 F900 X83.122 Y63.751 E26.7302
G1 X83.251 Y63.622 E26.73687
G1 X83.879 Y63.05 E26.76795
G1 X84.558 Y62.54 E26.79902
G1 X85.282 Y62.097 E26.83007
G1 X86.045 Y61.723 E26.86116
G1 X86.839 Y61.422 E26.89223
G1 X87.658 Y61.198 E26.92329
G1 X88.495 Y61.052 E26.95438
G1 X89.629 Y60.98 E26.99595
G1 X101.371 Y60.98 E27.42555
G1 X102.219 Y61.02 E27.45661
G1 X103.06 Y61.14 E27.48769
G1 X103.886 Y61.338 E27.51876
G1 X104.689 Y61.613 E27.54982
G1 X105.463 Y61.962 E27.58088
G1 X106.201 Y62.382 E27.61195
G1 X106.494 Y62.588 E27.62505
G1 X106.558 Y62.54 E27.62798
G1 X107.282 Y62.097 E27.65903
G1 X108.045 Y61.723 E27.69012
G1 X108.839 Y61.422 E27.72119
G1 X109.658 Y61.198 E27.75225
G1 X110.495 Y61.052 E27.78334
G1 X111.629 Y60.98 E27.82491
G1 X123.371 Y60.98 E28.2545
G1 X124.219 Y61.02 E28.28556
G1 X125.06 Y61.14 E28.31664
G1 X125.886 Y61.338 E28.34772
G1 X126.689 Y61.613 E28.37877
G1 X127.463 Y61.962 E28.40984
G1 X128.201 Y62.382 E28.4409
G1 X128.494 Y62.588 E28.45401
G1 X128.558 Y62.54 E28.45693
G1 X129.282 Y62.097 E28.48799
G1 X130.045 Y61.723 E28.51908
G1 X130.839 Y61.422 E28.55014
G1 X131.658 Y61.198 E28.58121
G1 X132.495 Y61.052 E28.61229
G1 X133.629 Y60.98 E28.65386
G1 X145.371 Y60.98 E29.08346
G1 X146.219 Y61.02 E29.11452
G1 X147.06 Y61.14 E29.1456
G1 X147.886 Y61.338 E29.17667
G1 X148.689 Y61.613 E29.20773
G1 X149.463 Y61.962 E29.23879
G1 X150.201 Y62.382 E29.26986
G1 X150.896 Y62.87 E29.30093
G1 X151.749 Y63.622 E29.34253
G1 X151.878 Y63.751 E29.34921
G1 X152.45 Y64.379 E29.38028
G1 X152.96 Y65.058 E29.41135
G1 X153.403 Y65.782 E29.44241
G1 X153.777 Y66.545 E29.4735
G1 X154.078 Y67.339 E29.50456
G1 X154.302 Y68.158 E29.53563
G1 X154.448 Y68.995 E29.56671
G1 X154.52 Y70.129 E29.60828
G1 X154.52 Y164.871 E33.07453
G1 X154.48 Y165.719 E33.10559
G1 X154.36 Y166.56 E33.13667
G1 X154.162 Y167.386 E33.16775
G1 X153.887 Y168.189 E33.1988
G1 X153.538 Y168.963 E33.22986
G1 X153.118 Y169.701 E33.26093
G1 X152.63 Y170.396 E33.292
G1 X151.878 Y171.249 E33.3336
G1 X151.749 Y171.378 E33.34028
G1 X151.121 Y171.95 E33.37136
G1 X150.442 Y172.46 E33.40242
G1 X149.718 Y172.903 E33.43348
G1 X148.955 Y173.277 E33.46457
G1 X148.161 Y173.578 E33.49563
G1 X147.342 Y173.802 E33.5267
G1 X146.505 Y173.948 E33.55778
G1 X145.371 Y174.02 E33.59935
G1 X133.629 Y174.02 E34.02895
G1 X132.781 Y173.98 E34.06001
G1 X131.94 Y173.86 E34.09109
G1 X131.114 Y173.662 E34.12217
G1 X130.311 Y173.387 E34.15322
G1 X129.537 Y173.038 E34.18428
G1 X128.799 Y172.618 E34.21535
G1 X128.506 Y172.412 E34.22845
G1 X128.442 Y172.46 E34.23138
G1 X127.718 Y172.903 E34.26243
G1 X126.955 Y173.277 E34.29352
G1 X126.161 Y173.578 E34.32459
G1 X125.342 Y173.802 E34.35565
G1 X124.505 Y173.948 E34.38674
G1 X123.371 Y174.02 E34.42831
G1 X111.629 Y174.02 E34.85791
G1 X110.781 Y173.98 E34.88897
G1 X109.94 Y173.86 E34.92005
G1 X109.114 Y173.662 E34.95112
G1 X108.311 Y173.387 E34.98218
G1 X107.537 Y173.038 E35.01324
G1 X106.799 Y172.618 E35.04431
G1 X106.506 Y172.412 E35.05741
G1 X106.442 Y172.46 E35.06034
G1 X105.718 Y172.903 E35.09139
G1 X104.955 Y173.277 E35.12248
G1 X104.161 Y173.578 E35.15355
G1 X103.342 Y173.802 E35.18461
G1 X102.505 Y173.948 E35.2157
G1 X101.371 Y174.02 E35.25727
G1 X89.629 Y174.02 E35.68686
G1 X88.781 Y173.98 E35.71792
G1 X87.94 Y173.86 E35.749
G1 X87.114 Y173.662 E35.78008
G1 X86.311 Y173.387 E35.81113
G1 X85.537 Y173.038 E35.8422
G1 X84.799 Y172.618 E35.87326
G1 X84.104 Y172.13 E35.90433
G1 X83.251 Y171.378 E35.94594
G1 X83.122 Y171.249 E35.95261
G1 X82.55 Y170.621 E35.98369
G1 X82.04 Y169.942 E36.01476
G1 X81.597 Y169.218 E36.04581
G1 X81.223 Y168.455 E36.0769
G1 X80.922 Y167.661 E36.10797
G1 X80.698 Y166.842 E36.13903
G1 X80.552 Y166.005 E36.17012
G1 X80.48 Y164.871 E36.21169
G1 X80.48 Y70.129 E39.67793
G1 X80.52 Y69.281 E39.70899
G1 X80.64 Y68.44 E39.74007
G1 X80.838 Y67.614 E39.77115
G1 X81.113 Y66.811 E39.8022
G1 X81.462 Y66.037 E39.83327
G1 X81.882 Y65.299 E39.86433
G1 X81.953 Y65.199 E39.86882
G0 F810 X82.37 Y64.604
M204 S5000
M205 X30 Y30
G0 F7200 X82.807 Y64.761
M204 S500
M205 X20 Y20
G1 F6000 E39.89542
G1 F900 X83.433 Y64.062 E39.92975
G1 X83.562 Y63.933 E39.93642
G1 X84.175 Y63.376 E39.96673
G1 X84.839 Y62.881 E39.99703
G1 X85.548 Y62.453 E40.02733
G1 X86.295 Y62.094 E40.05765
G1 X87.073 Y61.81 E40.08795
G1 X87.874 Y61.601 E40.11824
G1 X88.692 Y61.471 E40.14854
G1 X89.629 Y61.42 E40.18287
G1 X101.371 Y61.42 E40.61247
G1 X102.198 Y61.46 E40.64276
G1 X103.018 Y61.58 E40.67308
G1 X103.822 Y61.778 E40.70337
G1 X104.603 Y62.052 E40.73365
G1 X105.355 Y62.401 E40.76398
G1 X106.069 Y62.82 E40.79427
G1 X106.5 Y63.133 E40.81376
G1 X106.839 Y62.881 E40.82922
G1 X107.548 Y62.453 E40.85951
G1 X108.295 Y62.094 E40.88984
G1 X109.073 Y61.81 E40.92014
G1 X109.874 Y61.601 E40.95042
G1 X110.692 Y61.471 E40.98073
G1 X111.629 Y61.42 E41.01506
G1 X123.371 Y61.42 E41.44465
G1 X124.198 Y61.46 E41.47495
G1 X125.018 Y61.58 E41.50527
G1 X125.822 Y61.778 E41.53556
G1 X126.603 Y62.052 E41.56584
G1 X127.355 Y62.401 E41.59617
G1 X128.069 Y62.82 E41.62646
G1 X128.5 Y63.133 E41.64595
G1 X128.839 Y62.881 E41.6614
G1 X129.548 Y62.453 E41.6917
G1 X130.295 Y62.094 E41.72203
G1 X131.073 Y61.81 E41.75233
G1 X131.874 Y61.601 E41.78261
G1 X132.692 Y61.471 E41.81292
G1 X133.629 Y61.42 E41.84725
G1 X145.371 Y61.42 E42.27684
G1 X146.198 Y61.46 E42.30714
G1 X147.018 Y61.58 E42.33746
G1 X147.822 Y61.778 E42.36775
G1 X148.603 Y62.052 E42.39803
G1 X149.355 Y62.401 E42.42836
G1 X150.069 Y62.82 E42.45865
G1 X150.739 Y63.307 E42.48895
G1 X151.438 Y63.933 E42.52328
G1 X151.567 Y64.062 E42.52996
G1 X152.124 Y64.675 E42.56026
G1 X152.619 Y65.339 E42.59056
G1 X153.047 Y66.048 E42.62086
G1 X153.406 Y66.795 E42.65118
G1 X153.69 Y67.573 E42.68149
G1 X153.899 Y68.374 E42.71177
G1 X154.029 Y69.192 E42.74208
G1 X154.08 Y70.129 E42.77641
G1 X154.08 Y164.871 E46.24265
G1 X154.04 Y165.698 E46.27294
G1 X153.92 Y166.518 E46.30326
G1 X153.722 Y167.322 E46.33356
G1 X153.448 Y168.103 E46.36384
G1 X153.099 Y168.855 E46.39417
G1 X152.68 Y169.569 E46.42446
G1 X152.193 Y170.239 E46.45476
G1 X151.567 Y170.938 E46.48909
G1 X151.438 Y171.067 E46.49577
G1 X150.825 Y171.624 E46.52607
G1 X150.161 Y172.119 E46.55637
G1 X149.452 Y172.547 E46.58667
G1 X148.705 Y172.906 E46.61699
G1 X147.927 Y173.19 E46.6473
G1 X147.126 Y173.399 E46.67758
G1 X146.308 Y173.529 E46.70788
G1 X145.371 Y173.58 E46.74222
G1 X133.629 Y173.58 E47.17181
G1 X132.802 Y173.54 E47.2021
G1 X131.982 Y173.42 E47.23242
G1 X131.178 Y173.222 E47.26272
G1 X130.397 Y172.948 E47.293
G1 X129.645 Y172.599 E47.32333
G1 X128.931 Y172.18 E47.35362
G1 X128.5 Y171.867 E47.37311
G1 X128.161 Y172.119 E47.38856
G1 X127.452 Y172.547 E47.41886
G1 X126.705 Y172.906 E47.44918
G1 X125.927 Y173.19 E47.47948
G1 X125.126 Y173.399 E47.50977
G1 X124.308 Y173.529 E47.54007
G1 X123.371 Y173.58 E47.57441
G1 X111.629 Y173.58 E48.004
G1 X110.802 Y173.54 E48.03429
G1 X109.982 Y173.42 E48.06461
G1 X109.178 Y173.222 E48.09491
