;FLAVOR:Marlin
;TIME:2676
;Filament used: 2.30896m
;Layer height: 0.2
;Generated with Cura_SteamEngine 3.6.0
M140 S70
M105
M190 S70
M104 S215
M105
M109 S215
M82 ;absolute extrusion mode
G28 ; home all axes
M117 Purge extruder
G92 E0 ; reset extruder
G1 Z1.0 F3000 ; move z up little to prevent scratching of surface
G1 X0.1 Y20 Z0.3 F5000.0 ; move to start-line position G1 X0.1 Y200.0 Z0.3 F1500.0 E15 ; draw 1st line
G1 X0.4 Y200.0 Z0.3 F5000.0 ; move to side a little
G1 X0.4 Y20 Z0.3 F1500.0 E30 ; draw 2nd line
G92 E0 ; reset extruder
G1 Z1.0 F3000 ; move z up little to prevent scratching of surface
M117 All systems go!
G92 E0
G1 F6000 E-5
;LAYER_COUNT:26
;LAYER:0
M107
M204 S5000
M205 X30 Y30
G0 F7200 X95.349 Y67.799 Z0.2
M204 S500
M205 X20 Y20
;TYPE:SKIRT
G1 F6000 E0
G1 F900 X96.128 Y66.803 E0.04626
G1 X97.344 Y65.473 E0.11219
G1 X97.473 Y65.344 E0.11887
G1 X98.395 Y64.478 E0.16515
G1 X99.371 Y63.672 E0.21146
G1 X100.395 Y62.929 E0.25774
G1 X101.465 Y62.252 E0.30407
G1 X102.574 Y61.645 E0.35032
G1 X103.721 Y61.108 E0.39666
G1 X104.898 Y60.645 E0.44293
G1 X106.103 Y60.258 E0.48924
G1 X107.329 Y59.947 E0.53551
G1 X108.573 Y59.715 E0.58181
G1 X109.829 Y59.561 E0.62811
G1 X111.629 Y59.48 E0.69403
G1 X123.371 Y59.48 E1.12362
G1 X124.636 Y59.52 E1.16993
G1 X125.895 Y59.64 E1.2162
G1 X127.145 Y59.839 E1.26251
G1 X128.38 Y60.117 E1.30882
G1 X129.594 Y60.472 E1.3551
G1 X130.784 Y60.903 E1.4014
G1 X131.944 Y61.408 E1.44769
G1 X133.07 Y61.986 E1.494
G1 X134.157 Y62.634 E1.5403
G1 X135.201 Y63.349 E1.58659
G1 X136.197 Y64.128 E1.63285
G1 X137.527 Y65.344 E1.69878
G1 X137.656 Y65.473 E1.70546
G1 X138.522 Y66.395 E1.75174
G1 X139.328 Y67.371 E1.79805
G1 X140.071 Y68.395 E1.84433
G1 X140.748 Y69.465 E1.89066
G1 X141.355 Y70.574 E1.93691
G1 X141.892 Y71.721 E1.98325
G1 X142.355 Y72.898 E2.02952
G1 X142.742 Y74.103 E2.07583
G1 X143.053 Y75.329 E2.1221
G1 X143.285 Y76.573 E2.1684
G1 X143.439 Y77.829 E2.2147
G1 X143.52 Y79.629 E2.28062
G1 X143.52 Y155.371 E5.05173
G1 X143.48 Y156.636 E5.09803
G1 X143.36 Y157.895 E5.1443
G1 X143.161 Y159.145 E5.19061
G1 X142.883 Y160.38 E5.23693
G1 X142.528 Y161.594 E5.2832
G1 X142.097 Y162.784 E5.32951
G1 X141.592 Y163.944 E5.37579
G1 X141.014 Y165.07 E5.4221
G1 X140.366 Y166.157 E5.4684
G1 X139.651 Y167.201 E5.51469
G1 X138.872 Y168.197 E5.56096
G1 X137.656 Y169.527 E5.62689
G1 X137.527 Y169.656 E5.63356
G1 X136.605 Y170.522 E5.67984
G1 X135.629 Y171.328 E5.72615
G1 X134.605 Y172.071 E5.77244
G1 X133.535 Y172.748 E5.81876
G1 X132.426 Y173.355 E5.86502
G1 X131.279 Y173.892 E5.91135
G1 X130.102 Y174.355 E5.95763
G1 X128.897 Y174.742 E6.00393
G1 X127.671 Y175.053 E6.05021
G1 X126.427 Y175.285 E6.0965
G1 X125.171 Y175.439 E6.1428
G1 X123.371 Y175.52 E6.20872
G1 X111.629 Y175.52 E6.63832
G1 X110.364 Y175.48 E6.68462
G1 X109.105 Y175.36 E6.73089
G1 X107.855 Y175.161 E6.7772
G1 X106.62 Y174.883 E6.82352
G1 X105.406 Y174.528 E6.86979
G1 X104.216 Y174.097 E6.9161
G1 X103.056 Y173.592 E6.96238
G1 X101.93 Y173.014 E7.00869
G1 X100.843 Y172.366 E7.05499
G1 X99.799 Y171.651 E7.10128
G1 X98.803 Y170.872 E7.14755
G1 X97.473 Y169.656 E7.21348
G1 X97.344 Y169.527 E7.22015
G1 X96.478 Y168.605 E7.26643
G1 X95.672 Y167.629 E7.31274
G1 X94.929 Y166.605 E7.35903
G1 X94.252 Y165.535 E7.40535
G1 X93.645 Y164.426 E7.45161
G1 X93.108 Y163.279 E7.49794
G1 X92.645 Y162.102 E7.54422
G1 X92.258 Y160.897 E7.59052
G1 X91.947 Y159.671 E7.6368
G1 X91.715 Y158.427 E7.68309
G1 X91.561 Y157.171 E7.72939
G1 X91.48 Y155.371 E7.79531
G1 X91.48 Y79.629 E10.56642
G1 X91.52 Y78.364 E10.61273
G1 X91.64 Y77.105 E10.659
G1 X91.839 Y75.855 E10.7053
G1 X92.117 Y74.62 E10.75162
G1 X92.472 Y73.406 E10.79789
G1 X92.903 Y72.216 E10.8442
G1 X93.408 Y71.056 E10.89049
G1 X93.986 Y69.93 E10.93679
G1 X94.634 Y68.843 E10.98309
G1 X94.939 Y68.398 E11.00283
G0 F810 X95.349 Y67.799
M204 S5000
M205 X30 Y30
G0 F7200 X95.786 Y67.948
M204 S500
M205 X20 Y20
G1 F6000 E11.02943
G1 F900 X96.564 Y66.968 E11.07521
G1 X97.655 Y65.784 E11.13411
G1 X97.784 Y65.655 E11.14079
G1 X98.697 Y64.799 E11.18658
G1 X99.662 Y64.003 E11.23234
G1 X100.676 Y63.27 E11.27812
G1 X101.736 Y62.603 E11.32394
G1 X102.835 Y62.006 E11.3697
G1 X103.971 Y61.48 E11.4155
G1 X105.137 Y61.027 E11.46126
G1 X106.331 Y60.65 E11.50707
G1 X107.546 Y60.351 E11.55285
G1 X108.777 Y60.129 E11.59862
G1 X110.02 Y59.986 E11.64439
G1 X111.629 Y59.92 E11.70331
G1 X123.371 Y59.92 E12.1329
G1 X124.622 Y59.96 E12.1787
G1 X125.867 Y60.08 E12.22446
G1 X127.103 Y60.279 E12.27026
G1 X128.323 Y60.557 E12.31604
G1 X129.523 Y60.912 E12.36182
G1 X130.698 Y61.343 E12.40761
G1 X131.843 Y61.848 E12.4534
G1 X132.953 Y62.425 E12.49917
G1 X134.024 Y63.072 E12.54495
G1 X135.052 Y63.786 E12.59074
G1 X136.032 Y64.564 E12.63652
G1 X137.216 Y65.655 E12.69542
G1 X137.345 Y65.784 E12.7021
G1 X138.201 Y66.697 E12.74788
G1 X138.997 Y67.662 E12.79365
G1 X139.73 Y68.676 E12.83943
G1 X140.397 Y69.736 E12.88525
G1 X140.994 Y70.835 E12.93101
G1 X141.52 Y71.971 E12.97681
G1 X141.973 Y73.137 E13.02257
G1 X142.35 Y74.331 E13.06838
G1 X142.649 Y75.546 E13.11416
G1 X142.871 Y76.777 E13.15992
G1 X143.014 Y78.02 E13.2057
G1 X143.08 Y79.629 E13.26462
G1 X143.08 Y155.371 E16.03573
G1 X143.04 Y156.622 E16.08152
G1 X142.92 Y157.867 E16.12728
G1 X142.721 Y159.103 E16.17308
G1 X142.443 Y160.323 E16.21886
G1 X142.088 Y161.523 E16.26465
G1 X141.657 Y162.698 E16.31044
G1 X141.152 Y163.843 E16.35622
G1 X140.575 Y164.953 E16.40199
G1 X139.928 Y166.024 E16.44777
G1 X139.214 Y167.052 E16.49356
G1 X138.436 Y168.032 E16.53934
G1 X137.345 Y169.216 E16.59824
G1 X137.216 Y169.345 E16.60492
G1 X136.303 Y170.201 E16.65071
G1 X135.338 Y170.997 E16.69647
G1 X134.324 Y171.73 E16.74225
G1 X133.264 Y172.397 E16.78807
G1 X132.165 Y172.994 E16.83383
G1 X131.029 Y173.52 E16.87963
G1 X129.863 Y173.973 E16.9254
G1 X128.669 Y174.35 E16.9712
G1 X127.454 Y174.649 E17.01698
G1 X126.223 Y174.871 E17.06275
G1 X124.98 Y175.014 E17.10852
G1 X123.371 Y175.08 E17.16744
G1 X111.629 Y175.08 E17.59703
G1 X110.378 Y175.04 E17.64283
G1 X109.133 Y174.92 E17.68859
G1 X107.897 Y174.721 E17.73439
G1 X106.677 Y174.443 E17.78017
G1 X105.477 Y174.088 E17.82595
G1 X104.302 Y173.657 E17.87174
G1 X103.157 Y173.152 E17.91753
G1 X102.047 Y172.575 E17.9633
G1 X100.976 Y171.928 E18.00908
G1 X99.948 Y171.214 E18.05487
G1 X98.968 Y170.436 E18.10065
G1 X97.784 Y169.345 E18.15955
G1 X97.655 Y169.216 E18.16623
G1 X96.799 Y168.303 E18.21202
G1 X96.003 Y167.338 E18.25778
G1 X95.27 Y166.324 E18.30356
G1 X94.603 Y165.264 E18.34938
G1 X94.006 Y164.165 E18.39514
G1 X93.48 Y163.029 E18.44094
G1 X93.027 Y161.863 E18.4867
G1 X92.65 Y160.669 E18.53251
G1 X92.351 Y159.454 E18.57829
G1 X92.129 Y158.223 E18.62406
G1 X91.986 Y156.98 E18.66983
G1 X91.92 Y155.371 E18.72875
G1 X91.92 Y79.629 E21.49986
G1 X91.96 Y78.378 E21.54565
G1 X92.08 Y77.133 E21.59141
G1 X92.279 Y75.897 E21.63721
G1 X92.557 Y74.677 E21.68299
G1 X92.912 Y73.477 E21.72878
G1 X93.343 Y72.302 E21.77457
G1 X93.848 Y71.157 E21.82035
G1 X94.425 Y70.047 E21.86612
G1 X95.072 Y68.976 E21.9119
G1 X95.372 Y68.545 E21.93111
G0 F810 X95.786 Y67.948
M204 S5000
M205 X30 Y30
G0 F7200 X96.223 Y68.099
M204 S500
M205 X20 Y20
G1 F6000 E21.95771
G1 F900 X97 Y67.136 E22.00298
G1 X97.966 Y66.095 E22.05494
G1 X98.095 Y65.966 E22.06161
G1 X98.998 Y65.12 E22.10688
G1 X99.953 Y64.334 E22.15214
G1 X100.957 Y63.611 E22.1974
G1 X102.006 Y62.955 E22.24267
G1 X103.095 Y62.368 E22.28793
G1 X104.22 Y61.852 E22.33321
G1 X105.376 Y61.41 E22.37849
G1 X106.558 Y61.044 E22.42376
G1 X107.761 Y60.755 E22.46903
G1 X108.98 Y60.544 E22.51429
G1 X110.21 Y60.413 E22.55954
G1 X111.629 Y60.36 E22.6115
G1 X123.371 Y60.36 E23.04109
G1 X124.608 Y60.4 E23.08637
G1 X125.839 Y60.52 E23.13162
G1 X127.06 Y60.719 E23.17688
G1 X128.266 Y60.996 E23.22216
G1 X129.451 Y61.351 E23.26741
G1 X130.611 Y61.782 E23.31269
G1 X131.741 Y62.287 E23.35797
G1 X132.835 Y62.864 E23.40322
G1 X133.89 Y63.51 E23.44848
G1 X134.901 Y64.223 E23.49374
G1 X135.864 Y65 E23.53902
G1 X136.905 Y65.966 E23.59097
G1 X137.034 Y66.095 E23.59765
G1 X137.88 Y66.998 E23.64292
G1 X138.666 Y67.953 E23.68817
G1 X139.389 Y68.957 E23.73344
G1 X140.045 Y70.006 E23.7787
G1 X140.632 Y71.095 E23.82396
G1 X141.148 Y72.22 E23.86925
G1 X141.59 Y73.376 E23.91453
G1 X141.956 Y74.558 E23.9598
G1 X142.245 Y75.761 E24.00506
G1 X142.456 Y76.98 E24.05032
G1 X142.587 Y78.21 E24.09558
G1 X142.64 Y79.629 E24.14753
G1 X142.64 Y155.371 E26.91864
G1 X142.6 Y156.608 E26.96392
G1 X142.48 Y157.839 E27.00917
G1 X142.281 Y159.06 E27.05443
G1 X142.004 Y160.266 E27.0997
G1 X141.649 Y161.451 E27.14496
G1 X141.218 Y162.611 E27.19024
G1 X140.713 Y163.741 E27.23552
G1 X140.136 Y164.835 E27.28077
G1 X139.49 Y165.89 E27.32603
G1 X138.777 Y166.901 E27.37129
G1 X138 Y167.864 E27.41656
G1 X137.034 Y168.905 E27.46852
G1 X136.905 Y169.034 E27.4752
G1 X136.002 Y169.88 E27.52047
G1 X135.047 Y170.666 E27.56572
G1 X134.043 Y171.389 E27.61098
G1 X132.994 Y172.045 E27.65625
G1 X131.905 Y172.632 E27.70151
G1 X130.78 Y173.148 E27.74679
G1 X129.624 Y173.59 E27.79207
G1 X128.442 Y173.956 E27.83734
G1 X127.239 Y174.245 E27.88261
G1 X126.02 Y174.456 E27.92787
G1 X124.79 Y174.587 E27.97313
G1 X123.371 Y174.64 E28.02508
G1 X111.629 Y174.64 E28.45467
G1 X110.392 Y174.6 E28.49995
G1 X109.161 Y174.48 E28.5452
G1 X107.94 Y174.281 E28.59047
G1 X106.734 Y174.004 E28.63574
G1 X105.549 Y173.649 E28.681
G1 X104.389 Y173.218 E28.72627
G1 X103.259 Y172.713 E28.77155
G1 X102.165 Y172.136 E28.8168
G1 X101.11 Y171.49 E28.86206
G1 X100.099 Y170.777 E28.90733
G1 X99.136 Y170 E28.9526
G1 X98.095 Y169.034 E29.00455
G1 X97.966 Y168.905 E29.01123
G1 X97.12 Y168.002 E29.0565
G1 X96.334 Y167.047 E29.10175
G1 X95.611 Y166.043 E29.14702
G1 X94.955 Y164.994 E29.19228
G1 X94.368 Y163.905 E29.23755
G1 X93.852 Y162.78 E29.28283
G1 X93.41 Y161.624 E29.32811
G1 X93.044 Y160.442 E29.37338
G1 X92.755 Y159.239 E29.41864
G1 X92.544 Y158.02 E29.4639
G1 X92.413 Y156.79 E29.50916
G1 X92.36 Y155.371 E29.56111
G1 X92.36 Y79.629 E32.33222
G1 X92.4 Y78.392 E32.3775
G1 X92.52 Y77.161 E32.42275
G1 X92.719 Y75.94 E32.46801
G1 X92.996 Y74.734 E32.51329
G1 X93.351 Y73.549 E32.55854
G1 X93.782 Y72.389 E32.60382
G1 X94.287 Y71.259 E32.6491
G1 X94.864 Y70.165 E32.69435
G1 X95.51 Y69.11 E32.73961
G1 X95.804 Y68.693 E32.75828
G0 F810 X96.223 Y68.099
M204 S5000
M205 X30 Y30
G0 F7200 X96.66 Y68.251
M204 S500
M205 X20 Y20
G1 F6000 E32.78488
G1 F900 X97.435 Y67.305 E32.82962
G1 X98.277 Y66.406 E32.87468
G1 X98.406 Y66.277 E32.88136
G1 X99.299 Y65.441 E32.92611
G1 X100.244 Y64.665 E32.97085
G1 X101.238 Y63.953 E33.01558
G1 X102.276 Y63.307 E33.06031
G1 X103.355 Y62.73 E33.10508
G1 X104.469 Y62.225 E33.14983
G1 X105.613 Y61.794 E33.19455
G1 X106.783 Y61.439 E33.23929
G1 X107.974 Y61.161 E33.28403
G1 X109.181 Y60.961 E33.32879
G1 X110.398 Y60.841 E33.37354
G1 X111.629 Y60.8 E33.4186
G1 X123.371 Y60.8 E33.84819
G1 X124.593 Y60.84 E33.89293
G1 X125.81 Y60.96 E33.93767
G1 X127.017 Y61.159 E33.98242
G1 X128.208 Y61.436 E34.02716
G1 X129.378 Y61.791 E34.07189
G1 X130.523 Y62.222 E34.11665
G1 X131.637 Y62.726 E34.16139
G1 X132.716 Y63.302 E34.20614
G1 X133.755 Y63.948 E34.2509
G1 X134.749 Y64.66 E34.29563
G1 X135.695 Y65.435 E34.34037
G1 X136.594 Y66.277 E34.38544
G1 X136.723 Y66.406 E34.39211
G1 X137.559 Y67.299 E34.43687
G1 X138.335 Y68.244 E34.4816
G1 X139.047 Y69.238 E34.52634
G1 X139.693 Y70.276 E34.57107
G1 X140.27 Y71.355 E34.61583
G1 X140.775 Y72.469 E34.66058
G1 X141.206 Y73.613 E34.70531
G1 X141.561 Y74.783 E34.75004
G1 X141.839 Y75.974 E34.79479
G1 X142.039 Y77.181 E34.83955
G1 X142.159 Y78.398 E34.88429
G1 X142.2 Y79.629 E34.92935
G1 X142.2 Y155.371 E37.70046
G1 X142.16 Y156.593 E37.74519
G1 X142.04 Y157.81 E37.78993
G1 X141.841 Y159.017 E37.83469
G1 X141.564 Y160.208 E37.87943
G1 X141.209 Y161.378 E37.92416
G1 X140.778 Y162.523 E37.96892
G1 X140.274 Y163.637 E38.01365
G1 X139.698 Y164.716 E38.0584
G1 X139.052 Y165.755 E38.10317
G1 X138.34 Y166.749 E38.1479
G1 X137.565 Y167.695 E38.19264
G1 X136.723 Y168.594 E38.23771
G1 X136.594 Y168.723 E38.24438
G1 X135.701 Y169.559 E38.28913
G1 X134.756 Y170.335 E38.33387
G1 X133.762 Y171.047 E38.3786
G1 X132.724 Y171.693 E38.42334
G1 X131.645 Y172.27 E38.4681
G1 X130.531 Y172.775 E38.51285
G1 X129.387 Y173.206 E38.55758
G1 X128.217 Y173.561 E38.60231
G1 X127.026 Y173.839 E38.64706
G1 X125.819 Y174.039 E38.69182
G1 X124.602 Y174.159 E38.73656
G1 X123.371 Y174.2 E38.78162
G1 X111.629 Y174.2 E39.21122
G1 X110.407 Y174.16 E39.25595
G1 X109.19 Y174.04 E39.30069
G1 X107.983 Y173.841 E39.34544
G1 X106.792 Y173.564 E39.39018
G1 X105.622 Y173.209 E39.43491
G1 X104.477 Y172.778 E39.47968
G1 X103.363 Y172.274 E39.52441
G1 X102.284 Y171.698 E39.56916
G1 X101.245 Y171.052 E39.61392
G1 X100.251 Y170.34 E39.65865
G1 X99.305 Y169.565 E39.7034
G1 X98.406 Y168.723 E39.74846
G1 X98.277 Y168.594 E39.75513
G1 X97.441 Y167.701 E39.79989
G1 X96.665 Y166.756 E39.84463
G1 X95.953 Y165.762 E39.88936
G1 X95.307 Y164.724 E39.93409
G1 X94.73 Y163.645 E39.97886
G1 X94.225 Y162.531 E40.02361
G1 X93.794 Y161.387 E40.06833
G1 X93.439 Y160.217 E40.11306
G1 X93.161 Y159.026 E40.15781
G1 X92.961 Y157.819 E40.20257
G1 X92.841 Y156.602 E40.24731
G1 X92.8 Y155.371 E40.29238
G1 X92.8 Y79.629 E43.06348
G1 X92.84 Y78.407 E43.10822
G1 X92.96 Y77.19 E43.15296
G1 X93.159 Y75.983 E43.19771
G1 X93.436 Y74.792 E43.24245
G1 X93.791 Y73.622 E43.28718
G1 X94.222 Y72.477 E43.33194
G1 X94.726 Y71.363 E43.37668
G1 X95.302 Y70.284 E43.42143
G1 X95.948 Y69.245 E43.46619
G1 X96.237 Y68.842 E43.48433
G0 F810 X96.66 Y68.251
M204 S5000
M205 X30 Y30
G0 F7200 X97.096 Y68.406
M204 S500
M205 X20 Y20
G1 F6000 E43.51093
G1 F900 X97.87 Y67.477 E43.55517
G1 X98.588 Y66.717 E43.59342
G1 X98.717 Y66.588 E43.60009
G1 X99.6 Y65.762 E43.64433
G1 X100.535 Y64.997 E43.68853
G1 X101.518 Y64.295 E43.73272
G1 X102.546 Y63.659 E43.77695
G1 X103.614 Y63.093 E43.82117
G1 X104.717 Y62.599 E43.86539
G1 X105.85 Y62.179 E43.9096
G1 X107.008 Y61.834 E43.95381
G1 X108.187 Y61.567 E43.99803
G1 X109.38 Y61.379 E44.04222
G1 X110.584 Y61.27 E44.08645
G1 X111.629 Y61.24 E44.1247
G1 X123.371 Y61.24 E44.55429
G1 X124.579 Y61.28 E44.59851
G1 X125.781 Y61.4 E44.64271
G1 X126.973 Y61.599 E44.68692
G1 X128.149 Y61.876 E44.73112
G1 X129.305 Y62.231 E44.77537
G1 X130.434 Y62.661 E44.81957
G1 X131.532 Y63.165 E44.86377
G1 X132.595 Y63.741 E44.908
G1 X133.617 Y64.386 E44.95222
G1 X134.594 Y65.096 E44.9964
G1 X135.523 Y65.87 E45.04064
G1 X136.283 Y66.588 E45.07889
G1 X136.412 Y66.717 E45.08557
G1 X137.238 Y67.6 E45.12981
G1 X138.003 Y68.535 E45.174
G1 X138.705 Y69.518 E45.2182
G1 X139.341 Y70.546 E45.26242
G1 X139.907 Y71.614 E45.30665
G1 X140.401 Y72.717 E45.35086
G1 X140.821 Y73.85 E45.39507
G1 X141.166 Y75.008 E45.43928
G1 X141.433 Y76.187 E45.48351
G1 X141.621 Y77.38 E45.52769
G1 X141.73 Y78.584 E45.57192
G1 X141.76 Y79.629 E45.61017
G1 X141.76 Y155.371 E48.38128
G1 X141.72 Y156.579 E48.4255
G1 X141.6 Y157.781 E48.46969
G1 X141.401 Y158.973 E48.51391
G1 X141.124 Y160.149 E48.55811
G1 X140.769 Y161.305 E48.60235
G1 X140.339 Y162.434 E48.64655
G1 X139.835 Y163.532 E48.69076
G1 X139.259 Y164.595 E48.73499
G1 X138.614 Y165.617 E48.7792
G1 X137.904 Y166.594 E48.82339
G1 X137.13 Y167.523 E48.86763
G1 X136.412 Y168.283 E48.90588
G1 X136.283 Y168.412 E48.91256
G1 X135.4 Y169.238 E48.95679
G1 X134.465 Y170.003 E49.00099
G1 X133.482 Y170.705 E49.04519
G1 X132.454 Y171.341 E49.08941
G1 X131.386 Y171.907 E49.13363
G1 X130.283 Y172.401 E49.17785
G1 X129.15 Y172.821 E49.22206
G1 X127.992 Y173.166 E49.26627
G1 X126.813 Y173.433 E49.31049
G1 X125.62 Y173.621 E49.35468
G1 X124.416 Y173.73 E49.39891
G1 X123.371 Y173.76 E49.43716
G1 X111.629 Y173.76 E49.86675
G1 X110.421 Y173.72 E49.91097
G1 X109.219 Y173.6 E49.95517
G1 X108.027 Y173.401 E49.99938
G1 X106.851 Y173.124 E50.04359
G1 X105.695 Y172.769 E50.08783
G1 X104.566 Y172.339 E50.13203
G1 X103.468 Y171.835 E50.17623
G1 X102.405 Y171.259 E50.22046
G1 X101.383 Y170.614 E50.26468
G1 X100.406 Y169.904 E50.30887
G1 X99.477 Y169.13 E50.3531
G1 X98.717 Y168.412 E50.39136
G1 X98.588 Y168.283 E50.39803
G1 X97.762 Y167.4 E50.44227
G1 X96.997 Y166.465 E50.48647
