;FLAVOR:Marlin
;TIME:2792
;Filament used: 2.5898m
;Layer height: 0.2
;Generated with Cura_SteamEngine 3.6.0
M140 S70
M105
M190 S70
M104 S215
M105
M109 S215
M82 ;absolute extrusion mode
G28 ; home all axes
M117 Purge extruder
G92 E0 ; reset extruder
G1 Z1.0 F3000 ; move z up little to prevent scratching of surface
G1 X0.1 Y20 Z0.3 F5000.0 ; move to start-line position G1 X0.1 Y200.0 Z0.3 F1500.0 E15 ; draw 1st line
G1 X0.4 Y200.0 Z0.3 F5000.0 ; move to side a little
G1 X0.4 Y20 Z0.3 F1500.0 E30 ; draw 2nd line
G92 E0 ; reset extruder
G1 Z1.0 F3000 ; move z up little to prevent scratching of surface
M117 All systems go!
G92 E0
G1 F6000 E-5
;LAYER_COUNT:26
;LAYER:0
M107
M204 S5000
M205 X30 Y30
G0 F7200 X103.006 Y65.044 Z0.2
M204 S500
M205 X20 Y20
;TYPE:SKIRT
G1 F6000 E0
G1 F900 X103.496 Y64.302 E0.03253
G1 X104.052 Y63.607 E0.0651
G1 X104.5 Y63.129 E0.08906
G1 X104.629 Y63 E0.09574
G1 X105.285 Y62.399 E0.12829
G1 X105.993 Y61.861 E0.16082
G1 X106.747 Y61.387 E0.19341
G1 X107.54 Y60.984 E0.22595
G1 X108.366 Y60.653 E0.25851
G1 X109.218 Y60.398 E0.29104
G1 X110.09 Y60.22 E0.3236
G1 X110.974 Y60.122 E0.35614
G1 X111.629 Y60.1 E0.38012
G1 X123.371 Y60.1 E0.80972
G1 X124.26 Y60.14 E0.84227
G1 X125.141 Y60.26 E0.8748
G1 X126.009 Y60.458 E0.90738
G1 X126.855 Y60.733 E0.93992
G1 X127.673 Y61.083 E0.97248
G1 X128.456 Y61.506 E1.00504
G1 X129.198 Y61.996 E1.03757
G1 X129.893 Y62.552 E1.07013
G1 X130.371 Y63 E1.0941
G1 X130.5 Y63.129 E1.10077
G1 X131.101 Y63.785 E1.13332
G1 X131.639 Y64.493 E1.16586
G1 X132.113 Y65.247 E1.19844
G1 X132.516 Y66.04 E1.23099
G1 X132.847 Y66.866 E1.26354
G1 X133.102 Y67.718 E1.29608
G1 X133.28 Y68.59 E1.32864
G1 X133.378 Y69.474 E1.36118
G1 X133.4 Y70.129 E1.38516
G1 X133.4 Y164.871 E4.8514
G1 X133.36 Y165.76 E4.88396
G1 X133.24 Y166.641 E4.91649
G1 X133.042 Y167.509 E4.94906
G1 X132.767 Y168.355 E4.98161
G1 X132.417 Y169.173 E5.01416
G1 X131.994 Y169.956 E5.04672
G1 X131.504 Y170.698 E5.07925
G1 X130.948 Y171.393 E5.11182
G1 X130.5 Y171.871 E5.13578
G1 X130.371 Y172 E5.14246
G1 X129.715 Y172.601 E5.17501
G1 X129.007 Y173.139 E5.20754
G1 X128.253 Y173.613 E5.24013
G1 X127.46 Y174.016 E5.27267
G1 X126.634 Y174.347 E5.30523
G1 X125.782 Y174.602 E5.33776
G1 X124.91 Y174.78 E5.37033
G1 X124.026 Y174.878 E5.40287
G1 X123.371 Y174.9 E5.42684
G1 X111.629 Y174.9 E5.85644
G1 X110.74 Y174.86 E5.889
G1 X109.859 Y174.74 E5.92153
G1 X108.991 Y174.542 E5.9541
G1 X108.145 Y174.267 E5.98664
G1 X107.327 Y173.917 E6.0192
G1 X106.544 Y173.494 E6.05176
G1 X105.802 Y173.004 E6.08429
G1 X105.107 Y172.448 E6.11685
G1 X104.629 Y172 E6.14082
G1 X104.5 Y171.871 E6.14749
G1 X103.899 Y171.215 E6.18004
G1 X103.361 Y170.507 E6.21258
G1 X102.887 Y169.753 E6.24516
G1 X102.484 Y168.96 E6.27771
G1 X102.153 Y168.134 E6.31026
G1 X101.898 Y167.282 E6.3428
G1 X101.72 Y166.41 E6.37536
G1 X101.622 Y165.526 E6.4079
G1 X101.6 Y164.871 E6.43188
G1 X101.6 Y70.129 E9.89812
G1 X101.64 Y69.24 E9.93068
G1 X101.76 Y68.359 E9.96321
G1 X101.958 Y67.491 E9.99578
G1 X102.233 Y66.645 E10.02833
G1 X102.583 Y65.827 E10.06088
G1 X102.661 Y65.684 E10.06684
G0 F810 X103.006 Y65.044
M204 S5000
M205 X30 Y30
G0 F7200 X103.444 Y65.17
M204 S500
M205 X20 Y20
G1 F6000 E10.09344
G1 F900 X103.934 Y64.451 E10.12527
G1 X104.487 Y63.78 E10.15709
G1 X104.811 Y63.44 E10.17427
G1 X104.94 Y63.311 E10.18094
G1 X105.582 Y62.725 E10.21274
G1 X106.276 Y62.2 E10.24458
G1 X107.015 Y61.741 E10.27641
G1 X107.793 Y61.353 E10.30822
G1 X108.603 Y61.037 E10.34003
G1 X109.439 Y60.797 E10.37185
G1 X110.294 Y60.635 E10.40369
G1 X111.159 Y60.552 E10.43548
G1 X111.629 Y60.54 E10.45268
G1 X123.371 Y60.54 E10.88227
G1 X124.24 Y60.58 E10.9141
G1 X125.101 Y60.7 E10.94591
G1 X125.948 Y60.898 E10.97773
G1 X126.773 Y61.173 E11.00955
G1 X127.569 Y61.523 E11.04136
G1 X128.33 Y61.944 E11.07318
G1 X129.049 Y62.434 E11.10501
G1 X129.72 Y62.987 E11.13682
G1 X130.06 Y63.311 E11.15401
G1 X130.189 Y63.44 E11.16068
G1 X130.775 Y64.082 E11.19248
G1 X131.3 Y64.776 E11.22432
G1 X131.759 Y65.515 E11.25615
G1 X132.147 Y66.293 E11.28796
G1 X132.463 Y67.103 E11.31977
G1 X132.703 Y67.939 E11.35159
G1 X132.865 Y68.794 E11.38343
G1 X132.948 Y69.659 E11.41522
G1 X132.96 Y70.129 E11.43242
G1 X132.96 Y164.871 E14.89866
G1 X132.92 Y165.74 E14.93049
G1 X132.8 Y166.601 E14.9623
G1 X132.602 Y167.448 E14.99412
G1 X132.327 Y168.273 E15.02594
G1 X131.977 Y169.069 E15.05775
G1 X131.556 Y169.83 E15.08957
G1 X131.066 Y170.549 E15.1214
G1 X130.513 Y171.22 E15.15321
G1 X130.189 Y171.56 E15.1704
G1 X130.06 Y171.689 E15.17707
G1 X129.418 Y172.275 E15.20887
G1 X128.724 Y172.8 E15.24071
G1 X127.985 Y173.259 E15.27254
G1 X127.207 Y173.647 E15.30435
G1 X126.397 Y173.963 E15.33616
G1 X125.561 Y174.203 E15.36798
G1 X124.706 Y174.365 E15.39982
G1 X123.841 Y174.448 E15.43161
G1 X123.371 Y174.46 E15.44881
G1 X111.629 Y174.46 E15.8784
G1 X110.76 Y174.42 E15.91023
G1 X109.899 Y174.3 E15.94204
G1 X109.052 Y174.102 E15.97386
G1 X108.227 Y173.827 E16.00568
G1 X107.431 Y173.477 E16.03749
G1 X106.67 Y173.056 E16.06931
G1 X105.951 Y172.566 E16.10114
G1 X105.28 Y172.013 E16.13295
G1 X104.94 Y171.689 E16.15014
G1 X104.811 Y171.56 E16.15681
G1 X104.225 Y170.918 E16.18861
G1 X103.7 Y170.224 E16.22045
G1 X103.241 Y169.485 E16.25228
G1 X102.853 Y168.707 E16.28408
G1 X102.537 Y167.897 E16.31589
G1 X102.297 Y167.061 E16.34772
G1 X102.135 Y166.206 E16.37955
G1 X102.052 Y165.341 E16.41135
G1 X102.04 Y164.871 E16.42855
G1 X102.04 Y70.129 E19.89479
G1 X102.08 Y69.26 E19.92662
G1 X102.2 Y68.399 E19.95842
G1 X102.398 Y67.552 E19.99025
G1 X102.673 Y66.727 E20.02206
G1 X103.023 Y65.931 E20.05388
G1 X103.092 Y65.806 E20.0591
G0 F810 X103.444 Y65.17
M204 S5000
M205 X30 Y30
G0 F7200 X103.882 Y65.299
M204 S500
M205 X20 Y20
G1 F6000 E20.0857
G1 F900 X104.37 Y64.604 E20.11677
G1 X105.122 Y63.751 E20.15837
G1 X105.251 Y63.622 E20.16505
G1 X105.879 Y63.05 E20.19613
G1 X106.558 Y62.54 E20.2272
G1 X107.282 Y62.097 E20.25825
G1 X108.045 Y61.723 E20.28934
G1 X108.839 Y61.422 E20.3204
G1 X109.658 Y61.198 E20.35147
G1 X110.495 Y61.052 E20.38255
G1 X111.629 Y60.98 E20.42413
G1 X123.371 Y60.98 E20.85372
G1 X124.219 Y61.02 E20.88478
G1 X125.06 Y61.14 E20.91586
G1 X125.886 Y61.338 E20.94694
G1 X126.689 Y61.613 E20.97799
G1 X127.463 Y61.962 E21.00905
G1 X128.201 Y62.382 E21.04012
G1 X128.896 Y62.87 E21.07119
G1 X129.749 Y63.622 E21.11279
G1 X129.878 Y63.751 E21.11947
G1 X130.45 Y64.379 E21.15055
G1 X130.96 Y65.058 E21.18162
G1 X131.403 Y65.782 E21.21267
G1 X131.777 Y66.545 E21.24376
G1 X132.078 Y67.339 E21.27482
G1 X132.302 Y68.158 E21.30589
G1 X132.448 Y68.995 E21.33697
G1 X132.52 Y70.129 E21.37855
G1 X132.52 Y164.871 E24.84479
G1 X132.48 Y165.719 E24.87585
G1 X132.36 Y166.56 E24.90693
G1 X132.162 Y167.386 E24.93801
G1 X131.887 Y168.189 E24.96906
G1 X131.538 Y168.963 E25.00012
G1 X131.118 Y169.701 E25.03119
G1 X130.63 Y170.396 E25.06226
G1 X129.878 Y171.249 E25.10387
G1 X129.749 Y171.378 E25.11054
G1 X129.121 Y171.95 E25.14162
G1 X128.442 Y172.46 E25.17269
G1 X127.718 Y172.903 E25.20374
G1 X126.955 Y173.277 E25.23483
G1 X126.161 Y173.578 E25.2659
G1 X125.342 Y173.802 E25.29696
G1 X124.505 Y173.948 E25.32805
G1 X123.371 Y174.02 E25.36962
G1 X111.629 Y174.02 E25.79921
G1 X110.781 Y173.98 E25.83027
G1 X109.94 Y173.86 E25.86135
G1 X109.114 Y173.662 E25.89243
G1 X108.311 Y173.387 E25.92348
G1 X107.537 Y173.038 E25.95455
G1 X106.799 Y172.618 E25.98561
G1 X106.104 Y172.13 E26.01668
G1 X105.251 Y171.378 E26.05829
G1 X105.122 Y171.249 E26.06496
G1 X104.55 Y170.621 E26.09604
G1 X104.04 Y169.942 E26.12711
G1 X103.597 Y169.218 E26.15816
G1 X103.223 Y168.455 E26.18925
G1 X102.922 Y167.661 E26.22032
G1 X102.698 Y166.842 E26.25138
G1 X102.552 Y166.005 E26.28247
G1 X102.48 Y164.871 E26.32404
G1 X102.48 Y70.129 E29.79028
G1 X102.52 Y69.281 E29.82134
G1 X102.64 Y68.44 E29.85242
G1 X102.838 Y67.614 E29.8835
G1 X103.113 Y66.811 E29.91455
G1 X103.462 Y66.037 E29.94562
G1 X103.523 Y65.93 E29.95012
G0 F810 X103.882 Y65.299
M204 S5000
M205 X30 Y30
G0 F7200 X104.32 Y65.431
M204 S500
M205 X20 Y20
G1 F6000 E29.97672
G1 F900 X104.807 Y64.761 E30.00702
G1 X105.433 Y64.062 E30.04135
G1 X105.562 Y63.933 E30.04803
G1 X106.175 Y63.376 E30.07833
G1 X106.839 Y62.881 E30.10863
G1 X107.548 Y62.453 E30.13893
G1 X108.295 Y62.094 E30.16925
G1 X109.073 Y61.81 E30.19956
G1 X109.874 Y61.601 E30.22984
G1 X110.692 Y61.471 E30.26015
G1 X111.629 Y61.42 E30.29448
G1 X123.371 Y61.42 E30.72407
G1 X124.198 Y61.46 E30.75436
G1 X125.018 Y61.58 E30.78468
G1 X125.822 Y61.778 E30.81498
G1 X126.603 Y62.052 E30.84526
G1 X127.355 Y62.401 E30.87559
G1 X128.069 Y62.82 E30.90588
G1 X128.739 Y63.307 E30.93618
G1 X129.438 Y63.933 E30.97051
G1 X129.567 Y64.062 E30.97719
G1 X130.124 Y64.675 E31.00749
G1 X130.619 Y65.339 E31.03779
G1 X131.047 Y66.048 E31.06809
G1 X131.406 Y66.795 E31.09841
G1 X131.69 Y67.573 E31.12871
G1 X131.899 Y68.374 E31.159
G1 X132.029 Y69.192 E31.1893
G1 X132.08 Y70.129 E31.22364
G1 X132.08 Y164.871 E34.68988
G1 X132.04 Y165.698 E34.72017
G1 X131.92 Y166.518 E34.75049
G1 X131.722 Y167.322 E34.78079
G1 X131.448 Y168.103 E34.81107
G1 X131.099 Y168.855 E34.8414
G1 X130.68 Y169.569 E34.87169
G1 X130.193 Y170.239 E34.90199
G1 X129.567 Y170.938 E34.93632
G1 X129.438 Y171.067 E34.943
G1 X128.825 Y171.624 E34.9733
G1 X128.161 Y172.119 E35.0036
G1 X127.452 Y172.547 E35.0339
G1 X126.705 Y172.906 E35.06422
G1 X125.927 Y173.19 E35.09452
G1 X125.126 Y173.399 E35.12481
G1 X124.308 Y173.529 E35.15511
G1 X123.371 Y173.58 E35.18945
G1 X111.629 Y173.58 E35.61904
G1 X110.802 Y173.54 E35.64933
G1 X109.982 Y173.42 E35.67965
G1 X109.178 Y173.222 E35.70995
G1 X108.397 Y172.948 E35.74023
G1 X107.645 Y172.599 E35.77056
G1 X106.931 Y172.18 E35.80085
G1 X106.261 Y171.693 E35.83115
G1 X105.562 Y171.067 E35.86548
G1 X105.433 Y170.938 E35.87216
G1 X104.876 Y170.325 E35.90246
G1 X104.381 Y169.661 E35.93276
G1 X103.953 Y168.952 E35.96306
G1 X103.594 Y168.205 E35.99338
G1 X103.31 Y167.427 E36.02368
G1 X103.101 Y166.626 E36.05397
G1 X102.971 Y165.808 E36.08427
G1 X102.92 Y164.871 E36.1186
G1 X102.92 Y70.129 E39.58485
G1 X102.96 Y69.302 E39.61514
G1 X103.08 Y68.482 E39.64546
G1 X103.278 Y67.678 E39.67576
G1 X103.552 Y66.897 E39.70604
G1 X103.901 Y66.145 E39.73637
G1 X103.952 Y66.058 E39.74006
G0 F810 X104.32 Y65.431
M204 S5000
M205 X30 Y30
G0 F7200 X104.34 Y66.257
M204 S500
M205 X20 Y20
G1 F6000 E39.76666
G1 F900 X104.758 Y65.567 E39.79617
G1 X105.243 Y64.922 E39.8257
G1 X105.744 Y64.373 E39.85289
G1 X105.873 Y64.244 E39.85956
G1 X106.471 Y63.703 E39.88907
G1 X107.12 Y63.223 E39.9186
G1 X107.813 Y62.81 E39.94811
G1 X108.543 Y62.468 E39.97761
G1 X109.304 Y62.199 E40.00714
G1 X110.088 Y62.007 E40.03667
G1 X110.886 Y61.894 E40.06616
G1 X111.629 Y61.86 E40.09337
G1 X123.371 Y61.86 E40.52296
G1 X124.177 Y61.9 E40.55249
G1 X124.975 Y62.02 E40.58201
G1 X125.757 Y62.217 E40.61152
G1 X126.515 Y62.492 E40.64102
G1 X127.243 Y62.84 E40.67054
G1 X127.933 Y63.258 E40.70005
G1 X128.578 Y63.743 E40.72958
G1 X129.127 Y64.244 E40.75677
G1 X129.256 Y64.373 E40.76345
G1 X129.797 Y64.971 E40.79295
G1 X130.277 Y65.62 E40.82248
G1 X130.69 Y66.313 E40.852
G1 X131.032 Y67.043 E40.88149
G1 X131.301 Y67.804 E40.91102
G1 X131.493 Y68.588 E40.94055
G1 X131.606 Y69.386 E40.97004
G1 X131.64 Y70.129 E40.99725
G1 X131.64 Y164.871 E44.4635
G1 X131.6 Y165.677 E44.49302
G1 X131.48 Y166.475 E44.52254
G1 X131.283 Y167.257 E44.55205
G1 X131.008 Y168.015 E44.58155
G1 X130.66 Y168.743 E44.61107
G1 X130.242 Y169.433 E44.64059
G1 X129.757 Y170.078 E44.67011
G1 X129.256 Y170.627 E44.6973
G1 X129.127 Y170.756 E44.70398
G1 X128.529 Y171.297 E44.73348
G1 X127.88 Y171.777 E44.76301
G1 X127.187 Y172.19 E44.79253
G1 X126.457 Y172.532 E44.82202
G1 X125.696 Y172.801 E44.85155
G1 X124.912 Y172.993 E44.88109
G1 X124.114 Y173.106 E44.91057
G1 X123.371 Y173.14 E44.93778
G1 X111.629 Y173.14 E45.36738
G1 X110.823 Y173.1 E45.3969
G1 X110.025 Y172.98 E45.42643
G1 X109.243 Y172.783 E45.45593
G1 X108.485 Y172.508 E45.48543
G1 X107.757 Y172.16 E45.51495
G1 X107.067 Y171.742 E45.54447
G1 X106.422 Y171.257 E45.57399
G1 X105.873 Y170.756 E45.60119
G1 X105.744 Y170.627 E45.60786
G1 X105.203 Y170.029 E45.63736
G1 X104.723 Y169.38 E45.6669
G1 X104.31 Y168.687 E45.69641
G1 X103.968 Y167.957 E45.72591
G1 X103.699 Y167.196 E45.75544
G1 X103.507 Y166.412 E45.78497
G1 X103.394 Y165.614 E45.81445
G1 X103.36 Y164.871 E45.84167
G1 X103.36 Y70.129 E49.30791
G1 X103.4 Y69.323 E49.33744
G1 X103.52 Y68.525 E49.36696
G1 X103.717 Y67.743 E49.39646
G1 X103.992 Y66.985 E49.42597
G1 X104.027 Y66.913 E49.42889
G0 F810 X104.34 Y66.257
M204 S5000
M205 X30 Y30
G0 F7200 X104.779 Y66.372
M204 S500
M205 X20 Y20
G1 F6000 E49.45549
G1 F900 X105.196 Y65.708 E49.48418
G1 X105.679 Y65.089 E49.5129
G1 X106.055 Y64.684 E49.53312
G1 X106.184 Y64.555 E49.5398
G1 X106.767 Y64.029 E49.56853
G1 X107.399 Y63.566 E49.59719
G1 X108.076 Y63.169 E49.6259
G1 X108.79 Y62.843 E49.65462
G1 X109.533 Y62.591 E49.68332
G1 X110.298 Y62.416 E49.71203
G1 X111.077 Y62.32 E49.74075
G1 X111.629 Y62.3 E49.76096
G1 X123.371 Y62.3 E50.19055
G1 X124.155 Y62.34 E50.21928
G1 X124.93 Y62.459 E50.24796
G1 X125.689 Y62.657 E50.27666
G1 X126.424 Y62.931 E50.30536
G1 X127.128 Y63.279 E50.33409
G1 X127.792 Y63.696 E50.36278
G1 X128.411 Y64.179 E50.3915
G1 X128.816 Y64.555 E50.41172
G1 X128.945 Y64.684 E50.4184
G1 X129.471 Y65.267 E50.44712
G1 X129.934 Y65.899 E50.47579
G1 X130.331 Y66.576 E50.5045
G1 X130.657 Y67.29 E50.53322
G1 X130.909 Y68.033 E50.56192
G1 X131.084 Y68.798 E50.59063
G1 X131.18 Y69.577 E50.61935
G1 X131.2 Y70.129 E50.63956
G1 X131.2 Y164.871 E54.1058
G1 X131.16 Y165.655 E54.13452
G1 X131.041 Y166.43 E54.16321
G1 X130.843 Y167.189 E54.19191
G1 X130.569 Y167.924 E54.22061
G1 X130.221 Y168.628 E54.24934
G1 X129.804 Y169.292 E54.27803
G1 X129.321 Y169.911 E54.30675
G1 X128.945 Y170.316 E54.32697
G1 X128.816 Y170.445 E54.33364
G1 X128.233 Y170.971 E54.36237
G1 X127.601 Y171.434 E54.39104
G1 X126.924 Y171.831 E54.41975
G1 X126.21 Y172.157 E54.44847
G1 X125.467 Y172.409 E54.47717
G1 X124.702 Y172.584 E54.50588
G1 X123.923 Y172.68 E54.5346
G1 X123.371 Y172.7 E54.55481
G1 X111.629 Y172.7 E54.9844
G1 X110.845 Y172.66 E55.01312
G1 X110.07 Y172.541 E55.04181
G1 X109.311 Y172.343 E55.07051
G1 X108.576 Y172.069 E55.0992
G1 X107.872 Y171.721 E55.12794
G1 X107.208 Y171.304 E55.15662
G1 X106.589 Y170.821 E55.18535
G1 X106.184 Y170.445 E55.20557
G1 X106.055 Y170.316 E55.21224
G1 X105.529 Y169.733 E55.24097
G1 X105.066 Y169.101 E55.26963
G1 X104.669 Y168.424 E55.29835
G1 X104.343 Y167.71 E55.32706
G1 X104.091 Y166.967 E55.35577
G1 X103.916 Y166.202 E55.38448
G1 X103.82 Y165.423 E55.4132
G1 X103.8 Y164.871 E55.4334
G1 X103.8 Y70.129 E58.89965
G1 X103.84 Y69.345 E58.92837
G1 X103.959 Y68.57 E58.95706
G1 X104.157 Y67.811 E58.98575
G1 X104.431 Y67.076 E59.01445
G1 X104.457 Y67.023 E59.01661
G0 F810 X104.779 Y66.372
M204 S5000
M205 X30 Y30
G0 F7200 X105.217 Y66.491
M204 S500
M205 X20 Y20
G1 F6000 E59.04321
G1 F900 X105.633 Y65.852 E59.07111
G1 X106.366 Y64.995 E59.11237
G1 X106.495 Y64.866 E59.11904
G1 X107.062 Y64.357 E59.14692
G1 X107.678 Y63.909 E59.17478
G1 X108.338 Y63.529 E59.20265
G1 X109.034 Y63.219 E59.23052
G1 X109.759 Y62.985 E59.2584
G1 X110.505 Y62.828 E59.28629
G1 X111.629 Y62.74 E59.32754
G1 X123.371 Y62.74 E59.75713
G1 X124.132 Y62.78 E59.78501
G1 X124.884 Y62.899 E59.81287
G1 X125.62 Y63.097 E59.84075
G1 X126.331 Y63.371 E59.86863
G1 X127.009 Y63.717 E59.89648
G1 X127.648 Y64.133 E59.92437
G1 X128.505 Y64.866 E59.96563
G1 X128.634 Y64.995 E59.97231
G1 X129.143 Y65.562 E60.00018
G1 X129.591 Y66.178 E60.02805
G1 X129.971 Y66.838 E60.05591
G1 X130.281 Y67.534 E60.08379
G1 X130.515 Y68.259 E60.11166
G1 X130.672 Y69.005 E60.13955
G1 X130.76 Y70.129 E60.1808
G1 X130.76 Y164.871 E63.64705
G1 X130.72 Y165.632 E63.67493
G1 X130.601 Y166.384 E63.70278
G1 X130.403 Y167.12 E63.73067
G1 X130.129 Y167.831 E63.75854
G1 X129.783 Y168.509 E63.78639
G1 X129.367 Y169.148 E63.81429
G1 X128.634 Y170.005 E63.85555
G1 X128.505 Y170.134 E63.86222
G1 X127.938 Y170.643 E63.8901
G1 X127.322 Y171.091 E63.91797
G1 X126.662 Y171.471 E63.94583
G1 X125.966 Y171.781 E63.9737
