;FLAVOR:Marlin
;TIME:12312
;Filament used: 14.6801m
;Layer height: 0.2
;Generated with Cura_SteamEngine 3.6.0
M140 S70
M105
M190 S70
M104 S215
M105
M109 S215
M82 ;absolute extrusion mode
G28 ; home all axes
M117 Purge extruder
G92 E0 ; reset extruder
G1 Z1.0 F3000 ; move z up little to prevent scratching of surface
G1 X0.1 Y20 Z0.3 F5000.0 ; move to start-line position G1 X0.1 Y200.0 Z0.3 F1500.0 E15 ; draw 1st line
G1 X0.4 Y200.0 Z0.3 F5000.0 ; move to side a little
G1 X0.4 Y20 Z0.3 F1500.0 E30 ; draw 2nd line
G92 E0 ; reset extruder
G1 Z1.0 F3000 ; move z up little to prevent scratching of surface
M117 All systems go!
G92 E0
G1 F6000 E-5
;LAYER_COUNT:136
;LAYER:0
M107
M204 S5000
M205 X30 Y30
G0 F7200 X59.465 Y94.863 Z0.2
M204 S500
M205 X20 Y20
;TYPE:SKIRT
G1 F6000 E0
G1 F900 X60.574 Y94.256 E0.04625
G1 X61.721 Y93.719 E0.09259
G1 X62.898 Y93.256 E0.13886
G1 X64.103 Y92.869 E0.18517
G1 X65.329 Y92.558 E0.23144
G1 X66.573 Y92.326 E0.27774
G1 X67.829 Y92.172 E0.32404
G1 X69.629 Y92.091 E0.38996
G1 X165.371 Y92.091 E3.89279
G1 X166.636 Y92.131 E3.93909
G1 X167.895 Y92.251 E3.98537
G1 X169.145 Y92.45 E4.03167
G1 X170.38 Y92.728 E4.07799
G1 X171.594 Y93.083 E4.12426
G1 X172.784 Y93.514 E4.17057
G1 X173.944 Y94.019 E4.21686
G1 X175.07 Y94.597 E4.26316
G1 X176.157 Y95.245 E4.30946
G1 X177.201 Y95.96 E4.35576
G1 X178.197 Y96.739 E4.40202
G1 X179.527 Y97.955 E4.46795
G1 X179.656 Y98.084 E4.47463
G1 X180.522 Y99.006 E4.5209
G1 X181.328 Y99.982 E4.56721
G1 X182.071 Y101.006 E4.6135
G1 X182.748 Y102.076 E4.65983
G1 X183.355 Y103.185 E4.70608
G1 X183.892 Y104.332 E4.75242
G1 X184.355 Y105.509 E4.79869
G1 X184.742 Y106.714 E4.84499
G1 X185.053 Y107.94 E4.89127
G1 X185.285 Y109.184 E4.93757
G1 X185.439 Y110.44 E4.98386
G1 X185.52 Y112.24 E5.04979
G1 X185.52 Y125.982 E5.55255
G1 X185.48 Y127.247 E5.59886
G1 X185.36 Y128.506 E5.64513
G1 X185.161 Y129.756 E5.69144
G1 X184.883 Y130.991 E5.73775
G1 X184.528 Y132.205 E5.78403
G1 X184.097 Y133.395 E5.83033
G1 X183.592 Y134.555 E5.87662
G1 X183.014 Y135.681 E5.92293
G1 X182.366 Y136.768 E5.96923
G1 X181.651 Y137.812 E6.01552
G1 X180.872 Y138.808 E6.06178
G1 X179.656 Y140.138 E6.12771
G1 X179.527 Y140.267 E6.13439
G1 X178.605 Y141.133 E6.18067
G1 X177.629 Y141.939 E6.22698
G1 X176.605 Y142.682 E6.27326
G1 X175.535 Y143.359 E6.31959
G1 X174.426 Y143.966 E6.36584
G1 X173.279 Y144.503 E6.41218
G1 X172.102 Y144.966 E6.45845
G1 X170.897 Y145.353 E6.50476
G1 X169.671 Y145.664 E6.55103
G1 X168.427 Y145.896 E6.59733
G1 X167.171 Y146.05 E6.64363
G1 X165.371 Y146.131 E6.70955
G1 X69.629 Y146.131 E10.21238
G1 X68.364 Y146.091 E10.25868
G1 X67.105 Y145.971 E10.30495
G1 X65.855 Y145.772 E10.35126
G1 X64.62 Y145.494 E10.39758
G1 X63.406 Y145.139 E10.44385
G1 X62.216 Y144.708 E10.49016
G1 X61.056 Y144.203 E10.53645
G1 X59.93 Y143.625 E10.58275
G1 X58.843 Y142.977 E10.62905
G1 X57.799 Y142.262 E10.67535
G1 X56.803 Y141.483 E10.72161
G1 X55.473 Y140.267 E10.78754
G1 X55.344 Y140.138 E10.79422
G1 X54.478 Y139.216 E10.84049
G1 X53.672 Y138.24 E10.8868
G1 X52.929 Y137.216 E10.93309
G1 X52.252 Y136.146 E10.97942
G1 X51.645 Y135.037 E11.02567
G1 X51.108 Y133.89 E11.07201
G1 X50.645 Y132.713 E11.11828
G1 X50.258 Y131.508 E11.16458
G1 X49.947 Y130.282 E11.21086
G1 X49.715 Y129.038 E11.25716
G1 X49.561 Y127.782 E11.30345
G1 X49.48 Y125.982 E11.36938
G1 X49.48 Y112.24 E11.87214
G1 X49.52 Y110.975 E11.91845
G1 X49.64 Y109.716 E11.96472
G1 X49.839 Y108.466 E12.01103
G1 X50.117 Y107.231 E12.05734
G1 X50.472 Y106.017 E12.10362
G1 X50.903 Y104.827 E12.14992
G1 X51.408 Y103.667 E12.19621
G1 X51.986 Y102.541 E12.24252
G1 X52.634 Y101.454 E12.28881
G1 X53.349 Y100.41 E12.33511
G1 X54.128 Y99.414 E12.38137
G1 X55.344 Y98.084 E12.4473
G1 X55.473 Y97.955 E12.45398
G1 X56.395 Y97.089 E12.50026
G1 X57.371 Y96.283 E12.54657
G1 X58.395 Y95.54 E12.59285
G1 X58.851 Y95.251 E12.61261
G0 F810 X59.465 Y94.863
M204 S5000
M205 X30 Y30
G0 F7200 X59.736 Y95.214
M204 S500
M205 X20 Y20
G1 F6000 E12.6392
G1 F900 X60.835 Y94.617 E12.68496
G1 X61.971 Y94.091 E12.73076
G1 X63.137 Y93.638 E12.77653
G1 X64.331 Y93.261 E12.82234
G1 X65.546 Y92.962 E12.86812
G1 X66.777 Y92.74 E12.91388
G1 X68.02 Y92.597 E12.95966
G1 X69.629 Y92.531 E13.01857
G1 X165.371 Y92.531 E16.5214
G1 X166.622 Y92.571 E16.5672
G1 X167.867 Y92.691 E16.61296
G1 X169.103 Y92.89 E16.65876
G1 X170.323 Y93.168 E16.70454
G1 X171.523 Y93.523 E16.75032
G1 X172.698 Y93.954 E16.79611
G1 X173.843 Y94.459 E16.8419
G1 X174.953 Y95.036 E16.88767
G1 X176.024 Y95.683 E16.93345
G1 X177.052 Y96.397 E16.97924
G1 X178.032 Y97.175 E17.02502
G1 X179.216 Y98.266 E17.08392
G1 X179.345 Y98.395 E17.0906
G1 X180.201 Y99.308 E17.13639
G1 X180.997 Y100.273 E17.18215
G1 X181.73 Y101.287 E17.22793
G1 X182.397 Y102.347 E17.27375
G1 X182.994 Y103.446 E17.31951
G1 X183.52 Y104.582 E17.36531
G1 X183.973 Y105.748 E17.41107
G1 X184.35 Y106.942 E17.45688
G1 X184.649 Y108.157 E17.50266
G1 X184.871 Y109.388 E17.54843
G1 X185.014 Y110.631 E17.5942
G1 X185.08 Y112.24 E17.65312
G1 X185.08 Y125.982 E18.15589
G1 X185.04 Y127.233 E18.20168
G1 X184.92 Y128.478 E18.24744
G1 X184.721 Y129.714 E18.29324
G1 X184.443 Y130.934 E18.33902
G1 X184.088 Y132.134 E18.38481
G1 X183.657 Y133.309 E18.4306
G1 X183.152 Y134.454 E18.47638
G1 X182.575 Y135.564 E18.52215
G1 X181.928 Y136.635 E18.56793
G1 X181.214 Y137.663 E18.61372
G1 X180.436 Y138.643 E18.6595
G1 X179.345 Y139.827 E18.7184
G1 X179.216 Y139.956 E18.72508
G1 X178.303 Y140.812 E18.77087
G1 X177.338 Y141.608 E18.81663
G1 X176.324 Y142.341 E18.86241
G1 X175.264 Y143.008 E18.90823
G1 X174.165 Y143.605 E18.95399
G1 X173.029 Y144.131 E18.99979
G1 X171.863 Y144.584 E19.04555
G1 X170.669 Y144.961 E19.09136
G1 X169.454 Y145.26 E19.13714
G1 X168.223 Y145.482 E19.18291
G1 X166.98 Y145.625 E19.22868
G1 X165.371 Y145.691 E19.2876
G1 X69.629 Y145.691 E22.79043
G1 X68.378 Y145.651 E22.83622
G1 X67.133 Y145.531 E22.88198
G1 X65.897 Y145.332 E22.92779
G1 X64.677 Y145.054 E22.97357
G1 X63.477 Y144.699 E23.01935
G1 X62.302 Y144.268 E23.06514
G1 X61.157 Y143.763 E23.11093
G1 X60.047 Y143.186 E23.15669
G1 X58.976 Y142.539 E23.20247
G1 X57.948 Y141.825 E23.24827
G1 X56.968 Y141.047 E23.29405
G1 X55.784 Y139.956 E23.35295
G1 X55.655 Y139.827 E23.35962
G1 X54.799 Y138.914 E23.40541
G1 X54.003 Y137.949 E23.45118
G1 X53.27 Y136.935 E23.49696
G1 X52.603 Y135.875 E23.54278
G1 X52.006 Y134.776 E23.58853
G1 X51.48 Y133.64 E23.63433
G1 X51.027 Y132.474 E23.6801
G1 X50.65 Y131.28 E23.72591
G1 X50.351 Y130.065 E23.77169
G1 X50.129 Y128.834 E23.81745
G1 X49.986 Y127.591 E23.86323
G1 X49.92 Y125.982 E23.92215
G1 X49.92 Y112.24 E24.42491
G1 X49.96 Y110.989 E24.47071
G1 X50.08 Y109.744 E24.51647
G1 X50.279 Y108.508 E24.56227
G1 X50.557 Y107.288 E24.60805
G1 X50.912 Y106.088 E24.65383
G1 X51.343 Y104.913 E24.69962
G1 X51.848 Y103.768 E24.74541
G1 X52.425 Y102.658 E24.79118
G1 X53.072 Y101.587 E24.83695
G1 X53.786 Y100.559 E24.88275
G1 X54.564 Y99.579 E24.92853
G1 X55.655 Y98.395 E24.98743
G1 X55.784 Y98.266 E24.99411
G1 X56.697 Y97.41 E25.03989
G1 X57.662 Y96.614 E25.08566
G1 X58.676 Y95.881 E25.13144
G1 X59.121 Y95.601 E25.15067
G0 F810 X59.736 Y95.214
M204 S5000
M205 X30 Y30
G0 F7200 X60.006 Y95.566
M204 S500
M205 X20 Y20
G1 F6000 E25.17727
G1 F900 X61.095 Y94.979 E25.22253
G1 X62.22 Y94.463 E25.26781
G1 X63.376 Y94.021 E25.31309
G1 X64.558 Y93.655 E25.35836
G1 X65.761 Y93.366 E25.40363
G1 X66.98 Y93.155 E25.44889
G1 X68.21 Y93.024 E25.49415
G1 X69.629 Y92.971 E25.5461
G1 X165.371 Y92.971 E29.04893
G1 X166.608 Y93.011 E29.09421
G1 X167.839 Y93.131 E29.13946
G1 X169.06 Y93.33 E29.18472
G1 X170.266 Y93.607 E29.23
G1 X171.451 Y93.962 E29.27525
G1 X172.611 Y94.393 E29.32053
G1 X173.741 Y94.898 E29.36581
G1 X174.835 Y95.475 E29.41106
G1 X175.89 Y96.121 E29.45632
G1 X176.901 Y96.834 E29.50158
G1 X177.864 Y97.611 E29.54685
G1 X178.905 Y98.577 E29.59881
G1 X179.034 Y98.706 E29.60549
G1 X179.88 Y99.609 E29.65076
G1 X180.666 Y100.564 E29.69601
G1 X181.389 Y101.568 E29.74128
G1 X182.045 Y102.617 E29.78654
G1 X182.632 Y103.706 E29.8318
G1 X183.148 Y104.831 E29.87709
G1 X183.59 Y105.987 E29.92236
G1 X183.956 Y107.169 E29.96764
G1 X184.245 Y108.372 E30.0129
G1 X184.456 Y109.591 E30.05816
G1 X184.587 Y110.821 E30.10342
G1 X184.64 Y112.24 E30.15537
G1 X184.64 Y125.982 E30.65814
G1 X184.6 Y127.219 E30.70342
G1 X184.48 Y128.45 E30.74867
G1 X184.281 Y129.671 E30.79393
G1 X184.004 Y130.877 E30.8392
G1 X183.649 Y132.062 E30.88446
G1 X183.218 Y133.222 E30.92973
G1 X182.713 Y134.352 E30.97502
G1 X182.136 Y135.446 E31.02027
G1 X181.49 Y136.501 E31.06553
G1 X180.777 Y137.512 E31.11079
G1 X180 Y138.475 E31.15606
G1 X179.034 Y139.516 E31.20802
G1 X178.905 Y139.645 E31.21469
G1 X178.002 Y140.491 E31.25996
G1 X177.047 Y141.277 E31.30522
G1 X176.043 Y142 E31.35048
G1 X174.994 Y142.656 E31.39575
G1 X173.905 Y143.243 E31.44101
G1 X172.78 Y143.759 E31.48629
G1 X171.624 Y144.201 E31.53157
G1 X170.442 Y144.567 E31.57684
G1 X169.239 Y144.856 E31.62211
G1 X168.02 Y145.067 E31.66737
G1 X166.79 Y145.198 E31.71262
G1 X165.371 Y145.251 E31.76458
G1 X69.629 Y145.251 E35.26741
G1 X68.392 Y145.211 E35.31269
G1 X67.161 Y145.091 E35.35794
G1 X65.94 Y144.892 E35.4032
G1 X64.734 Y144.615 E35.44847
G1 X63.549 Y144.26 E35.49373
G1 X62.389 Y143.829 E35.539
G1 X61.259 Y143.324 E35.58429
G1 X60.165 Y142.747 E35.62954
G1 X59.11 Y142.101 E35.6748
G1 X58.099 Y141.388 E35.72006
G1 X57.136 Y140.611 E35.76533
G1 X56.095 Y139.645 E35.81729
G1 X55.966 Y139.516 E35.82396
G1 X55.12 Y138.613 E35.86924
G1 X54.334 Y137.658 E35.91449
G1 X53.611 Y136.654 E35.95975
G1 X52.955 Y135.605 E36.00502
G1 X52.368 Y134.516 E36.05028
G1 X51.852 Y133.391 E36.09556
G1 X51.41 Y132.235 E36.14084
G1 X51.044 Y131.053 E36.18611
G1 X50.755 Y129.85 E36.23138
G1 X50.544 Y128.631 E36.27664
G1 X50.413 Y127.401 E36.32189
G1 X50.36 Y125.982 E36.37385
G1 X50.36 Y112.24 E36.87661
G1 X50.4 Y111.003 E36.92189
G1 X50.52 Y109.772 E36.96715
G1 X50.719 Y108.551 E37.01241
G1 X50.996 Y107.345 E37.05768
G1 X51.351 Y106.16 E37.10294
G1 X51.782 Y105 E37.14821
G1 X52.287 Y103.87 E37.19349
G1 X52.864 Y102.776 E37.23875
G1 X53.51 Y101.721 E37.28401
G1 X54.223 Y100.71 E37.32927
G1 X55 Y99.747 E37.37454
G1 X55.966 Y98.706 E37.4265
G1 X56.095 Y98.577 E37.43317
G1 X56.998 Y97.731 E37.47844
G1 X57.953 Y96.945 E37.52369
G1 X58.957 Y96.222 E37.56896
G1 X59.39 Y95.951 E37.58765
G0 F810 X60.006 Y95.566
M204 S5000
M205 X30 Y30
G0 F7200 X60.276 Y95.918
M204 S500
M205 X20 Y20
G1 F6000 E37.61425
G1 F900 X61.355 Y95.341 E37.65901
G1 X62.469 Y94.836 E37.70376
G1 X63.613 Y94.405 E37.74849
G1 X64.783 Y94.05 E37.79322
G1 X65.974 Y93.772 E37.83797
G1 X67.181 Y93.572 E37.88273
G1 X68.398 Y93.452 E37.92747
G1 X69.629 Y93.411 E37.97253
G1 X165.371 Y93.411 E41.47536
G1 X166.593 Y93.451 E41.52009
G1 X167.81 Y93.571 E41.56484
G1 X169.017 Y93.77 E41.60959
G1 X170.208 Y94.047 E41.65433
G1 X171.378 Y94.402 E41.69906
G1 X172.523 Y94.833 E41.74382
G1 X173.637 Y95.337 E41.78856
G1 X174.716 Y95.913 E41.83331
G1 X175.755 Y96.559 E41.87807
G1 X176.749 Y97.271 E41.9228
G1 X177.695 Y98.046 E41.96754
G1 X178.594 Y98.888 E42.01261
G1 X178.723 Y99.017 E42.01928
G1 X179.559 Y99.91 E42.06404
G1 X180.335 Y100.855 E42.10877
G1 X181.047 Y101.849 E42.15351
G1 X181.693 Y102.887 E42.19824
G1 X182.27 Y103.966 E42.243
G1 X182.775 Y105.08 E42.28775
G1 X183.206 Y106.224 E42.33248
G1 X183.561 Y107.394 E42.37721
G1 X183.839 Y108.585 E42.42196
G1 X184.039 Y109.792 E42.46672
G1 X184.159 Y111.009 E42.51146
G1 X184.2 Y112.24 E42.55652
G1 X184.2 Y125.982 E43.05929
G1 X184.16 Y127.204 E43.10402
G1 X184.04 Y128.421 E43.14876
G1 X183.841 Y129.628 E43.19352
G1 X183.564 Y130.819 E43.23826
G1 X183.209 Y131.989 E43.28299
G1 X182.778 Y133.134 E43.32775
G1 X182.274 Y134.248 E43.37248
G1 X181.698 Y135.327 E43.41723
G1 X181.052 Y136.366 E43.46199
G1 X180.34 Y137.36 E43.50673
G1 X179.565 Y138.306 E43.55147
G1 X178.723 Y139.205 E43.59653
G1 X178.594 Y139.334 E43.60321
G1 X177.701 Y140.17 E43.64796
G1 X176.756 Y140.946 E43.6927
G1 X175.762 Y141.658 E43.73743
G1 X174.724 Y142.304 E43.78216
G1 X173.645 Y142.881 E43.82693
G1 X172.531 Y143.386 E43.87168
G1 X171.387 Y143.817 E43.91641
G1 X170.217 Y144.172 E43.96114
G1 X169.026 Y144.45 E44.00588
G1 X167.819 Y144.65 E44.05065
G1 X166.602 Y144.77 E44.09539
G1 X165.371 Y144.811 E44.14045
G1 X69.629 Y144.811 E47.64328
G1 X68.407 Y144.771 E47.68801
G1 X67.19 Y144.651 E47.73275
G1 X65.983 Y144.452 E47.77751
G1 X64.792 Y144.175 E47.82225
G1 X63.622 Y143.82 E47.86698
G1 X62.477 Y143.389 E47.91174
G1 X61.363 Y142.885 E47.95647
G1 X60.284 Y142.309 E48.00122
G1 X59.245 Y141.663 E48.04598
G1 X58.251 Y140.951 E48.09072
G1 X57.305 Y140.176 E48.13546
G1 X56.406 Y139.334 E48.18052
G1 X56.277 Y139.205 E48.1872
G1 X55.441 Y138.312 E48.23195
G1 X54.665 Y137.367 E48.27669
G1 X53.953 Y136.373 E48.32142
G1 X53.307 Y135.335 E48.36615
G1 X52.73 Y134.256 E48.41092
G1 X52.225 Y133.142 E48.45567
G1 X51.794 Y131.998 E48.5004
G1 X51.439 Y130.828 E48.54513
G1 X51.161 Y129.637 E48.58987
G1 X50.961 Y128.43 E48.63464
G1 X50.841 Y127.213 E48.67938
G1 X50.8 Y125.982 E48.72444
G1 X50.8 Y112.24 E49.22721
G1 X50.84 Y111.018 E49.27194
G1 X50.96 Y109.801 E49.31668
G1 X51.159 Y108.594 E49.36144
G1 X51.436 Y107.403 E49.40617
G1 X51.791 Y106.233 E49.45091
G1 X52.222 Y105.088 E49.49567
G1 X52.726 Y103.974 E49.5404
G1 X53.302 Y102.895 E49.58515
G1 X53.948 Y101.856 E49.62991
G1 X54.66 Y100.862 E49.67464
G1 X55.435 Y99.916 E49.71939
G1 X56.277 Y99.017 E49.76445
G1 X56.406 Y98.888 E49.77113
G1 X57.299 Y98.052 E49.81588
G1 X58.244 Y97.276 E49.86062
G1 X59.238 Y96.564 E49.90535
G1 X59.659 Y96.302 E49.92349
G0 F810 X60.276 Y95.918
M204 S5000
M205 X30 Y30
G0 F7200 X60.546 Y96.27
M204 S500
M205 X20 Y20
G1 F6000 E49.95009
G1 F900 X61.614 Y95.704 E49.99431
G1 X62.717 Y95.21 E50.03853
G1 X63.85 Y94.79 E50.08274
G1 X65.008 Y94.445 E50.12694
G1 X66.187 Y94.178 E50.17117
G1 X67.38 Y93.99 E50.21536
G1 X68.584 Y93.881 E50.25959
G1 X69.629 Y93.851 E50.29784
G1 X165.371 Y93.851 E53.80067
G1 X166.579 Y93.891 E53.84489
G1 X167.781 Y94.011 E53.88908
G1 X168.973 Y94.21 E53.9333
G1 X170.149 Y94.487 E53.9775
G1 X171.305 Y94.842 E54.02174
G1 X172.434 Y95.272 E54.06594
G1 X173.532 Y95.776 E54.11014
G1 X174.595 Y96.352 E54.15438
G1 X175.617 Y96.997 E54.19859
G1 X176.594 Y97.707 E54.24278
G1 X177.523 Y98.481 E54.28702
G1 X178.283 Y99.199 E54.32527
G1 X178.412 Y99.328 E54.33195
G1 X179.238 Y100.211 E54.37618
G1 X180.003 Y101.146 E54.42038
G1 X180.705 Y102.129 E54.46457
G1 X181.341 Y103.157 E54.5088
G1 X181.907 Y104.225 E54.55302
G1 X182.401 Y105.328 E54.59724
G1 X182.821 Y106.461 E54.64145
G1 X183.166 Y107.619 E54.68566
G1 X183.433 Y108.798 E54.72988
G1 X183.621 Y109.991 E54.77407
G1 X183.73 Y111.195 E54.8183
G1 X183.76 Y112.24 E54.85655
G1 X183.76 Y125.982 E55.35931
G1 X183.72 Y127.19 E55.40353
G1 X183.6 Y128.392 E55.44773
G1 X183.401 Y129.584 E55.49194
G1 X183.124 Y130.76 E55.53615
G1 X182.769 Y131.916 E55.58039
G1 X182.339 Y133.045 E55.62459
G1 X181.835 Y134.143 E55.66879
G1 X181.259 Y135.206 E55.71302
G1 X180.614 Y136.228 E55.75724
G1 X179.904 Y137.205 E55.80143
G1 X179.13 Y138.134 E55.84567
G1 X178.412 Y138.894 E55.88392
G1 X178.283 Y139.023 E55.89059
G1 X177.4 Y139.849 E55.93483
G1 X176.465 Y140.614 E55.97903
G1 X175.482 Y141.316 E56.02322
G1 X174.454 Y141.952 E56.06745
G1 X173.386 Y142.518 E56.11167
G1 X172.283 Y143.012 E56.15589
G1 X171.15 Y143.432 E56.20009
G1 X169.992 Y143.777 E56.2443
G1 X168.813 Y144.044 E56.28853
G1 X167.62 Y144.232 E56.33272
G1 X166.416 Y144.341 E56.37695
G1 X165.371 Y144.371 E56.41519
G1 X69.629 Y144.371 E59.91802
G1 X68.421 Y144.331 E59.96224
G1 X67.219 Y144.211 E60.00644
G1 X66.027 Y144.012 E60.05065
G1 X64.851 Y143.735 E60.09486
G1 X63.695 Y143.38 E60.1391
G1 X62.566 Y142.95 E60.1833
G1 X61.468 Y142.446 E60.2275
G1 X60.405 Y141.87 E60.27174
G1 X59.383 Y141.225 E60.31595
G1 X58.406 Y140.515 E60.36014
G1 X57.477 Y139.741 E60.40438
G1 X56.717 Y139.023 E60.44263
G1 X56.588 Y138.894 E60.4493
G1 X55.762 Y138.011 E60.49354
G1 X54.997 Y137.076 E60.53774
G1 X54.295 Y136.093 E60.58193
G1 X53.659 Y135.065 E60.62616
G1 X53.093 Y133.997 E60.67038
