;FLAVOR:Marlin
;TIME:4187
;Filament used: 2.78175m
;Layer height: 0.2
;Generated with Cura_SteamEngine 3.6.0
M140 S70
M105
M190 S70
M104 S215
M105
M109 S215
M82 ;absolute extrusion mode
G28 ; home all axes
M117 Purge extruder
G92 E0 ; reset extruder
G1 Z1.0 F3000 ; move z up little to prevent scratching of surface
G1 X0.1 Y20 Z0.3 F5000.0 ; move to start-line position G1 X0.1 Y200.0 Z0.3 F1500.0 E15 ; draw 1st line
G1 X0.4 Y200.0 Z0.3 F5000.0 ; move to side a little
G1 X0.4 Y20 Z0.3 F1500.0 E30 ; draw 2nd line
G92 E0 ; reset extruder
G1 Z1.0 F3000 ; move z up little to prevent scratching of surface
M117 All systems go!
G92 E0
G1 F6000 E-5
;LAYER_COUNT:16
;LAYER:0
M107
M204 S5000
M205 X30 Y30
G0 F7200 X72.552 Y63.607 Z0.2
M204 S500
M205 X20 Y20
;TYPE:SKIRT
G1 F6000 E0
G1 F900 X73 Y63.129 E0.02397
G1 X73.129 Y63 E0.03064
G1 X73.785 Y62.399 E0.06319
G1 X74.493 Y61.861 E0.09573
G1 X75.247 Y61.387 E0.12831
G1 X76.04 Y60.984 E0.16085
G1 X76.866 Y60.653 E0.19341
G1 X77.718 Y60.398 E0.22595
G1 X78.59 Y60.22 E0.25851
G1 X79.474 Y60.122 E0.29105
G1 X80.129 Y60.1 E0.31503
G1 X82.871 Y60.1 E0.41535
G1 X83.76 Y60.14 E0.4479
G1 X84.641 Y60.26 E0.48043
G1 X85.509 Y60.458 E0.51301
G1 X86.355 Y60.733 E0.54555
G1 X87.173 Y61.083 E0.5781
G1 X87.499 Y61.259 E0.59166
G1 X88.04 Y60.984 E0.61386
G1 X88.866 Y60.653 E0.64642
G1 X89.718 Y60.398 E0.67896
G1 X90.59 Y60.22 E0.71152
G1 X91.474 Y60.122 E0.74406
G1 X92.129 Y60.1 E0.76804
G1 X94.871 Y60.1 E0.86835
G1 X95.76 Y60.14 E0.90091
G1 X96.641 Y60.26 E0.93344
G1 X97.509 Y60.458 E0.96602
G1 X98.355 Y60.733 E0.99856
G1 X99.173 Y61.083 E1.03111
G1 X99.499 Y61.259 E1.04467
G1 X100.04 Y60.984 E1.06687
G1 X100.866 Y60.653 E1.09943
G1 X101.718 Y60.398 E1.13196
G1 X102.59 Y60.22 E1.16453
G1 X103.474 Y60.122 E1.19707
G1 X104.129 Y60.1 E1.22104
G1 X106.871 Y60.1 E1.32136
G1 X107.76 Y60.14 E1.35392
G1 X108.641 Y60.26 E1.38645
G1 X109.509 Y60.458 E1.41902
G1 X110.355 Y60.733 E1.45157
G1 X111.173 Y61.083 E1.48412
G1 X111.499 Y61.259 E1.49768
G1 X112.04 Y60.984 E1.51988
G1 X112.866 Y60.653 E1.55244
G1 X113.718 Y60.398 E1.58497
G1 X114.59 Y60.22 E1.61753
G1 X115.474 Y60.122 E1.65007
G1 X116.129 Y60.1 E1.67405
G1 X118.871 Y60.1 E1.77437
G1 X119.76 Y60.14 E1.80693
G1 X120.641 Y60.26 E1.83946
G1 X121.509 Y60.458 E1.87203
G1 X122.355 Y60.733 E1.90458
G1 X123.173 Y61.083 E1.93713
G1 X123.499 Y61.259 E1.95068
G1 X124.04 Y60.984 E1.97289
G1 X124.866 Y60.653 E2.00544
G1 X125.718 Y60.398 E2.03798
G1 X126.59 Y60.22 E2.07054
G1 X127.474 Y60.122 E2.10308
G1 X128.129 Y60.1 E2.12706
G1 X130.871 Y60.1 E2.22738
G1 X131.76 Y60.14 E2.25994
G1 X132.641 Y60.26 E2.29247
G1 X133.509 Y60.458 E2.32504
G1 X134.355 Y60.733 E2.35759
G1 X135.173 Y61.083 E2.39014
G1 X135.499 Y61.259 E2.40369
G1 X136.04 Y60.984 E2.42589
G1 X136.866 Y60.653 E2.45845
G1 X137.718 Y60.398 E2.49099
G1 X138.59 Y60.22 E2.52355
G1 X139.474 Y60.122 E2.55609
G1 X140.129 Y60.1 E2.58007
G1 X142.871 Y60.1 E2.68039
G1 X143.76 Y60.14 E2.71294
G1 X144.641 Y60.26 E2.74547
G1 X145.509 Y60.458 E2.77805
G1 X146.355 Y60.733 E2.81059
G1 X147.173 Y61.083 E2.84315
G1 X147.956 Y61.506 E2.87571
G1 X148.698 Y61.996 E2.90824
G1 X149.393 Y62.552 E2.9408
G1 X149.871 Y63 E2.96477
G1 X150 Y63.129 E2.97144
G1 X150.601 Y63.785 E3.00399
G1 X151.139 Y64.493 E3.03653
G1 X151.613 Y65.247 E3.06911
G1 X152.016 Y66.04 E3.10165
G1 X152.347 Y66.866 E3.13421
G1 X152.602 Y67.718 E3.16675
G1 X152.78 Y68.59 E3.19931
G1 X152.878 Y69.474 E3.23185
G1 X152.9 Y70.129 E3.25583
G1 X152.9 Y164.871 E6.72207
G1 X152.86 Y165.76 E6.75463
G1 X152.74 Y166.641 E6.78716
G1 X152.542 Y167.509 E6.81973
G1 X152.267 Y168.355 E6.85228
G1 X151.917 Y169.173 E6.88483
G1 X151.494 Y169.956 E6.91739
G1 X151.004 Y170.698 E6.94992
G1 X150.448 Y171.393 E6.98249
G1 X150 Y171.871 E7.00645
G1 X149.871 Y172 E7.01313
G1 X149.215 Y172.601 E7.04568
G1 X148.507 Y173.139 E7.07821
G1 X147.753 Y173.613 E7.1108
G1 X146.96 Y174.016 E7.14334
G1 X146.134 Y174.347 E7.1759
G1 X145.282 Y174.602 E7.20843
G1 X144.41 Y174.78 E7.241
G1 X143.526 Y174.878 E7.27354
G1 X142.871 Y174.9 E7.29751
G1 X140.129 Y174.9 E7.39783
G1 X139.24 Y174.86 E7.43039
G1 X138.359 Y174.74 E7.46292
G1 X137.491 Y174.542 E7.49549
G1 X136.645 Y174.267 E7.52804
G1 X135.827 Y173.917 E7.56059
G1 X135.501 Y173.741 E7.57415
G1 X134.96 Y174.016 E7.59635
G1 X134.134 Y174.347 E7.62891
G1 X133.282 Y174.602 E7.66144
G1 X132.41 Y174.78 E7.694
G1 X131.526 Y174.878 E7.72654
G1 X130.871 Y174.9 E7.75052
G1 X128.129 Y174.9 E7.85084
G1 X127.24 Y174.86 E7.8834
G1 X126.359 Y174.74 E7.91593
G1 X125.491 Y174.542 E7.9485
G1 X124.645 Y174.267 E7.98105
G1 X123.827 Y173.917 E8.0136
G1 X123.501 Y173.741 E8.02715
G1 X122.96 Y174.016 E8.04936
G1 X122.134 Y174.347 E8.08191
G1 X121.282 Y174.602 E8.11445
G1 X120.41 Y174.78 E8.14701
G1 X119.526 Y174.878 E8.17955
G1 X118.871 Y174.9 E8.20353
G1 X116.129 Y174.9 E8.30385
G1 X115.24 Y174.86 E8.33641
G1 X114.359 Y174.74 E8.36894
G1 X113.491 Y174.542 E8.40151
G1 X112.645 Y174.267 E8.43406
G1 X111.827 Y173.917 E8.46661
G1 X111.501 Y173.741 E8.48016
G1 X110.96 Y174.016 E8.50236
G1 X110.134 Y174.347 E8.53492
G1 X109.282 Y174.602 E8.56746
G1 X108.41 Y174.78 E8.60002
G1 X107.526 Y174.878 E8.63256
G1 X106.871 Y174.9 E8.65654
G1 X104.129 Y174.9 E8.75686
G1 X103.24 Y174.86 E8.78941
G1 X102.359 Y174.74 E8.82194
G1 X101.491 Y174.542 E8.85452
G1 X100.645 Y174.267 E8.88706
G1 X99.827 Y173.917 E8.91962
G1 X99.501 Y173.741 E8.93317
G1 X98.96 Y174.016 E8.95537
G1 X98.134 Y174.347 E8.98793
G1 X97.282 Y174.602 E9.02047
G1 X96.41 Y174.78 E9.05303
G1 X95.526 Y174.878 E9.08557
G1 X94.871 Y174.9 E9.10955
G1 X92.129 Y174.9 E9.20986
G1 X91.24 Y174.86 E9.24242
G1 X90.359 Y174.74 E9.27495
G1 X89.491 Y174.542 E9.30753
G1 X88.645 Y174.267 E9.34007
G1 X87.827 Y173.917 E9.37262
G1 X87.501 Y173.741 E9.38618
G1 X86.96 Y174.016 E9.40838
G1 X86.134 Y174.347 E9.44094
G1 X85.282 Y174.602 E9.47347
G1 X84.41 Y174.78 E9.50604
G1 X83.526 Y174.878 E9.53858
G1 X82.871 Y174.9 E9.56255
G1 X80.129 Y174.9 E9.66287
G1 X79.24 Y174.86 E9.69543
G1 X78.359 Y174.74 E9.72796
G1 X77.491 Y174.542 E9.76053
G1 X76.645 Y174.267 E9.79308
G1 X75.827 Y173.917 E9.82563
G1 X75.044 Y173.494 E9.85819
G1 X74.302 Y173.004 E9.89072
G1 X73.607 Y172.448 E9.92329
G1 X73.129 Y172 E9.94725
G1 X73 Y171.871 E9.95393
G1 X72.399 Y171.215 E9.98648
G1 X71.861 Y170.507 E10.01901
G1 X71.387 Y169.753 E10.0516
G1 X70.984 Y168.96 E10.08414
G1 X70.653 Y168.134 E10.1167
G1 X70.398 Y167.282 E10.14923
G1 X70.22 Y166.41 E10.1818
G1 X70.122 Y165.526 E10.21434
G1 X70.1 Y164.871 E10.23831
G1 X70.1 Y70.129 E13.70456
G1 X70.14 Y69.24 E13.73712
G1 X70.26 Y68.359 E13.76965
G1 X70.458 Y67.491 E13.80222
G1 X70.733 Y66.645 E13.83477
G1 X71.083 Y65.827 E13.86732
G1 X71.506 Y65.044 E13.89988
G1 X71.996 Y64.302 E13.93241
G1 X72.098 Y64.174 E13.9384
G0 F810 X72.552 Y63.607
M204 S5000
M205 X30 Y30
G0 F7200 X72.987 Y63.78
M204 S500
M205 X20 Y20
G1 F6000 E13.965
G1 F900 X73.311 Y63.44 E13.98218
G1 X73.44 Y63.311 E13.98885
G1 X74.082 Y62.725 E14.02065
G1 X74.776 Y62.2 E14.05249
G1 X75.515 Y61.741 E14.08432
G1 X76.293 Y61.353 E14.11613
G1 X77.103 Y61.037 E14.14794
G1 X77.939 Y60.797 E14.17976
G1 X78.794 Y60.635 E14.2116
G1 X79.659 Y60.552 E14.24339
G1 X80.129 Y60.54 E14.26059
G1 X82.871 Y60.54 E14.36091
G1 X83.74 Y60.58 E14.39274
G1 X84.601 Y60.7 E14.42454
G1 X85.448 Y60.898 E14.45637
G1 X86.273 Y61.173 E14.48818
G1 X87.069 Y61.523 E14.52
G1 X87.491 Y61.756 E14.53763
G1 X87.515 Y61.741 E14.53867
G1 X88.293 Y61.353 E14.57047
G1 X89.103 Y61.037 E14.60228
G1 X89.939 Y60.797 E14.63411
G1 X90.794 Y60.635 E14.66594
G1 X91.659 Y60.552 E14.69774
G1 X92.129 Y60.54 E14.71494
G1 X94.871 Y60.54 E14.81526
G1 X95.74 Y60.58 E14.84708
G1 X96.601 Y60.7 E14.87889
G1 X97.448 Y60.898 E14.91071
G1 X98.273 Y61.173 E14.94253
G1 X99.069 Y61.523 E14.97434
G1 X99.491 Y61.756 E14.99198
G1 X99.515 Y61.741 E14.99301
G1 X100.293 Y61.353 E15.02482
G1 X101.103 Y61.037 E15.05663
G1 X101.939 Y60.797 E15.08845
G1 X102.794 Y60.635 E15.12029
G1 X103.659 Y60.552 E15.15208
G1 X104.129 Y60.54 E15.16928
G1 X106.871 Y60.54 E15.2696
G1 X107.74 Y60.58 E15.30143
G1 X108.601 Y60.7 E15.33324
G1 X109.448 Y60.898 E15.36506
G1 X110.273 Y61.173 E15.39688
G1 X111.069 Y61.523 E15.42869
G1 X111.491 Y61.756 E15.44633
G1 X111.515 Y61.741 E15.44736
G1 X112.293 Y61.353 E15.47917
G1 X113.103 Y61.037 E15.51098
G1 X113.939 Y60.797 E15.5428
G1 X114.794 Y60.635 E15.57464
G1 X115.659 Y60.552 E15.60643
G1 X116.129 Y60.54 E15.62363
G1 X118.871 Y60.54 E15.72395
G1 X119.74 Y60.58 E15.75578
G1 X120.601 Y60.7 E15.78758
G1 X121.448 Y60.898 E15.81941
G1 X122.273 Y61.173 E15.85122
G1 X123.069 Y61.523 E15.88304
G1 X123.491 Y61.756 E15.90067
G1 X123.515 Y61.741 E15.90171
G1 X124.293 Y61.353 E15.93352
G1 X125.103 Y61.037 E15.96533
G1 X125.939 Y60.797 E15.99715
G1 X126.794 Y60.635 E16.02898
G1 X127.659 Y60.552 E16.06078
G1 X128.129 Y60.54 E16.07798
G1 X130.871 Y60.54 E16.1783
G1 X131.74 Y60.58 E16.21012
G1 X132.601 Y60.7 E16.24193
G1 X133.448 Y60.898 E16.27375
G1 X134.273 Y61.173 E16.30557
G1 X135.069 Y61.523 E16.33738
G1 X135.491 Y61.756 E16.35502
G1 X135.515 Y61.741 E16.35606
G1 X136.293 Y61.353 E16.38786
G1 X137.103 Y61.037 E16.41967
G1 X137.939 Y60.797 E16.45149
G1 X138.794 Y60.635 E16.48333
G1 X139.659 Y60.552 E16.51512
G1 X140.129 Y60.54 E16.53233
G1 X142.871 Y60.54 E16.63264
G1 X143.74 Y60.58 E16.66447
G1 X144.601 Y60.7 E16.69628
G1 X145.448 Y60.898 E16.7281
G1 X146.273 Y61.173 E16.75992
G1 X147.069 Y61.523 E16.79173
G1 X147.83 Y61.944 E16.82355
G1 X148.549 Y62.434 E16.85538
G1 X149.22 Y62.987 E16.88719
G1 X149.56 Y63.311 E16.90438
G1 X149.689 Y63.44 E16.91105
G1 X150.275 Y64.082 E16.94285
G1 X150.8 Y64.776 E16.97469
G1 X151.259 Y65.515 E17.00652
G1 X151.647 Y66.293 E17.03833
G1 X151.963 Y67.103 E17.07014
G1 X152.203 Y67.939 E17.10196
G1 X152.365 Y68.794 E17.1338
G1 X152.448 Y69.659 E17.16559
G1 X152.46 Y70.129 E17.18279
G1 X152.46 Y164.871 E20.64903
G1 X152.42 Y165.74 E20.68086
G1 X152.3 Y166.601 E20.71267
G1 X152.102 Y167.448 E20.74449
G1 X151.827 Y168.273 E20.77631
G1 X151.477 Y169.069 E20.80812
G1 X151.056 Y169.83 E20.83994
G1 X150.566 Y170.549 E20.87177
G1 X150.013 Y171.22 E20.90358
G1 X149.689 Y171.56 E20.92077
G1 X149.56 Y171.689 E20.92744
G1 X148.918 Y172.275 E20.95924
G1 X148.224 Y172.8 E20.99108
G1 X147.485 Y173.259 E21.02291
G1 X146.707 Y173.647 E21.05472
G1 X145.897 Y173.963 E21.08653
G1 X145.061 Y174.203 E21.11835
G1 X144.206 Y174.365 E21.15018
G1 X143.341 Y174.448 E21.18198
G1 X142.871 Y174.46 E21.19918
G1 X140.129 Y174.46 E21.2995
G1 X139.26 Y174.42 E21.33132
G1 X138.399 Y174.3 E21.36313
G1 X137.552 Y174.102 E21.39495
G1 X136.727 Y173.827 E21.42677
G1 X135.931 Y173.477 E21.45858
G1 X135.509 Y173.244 E21.47622
G1 X135.485 Y173.259 E21.47726
G1 X134.707 Y173.647 E21.50906
G1 X133.897 Y173.963 E21.54087
G1 X133.061 Y174.203 E21.57269
G1 X132.206 Y174.365 E21.60453
G1 X131.341 Y174.448 E21.63632
G1 X130.871 Y174.46 E21.65353
G1 X128.129 Y174.46 E21.75384
G1 X127.26 Y174.42 E21.78567
G1 X126.399 Y174.3 E21.81748
G1 X125.552 Y174.102 E21.8493
G1 X124.727 Y173.827 E21.88112
G1 X123.931 Y173.477 E21.91293
G1 X123.509 Y173.244 E21.93057
G1 X123.485 Y173.259 E21.9316
G1 X122.707 Y173.647 E21.96341
G1 X121.897 Y173.963 E21.99522
G1 X121.061 Y174.203 E22.02704
G1 X120.206 Y174.365 E22.05888
G1 X119.341 Y174.448 E22.09067
G1 X118.871 Y174.46 E22.10787
G1 X116.129 Y174.46 E22.20819
G1 X115.26 Y174.42 E22.24002
G1 X114.399 Y174.3 E22.27182
G1 X113.552 Y174.102 E22.30365
G1 X112.727 Y173.827 E22.33546
G1 X111.931 Y173.477 E22.36728
G1 X111.509 Y173.244 E22.38491
G1 X111.485 Y173.259 E22.38595
G1 X110.707 Y173.647 E22.41776
G1 X109.897 Y173.963 E22.44957
G1 X109.061 Y174.203 E22.48139
G1 X108.206 Y174.365 E22.51323
G1 X107.341 Y174.448 E22.54502
G1 X106.871 Y174.46 E22.56222
G1 X104.129 Y174.46 E22.66254
G1 X103.26 Y174.42 E22.69437
G1 X102.399 Y174.3 E22.72617
G1 X101.552 Y174.102 E22.75799
G1 X100.727 Y173.827 E22.78981
G1 X99.931 Y173.477 E22.82162
G1 X99.509 Y173.244 E22.83926
G1 X99.485 Y173.259 E22.8403
G1 X98.707 Y173.647 E22.8721
G1 X97.897 Y173.963 E22.90391
G1 X97.061 Y174.203 E22.93574
G1 X96.206 Y174.365 E22.96757
G1 X95.341 Y174.448 E22.99937
G1 X94.871 Y174.46 E23.01657
G1 X92.129 Y174.46 E23.11689
G1 X91.26 Y174.42 E23.14871
G1 X90.399 Y174.3 E23.18052
G1 X89.552 Y174.102 E23.21234
G1 X88.727 Y173.827 E23.24416
G1 X87.931 Y173.477 E23.27597
G1 X87.509 Y173.244 E23.29361
G1 X87.485 Y173.259 E23.29464
G1 X86.707 Y173.647 E23.32645
G1 X85.897 Y173.963 E23.35826
G1 X85.061 Y174.203 E23.39008
G1 X84.206 Y174.365 E23.42192
G1 X83.341 Y174.448 E23.45371
G1 X82.871 Y174.46 E23.47091
G1 X80.129 Y174.46 E23.57123
G1 X79.26 Y174.42 E23.60306
G1 X78.399 Y174.3 E23.63486
G1 X77.552 Y174.102 E23.66669
G1 X76.727 Y173.827 E23.69851
G1 X75.931 Y173.477 E23.73032
G1 X75.17 Y173.056 E23.76214
G1 X74.451 Y172.566 E23.79397
G1 X73.78 Y172.013 E23.82578
G1 X73.44 Y171.689 E23.84297
G1 X73.311 Y171.56 E23.84964
G1 X72.725 Y170.918 E23.88144
G1 X72.2 Y170.224 E23.91328
G1 X71.741 Y169.485 E23.94511
G1 X71.353 Y168.707 E23.97691
G1 X71.037 Y167.897 E24.00872
G1 X70.797 Y167.061 E24.04055
G1 X70.635 Y166.206 E24.07238
G1 X70.552 Y165.341 E24.10418
G1 X70.54 Y164.871 E24.12138
G1 X70.54 Y70.129 E27.58762
G1 X70.58 Y69.26 E27.61945
G1 X70.7 Y68.399 E27.65125
G1 X70.898 Y67.552 E27.68308
G1 X71.173 Y66.727 E27.71489
G1 X71.523 Y65.931 E27.74671
G1 X71.944 Y65.17 E27.77853
G1 X72.434 Y64.451 E27.81036
G1 X72.525 Y64.341 E27.81558
G0 F810 X72.987 Y63.78
M204 S5000
M205 X30 Y30
G0 F7200 X72.87 Y64.604
M204 S500
M205 X20 Y20
G1 F6000 E27.84218
G1 F900 X73.622 Y63.751 E27.88379
G1 X73.751 Y63.622 E27.89046
G1 X74.379 Y63.05 E27.92154
G1 X75.058 Y62.54 E27.95261
G1 X75.782 Y62.097 E27.98366
G1 X76.545 Y61.723 E28.01475
G1 X77.339 Y61.422 E28.04582
G1 X78.158 Y61.198 E28.07688
G1 X78.995 Y61.052 E28.10797
G1 X80.129 Y60.98 E28.14954
G1 X82.871 Y60.98 E28.24986
G1 X83.719 Y61.02 E28.28092
G1 X84.56 Y61.14 E28.312
G1 X85.386 Y61.338 E28.34307
G1 X86.189 Y61.613 E28.37413
G1 X86.963 Y61.962 E28.40519
G1 X87.502 Y62.269 E28.42788
G1 X87.782 Y62.097 E28.43991
G1 X88.545 Y61.723 E28.471
G1 X89.339 Y61.422 E28.50206
G1 X90.158 Y61.198 E28.53313
G1 X90.995 Y61.052 E28.56421
G1 X92.129 Y60.98 E28.60578
G1 X94.871 Y60.98 E28.7061
G1 X95.719 Y61.02 E28.73716
G1 X96.56 Y61.14 E28.76824
G1 X97.386 Y61.338 E28.79932
G1 X98.189 Y61.613 E28.83037
G1 X98.963 Y61.962 E28.86144
G1 X99.502 Y62.269 E28.88413
G1 X99.782 Y62.097 E28.89615
G1 X100.545 Y61.723 E28.92724
G1 X101.339 Y61.422 E28.95831
G1 X102.158 Y61.198 E28.98937
G1 X102.995 Y61.052 E29.02046
G1 X104.129 Y60.98 E29.06203
G1 X106.871 Y60.98 E29.16235
G1 X107.719 Y61.02 E29.19341
G1 X108.56 Y61.14 E29.22449
G1 X109.386 Y61.338 E29.25557
G1 X110.189 Y61.613 E29.28662
G1 X110.963 Y61.962 E29.31768
G1 X111.502 Y62.269 E29.34038
G1 X111.782 Y62.097 E29.3524
G1 X112.545 Y61.723 E29.38349
G1 X113.339 Y61.422 E29.41455
G1 X114.158 Y61.198 E29.44562
G1 X114.995 Y61.052 E29.4767
G1 X116.129 Y60.98 E29.51828
G1 X118.871 Y60.98 E29.6186
G1 X119.719 Y61.02 E29.64966
G1 X120.56 Y61.14 E29.68074
G1 X121.386 Y61.338 E29.71181
G1 X122.189 Y61.613 E29.74287
G1 X122.963 Y61.962 E29.77393
G1 X123.502 Y62.269 E29.79662
G1 X123.782 Y62.097 E29.80865
G1 X124.545 Y61.723 E29.83973
G1 X125.339 Y61.422 E29.8708
G1 X126.158 Y61.198 E29.90187
G1 X126.995 Y61.052 E29.93295
G1 X128.129 Y60.98 E29.97452
G1 X130.871 Y60.98 E30.07484
G1 X131.719 Y61.02 E30.1059
G1 X132.56 Y61.14 E30.13698
G1 X133.386 Y61.338 E30.16806
G1 X134.189 Y61.613 E30.19911
G1 X134.963 Y61.962 E30.23018
G1 X135.502 Y62.269 E30.25287
G1 X135.782 Y62.097 E30.26489
G1 X136.545 Y61.723 E30.29598
G1 X137.339 Y61.422 E30.32705
G1 X138.158 Y61.198 E30.35811
G1 X138.995 Y61.052 E30.3892
G1 X140.129 Y60.98 E30.43077
G1 X142.871 Y60.98 E30.53109
G1 X143.719 Y61.02 E30.56215
G1 X144.56 Y61.14 E30.59323
G1 X145.386 Y61.338 E30.62431
G1 X146.189 Y61.613 E30.65536
G1 X146.963 Y61.962 E30.68642
G1 X147.701 Y62.382 E30.71749
G1 X148.396 Y62.87 E30.74856
G1 X149.249 Y63.622 E30.79016
G1 X149.378 Y63.751 E30.79684
G1 X149.95 Y64.379 E30.82792
G1 X150.46 Y65.058 E30.85898
