;FLAVOR:Marlin
;TIME:5963
;Filament used: 9.81654m
;Layer height: 0.25
;Generated with Cura_SteamEngine 3.6.0
M140 S70
M105
M190 S70
M104 S215
M105
M109 S215
M82 ;absolute extrusion mode
; Ender 3 Custom Start G-code
G28 ; Home all axes
G92 E0 ; Reset Extruder
G1 Z2.0 F3000 ; Move Z Axis up little to prevent scratching of Heat Bed
G1 X0.1 Y20 Z0.3 F5000.0 ; Move to start position
G1 X0.1 Y200.0 Z0.3 F1500.0 E15 ; Draw the first line
G1 X0.4 Y200.0 Z0.3 F5000.0 ; Move to side a little
G1 X0.4 Y20 Z0.3 F1500.0 E30 ; Draw the second line
G92 E0 ; Reset Extruder
G1 Z2.0 F3000 ; Move Z Axis up little to prevent scratching of Heat Bed
; End of custom start GCode
G92 E0
G1 F6000 E-5
;LAYER_COUNT:80
;LAYER:0
M107
M204 S5000
M205 X30 Y30
G0 F7200 X70.396 Y85.186 Z0.25
M204 S500
M205 X20 Y20
;TYPE:SKIRT
G1 F6000 E0
G1 F900 X71.555 Y84.338 E0.07463
G1 X71.784 Y84.183 E0.089
G1 X72.846 Y83.512 E0.15429
G1 X73.95 Y82.91 E0.21964
G1 X75.089 Y82.38 E0.28492
G1 X76.26 Y81.922 E0.35027
G1 X77.457 Y81.541 E0.41555
G1 X78.676 Y81.236 E0.48085
G1 X79.913 Y81.009 E0.54621
G1 X81.161 Y80.862 E0.61152
G1 X82.808 Y80.789 E0.6972
G1 X91.023 Y80.77 E1.12412
G1 X92.28 Y80.807 E1.18947
G1 X93.531 Y80.924 E1.25477
G1 X94.772 Y81.12 E1.32006
G1 X95.999 Y81.395 E1.38541
G1 X97.205 Y81.747 E1.4507
G1 X98.387 Y82.176 E1.51605
G1 X99.539 Y82.678 E1.58136
G1 X100.329 Y83.075 E1.6273
G1 X100.621 Y83.23 E1.64448
G1 X101.712 Y83.855 E1.70983
G1 X102.761 Y84.547 E1.77514
G1 X103.763 Y85.305 E1.84043
G1 X104.716 Y86.125 E1.90577
G1 X105.614 Y87.004 E1.97107
G1 X106.455 Y87.938 E2.03639
G1 X107.235 Y88.924 E2.10172
G1 X107.95 Y89.957 E2.16701
G1 X108.598 Y91.034 E2.23233
G1 X109.176 Y92.15 E2.29765
G1 X109.75 Y93.471 E2.3725
G1 X109.873 Y93.785 E2.39002
G1 X110.294 Y94.97 E2.45538
G1 X110.639 Y96.178 E2.52067
G1 X110.906 Y97.406 E2.58598
G1 X111.095 Y98.649 E2.65132
G1 X111.204 Y99.901 E2.71663
G1 X111.234 Y100.989 E2.77319
G1 X111.234 Y105.758 E3.02103
G1 X123.798 Y105.752 E3.67397
G1 X123.81 Y100.748 E3.93402
G1 X123.853 Y99.492 E3.99933
G1 X123.976 Y98.242 E4.06461
G1 X124.178 Y97.001 E4.12995
G1 X124.459 Y95.776 E4.19527
G1 X124.817 Y94.571 E4.26059
G1 X125.25 Y93.392 E4.32587
G1 X125.759 Y92.242 E4.39122
G1 X126.339 Y91.127 E4.45654
G1 X126.988 Y90.051 E4.52184
G1 X127.705 Y89.019 E4.58715
G1 X128.487 Y88.035 E4.65247
G1 X129.035 Y87.414 E4.69551
G1 X129.234 Y87.198 E4.71077
G1 X130.114 Y86.301 E4.77608
G1 X131.05 Y85.462 E4.8414
G1 X132.037 Y84.684 E4.90671
G1 X133.072 Y83.971 E4.97203
G1 X134.15 Y83.325 E5.03734
G1 X135.267 Y82.749 E5.10265
G1 X136.418 Y82.245 E5.16795
G1 X138.016 Y81.683 E5.25599
G1 X138.22 Y81.621 E5.26707
G1 X139.433 Y81.294 E5.33236
G1 X140.665 Y81.045 E5.39768
G1 X141.911 Y80.875 E5.46303
G1 X143.164 Y80.784 E5.52832
G1 X144.042 Y80.768 E5.57395
G1 X152.259 Y80.801 E6.00099
G1 X153.515 Y80.846 E6.0663
G1 X154.766 Y80.971 E6.13164
G1 X156.006 Y81.175 E6.19695
G1 X157.231 Y81.458 E6.26228
G1 X158.435 Y81.818 E6.32759
G1 X159.614 Y82.253 E6.3929
G1 X160.763 Y82.763 E6.45823
G1 X161.877 Y83.345 E6.52355
G1 X162.951 Y83.997 E6.58884
G1 X163.982 Y84.715 E6.65414
G1 X164.966 Y85.498 E6.71949
G1 X165.897 Y86.342 E6.78479
G1 X166.587 Y87.042 E6.83587
G1 X166.873 Y87.347 E6.8576
G1 X167.703 Y88.29 E6.92289
G1 X168.471 Y89.285 E6.98821
G1 X169.175 Y90.326 E7.05352
G1 X169.811 Y91.41 E7.11883
G1 X170.376 Y92.533 E7.18417
G1 X170.87 Y93.689 E7.2495
G1 X171.288 Y94.874 E7.3148
G1 X171.631 Y96.083 E7.38011
G1 X171.895 Y97.312 E7.44544
G1 X172.081 Y98.555 E7.51075
G1 X172.188 Y99.807 E7.57605
G1 X172.216 Y100.842 E7.62986
G1 X172.23 Y120.236 E8.63775
G1 X172.156 Y121.953 E8.72706
G1 X171.981 Y123.975 E8.83254
G1 X171.833 Y125.223 E8.89785
G1 X171.622 Y126.387 E8.95933
G1 X171.308 Y127.861 E9.03765
G1 X171.007 Y129.081 E9.10295
G1 X170.661 Y130.188 E9.16322
G1 X170.002 Y132.098 E9.26823
G1 X169.554 Y133.272 E9.33353
G1 X169.087 Y134.307 E9.39254
G1 X168.419 Y135.678 E9.4718
G1 X167.832 Y136.789 E9.5371
G1 X167.226 Y137.787 E9.59778
G1 X166.13 Y139.474 E9.70232
G1 X165.412 Y140.505 E9.76762
G1 X164.693 Y141.414 E9.82785
G1 X163.719 Y142.574 E9.90656
G1 X162.881 Y143.51 E9.97185
G1 X162.075 Y144.308 E10.0308
G1 X160.591 Y145.694 E10.13633
G1 X159.645 Y146.522 E10.20166
G1 X158.428 Y147.445 E10.28104
G1 X156.772 Y148.603 E10.38605
G1 X155.72 Y149.29 E10.45135
G1 X155.019 Y149.697 E10.49347
G1 X154.141 Y150.183 E10.54563
G1 X153.022 Y150.757 E10.61099
G1 X152.295 Y151.083 E10.65239
G1 X150.432 Y151.874 E10.75757
G1 X149.26 Y152.328 E10.82289
G1 X147.838 Y152.768 E10.90025
G1 X145.888 Y153.292 E11.00518
G1 X144.665 Y153.58 E11.07048
G1 X143.142 Y153.825 E11.15065
G1 X141.139 Y154.068 E11.2555
G1 X139.887 Y154.18 E11.32083
G1 X138.764 Y154.212 E11.37921
G1 X86.719 Y154.223 E14.08394
G1 X85.463 Y154.183 E14.14924
G1 X84.212 Y154.064 E14.21455
G1 X83.014 Y153.873 E14.2776
G1 X81.908 Y153.662 E14.33611
G1 X80.681 Y153.387 E14.40146
G1 X79.475 Y153.035 E14.46675
G1 X78.293 Y152.607 E14.53208
G1 X77.176 Y152.121 E14.59538
G1 X76.168 Y151.645 E14.65332
G1 X75.049 Y151.072 E14.71865
G1 X73.969 Y150.43 E14.78394
G1 X72.932 Y149.72 E14.84926
G1 X72.012 Y149.004 E14.90984
G1 X71.132 Y148.276 E14.9692
G1 X70.189 Y147.444 E15.03455
G1 X69.302 Y146.554 E15.09985
G1 X68.473 Y145.61 E15.16514
G1 X67.723 Y144.64 E15.22886
G1 X67.07 Y143.738 E15.28673
G1 X66.366 Y142.697 E15.35204
G1 X65.729 Y141.613 E15.41738
G1 X64.918 Y139.944 E15.51382
G1 X64.582 Y139.161 E15.5581
G1 X64.124 Y137.991 E15.62339
G1 X63.741 Y136.794 E15.68871
G1 X63.445 Y135.623 E15.75148
G1 X63.263 Y134.797 E15.79543
G1 X63.031 Y133.561 E15.86079
G1 X62.879 Y132.314 E15.92607
G1 X62.8 Y130.562 E16.01721
G1 X62.778 Y100.906 E17.55841
G1 X62.817 Y99.649 E17.62376
G1 X62.936 Y98.398 E17.68907
G1 X63.134 Y97.157 E17.75438
G1 X63.411 Y95.931 E17.8197
G1 X63.765 Y94.725 E17.88502
G1 X64.195 Y93.544 E17.95033
G1 X64.809 Y92.167 E18.02869
G1 X64.906 Y91.97 E18.0401
G1 X65.497 Y90.86 E18.10545
G1 X66.157 Y89.791 E18.17074
G1 X66.884 Y88.765 E18.23609
G1 X67.675 Y87.788 E18.30142
G1 X68.526 Y86.864 E18.3667
G1 X69.434 Y85.995 E18.43202
G1 X70.004 Y85.515 E18.47074
G0 F810 X70.396 Y85.186
M204 S5000
M205 X30 Y30
G0 F7200 X70.792 Y85.51
M204 S500
M205 X20 Y20
G1 F6000 E18.49735
G1 F900 X71.835 Y84.752 E18.56436
G1 X72.064 Y84.597 E18.57873
G1 X73.113 Y83.935 E18.64319
G1 X74.203 Y83.342 E18.70768
G1 X75.329 Y82.821 E18.77216
G1 X76.486 Y82.373 E18.83663
G1 X77.67 Y82 E18.90115
G1 X78.875 Y81.705 E18.96562
G1 X80.096 Y81.488 E19.03007
G1 X81.33 Y81.349 E19.0946
G1 X82.809 Y81.289 E19.17153
G1 X91.024 Y81.27 E19.59845
G1 X92.265 Y81.307 E19.66298
G1 X93.5 Y81.424 E19.72745
G1 X94.725 Y81.62 E19.79192
G1 X95.935 Y81.895 E19.8564
G1 X97.125 Y82.247 E19.92089
G1 X98.29 Y82.676 E19.98541
G1 X99.424 Y83.178 E20.04986
G1 X100.095 Y83.517 E20.08893
G1 X100.387 Y83.672 E20.10611
G1 X101.463 Y84.289 E20.17057
G1 X102.498 Y84.974 E20.23507
G1 X103.486 Y85.724 E20.29954
G1 X104.424 Y86.536 E20.36401
G1 X105.308 Y87.407 E20.4285
G1 X106.134 Y88.333 E20.49299
G1 X106.898 Y89.31 E20.55745
G1 X107.598 Y90.335 E20.62195
G1 X108.231 Y91.403 E20.68647
G1 X108.793 Y92.509 E20.75094
G1 X109.285 Y93.654 E20.81571
G1 X109.408 Y93.968 E20.83323
G1 X109.823 Y95.137 E20.8977
G1 X110.162 Y96.331 E20.9622
G1 X110.423 Y97.544 E21.02668
G1 X110.606 Y98.771 E21.09115
G1 X110.709 Y100.008 E21.15566
G1 X110.734 Y100.989 E21.20666
G1 X110.734 Y106.259 E21.48054
G1 X124.297 Y106.252 E22.18539
G1 X124.31 Y100.75 E22.47133
G1 X124.353 Y99.51 E22.53581
G1 X124.476 Y98.275 E22.60031
G1 X124.678 Y97.051 E22.66478
G1 X124.958 Y95.842 E22.72927
G1 X125.316 Y94.654 E22.79375
G1 X125.75 Y93.491 E22.85826
G1 X126.257 Y92.359 E22.92272
G1 X126.837 Y91.262 E22.98721
G1 X127.486 Y90.204 E23.05171
G1 X128.202 Y89.191 E23.11618
G1 X128.981 Y88.225 E23.18067
G1 X129.402 Y87.753 E23.21354
G1 X129.601 Y87.537 E23.2288
G1 X130.471 Y86.652 E23.2933
G1 X131.396 Y85.825 E23.35778
G1 X132.372 Y85.059 E23.42226
G1 X133.396 Y84.357 E23.48678
G1 X134.463 Y83.724 E23.55125
G1 X135.568 Y83.16 E23.61573
G1 X136.707 Y82.668 E23.68021
G1 X138.161 Y82.162 E23.76021
G1 X138.365 Y82.1 E23.7713
G1 X139.564 Y81.777 E23.83583
G1 X140.78 Y81.533 E23.90028
G1 X142.01 Y81.367 E23.96478
G1 X143.248 Y81.281 E24.02928
G1 X144.04 Y81.268 E24.07044
G1 X152.257 Y81.301 E24.49747
G1 X153.497 Y81.346 E24.56196
G1 X154.732 Y81.471 E24.62647
G1 X155.956 Y81.675 E24.69095
G1 X157.164 Y81.957 E24.75542
G1 X158.351 Y82.317 E24.81988
G1 X159.513 Y82.753 E24.88438
G1 X160.645 Y83.262 E24.94888
G1 X161.741 Y83.843 E25.01335
G1 X162.798 Y84.494 E25.07786
G1 X163.81 Y85.211 E25.14232
G1 X164.774 Y85.992 E25.20679
G1 X165.686 Y86.834 E25.2713
G1 X166.222 Y87.384 E25.31121
G1 X166.508 Y87.689 E25.33294
G1 X167.327 Y88.621 E25.39742
G1 X168.085 Y89.603 E25.46189
G1 X168.777 Y90.633 E25.52638
G1 X169.402 Y91.705 E25.59086
G1 X169.956 Y92.815 E25.65533
G1 X170.438 Y93.959 E25.71985
G1 X170.845 Y95.131 E25.78432
G1 X171.176 Y96.327 E25.84882
G1 X171.429 Y97.542 E25.91331
G1 X171.603 Y98.77 E25.97777
G1 X171.697 Y100.007 E26.04224
G1 X171.716 Y100.842 E26.08564
G1 X171.73 Y120.236 E27.09353
G1 X171.658 Y121.91 E27.18061
G1 X171.483 Y123.932 E27.28608
G1 X171.337 Y125.164 E27.35055
G1 X171.133 Y126.283 E27.40967
G1 X170.819 Y127.757 E27.48799
G1 X170.521 Y128.961 E27.55245
G1 X170.188 Y130.025 E27.61039
G1 X169.529 Y131.935 E27.71539
G1 X169.087 Y133.094 E27.77985
G1 X168.637 Y134.088 E27.83656
G1 X167.969 Y135.459 E27.91581
G1 X167.39 Y136.556 E27.98028
G1 X166.806 Y137.514 E28.03858
G1 X165.71 Y139.201 E28.14313
G1 X165.001 Y140.22 E28.20765
G1 X164.31 Y141.092 E28.26547
G1 X163.336 Y142.252 E28.34418
G1 X162.508 Y143.177 E28.4087
G1 X161.733 Y143.942 E28.46529
G1 X160.249 Y145.328 E28.57082
G1 X159.316 Y146.146 E28.6353
G1 X158.141 Y147.036 E28.71191
G1 X156.485 Y148.194 E28.81692
G1 X155.446 Y148.872 E28.8814
G1 X154.777 Y149.26 E28.92159
G1 X153.899 Y149.746 E28.97374
G1 X152.794 Y150.312 E29.03826
G1 X152.099 Y150.623 E29.07783
G1 X150.236 Y151.414 E29.18301
G1 X149.079 Y151.862 E29.24749
G1 X147.709 Y152.285 E29.32201
G1 X145.759 Y152.809 E29.42694
G1 X144.551 Y153.093 E29.49143
G1 X143.081 Y153.329 E29.5688
G1 X141.078 Y153.572 E29.67366
G1 X139.842 Y153.682 E29.73815
G1 X138.764 Y153.712 E29.79419
G1 X86.719 Y153.723 E32.49892
G1 X85.479 Y153.683 E32.56339
G1 X84.244 Y153.564 E32.62787
G1 X83.108 Y153.382 E32.68766
G1 X82.002 Y153.171 E32.74618
G1 X80.791 Y152.899 E32.81068
G1 X79.6 Y152.55 E32.87518
G1 X78.435 Y152.125 E32.93962
G1 X77.389 Y151.669 E32.99892
G1 X76.381 Y151.193 E33.05685
G1 X75.277 Y150.627 E33.12133
G1 X74.211 Y149.991 E33.18584
G1 X73.189 Y149.288 E33.2503
G1 X72.331 Y148.618 E33.30688
G1 X71.451 Y147.89 E33.36623
G1 X70.521 Y147.069 E33.4307
G1 X69.645 Y146.19 E33.49519
G1 X68.829 Y145.255 E33.55969
G1 X68.128 Y144.346 E33.61934
G1 X67.475 Y143.444 E33.67721
G1 X66.78 Y142.416 E33.7417
G1 X66.153 Y141.346 E33.80615
G1 X65.378 Y139.747 E33.89849
G1 X65.042 Y138.964 E33.94277
G1 X64.59 Y137.809 E34.00723
G1 X64.213 Y136.627 E34.07171
G1 X63.933 Y135.515 E34.1313
G1 X63.751 Y134.689 E34.17526
G1 X63.523 Y133.469 E34.23976
G1 X63.374 Y132.238 E34.3042
G1 X63.3 Y130.561 E34.39143
G1 X63.278 Y100.905 E35.93263
G1 X63.317 Y99.665 E35.9971
G1 X63.436 Y98.43 E36.06158
G1 X63.634 Y97.205 E36.12607
G1 X63.911 Y95.996 E36.19052
G1 X64.265 Y94.806 E36.25505
G1 X64.695 Y93.642 E36.31953
G1 X65.258 Y92.387 E36.39102
G1 X65.355 Y92.19 E36.40243
G1 X65.939 Y91.096 E36.46688
G1 X66.592 Y90.041 E36.53136
G1 X67.311 Y89.03 E36.59583
G1 X68.095 Y88.067 E36.66036
G1 X68.938 Y87.158 E36.72479
G1 X69.839 Y86.304 E36.78931
G1 X70.399 Y85.837 E36.8272
G0 F810 X70.792 Y85.51
M204 S5000
M205 X30 Y30
G0 F7200 X71.188 Y85.836
M204 S500
M205 X20 Y20
G1 F6000 E36.85381
G1 F900 X72.115 Y85.166 E36.91325
G1 X72.344 Y85.011 E36.92762
G1 X73.38 Y84.359 E36.99123
G1 X74.456 Y83.775 E37.05486
G1 X75.569 Y83.262 E37.11855
G1 X76.712 Y82.824 E37.18216
G1 X77.882 Y82.46 E37.24584
G1 X79.072 Y82.174 E37.30944
G1 X80.279 Y81.967 E37.37309
G1 X81.497 Y81.838 E37.43674
G1 X82.811 Y81.789 E37.50507
G1 X91.026 Y81.77 E37.932
G1 X92.25 Y81.807 E37.99564
G1 X93.469 Y81.924 E38.05928
G1 X94.677 Y82.12 E38.12288
G1 X95.871 Y82.395 E38.18655
G1 X97.044 Y82.747 E38.2502
G1 X98.191 Y83.175 E38.31382
G1 X99.308 Y83.677 E38.37746
G1 X99.86 Y83.959 E38.40968
G1 X100.152 Y84.114 E38.42686
G1 X101.214 Y84.723 E38.49048
G1 X102.235 Y85.4 E38.55414
G1 X103.209 Y86.142 E38.61778
G1 X104.132 Y86.947 E38.68142
G1 X105.001 Y87.81 E38.74507
G1 X105.812 Y88.727 E38.80869
G1 X106.561 Y89.696 E38.87234
G1 X107.245 Y90.712 E38.93599
G1 X107.861 Y91.77 E38.99961
G1 X108.407 Y92.866 E39.06325
G1 X108.819 Y93.836 E39.11802
G1 X108.942 Y94.15 E39.13554
G1 X109.352 Y95.304 E39.19919
G1 X109.684 Y96.483 E39.26284
G1 X109.94 Y97.681 E39.32651
G1 X110.116 Y98.892 E39.3901
G1 X110.214 Y100.113 E39.45376
G1 X110.234 Y100.989 E39.4993
G1 X110.234 Y106.759 E39.79916
G1 X124.796 Y106.752 E40.55593
G1 X124.81 Y100.751 E40.8678
G1 X124.853 Y99.527 E40.93145
G1 X124.976 Y98.309 E40.99507
G1 X125.178 Y97.101 E41.05872
G1 X125.458 Y95.909 E41.12235
G1 X125.816 Y94.738 E41.18598
G1 X126.249 Y93.592 E41.24965
G1 X126.756 Y92.478 E41.31326
G1 X127.335 Y91.398 E41.37694
G1 X127.983 Y90.359 E41.44058
G1 X128.698 Y89.365 E41.50421
G1 X129.77 Y88.092 E41.5907
G1 X129.969 Y87.876 E41.60596
G1 X130.828 Y87.002 E41.66965
G1 X131.742 Y86.187 E41.73329
G1 X132.707 Y85.434 E41.7969
G1 X133.719 Y84.744 E41.86055
G1 X134.774 Y84.123 E41.92418
G1 X135.868 Y83.571 E41.98786
G1 X136.995 Y83.093 E42.05148
G1 X138.307 Y82.64 E42.12361
G1 X138.511 Y82.578 E42.13469
G1 X139.693 Y82.261 E42.19829
G1 X140.894 Y82.021 E42.26194
G1 X142.108 Y81.86 E42.32558
G1 X143.33 Y81.779 E42.38922
G1 X144.038 Y81.768 E42.42602
G1 X152.255 Y81.801 E42.85306
G1 X153.479 Y81.846 E42.91671
G1 X154.697 Y81.971 E42.98034
G1 X155.905 Y82.175 E43.04401
G1 X157.096 Y82.457 E43.10761
G1 X158.267 Y82.817 E43.17128
G1 X159.412 Y83.252 E43.23493
G1 X160.525 Y83.761 E43.29854
G1 X161.604 Y84.341 E43.3622
G1 X162.642 Y84.991 E43.42585
G1 X163.635 Y85.707 E43.48947
G1 X164.58 Y86.486 E43.55311
G1 X165.857 Y87.726 E43.64562
G1 X166.143 Y88.031 E43.66735
G1 X166.951 Y88.951 E43.73098
G1 X167.698 Y89.922 E43.79465
G1 X168.379 Y90.939 E43.85825
G1 X168.992 Y91.999 E43.92189
G1 X169.535 Y93.097 E43.98555
G1 X170.005 Y94.228 E44.0492
G1 X170.401 Y95.387 E44.11285
G1 X170.719 Y96.569 E44.17646
G1 X170.96 Y97.77 E44.24012
G1 X171.122 Y98.983 E44.30372
G1 X171.205 Y100.205 E44.36737
G1 X171.216 Y100.842 E44.40048
G1 X171.23 Y120.236 E45.40836
G1 X171.16 Y121.867 E45.4932
G1 X170.985 Y123.889 E45.59868
G1 X170.84 Y125.105 E45.66232
G1 X170.644 Y126.179 E45.71906
G1 X170.33 Y127.653 E45.79738
G1 X170.035 Y128.841 E45.86099
G1 X169.716 Y129.861 E45.91653
G1 X169.057 Y131.771 E46.02153
G1 X168.62 Y132.915 E46.08518
G1 X168.188 Y133.869 E46.1396
G1 X167.52 Y135.24 E46.21886
G1 X166.948 Y136.322 E46.28246
G1 X166.387 Y137.242 E46.33846
G1 X165.291 Y138.929 E46.44301
G1 X164.591 Y139.933 E46.50662
G1 X163.927 Y140.771 E46.56218
G1 X162.953 Y141.931 E46.6409
G1 X162.136 Y142.843 E46.70453
G1 X161.392 Y143.577 E46.75885
G1 X159.908 Y144.963 E46.86437
G1 X158.986 Y145.769 E46.92801
G1 X157.855 Y146.626 E47.00176
G1 X156.199 Y147.784 E47.10677
G1 X155.173 Y148.452 E47.1704
G1 X154.534 Y148.823 E47.2088
G1 X153.656 Y149.309 E47.26095
G1 X152.566 Y149.866 E47.32457
G1 X151.904 Y150.163 E47.36227
G1 X150.041 Y150.954 E47.46746
G1 X148.899 Y151.395 E47.53108
G1 X147.579 Y151.803 E47.60288
G1 X145.629 Y152.327 E47.70781
G1 X144.436 Y152.606 E47.77148
G1 X143.021 Y152.833 E47.84596
G1 X141.018 Y153.076 E47.95082
G1 X139.798 Y153.183 E48.01446
G1 X138.764 Y153.212 E48.06822
G1 X86.719 Y153.223 E50.77294
G1 X85.495 Y153.183 E50.83659
G1 X84.276 Y153.064 E50.90024
G1 X83.201 Y152.891 E50.95683
G1 X82.095 Y152.68 E51.01534
G1 X80.901 Y152.411 E51.07895
G1 X79.726 Y152.065 E51.1426
G1 X78.576 Y151.643 E51.20626
G1 X77.603 Y151.217 E51.26146
G1 X76.595 Y150.741 E51.31939
G1 X75.505 Y150.182 E51.38306
