;FLAVOR:Marlin
;TIME:11059
;Filament used: 6.6052m
;Layer height: 0.16
;Generated with Cura_SteamEngine 3.6.0
M140 S70
M105
M190 S70
M104 S215
M105
M109 S215
M82 ;absolute extrusion mode
G28 ; home all axes
M117 Purge extruder
G92 E0 ; reset extruder
G1 Z1.0 F3000 ; move z up little to prevent scratching of surface
G1 X0.1 Y20 Z0.3 F5000.0 ; move to start-line position G1 X0.1 Y200.0 Z0.3 F1500.0 E15 ; draw 1st line
G1 X0.4 Y200.0 Z0.3 F5000.0 ; move to side a little
G1 X0.4 Y20 Z0.3 F1500.0 E30 ; draw 2nd line
G92 E0 ; reset extruder
G1 Z1.0 F3000 ; move z up little to prevent scratching of surface
M117 All systems go!
G92 E0
G1 F6000 E-5
;LAYER_COUNT:64
;LAYER:0
M107
M204 S5000
M205 X30 Y30
G0 F7200 X77.856 Y72.667 Z0.2
M204 S500
M205 X20 Y20
;TYPE:SKIRT
G1 F6000 E0
G1 F900 X78.321 Y72.202 E0.02406
G1 X80.336 Y70.433 E0.12216
G1 X80.862 Y70.029 E0.14642
G1 X83.091 Y68.539 E0.24452
G1 X83.669 Y68.206 E0.26892
G1 X86.075 Y67.022 E0.36703
G1 X86.678 Y66.772 E0.39091
G1 X89.218 Y65.907 E0.48908
G1 X89.701 Y65.769 E0.50746
G1 X91.006 Y65.465 E0.55648
G1 X91.332 Y65.4 E0.56865
G1 X92.656 Y65.182 E0.61774
G1 X93.148 Y65.126 E0.63585
G1 X95.825 Y64.951 E0.734
G1 X96.487 Y64.951 E0.75822
G1 X99.163 Y65.127 E0.85634
G1 X99.652 Y65.183 E0.87435
G1 X100.977 Y65.401 E0.92348
G1 X101.3 Y65.465 E0.93552
G1 X102.605 Y65.768 E0.98454
G1 X103.092 Y65.907 E1.00307
G1 X105.632 Y66.772 E1.10124
G1 X106.237 Y67.023 E1.1252
G1 X108.64 Y68.207 E1.22321
G1 X109.213 Y68.537 E1.2474
G1 X111.444 Y70.026 E1.34554
G1 X111.973 Y70.432 E1.36993
G1 X113.988 Y72.201 E1.46803
G1 X114.453 Y72.666 E1.49209
G1 X116.222 Y74.681 E1.59019
G1 X116.626 Y75.207 E1.61446
G1 X117.313 Y76.235 E1.65969
G1 X117.561 Y75.806 E1.67782
G1 X117.93 Y75.253 E1.70215
G1 X119.675 Y72.98 E1.80699
G1 X120.109 Y72.485 E1.83107
G1 X122.135 Y70.457 E1.93595
G1 X122.639 Y70.015 E1.96048
G1 X124.913 Y68.274 E2.06526
G1 X125.457 Y67.911 E2.08918
G1 X127.937 Y66.478 E2.19398
G1 X128.532 Y66.185 E2.21824
G1 X131.179 Y65.088 E2.32307
G1 X131.807 Y64.874 E2.34734
G1 X134.573 Y64.133 E2.45211
G1 X135.052 Y64.029 E2.47004
G1 X136.466 Y63.794 E2.52249
G1 X136.969 Y63.737 E2.54101
G1 X139.828 Y63.552 E2.64582
G1 X140.485 Y63.552 E2.66986
G1 X143.343 Y63.739 E2.77465
G1 X143.835 Y63.795 E2.79277
G1 X145.25 Y64.028 E2.84523
G1 X145.739 Y64.134 E2.86354
G1 X148.504 Y64.876 E2.96828
G1 X149.127 Y65.087 E2.99234
G1 X151.775 Y66.182 E3.09718
G1 X152.373 Y66.477 E3.12158
G1 X154.853 Y67.91 E3.22637
G1 X155.402 Y68.277 E3.25053
G1 X157.674 Y70.021 E3.35532
G1 X158.17 Y70.456 E3.37945
G1 X160.197 Y72.482 E3.48431
G1 X160.634 Y72.981 E3.50857
G1 X162.378 Y75.254 E3.61339
G1 X162.745 Y75.802 E3.63752
G1 X164.178 Y78.282 E3.74231
G1 X164.461 Y78.853 E3.76563
G1 X165.408 Y81.105 E3.85501
G1 X165.618 Y81.705 E3.87827
G1 X165.75 Y82.327 E3.90153
G1 X165.804 Y83.07 E3.92879
G1 X165.76 Y145.848 E6.22559
G1 X165.717 Y146.505 E6.24968
G1 X165.365 Y149.178 E6.34832
G1 X165.276 Y149.664 E6.3664
G1 X164.971 Y150.974 E6.41561
G1 X164.835 Y151.452 E6.43379
G1 X163.969 Y154.006 E6.53245
G1 X163.714 Y154.621 E6.55681
G1 X162.523 Y157.033 E6.65523
G1 X162.193 Y157.604 E6.67936
G1 X160.697 Y159.843 E6.77788
G1 X160.295 Y160.367 E6.80204
G1 X158.519 Y162.393 E6.90061
G1 X158.172 Y162.752 E6.91888
G1 X157.187 Y163.674 E6.96824
G1 X156.811 Y163.993 E6.98628
G1 X154.676 Y165.633 E7.08478
G1 X154.123 Y166.002 E7.1091
G1 X151.791 Y167.348 E7.20761
G1 X151.196 Y167.642 E7.23189
G1 X148.706 Y168.672 E7.33048
G1 X148.086 Y168.882 E7.35443
G1 X145.487 Y169.581 E7.45289
G1 X144.995 Y169.688 E7.47131
G1 X143.665 Y169.907 E7.52063
G1 X143.174 Y169.963 E7.53871
G1 X140.486 Y170.139 E7.63726
G1 X139.824 Y170.139 E7.66148
G1 X137.136 Y169.963 E7.76004
G1 X136.641 Y169.906 E7.77827
G1 X135.312 Y169.686 E7.82755
G1 X134.828 Y169.582 E7.84566
G1 X132.227 Y168.885 E7.94418
G1 X131.598 Y168.671 E7.96849
G1 X129.11 Y167.639 E8.06704
G1 X128.522 Y167.349 E8.09102
G1 X126.189 Y166.004 E8.18955
G1 X125.636 Y165.634 E8.21389
G1 X123.5 Y163.995 E8.31239
G1 X123 Y163.557 E8.33671
G1 X121.095 Y161.65 E8.43533
G1 X120.662 Y161.157 E8.45934
G1 X119.021 Y159.021 E8.55788
G1 X118.651 Y158.467 E8.58226
G1 X118.122 Y157.551 E8.62096
G1 X118.118 Y157.558 E8.62125
G1 X116.629 Y159.789 E8.71939
G1 X116.223 Y160.318 E8.74378
G1 X114.454 Y162.333 E8.84188
G1 X114.114 Y162.684 E8.85976
G1 X113.135 Y163.603 E8.90889
G1 X112.751 Y163.929 E8.92732
G1 X110.624 Y165.56 E9.02538
G1 X110.077 Y165.926 E9.04946
G1 X107.755 Y167.268 E9.14758
G1 X107.158 Y167.562 E9.17193
G1 X104.679 Y168.588 E9.27009
G1 X104.055 Y168.8 E9.2942
G1 X101.467 Y169.494 E9.39223
G1 X100.978 Y169.6 E9.41053
G1 X99.654 Y169.818 E9.45963
G1 X99.162 Y169.874 E9.47774
G1 X96.485 Y170.049 E9.57589
G1 X95.823 Y170.049 E9.60011
G1 X93.147 Y169.873 E9.69823
G1 X92.658 Y169.817 E9.71624
G1 X91.333 Y169.599 E9.76537
G1 X91.01 Y169.535 E9.77741
G1 X89.705 Y169.232 E9.82643
G1 X89.218 Y169.093 E9.84496
G1 X86.678 Y168.228 E9.94313
G1 X86.073 Y167.977 E9.96709
G1 X83.668 Y166.792 E10.06518
G1 X83.094 Y166.461 E10.08942
G1 X80.864 Y164.972 E10.18753
G1 X80.336 Y164.567 E10.21187
G1 X78.321 Y162.798 E10.30997
G1 X77.856 Y162.333 E10.33403
G1 X76.087 Y160.318 E10.43213
G1 X75.683 Y159.791 E10.45643
G1 X74.193 Y157.561 E10.55455
G1 X73.86 Y156.984 E10.57892
G1 X72.677 Y154.58 E10.67695
G1 X72.427 Y153.977 E10.70083
G1 X71.562 Y151.437 E10.799
G1 X71.424 Y150.954 E10.81738
G1 X71.12 Y149.649 E10.8664
G1 X71.056 Y149.327 E10.87841
G1 X70.837 Y148.003 E10.92751
G1 X70.78 Y147.505 E10.94585
G1 X70.606 Y144.828 E11.044
G1 X70.595 Y144.496 E11.05615
G1 X70.638 Y89.155 E13.08087
G1 X70.681 Y88.497 E13.10499
G1 X71.032 Y85.837 E13.20315
G1 X71.12 Y85.355 E13.22108
G1 X71.423 Y84.05 E13.27009
G1 X71.562 Y83.563 E13.28862
G1 X72.427 Y81.023 E13.38679
G1 X72.678 Y80.418 E13.41076
G1 X73.862 Y78.015 E13.50877
G1 X74.192 Y77.442 E13.53296
G1 X75.681 Y75.211 E13.63109
G1 X76.087 Y74.682 E13.65549
G1 X77.377 Y73.213 E13.72701
G0 F810 X77.856 Y72.667
M204 S5000
M205 X30 Y30
G0 F7200 X78.187 Y72.957
M204 S500
M205 X20 Y20
G1 F6000 E13.75361
G1 F900 X78.611 Y72.533 E13.77555
G1 X80.626 Y70.764 E13.87365
G1 X81.107 Y70.395 E13.89583
G1 X83.336 Y68.905 E13.99392
G1 X83.863 Y68.601 E14.01618
G1 X86.269 Y67.417 E14.11429
G1 X86.82 Y67.189 E14.13611
G1 X89.36 Y66.324 E14.23428
G1 X89.801 Y66.197 E14.25107
G1 X91.106 Y65.893 E14.30009
G1 X91.403 Y65.834 E14.31117
G1 X92.727 Y65.616 E14.36026
G1 X93.177 Y65.565 E14.37683
G1 X95.854 Y65.39 E14.47498
G1 X96.458 Y65.39 E14.49708
G1 X99.134 Y65.566 E14.59519
G1 X99.581 Y65.617 E14.61165
G1 X100.906 Y65.835 E14.66078
G1 X101.201 Y65.894 E14.67179
G1 X102.506 Y66.197 E14.7208
G1 X102.95 Y66.324 E14.7377
G1 X105.49 Y67.189 E14.83587
G1 X106.043 Y67.418 E14.85777
G1 X108.446 Y68.602 E14.95578
G1 X108.969 Y68.903 E14.97785
G1 X111.2 Y70.392 E15.07599
G1 X111.683 Y70.763 E15.09827
G1 X113.698 Y72.532 E15.19637
G1 X114.122 Y72.956 E15.21831
G1 X115.891 Y74.971 E15.31641
G1 X116.26 Y75.452 E15.33859
G1 X117.341 Y77.069 E15.40975
G1 X117.942 Y76.026 E15.45379
G1 X118.279 Y75.521 E15.476
G1 X120.024 Y73.248 E15.58084
G1 X120.421 Y72.796 E15.60285
G1 X122.447 Y70.768 E15.70773
G1 X122.906 Y70.365 E15.73008
G1 X125.18 Y68.624 E15.83486
G1 X125.678 Y68.292 E15.85676
G1 X128.158 Y66.859 E15.96155
G1 X128.7 Y66.591 E15.98367
G1 X131.347 Y65.494 E16.0885
G1 X131.92 Y65.299 E16.11065
G1 X134.686 Y64.558 E16.21541
G1 X135.125 Y64.464 E16.23184
G1 X136.539 Y64.229 E16.28428
G1 X136.998 Y64.176 E16.30118
G1 X139.857 Y63.991 E16.406
G1 X140.457 Y63.991 E16.42795
G1 X143.315 Y64.178 E16.53274
G1 X143.764 Y64.229 E16.54927
G1 X145.179 Y64.462 E16.60174
G1 X145.625 Y64.559 E16.61844
G1 X148.39 Y65.301 E16.72318
G1 X148.958 Y65.494 E16.74513
G1 X151.606 Y66.589 E16.84996
G1 X152.152 Y66.858 E16.87223
G1 X154.632 Y68.291 E16.97702
G1 X155.134 Y68.626 E16.9991
G1 X157.406 Y70.37 E17.10389
G1 X157.859 Y70.767 E17.12593
G1 X159.886 Y72.793 E17.23078
G1 X160.285 Y73.249 E17.25295
G1 X162.029 Y75.522 E17.35777
G1 X162.364 Y76.023 E17.37982
G1 X163.797 Y78.503 E17.48461
G1 X164.056 Y79.023 E17.50586
G1 X165.003 Y81.275 E17.59525
G1 X165.201 Y81.85 E17.61749
G1 X165.322 Y82.445 E17.63971
G1 X165.364 Y83.069 E17.66259
G1 X165.32 Y145.847 E19.9594
G1 X165.28 Y146.447 E19.9814
G1 X164.928 Y149.12 E20.08004
G1 X164.848 Y149.565 E20.09658
G1 X164.543 Y150.875 E20.14579
G1 X164.418 Y151.311 E20.16238
G1 X163.552 Y153.865 E20.26105
G1 X163.32 Y154.426 E20.28326
G1 X162.129 Y156.838 E20.38168
G1 X161.827 Y157.36 E20.40374
G1 X160.331 Y159.599 E20.50226
G1 X159.964 Y160.077 E20.52431
G1 X158.188 Y162.103 E20.62288
G1 X157.871 Y162.431 E20.63957
G1 X156.886 Y163.353 E20.68893
G1 X156.543 Y163.644 E20.70539
G1 X154.408 Y165.284 E20.80388
G1 X153.904 Y165.621 E20.82606
G1 X151.572 Y166.967 E20.92457
G1 X151.028 Y167.235 E20.94676
G1 X148.538 Y168.265 E21.04535
G1 X147.972 Y168.457 E21.06721
G1 X145.373 Y169.156 E21.16568
G1 X144.924 Y169.254 E21.18249
G1 X143.594 Y169.473 E21.23181
G1 X143.145 Y169.524 E21.24834
G1 X140.457 Y169.7 E21.3469
G1 X139.853 Y169.7 E21.36899
G1 X137.165 Y169.524 E21.46755
G1 X136.712 Y169.472 E21.48423
G1 X135.383 Y169.252 E21.53352
G1 X134.942 Y169.157 E21.55002
G1 X132.341 Y168.46 E21.64854
G1 X131.767 Y168.264 E21.67073
G1 X129.279 Y167.232 E21.76928
G1 X128.742 Y166.967 E21.79118
G1 X126.409 Y165.622 E21.88971
G1 X125.904 Y165.285 E21.91192
G1 X123.768 Y163.646 E22.01042
G1 X123.311 Y163.246 E22.03264
G1 X121.406 Y161.339 E22.13126
G1 X121.011 Y160.889 E22.15317
G1 X119.37 Y158.753 E22.25172
G1 X119.032 Y158.247 E22.27398
G1 X118.117 Y156.661 E22.34097
G1 X118.053 Y156.791 E22.34627
G1 X117.752 Y157.314 E22.36835
G1 X116.263 Y159.545 E22.46648
G1 X115.892 Y160.028 E22.48876
G1 X114.123 Y162.043 E22.58686
G1 X113.813 Y162.363 E22.60316
G1 X112.834 Y163.282 E22.65229
G1 X112.483 Y163.58 E22.66914
G1 X110.356 Y165.211 E22.7672
G1 X109.857 Y165.545 E22.78917
G1 X107.535 Y166.887 E22.88729
G1 X106.99 Y167.156 E22.90952
G1 X104.511 Y168.182 E23.00768
G1 X103.941 Y168.375 E23.0297
G1 X101.353 Y169.069 E23.12773
G1 X100.907 Y169.166 E23.14443
G1 X99.583 Y169.384 E23.19352
G1 X99.133 Y169.435 E23.21009
G1 X96.456 Y169.61 E23.30824
G1 X95.852 Y169.61 E23.33034
G1 X93.176 Y169.434 E23.42845
G1 X92.729 Y169.383 E23.44491
G1 X91.404 Y169.165 E23.49404
G1 X91.109 Y169.106 E23.50505
G1 X89.804 Y168.803 E23.55406
G1 X89.36 Y168.676 E23.57096
G1 X86.82 Y167.811 E23.66913
G1 X86.267 Y167.582 E23.69103
G1 X83.862 Y166.397 E23.78912
G1 X83.339 Y166.095 E23.81121
G1 X81.109 Y164.606 E23.90932
G1 X80.626 Y164.236 E23.93158
G1 X78.611 Y162.467 E24.02968
G1 X78.187 Y162.043 E24.05162
G1 X76.418 Y160.028 E24.14972
G1 X76.049 Y159.547 E24.1719
G1 X74.559 Y157.317 E24.27002
G1 X74.255 Y156.79 E24.29228
G1 X73.072 Y154.386 E24.3903
G1 X72.844 Y153.835 E24.41212
G1 X71.979 Y151.295 E24.51029
G1 X71.852 Y150.854 E24.52708
G1 X71.548 Y149.549 E24.5761
G1 X71.49 Y149.255 E24.58707
G1 X71.271 Y147.931 E24.63617
G1 X71.219 Y147.477 E24.65288
G1 X71.045 Y144.8 E24.75103
G1 X71.035 Y144.496 E24.76216
G1 X71.078 Y89.155 E26.78687
G1 X71.118 Y88.555 E26.80887
G1 X71.469 Y85.895 E26.90704
G1 X71.549 Y85.454 E26.92344
G1 X71.852 Y84.149 E26.97245
G1 X71.979 Y83.705 E26.98935
G1 X72.844 Y81.165 E27.08752
G1 X73.073 Y80.612 E27.10941
G1 X74.257 Y78.209 E27.20742
G1 X74.558 Y77.686 E27.2295
G1 X76.047 Y75.455 E27.32763
G1 X76.418 Y74.972 E27.34992
G1 X77.708 Y73.503 E27.42144
G0 F810 X78.187 Y72.957
M204 S5000
M205 X30 Y30
G0 F7200 X78.518 Y73.247
M204 S500
M205 X20 Y20
G1 F6000 E27.44804
G1 F900 X78.901 Y72.864 E27.46786
G1 X80.916 Y71.095 E27.56596
G1 X81.351 Y70.761 E27.58602
G1 X83.58 Y69.271 E27.68412
G1 X84.057 Y68.996 E27.70426
G1 X86.463 Y67.812 E27.80237
G1 X86.961 Y67.605 E27.8221
G1 X89.501 Y66.74 E27.92027
G1 X89.901 Y66.626 E27.93548
G1 X91.206 Y66.322 E27.98451
G1 X91.475 Y66.269 E27.99454
G1 X92.799 Y66.051 E28.04363
G1 X93.205 Y66.004 E28.05858
G1 X95.882 Y65.829 E28.15673
G1 X96.429 Y65.829 E28.17675
G1 X99.105 Y66.005 E28.27486
G1 X99.51 Y66.051 E28.28978
G1 X100.835 Y66.269 E28.3389
G1 X101.101 Y66.322 E28.34883
G1 X102.406 Y66.625 E28.39784
G1 X102.809 Y66.74 E28.41318
G1 X105.349 Y67.605 E28.51135
G1 X105.848 Y67.812 E28.53111
G1 X108.251 Y68.996 E28.62912
G1 X108.724 Y69.269 E28.6491
G1 X110.955 Y70.758 E28.74723
G1 X111.393 Y71.094 E28.76743
G1 X113.408 Y72.863 E28.86553
G1 X113.791 Y73.246 E28.88535
G1 X115.56 Y75.261 E28.98345
G1 X115.894 Y75.696 E29.00351
G1 X117.368 Y77.902 E29.10058
G1 X118.323 Y76.246 E29.17052
G1 X118.628 Y75.789 E29.19062
G1 X120.373 Y73.516 E29.29546
G1 X120.732 Y73.107 E29.31537
G1 X122.758 Y71.079 E29.42025
G1 X123.174 Y70.714 E29.4405
G1 X125.448 Y68.973 E29.54528
G1 X125.898 Y68.673 E29.56507
G1 X128.378 Y67.24 E29.66986
G1 X128.869 Y66.997 E29.6899
G1 X131.516 Y65.9 E29.79473
G1 X132.034 Y65.724 E29.81475
G1 X134.8 Y64.983 E29.91951
G1 X135.197 Y64.898 E29.93437
G1 X136.611 Y64.663 E29.98681
G1 X137.026 Y64.615 E30.00209
G1 X139.885 Y64.43 E30.10691
G1 X140.428 Y64.43 E30.12678
G1 X143.286 Y64.617 E30.23156
G1 X143.692 Y64.664 E30.24652
G1 X145.107 Y64.897 E30.29898
G1 X145.511 Y64.984 E30.3141
G1 X148.276 Y65.726 E30.41884
G1 X148.79 Y65.9 E30.4387
G1 X151.438 Y66.995 E30.54353
G1 X151.932 Y67.239 E30.56369
G1 X154.412 Y68.672 E30.66848
G1 X154.866 Y68.975 E30.68845
G1 X157.138 Y70.719 E30.79324
G1 X157.548 Y71.079 E30.8132
G1 X159.575 Y73.105 E30.91806
G1 X159.936 Y73.517 E30.9381
G1 X161.68 Y75.79 E31.04292
G1 X161.983 Y76.243 E31.06286
G1 X163.416 Y78.723 E31.16765
G1 X163.65 Y79.194 E31.18689
G1 X164.597 Y81.446 E31.27627
G1 X164.784 Y81.993 E31.29742
G1 X164.893 Y82.56 E31.31854
G1 X164.924 Y83.069 E31.3372
G1 X164.88 Y145.847 E33.63401
G1 X164.844 Y146.39 E33.65392
G1 X164.492 Y149.063 E33.75256
G1 X164.419 Y149.465 E33.7675
G1 X164.114 Y150.775 E33.81671
G1 X164.002 Y151.169 E33.8317
G1 X163.136 Y153.723 E33.93037
G1 X162.925 Y154.232 E33.95052
G1 X161.734 Y156.644 E34.04894
G1 X161.462 Y157.115 E34.06884
G1 X159.966 Y159.354 E34.16736
G1 X159.633 Y159.787 E34.18734
G1 X157.857 Y161.813 E34.28592
G1 X157.571 Y162.11 E34.301
G1 X156.586 Y163.032 E34.35036
G1 X156.275 Y163.295 E34.36526
G1 X154.14 Y164.935 E34.46376
G1 X153.684 Y165.24 E34.48383
G1 X151.352 Y166.586 E34.58234
G1 X150.86 Y166.829 E34.60242
G1 X148.37 Y167.859 E34.701
G1 X147.858 Y168.033 E34.72079
G1 X145.259 Y168.732 E34.81926
G1 X144.852 Y168.819 E34.83448
G1 X143.522 Y169.038 E34.8838
G1 X143.116 Y169.085 E34.89875
G1 X140.428 Y169.261 E34.9973
G1 X139.882 Y169.261 E35.01728
G1 X137.194 Y169.085 E35.11583
G1 X136.784 Y169.038 E35.13093
G1 X135.455 Y168.818 E35.18022
G1 X135.056 Y168.732 E35.19515
G1 X132.455 Y168.035 E35.29367
G1 X131.935 Y167.858 E35.31377
G1 X129.447 Y166.826 E35.41231
G1 X128.961 Y166.586 E35.43214
G1 X126.628 Y165.241 E35.53067
G1 X126.171 Y164.936 E35.55077
G1 X124.035 Y163.297 E35.64927
G1 X123.623 Y162.935 E35.66934
G1 X121.718 Y161.028 E35.76796
G1 X121.36 Y160.621 E35.78779
G1 X119.719 Y158.485 E35.88633
G1 X119.413 Y158.027 E35.90649
G1 X118.087 Y155.728 E36.00359
G1 X117.659 Y156.596 E36.03899
G1 X117.386 Y157.069 E36.05897
G1 X115.897 Y159.3 E36.15711
G1 X115.561 Y159.738 E36.1773
G1 X113.792 Y161.753 E36.2754
G1 X113.512 Y162.043 E36.29015
G1 X112.533 Y162.962 E36.33928
G1 X112.216 Y163.231 E36.35449
G1 X110.089 Y164.862 E36.45255
G1 X109.637 Y165.164 E36.47244
G1 X107.315 Y166.506 E36.57056
G1 X106.822 Y166.749 E36.59067
G1 X104.343 Y167.775 E36.68883
G1 X103.827 Y167.95 E36.70876
G1 X101.239 Y168.644 E36.80679
G1 X100.835 Y168.731 E36.82191
G1 X99.511 Y168.949 E36.87101
G1 X99.105 Y168.996 E36.88596
G1 X96.428 Y169.171 E36.98411
G1 X95.881 Y169.171 E37.00412
G1 X93.205 Y168.995 E37.10224
G1 X92.8 Y168.949 E37.11715
G1 X91.475 Y168.731 E37.16628
G1 X91.209 Y168.678 E37.1762
G1 X89.904 Y168.375 E37.22522
G1 X89.501 Y168.26 E37.24055
G1 X86.961 Y167.395 E37.33872
G1 X86.462 Y167.188 E37.35849
G1 X84.057 Y166.003 E37.45658
G1 X83.583 Y165.729 E37.47661
G1 X81.353 Y164.24 E37.57471
G1 X80.916 Y163.905 E37.59486
G1 X78.901 Y162.136 E37.69296
