;FLAVOR:Marlin
;TIME:1293
;Filament used: 1.26789m
;Layer height: 0.2
;Generated with Cura_SteamEngine 3.6.0
M140 S70
M105
M190 S70
M104 S215
M105
M109 S215
M82 ;absolute extrusion mode
G28 ; home all axes
M117 Purge extruder
G92 E0 ; reset extruder
G1 Z1.0 F3000 ; move z up little to prevent scratching of surface
G1 X0.1 Y20 Z0.3 F5000.0 ; move to start-line position G1 X0.1 Y200.0 Z0.3 F1500.0 E15 ; draw 1st line
G1 X0.4 Y200.0 Z0.3 F5000.0 ; move to side a little
G1 X0.4 Y20 Z0.3 F1500.0 E30 ; draw 2nd line
G92 E0 ; reset extruder
G1 Z1.0 F3000 ; move z up little to prevent scratching of surface
M117 All systems go!
G92 E0
G1 F6000 E-5
;LAYER_COUNT:75
;LAYER:0
M107
M204 S5000
M205 X30 Y30
G0 F7200 X104.117 Y109.259 Z0.2
M204 S500
M205 X20 Y20
;TYPE:SKIRT
G1 F6000 E0
G1 F900 X104.785 Y108.714 E0.03154
G1 X105.662 Y108.115 E0.0704
G1 X106.399 Y107.697 E0.1014
G1 X107.341 Y107.263 E0.13934
G1 X108.066 Y106.994 E0.16763
G1 X108.873 Y106.763 E0.19835
G1 X109.67 Y106.603 E0.22809
G1 X110.743 Y106.476 E0.26762
G1 X111.338 Y106.441 E0.28942
G1 X123.388 Y106.44 E0.73029
G1 X123.872 Y106.463 E0.74801
G1 X125.111 Y106.582 E0.79355
G1 X126.017 Y106.754 E0.82729
G1 X127.13 Y107.072 E0.86964
G1 X127.856 Y107.341 E0.89797
G1 X128.662 Y107.712 E0.93043
G1 X129.278 Y108.049 E0.95612
G1 X130.059 Y108.55 E0.99007
G1 X130.572 Y108.926 E1.01334
G1 X130.819 Y109.147 E1.02546
G1 X131.941 Y110.217 E1.08219
G1 X132.373 Y110.684 E1.10546
G1 X132.668 Y111.085 E1.12368
G1 X133.37 Y112.145 E1.17019
G1 X133.765 Y112.861 E1.20011
G1 X134.078 Y113.556 E1.228
G1 X134.343 Y114.294 E1.25668
G1 X134.625 Y115.321 E1.29565
G1 X134.755 Y115.944 E1.31893
G1 X134.806 Y116.7 E1.34665
G1 X134.796 Y118.006 E1.39444
G1 X134.708 Y118.908 E1.42759
G1 X134.582 Y119.574 E1.45239
G1 X134.405 Y120.25 E1.47796
G1 X134.029 Y121.365 E1.52101
G1 X133.67 Y122.182 E1.55366
G1 X133.106 Y123.21 E1.59656
G1 X132.671 Y123.874 E1.6256
G1 X132.167 Y124.525 E1.65572
G1 X131.685 Y125.063 E1.68215
G1 X130.939 Y125.785 E1.72013
G1 X130.311 Y126.302 E1.74989
G1 X129.498 Y126.868 E1.78614
G1 X128.758 Y127.295 E1.81739
G1 X127.749 Y127.769 E1.85818
G1 X127.158 Y128.003 E1.88143
G1 X126.794 Y128.106 E1.89527
G1 X125.532 Y128.413 E1.94279
G1 X124.906 Y128.524 E1.96605
G1 X124.333 Y128.556 E1.98705
G1 X110.782 Y128.548 E2.48283
G1 X110.147 Y128.508 E2.50611
G1 X109.603 Y128.408 E2.52634
G1 X108.304 Y128.096 E2.57522
G1 X107.565 Y127.857 E2.60364
G1 X106.941 Y127.601 E2.62831
G1 X106.33 Y127.301 E2.65322
G1 X105.349 Y126.734 E2.69467
G1 X104.623 Y126.224 E2.72713
G1 X103.739 Y125.48 E2.7694
G1 X103.19 Y124.942 E2.79753
G1 X102.69 Y124.371 E2.82529
G1 X102.277 Y123.83 E2.8502
G1 X101.737 Y123.014 E2.88599
G1 X101.38 Y122.379 E2.91265
G1 X101.06 Y121.7 E2.94011
G1 X100.797 Y121.017 E2.96689
G1 X100.493 Y120.019 E3.00506
G1 X100.327 Y119.282 E3.03269
G1 X100.245 Y118.725 E3.05329
G1 X100.192 Y118.091 E3.07657
G1 X100.227 Y117.385 E3.10243
G1 X100.415 Y115.818 E3.16017
G1 X100.53 Y115.193 E3.18342
G1 X100.644 Y114.805 E3.19822
G1 X101.019 Y113.692 E3.24119
G1 X101.374 Y112.881 E3.27358
G1 X101.936 Y111.853 E3.31644
G1 X102.377 Y111.179 E3.34591
G1 X102.888 Y110.52 E3.37642
G1 X103.365 Y109.988 E3.40256
G1 X103.595 Y109.765 E3.41428
G0 F810 X104.117 Y109.259
M204 S5000
M205 X30 Y30
G0 F7200 X104.423 Y109.575
M204 S500
M205 X20 Y20
G1 F6000 E3.44088
G1 F900 X105.033 Y109.077 E3.46969
G1 X105.91 Y108.478 E3.50855
G1 X106.583 Y108.097 E3.53684
G1 X107.525 Y107.663 E3.57479
G1 X108.187 Y107.417 E3.60063
G1 X108.994 Y107.186 E3.63134
G1 X109.722 Y107.04 E3.6585
G1 X110.795 Y106.913 E3.69803
G1 X111.338 Y106.881 E3.71793
G1 X123.388 Y106.88 E4.1588
G1 X123.83 Y106.901 E4.17499
G1 X125.069 Y107.02 E4.22052
G1 X125.896 Y107.177 E4.25132
G1 X127.009 Y107.495 E4.29367
G1 X127.672 Y107.74 E4.31953
G1 X128.478 Y108.111 E4.35199
G1 X129.041 Y108.419 E4.37547
G1 X129.822 Y108.92 E4.40942
G1 X130.515 Y109.466 E4.4417
G1 X131.637 Y110.536 E4.49842
G1 X132.049 Y110.983 E4.52066
G1 X132.301 Y111.328 E4.53629
G1 X133.003 Y112.388 E4.58281
G1 X133.364 Y113.042 E4.61014
G1 X133.677 Y113.737 E4.63803
G1 X133.919 Y114.411 E4.66423
G1 X134.201 Y115.438 E4.70319
G1 X134.323 Y116.033 E4.72541
G1 X134.366 Y116.696 E4.74972
G1 X134.356 Y118.002 E4.7975
G1 X134.275 Y118.826 E4.8278
G1 X134.149 Y119.492 E4.85259
G1 X133.988 Y120.109 E4.87592
G1 X133.612 Y121.224 E4.91897
G1 X133.284 Y121.97 E4.94879
G1 X132.72 Y122.998 E4.99169
G1 X132.323 Y123.604 E5.01819
G1 X131.819 Y124.255 E5.04831
G1 X131.379 Y124.747 E5.07246
G1 X130.633 Y125.469 E5.11045
G1 X130.06 Y125.941 E5.13761
G1 X129.247 Y126.507 E5.17385
G1 X128.571 Y126.897 E5.2024
G1 X127.562 Y127.371 E5.24319
G1 X126.997 Y127.592 E5.26538
G1 X126.69 Y127.678 E5.27705
G1 X125.428 Y127.985 E5.32457
G1 X124.829 Y128.09 E5.34682
G1 X124.333 Y128.116 E5.36499
G1 X110.782 Y128.108 E5.86077
G1 X110.176 Y128.068 E5.88299
G1 X109.706 Y127.98 E5.90048
G1 X108.407 Y127.668 E5.94936
G1 X107.732 Y127.45 E5.97531
G1 X107.108 Y127.194 E5.99999
G1 X106.55 Y126.92 E6.02273
G1 X105.569 Y126.353 E6.06418
G1 X104.906 Y125.888 E6.09381
G1 X104.022 Y125.144 E6.13608
G1 X103.521 Y124.653 E6.16175
G1 X103.021 Y124.082 E6.18952
G1 X102.644 Y123.588 E6.21225
G1 X102.104 Y122.772 E6.24805
G1 X101.778 Y122.192 E6.27239
G1 X101.458 Y121.513 E6.29986
G1 X101.217 Y120.889 E6.32433
G1 X100.913 Y119.891 E6.3625
G1 X100.762 Y119.218 E6.38773
G1 X100.68 Y118.661 E6.40833
G1 X100.631 Y118.055 E6.43058
G1 X100.664 Y117.438 E6.45318
G1 X100.852 Y115.871 E6.51092
G1 X100.964 Y115.273 E6.53318
G1 X101.061 Y114.946 E6.54566
G1 X101.436 Y113.833 E6.58863
G1 X101.76 Y113.092 E6.61822
G1 X102.322 Y112.064 E6.66108
G1 X102.725 Y111.449 E6.68798
G1 X103.236 Y110.79 E6.71849
G1 X103.671 Y110.304 E6.74236
G1 X103.901 Y110.081 E6.75408
G0 F810 X104.423 Y109.575
M204 S5000
M205 X30 Y30
G0 F7200 X104.73 Y109.891
M204 S500
M205 X20 Y20
G1 F6000 E6.78068
G1 F900 X105.281 Y109.44 E6.80673
G1 X106.158 Y108.841 E6.84558
G1 X106.767 Y108.497 E6.87117
G1 X107.709 Y108.063 E6.90912
G1 X108.308 Y107.84 E6.9325
G1 X109.115 Y107.609 E6.96321
G1 X109.774 Y107.477 E6.9878
G1 X110.847 Y107.35 E7.02733
G1 X111.338 Y107.321 E7.04533
G1 X123.388 Y107.32 E7.48619
G1 X123.788 Y107.339 E7.50084
G1 X125.027 Y107.458 E7.54638
G1 X125.775 Y107.6 E7.57424
G1 X126.888 Y107.918 E7.61659
G1 X127.488 Y108.14 E7.63999
G1 X128.294 Y108.511 E7.67245
G1 X128.803 Y108.79 E7.69369
G1 X129.584 Y109.291 E7.72764
G1 X130.212 Y109.784 E7.75685
G1 X131.334 Y110.854 E7.81357
G1 X131.723 Y111.281 E7.83471
G1 X131.934 Y111.571 E7.84783
G1 X132.636 Y112.631 E7.89434
G1 X132.962 Y113.223 E7.91907
G1 X133.275 Y113.918 E7.94695
G1 X133.495 Y114.527 E7.97064
G1 X133.777 Y115.554 E8.00961
G1 X133.891 Y116.121 E8.03077
G1 X133.926 Y116.693 E8.05174
G1 X133.916 Y117.999 E8.09952
G1 X133.843 Y118.744 E8.12691
G1 X133.717 Y119.41 E8.1517
G1 X133.571 Y119.969 E8.17284
G1 X133.195 Y121.084 E8.21589
G1 X132.899 Y121.759 E8.24286
G1 X132.335 Y122.787 E8.28576
G1 X131.975 Y123.335 E8.30975
G1 X131.471 Y123.986 E8.33987
G1 X131.073 Y124.431 E8.36171
G1 X130.327 Y125.153 E8.39969
G1 X129.808 Y125.58 E8.42428
G1 X128.995 Y126.146 E8.46052
G1 X128.384 Y126.498 E8.48632
G1 X127.375 Y126.972 E8.52711
G1 X126.586 Y127.251 E8.55773
G1 X125.324 Y127.558 E8.60524
G1 X124.754 Y127.655 E8.6264
G1 X124.334 Y127.676 E8.64178
G1 X110.783 Y127.668 E9.13756
G1 X110.206 Y127.628 E9.15872
G1 X109.809 Y127.552 E9.17351
G1 X108.51 Y127.24 E9.22239
G1 X107.899 Y127.043 E9.24588
G1 X107.275 Y126.787 E9.27055
G1 X106.77 Y126.539 E9.29114
G1 X105.789 Y125.972 E9.33259
G1 X105.189 Y125.551 E9.35941
G1 X104.305 Y124.807 E9.40168
G1 X103.852 Y124.363 E9.42489
G1 X103.352 Y123.792 E9.45265
G1 X103.011 Y123.345 E9.47322
G1 X102.471 Y122.529 E9.50902
G1 X102.176 Y122.004 E9.53106
G1 X101.856 Y121.325 E9.55852
G1 X101.638 Y120.761 E9.58064
G1 X101.334 Y119.763 E9.61881
G1 X101.198 Y119.154 E9.64164
G1 X101.116 Y118.597 E9.66224
G1 X101.071 Y118.021 E9.68338
G1 X101.101 Y117.49 E9.70283
G1 X101.289 Y115.923 E9.76058
G1 X101.478 Y115.086 E9.79197
G1 X101.853 Y113.973 E9.83494
G1 X102.146 Y113.303 E9.86169
G1 X102.708 Y112.275 E9.90456
G1 X103.073 Y111.719 E9.92889
G1 X103.584 Y111.06 E9.9594
G1 X103.978 Y110.62 E9.98101
G1 X104.208 Y110.397 E9.99273
G0 F810 X104.73 Y109.891
M204 S5000
M205 X30 Y30
G0 F7200 X105.036 Y110.207
M204 S500
M205 X20 Y20
G1 F6000 E10.01933
G1 F900 X105.53 Y109.804 E10.04265
G1 X106.407 Y109.205 E10.08151
G1 X106.951 Y108.896 E10.1044
G1 X107.893 Y108.462 E10.14234
G1 X108.429 Y108.263 E10.16326
G1 X109.236 Y108.032 E10.19397
G1 X109.825 Y107.914 E10.21595
G1 X110.898 Y107.787 E10.25548
G1 X111.338 Y107.761 E10.27161
G1 X123.388 Y107.76 E10.71247
G1 X123.746 Y107.777 E10.72558
G1 X124.985 Y107.896 E10.77112
G1 X125.654 Y108.023 E10.79604
G1 X126.767 Y108.341 E10.83838
G1 X127.304 Y108.54 E10.85934
G1 X128.11 Y108.911 E10.8918
G1 X128.565 Y109.16 E10.91078
G1 X129.346 Y109.661 E10.94472
G1 X129.908 Y110.102 E10.97086
G1 X131.03 Y111.172 E11.02758
G1 X131.397 Y111.578 E11.04761
G1 X131.567 Y111.814 E11.05825
G1 X132.269 Y112.874 E11.10476
G1 X132.561 Y113.403 E11.12687
G1 X132.874 Y114.098 E11.15476
G1 X133.071 Y114.644 E11.17599
G1 X133.353 Y115.671 E11.21496
G1 X133.458 Y116.207 E11.23494
G1 X133.486 Y116.69 E11.25264
G1 X133.476 Y117.996 E11.30042
G1 X133.411 Y118.662 E11.32491
G1 X133.285 Y119.328 E11.34971
G1 X133.154 Y119.828 E11.36862
G1 X132.778 Y120.943 E11.41167
G1 X132.513 Y121.547 E11.4358
G1 X131.949 Y122.575 E11.4787
G1 X131.627 Y123.066 E11.50018
G1 X131.123 Y123.717 E11.5303
G1 X130.767 Y124.114 E11.54981
G1 X130.021 Y124.836 E11.58779
G1 X129.557 Y125.218 E11.60978
G1 X128.744 Y125.784 E11.64602
G1 X128.197 Y126.1 E11.66914
G1 X127.188 Y126.574 E11.70992
G1 X126.482 Y126.823 E11.73731
G1 X125.22 Y127.13 E11.78483
G1 X124.681 Y127.22 E11.80482
G1 X124.334 Y127.236 E11.81753
G1 X110.783 Y127.228 E12.31331
G1 X110.238 Y127.188 E12.3333
G1 X109.912 Y127.125 E12.34545
G1 X108.613 Y126.813 E12.39433
G1 X108.066 Y126.636 E12.41536
G1 X107.442 Y126.38 E12.44004
G1 X106.99 Y126.158 E12.45846
G1 X106.009 Y125.591 E12.49992
G1 X105.473 Y125.214 E12.52389
G1 X104.589 Y124.47 E12.56616
G1 X104.183 Y124.073 E12.58694
G1 X103.683 Y123.502 E12.61471
G1 X103.378 Y123.102 E12.63311
G1 X102.838 Y122.286 E12.66891
G1 X102.574 Y121.816 E12.68863
G1 X102.254 Y121.137 E12.7161
G1 X102.059 Y120.633 E12.73587
G1 X101.755 Y119.635 E12.77404
G1 X101.633 Y119.09 E12.79447
G1 X101.551 Y118.533 E12.81507
G1 X101.511 Y117.988 E12.83506
G1 X101.538 Y117.542 E12.85141
G1 X101.726 Y115.975 E12.90915
G1 X101.895 Y115.227 E12.93721
G1 X102.27 Y114.114 E12.98018
G1 X102.532 Y113.514 E13.00413
G1 X103.094 Y112.486 E13.04699
G1 X103.42 Y111.988 E13.06877
G1 X103.931 Y111.329 E13.09928
G1 X104.284 Y110.936 E13.11861
G1 X104.514 Y110.713 E13.13033
G0 F810 X105.036 Y110.207
M204 S5000
M205 X30 Y30
G0 F7200 X105.342 Y110.523
M204 S500
M205 X20 Y20
G1 F6000 E13.15692
G1 F900 X105.778 Y110.167 E13.17752
G1 X106.655 Y109.568 E13.21637
G1 X107.135 Y109.296 E13.23656
G1 X108.077 Y108.862 E13.2745
G1 X108.55 Y108.686 E13.29297
G1 X109.357 Y108.455 E13.32368
G1 X109.877 Y108.351 E13.34308
G1 X110.95 Y108.224 E13.38261
G1 X111.338 Y108.201 E13.39683
G1 X123.388 Y108.2 E13.8377
G1 X123.703 Y108.215 E13.84923
G1 X124.942 Y108.334 E13.89477
G1 X125.534 Y108.446 E13.91682
G1 X126.647 Y108.764 E13.95917
G1 X127.12 Y108.939 E13.97762
G1 X127.926 Y109.31 E14.01008
G1 X128.328 Y109.53 E14.02685
G1 X129.109 Y110.031 E14.06079
G1 X129.604 Y110.421 E14.08385
G1 X130.726 Y111.491 E14.14057
G1 X131.2 Y112.057 E14.16758
G1 X131.902 Y113.117 E14.2141
G1 X132.16 Y113.584 E14.23362
G1 X132.473 Y114.279 E14.2615
G1 X132.646 Y114.76 E14.28021
G1 X132.928 Y115.787 E14.31917
G1 X133.025 Y116.291 E14.33795
G1 X133.046 Y116.686 E14.35242
G1 X133.036 Y117.992 E14.4002
G1 X132.978 Y118.58 E14.42182
G1 X132.852 Y119.246 E14.44662
G1 X132.737 Y119.687 E14.46329
G1 X132.361 Y120.802 E14.50634
G1 X132.127 Y121.335 E14.52764
G1 X131.563 Y122.363 E14.57054
G1 X131.279 Y122.796 E14.58949
G1 X130.775 Y123.447 E14.61961
G1 X130.461 Y123.798 E14.63684
G1 X129.715 Y124.52 E14.67482
G1 X129.305 Y124.857 E14.69424
G1 X128.492 Y125.423 E14.73048
G1 X128.01 Y125.702 E14.75086
G1 X127.001 Y126.176 E14.79164
G1 X126.378 Y126.395 E14.8158
G1 X125.116 Y126.702 E14.86332
G1 X124.609 Y126.785 E14.88212
G1 X124.334 Y126.796 E14.89219
G1 X110.783 Y126.788 E15.38796
G1 X110.271 Y126.748 E15.40675
G1 X110.014 Y126.697 E15.41634
G1 X108.715 Y126.385 E15.46522
G1 X108.233 Y126.229 E15.48375
G1 X107.609 Y125.973 E15.50843
G1 X107.211 Y125.777 E15.52466
G1 X106.23 Y125.21 E15.56611
G1 X105.756 Y124.878 E15.58729
G1 X104.872 Y124.134 E15.62956
G1 X104.514 Y123.783 E15.6479
G1 X104.014 Y123.212 E15.67567
G1 X103.745 Y122.859 E15.69191
G1 X103.205 Y122.043 E15.72771
G1 X102.972 Y121.629 E15.74509
G1 X102.652 Y120.95 E15.77255
G1 X102.48 Y120.505 E15.79
G1 X102.176 Y119.507 E15.82817
G1 X102.068 Y119.026 E15.84621
G1 X101.986 Y118.469 E15.86681
G1 X101.951 Y117.956 E15.88562
G1 X101.974 Y117.595 E15.89885
G1 X102.162 Y116.028 E15.9566
G1 X102.312 Y115.367 E15.98139
G1 X102.687 Y114.254 E16.02436
G1 X102.918 Y113.725 E16.04548
G1 X103.48 Y112.697 E16.08835
G1 X103.768 Y112.258 E16.10756
G1 X104.279 Y111.599 E16.13807
G1 X104.59 Y111.252 E16.15511
G1 X104.82 Y111.029 E16.16683
G0 F810 X105.342 Y110.523
M204 S5000
M205 X30 Y30
G0 F7200 X105.648 Y110.839
M204 S500
M205 X20 Y20
G1 F6000 E16.19343
G1 F900 X106.026 Y110.53 E16.2113
G1 X106.903 Y109.931 E16.25015
G1 X107.319 Y109.695 E16.26765
G1 X108.261 Y109.261 E16.3056
G1 X108.671 Y109.109 E16.32159
G1 X109.478 Y108.878 E16.3523
G1 X109.929 Y108.788 E16.36913
G1 X111.002 Y108.661 E16.40866
G1 X111.338 Y108.641 E16.42098
G1 X123.388 Y108.64 E16.86184
G1 X123.661 Y108.653 E16.87184
G1 X124.9 Y108.772 E16.91738
G1 X125.413 Y108.869 E16.93648
G1 X126.526 Y109.187 E16.97883
G1 X126.936 Y109.339 E16.99483
G1 X127.742 Y109.71 E17.02729
G1 X128.09 Y109.901 E17.04181
G1 X128.871 Y110.402 E17.07576
G1 X129.301 Y110.739 E17.09575
G1 X130.423 Y111.809 E17.15247
G1 X130.833 Y112.3 E17.17587
G1 X131.535 Y113.36 E17.22239
G1 X131.759 Y113.765 E17.23932
G1 X132.072 Y114.46 E17.26721
G1 X132.222 Y114.877 E17.28342
G1 X132.504 Y115.904 E17.32239
G1 X132.592 Y116.374 E17.33988
G1 X132.606 Y116.683 E17.3512
G1 X132.596 Y117.989 E17.39898
G1 X132.546 Y118.499 E17.41773
G1 X132.42 Y119.165 E17.44253
G1 X132.32 Y119.547 E17.45697
G1 X131.944 Y120.662 E17.50003
G1 X131.741 Y121.124 E17.51849
G1 X131.177 Y122.152 E17.56139
G1 X130.931 Y122.527 E17.5778
G1 X130.427 Y123.178 E17.60792
G1 X130.155 Y123.482 E17.62284
G1 X129.409 Y124.204 E17.66082
G1 X129.054 Y124.496 E17.67764
G1 X128.241 Y125.062 E17.71388
G1 X127.823 Y125.304 E17.73155
G1 X126.814 Y125.778 E17.77234
G1 X126.274 Y125.968 E17.79328
G1 X125.012 Y126.275 E17.8408
G1 X124.334 Y126.356 E17.86578
G1 X110.783 Y126.348 E18.36156
G1 X110.117 Y126.269 E18.3861
G1 X108.818 Y125.957 E18.43498
G1 X108.4 Y125.822 E18.45105
G1 X107.776 Y125.566 E18.47573
G1 X107.431 Y125.396 E18.4898
G1 X106.45 Y124.829 E18.53125
G1 X106.039 Y124.541 E18.54961
G1 X105.155 Y123.797 E18.59188
G1 X104.845 Y123.493 E18.60777
G1 X104.345 Y122.922 E18.63554
G1 X104.112 Y122.616 E18.64961
G1 X103.572 Y121.8 E18.68541
G1 X103.37 Y121.441 E18.70048
G1 X103.05 Y120.762 E18.72794
G1 X102.901 Y120.376 E18.74308
G1 X102.597 Y119.378 E18.78125
G1 X102.503 Y118.962 E18.79685
G1 X102.421 Y118.405 E18.81745
G1 X102.392 Y117.928 E18.83493
G1 X102.411 Y117.647 E18.84524
G1 X102.599 Y116.08 E18.90298
G1 X102.729 Y115.508 E18.92444
G1 X103.104 Y114.395 E18.96741
G1 X103.305 Y113.936 E18.98574
G1 X103.867 Y112.908 E19.02861
G1 X104.116 Y112.527 E19.04526
G1 X104.627 Y111.868 E19.07577
G1 X104.896 Y111.568 E19.09051
G1 X105.126 Y111.345 E19.10223
G0 F810 X105.648 Y110.839
M204 S5000
M205 X30 Y30
G0 F7200 X105.955 Y111.154
M204 S500
M205 X20 Y20
G1 F6000 E19.12883
G1 F900 X106.274 Y110.894 E19.14389
G1 X107.151 Y110.295 E19.18274
G1 X107.503 Y110.095 E19.19755
G1 X108.445 Y109.661 E19.2355
