;FLAVOR:Marlin
;TIME:1423
;Filament used: 0.551884m
;Layer height: 0.2
;Generated with Cura_SteamEngine 3.6.0
M140 S70
M105
M190 S70
M104 S215
M105
M109 S215
M82 ;absolute extrusion mode
G28 ; home all axes
M117 Purge extruder
G92 E0 ; reset extruder
G1 Z1.0 F3000 ; move z up little to prevent scratching of surface
G1 X0.1 Y20 Z0.3 F5000.0 ; move to start-line position G1 X0.1 Y200.0 Z0.3 F1500.0 E15 ; draw 1st line
G1 X0.4 Y200.0 Z0.3 F5000.0 ; move to side a little
G1 X0.4 Y20 Z0.3 F1500.0 E30 ; draw 2nd line
G92 E0 ; reset extruder
G1 Z1.0 F3000 ; move z up little to prevent scratching of surface
M117 All systems go!
G92 E0
G1 F6000 E-5
;LAYER_COUNT:208
;LAYER:0
M107
M204 S5000
M205 X30 Y30
G0 F7200 X95.719 Y37.148 Z0.2
M204 S500
M205 X20 Y20
;TYPE:SKIRT
G1 F6000 E0
G1 F900 X96.179 Y35.976 E0.04188
G1 X96.713 Y34.837 E0.08372
G1 X97.318 Y33.733 E0.12559
G1 X97.991 Y32.67 E0.16743
G1 X98.731 Y31.653 E0.20927
G1 X99.535 Y30.684 E0.25114
G1 X100.398 Y29.768 E0.293
G1 X101.317 Y28.909 E0.33484
G1 X102.289 Y28.11 E0.37669
G1 X103.31 Y27.374 E0.41855
G1 X104.376 Y26.705 E0.46041
G1 X105.482 Y26.105 E0.50226
G1 X106.624 Y25.576 E0.54412
G1 X107.797 Y25.121 E0.58597
G1 X108.997 Y24.741 E0.62783
G1 X110.606 Y24.36 E0.68283
G1 X111.257 Y24.234 E0.70488
G1 X112.499 Y24.034 E0.74673
G1 X113.752 Y23.914 E0.78859
G1 X115.009 Y23.873 E0.83042
G1 X116.267 Y23.912 E0.87228
G1 X117.52 Y24.032 E0.91415
G1 X118.763 Y24.23 E0.95601
G1 X119.99 Y24.507 E0.99785
G1 X121.198 Y24.862 E1.03973
G1 X122.38 Y25.292 E1.08156
G1 X123.533 Y25.797 E1.12343
G1 X124.651 Y26.374 E1.16527
G1 X125.731 Y27.021 E1.20714
G1 X126.767 Y27.735 E1.24899
G1 X127.756 Y28.513 E1.29085
G1 X128.693 Y29.353 E1.3327
G1 X129.575 Y30.25 E1.37454
G1 X130.398 Y31.202 E1.4164
G1 X131.159 Y32.204 E1.45824
G1 X131.855 Y33.253 E1.50012
G1 X132.483 Y34.343 E1.54196
G1 X133.041 Y35.472 E1.58384
G1 X133.525 Y36.633 E1.62568
G1 X133.863 Y37.596 E1.65962
G1 X133.972 Y37.934 E1.67144
G1 X134.32 Y39.143 E1.71328
G1 X134.591 Y40.372 E1.75514
G1 X134.783 Y41.616 E1.797
G1 X134.895 Y42.869 E1.83885
G1 X134.928 Y44.127 E1.8807
G1 X134.88 Y45.385 E1.92257
G1 X134.753 Y46.637 E1.96443
G1 X134.547 Y47.878 E2.00627
G1 X134.262 Y49.104 E2.04813
G1 X133.9 Y50.309 E2.08998
G1 X133.462 Y51.489 E2.13184
G1 X132.95 Y52.638 E2.17368
G1 X132.366 Y53.753 E2.21555
G1 X131.712 Y54.828 E2.2574
G1 X130.991 Y55.86 E2.29927
G1 X130.206 Y56.844 E2.34114
G1 X129.361 Y57.776 E2.38298
G1 X128.458 Y58.652 E2.42482
G1 X127.501 Y59.469 E2.46667
G1 X126.494 Y60.224 E2.50854
G1 X125.441 Y60.913 E2.55039
G1 X124.346 Y61.534 E2.59226
G1 X123.215 Y62.084 E2.63409
G1 X122.475 Y62.398 E2.66082
G1 X122.012 Y62.583 E2.67741
G1 X120.829 Y63.012 E2.71926
G1 X119.621 Y63.366 E2.76113
G1 X118.393 Y63.642 E2.80299
G1 X117.151 Y63.839 E2.84482
G1 X115.898 Y63.958 E2.88668
G1 X114.64 Y63.996 E2.92854
G1 X113.382 Y63.954 E2.9704
G1 X112.13 Y63.833 E3.01224
G1 X110.887 Y63.632 E3.05412
G1 X109.997 Y63.438 E3.08442
G1 X109.692 Y63.364 E3.09486
G1 X108.479 Y63.028 E3.13672
G1 X107.289 Y62.617 E3.17859
G1 X106.129 Y62.13 E3.22044
G1 X105.002 Y61.571 E3.26228
G1 X103.912 Y60.941 E3.30415
G1 X102.865 Y60.243 E3.346
G1 X101.864 Y59.481 E3.38785
G1 X100.913 Y58.656 E3.42972
G1 X100.017 Y57.772 E3.47158
G1 X99.179 Y56.834 E3.51342
G1 X98.402 Y55.844 E3.55528
G1 X97.69 Y54.806 E3.59714
G1 X97.045 Y53.726 E3.63898
G1 X96.47 Y52.606 E3.68086
G1 X95.967 Y51.453 E3.7227
G1 X95.539 Y50.27 E3.76454
G1 X95.186 Y49.062 E3.8064
G1 X94.911 Y47.834 E3.84825
G1 X94.714 Y46.591 E3.89011
G1 X94.597 Y45.338 E3.93197
G1 X94.566 Y43.632 E3.98872
G1 X94.574 Y43.309 E3.99946
G1 X94.645 Y42.052 E4.04134
G1 X94.796 Y40.803 E4.08318
G1 X95.026 Y39.566 E4.12503
G1 X95.334 Y38.346 E4.16688
G1 X95.475 Y37.909 E4.18215
G0 F810 X95.719 Y37.148
M204 S5000
M205 X30 Y30
G0 F7200 X96.117 Y37.222
M204 S500
M205 X20 Y20
G1 F6000 E4.20876
G1 F900 X96.576 Y36.065 E4.25016
G1 X97.109 Y34.939 E4.2916
G1 X97.714 Y33.85 E4.33303
G1 X98.386 Y32.801 E4.37447
G1 X99.125 Y31.798 E4.4159
G1 X99.927 Y30.845 E4.45733
G1 X100.788 Y29.945 E4.49876
G1 X101.705 Y29.102 E4.54019
G1 X102.674 Y28.319 E4.58162
G1 X103.692 Y27.601 E4.62305
G1 X104.753 Y26.949 E4.66447
G1 X105.854 Y26.367 E4.70589
G1 X106.991 Y25.856 E4.74736
G1 X108.157 Y25.42 E4.78876
G1 X109.35 Y25.059 E4.83022
G1 X110.682 Y24.752 E4.87568
G1 X111.333 Y24.626 E4.89773
G1 X112.562 Y24.429 E4.93913
G1 X113.803 Y24.311 E4.98059
G1 X115.048 Y24.273 E5.02202
G1 X116.292 Y24.315 E5.06342
G1 X117.532 Y24.436 E5.10486
G1 X118.761 Y24.637 E5.14628
G1 X119.975 Y24.917 E5.18772
G1 X121.169 Y25.274 E5.22917
G1 X122.337 Y25.706 E5.27059
G1 X123.475 Y26.213 E5.31202
G1 X124.578 Y26.791 E5.35344
G1 X125.642 Y27.44 E5.39489
G1 X126.661 Y28.155 E5.4363
G1 X127.633 Y28.934 E5.47773
G1 X128.553 Y29.774 E5.51916
G1 X129.417 Y30.671 E5.56059
G1 X130.222 Y31.622 E5.60203
G1 X130.964 Y32.622 E5.64344
G1 X131.64 Y33.668 E5.68487
G1 X132.248 Y34.756 E5.72632
G1 X132.785 Y35.88 E5.76775
G1 X133.248 Y37.036 E5.80917
G1 X133.483 Y37.719 E5.83319
G1 X133.592 Y38.057 E5.84501
G1 X133.936 Y39.254 E5.88643
G1 X134.202 Y40.471 E5.92786
G1 X134.39 Y41.702 E5.96928
G1 X134.499 Y42.943 E6.01071
G1 X134.527 Y44.188 E6.05213
G1 X134.476 Y45.433 E6.09358
G1 X134.345 Y46.672 E6.13502
G1 X134.134 Y47.899 E6.17643
G1 X133.846 Y49.111 E6.21786
G1 X133.48 Y50.302 E6.2593
G1 X133.038 Y51.466 E6.30071
G1 X132.523 Y52.6 E6.34214
G1 X131.936 Y53.699 E6.38358
G1 X131.279 Y54.758 E6.42503
G1 X130.556 Y55.772 E6.46645
G1 X129.77 Y56.738 E6.50787
G1 X128.923 Y57.651 E6.54929
G1 X128.019 Y58.509 E6.59075
G1 X127.062 Y59.306 E6.63217
G1 X126.056 Y60.04 E6.67359
G1 X125.005 Y60.709 E6.71502
G1 X123.913 Y61.308 E6.75645
G1 X122.326 Y62.026 E6.81438
G1 X121.863 Y62.211 E6.83097
G1 X120.692 Y62.636 E6.8724
G1 X119.497 Y62.985 E6.91381
G1 X118.281 Y63.256 E6.95524
G1 X117.05 Y63.449 E6.99669
G1 X115.81 Y63.562 E7.0381
G1 X114.565 Y63.596 E7.07952
G1 X113.32 Y63.549 E7.12096
G1 X112.081 Y63.423 E7.16239
G1 X110.852 Y63.218 E7.20383
G1 X110.091 Y63.049 E7.22975
G1 X109.786 Y62.975 E7.24019
G1 X108.585 Y62.643 E7.28164
G1 X107.409 Y62.234 E7.32305
G1 X106.261 Y61.75 E7.36449
G1 X105.146 Y61.194 E7.40593
G1 X104.069 Y60.568 E7.44736
G1 X103.035 Y59.874 E7.48878
G1 X102.048 Y59.114 E7.53021
G1 X101.111 Y58.293 E7.57165
G1 X100.229 Y57.414 E7.61306
G1 X99.405 Y56.48 E7.65449
G1 X98.643 Y55.494 E7.69593
G1 X97.945 Y54.462 E7.73737
G1 X97.316 Y53.388 E7.77877
G1 X96.756 Y52.275 E7.82021
G1 X96.269 Y51.128 E7.86165
G1 X95.857 Y49.953 E7.90307
G1 X95.521 Y48.753 E7.94452
G1 X95.263 Y47.535 E7.98593
G1 X95.083 Y46.302 E8.02737
G1 X94.983 Y45.06 E8.06881
G1 X94.966 Y43.642 E8.11598
G1 X94.974 Y43.319 E8.12672
G1 X95.045 Y42.075 E8.16817
G1 X95.195 Y40.839 E8.20958
G1 X95.425 Y39.614 E8.25103
G1 X95.732 Y38.407 E8.29246
G1 X95.87 Y37.983 E8.30729
G0 F810 X96.117 Y37.222
M204 S5000
M205 X30 Y30
G0 F7200 X96.515 Y37.298
M204 S500
M205 X20 Y20
G1 F6000 E8.3339
G1 F900 X96.974 Y36.154 E8.37489
G1 X97.506 Y35.042 E8.41589
G1 X98.11 Y33.967 E8.45691
G1 X98.781 Y32.933 E8.4979
G1 X99.519 Y31.946 E8.53889
G1 X100.319 Y31.008 E8.5799
G1 X101.178 Y30.124 E8.62089
G1 X102.092 Y29.297 E8.66189
G1 X103.059 Y28.531 E8.70292
G1 X104.072 Y27.83 E8.74389
G1 X105.13 Y27.196 E8.78492
G1 X106.226 Y26.632 E8.82592
G1 X107.356 Y26.14 E8.86691
G1 X108.516 Y25.723 E8.90791
G1 X109.7 Y25.381 E8.9489
G1 X110.758 Y25.145 E8.98495
G1 X111.409 Y25.019 E9.007
G1 X112.626 Y24.824 E9.048
G1 X113.853 Y24.709 E9.08899
G1 X115.085 Y24.673 E9.12998
G1 X116.317 Y24.717 E9.17098
G1 X117.544 Y24.841 E9.212
G1 X118.76 Y25.045 E9.25301
G1 X119.96 Y25.327 E9.29401
G1 X121.139 Y25.686 E9.335
G1 X122.292 Y26.12 E9.37598
G1 X123.415 Y26.629 E9.41699
G1 X124.503 Y27.209 E9.45799
G1 X125.551 Y27.859 E9.49901
G1 X126.554 Y28.575 E9.54
G1 X127.509 Y29.355 E9.58101
G1 X128.411 Y30.195 E9.62201
G1 X129.257 Y31.092 E9.66302
G1 X130.043 Y32.041 E9.704
G1 X130.765 Y33.04 E9.745
G1 X131.422 Y34.084 E9.78602
G1 X132.009 Y35.167 E9.82699
G1 X132.525 Y36.287 E9.86801
G1 X133.102 Y37.842 E9.92317
G1 X133.211 Y38.18 E9.93499
G1 X133.551 Y39.364 E9.97596
G1 X133.814 Y40.569 E10.01698
G1 X133.997 Y41.788 E10.05798
G1 X134.102 Y43.016 E10.09897
G1 X134.127 Y44.249 E10.13999
G1 X134.071 Y45.48 E10.18097
G1 X133.936 Y46.705 E10.22197
G1 X133.722 Y47.919 E10.26297
G1 X133.429 Y49.117 E10.30399
G1 X133.06 Y50.293 E10.34498
G1 X132.614 Y51.442 E10.38597
G1 X132.096 Y52.561 E10.42699
G1 X131.506 Y53.643 E10.46798
G1 X130.847 Y54.685 E10.50898
G1 X130.121 Y55.681 E10.54998
G1 X129.333 Y56.629 E10.59098
G1 X128.485 Y57.524 E10.63198
G1 X127.581 Y58.361 E10.67296
G1 X126.624 Y59.139 E10.71398
G1 X125.619 Y59.852 E10.75497
G1 X124.569 Y60.499 E10.79599
G1 X123.48 Y61.077 E10.83699
G1 X122.178 Y61.655 E10.88437
G1 X121.715 Y61.84 E10.90096
G1 X120.556 Y62.26 E10.94196
G1 X119.372 Y62.604 E10.98297
G1 X118.169 Y62.87 E11.02394
G1 X116.95 Y63.058 E11.06497
G1 X115.722 Y63.167 E11.10597
G1 X114.49 Y63.195 E11.14696
G1 X113.258 Y63.144 E11.18797
G1 X112.033 Y63.013 E11.22895
G1 X110.818 Y62.802 E11.26996
G1 X110.185 Y62.66 E11.29154
G1 X109.88 Y62.586 E11.30198
G1 X108.692 Y62.257 E11.34298
G1 X107.528 Y61.851 E11.38398
G1 X106.393 Y61.371 E11.42497
G1 X105.291 Y60.818 E11.46598
G1 X104.228 Y60.195 E11.50696
G1 X103.207 Y59.504 E11.54796
G1 X102.233 Y58.748 E11.58897
G1 X101.31 Y57.931 E11.62997
G1 X100.442 Y57.056 E11.67096
G1 X99.632 Y56.126 E11.71198
G1 X98.885 Y55.146 E11.75296
G1 X98.203 Y54.119 E11.79397
G1 X97.588 Y53.05 E11.83499
G1 X97.045 Y51.944 E11.87597
G1 X96.574 Y50.805 E11.91696
G1 X96.178 Y49.637 E11.95798
G1 X95.859 Y48.447 E11.99896
G1 X95.617 Y47.238 E12.03997
G1 X95.455 Y46.016 E12.08097
G1 X95.372 Y44.786 E12.12197
G1 X95.366 Y43.652 E12.15969
G1 X95.374 Y43.329 E12.17043
G1 X95.444 Y42.098 E12.21144
G1 X95.594 Y40.874 E12.25246
G1 X95.824 Y39.663 E12.29346
G1 X96.131 Y38.469 E12.33446
G1 X96.266 Y38.058 E12.34885
G0 F810 X96.515 Y37.298
M204 S5000
M205 X30 Y30
G0 F7200 X96.913 Y37.374
M204 S500
M205 X20 Y20
G1 F6000 E12.37546
G1 F900 X97.371 Y36.244 E12.41601
G1 X97.903 Y35.146 E12.45659
G1 X98.506 Y34.086 E12.49715
G1 X99.176 Y33.067 E12.53772
G1 X99.912 Y32.095 E12.57827
G1 X100.711 Y31.172 E12.61887
G1 X101.567 Y30.304 E12.65942
G1 X102.479 Y29.494 E12.69999
G1 X103.442 Y28.746 E12.74054
G1 X104.452 Y28.062 E12.78111
G1 X105.505 Y27.446 E12.82169
G1 X106.596 Y26.901 E12.86225
G1 X107.72 Y26.428 E12.90281
G1 X108.873 Y26.029 E12.94339
G1 X110.049 Y25.707 E12.98395
G1 X110.834 Y25.538 E13.01065
G1 X111.485 Y25.412 E13.03271
G1 X112.689 Y25.22 E13.07326
G1 X113.903 Y25.106 E13.11381
G1 X115.123 Y25.073 E13.15441
G1 X116.341 Y25.12 E13.19495
G1 X117.555 Y25.247 E13.23555
G1 X118.757 Y25.452 E13.2761
G1 X119.943 Y25.737 E13.31667
G1 X121.108 Y26.098 E13.35724
G1 X122.247 Y26.535 E13.39781
G1 X123.354 Y27.045 E13.43835
G1 X124.426 Y27.627 E13.47892
G1 X125.457 Y28.278 E13.51948
G1 X126.444 Y28.995 E13.56005
G1 X127.381 Y29.776 E13.60062
G1 X128.266 Y30.616 E13.64121
G1 X129.093 Y31.512 E13.68176
G1 X129.86 Y32.461 E13.72235
G1 X130.562 Y33.457 E13.76287
G1 X131.199 Y34.498 E13.80347
G1 X131.765 Y35.578 E13.84402
G1 X132.26 Y36.693 E13.8846
G1 X132.721 Y37.964 E13.92956
G1 X132.83 Y38.302 E13.94138
G1 X133.166 Y39.475 E13.98196
G1 X133.425 Y40.667 E14.02253
G1 X133.605 Y41.873 E14.06309
G1 X133.705 Y43.089 E14.10367
G1 X133.726 Y44.308 E14.14422
G1 X133.666 Y45.526 E14.18478
G1 X133.527 Y46.738 E14.22535
G1 X133.309 Y47.938 E14.26592
G1 X133.012 Y49.121 E14.30649
G1 X132.639 Y50.282 E14.34705
G1 X132.19 Y51.416 E14.38761
G1 X131.668 Y52.519 E14.4282
G1 X131.075 Y53.584 E14.46874
G1 X130.413 Y54.609 E14.50932
G1 X129.686 Y55.588 E14.54988
G1 X128.896 Y56.517 E14.59044
G1 X128.047 Y57.393 E14.63102
G1 X127.142 Y58.211 E14.67159
G1 X126.185 Y58.967 E14.71215
G1 X125.181 Y59.66 E14.75273
G1 X124.134 Y60.285 E14.79329
G1 X123.048 Y60.84 E14.83385
G1 X122.029 Y61.283 E14.87081
G1 X121.566 Y61.468 E14.88739
G1 X120.42 Y61.883 E14.92793
G1 X119.248 Y62.223 E14.96852
G1 X118.057 Y62.484 E15.00907
G1 X116.851 Y62.667 E15.04964
G1 X115.636 Y62.771 E15.0902
G1 X114.416 Y62.794 E15.13078
G1 X113.198 Y62.738 E15.17134
G1 X111.986 Y62.602 E15.2119
G1 X110.279 Y62.272 E15.26973
G1 X109.974 Y62.198 E15.28017
G1 X108.799 Y61.871 E15.32073
G1 X107.648 Y61.469 E15.36128
G1 X106.525 Y60.992 E15.40186
G1 X105.437 Y60.442 E15.44241
G1 X104.386 Y59.822 E15.483
G1 X103.379 Y59.134 E15.52356
G1 X102.419 Y58.382 E15.56412
G1 X101.51 Y57.569 E15.60468
G1 X100.656 Y56.698 E15.64525
G1 X99.861 Y55.773 E15.68582
G1 X99.129 Y54.798 E15.72637
G1 X98.462 Y53.776 E15.76696
G1 X97.863 Y52.714 E15.80751
G1 X97.336 Y51.614 E15.84808
G1 X96.881 Y50.482 E15.88866
G1 X96.502 Y49.323 E15.92922
G1 X96.199 Y48.141 E15.9698
G1 X95.975 Y46.943 E16.01034
G1 X95.83 Y45.732 E16.0509
G1 X95.764 Y44.514 E16.09147
G1 X95.766 Y43.661 E16.11985
G1 X95.774 Y43.338 E16.13059
G1 X95.844 Y42.121 E16.17114
G1 X95.994 Y40.91 E16.21172
G1 X96.222 Y39.712 E16.25228
G1 X96.529 Y38.532 E16.29284
G1 X96.662 Y38.133 E16.30683
G0 F810 X96.913 Y37.374
M204 S5000
M205 X30 Y30
G0 F7200 X97.311 Y37.451
M204 S500
M205 X20 Y20
G1 F6000 E16.33343
G1 F900 X97.769 Y36.335 E16.37356
G1 X98.3 Y35.252 E16.41367
G1 X98.902 Y34.206 E16.45381
G1 X99.571 Y33.202 E16.49394
G1 X100.306 Y32.245 E16.53408
G1 X101.102 Y31.339 E16.57419
G1 X101.957 Y30.487 E16.61433
G1 X102.866 Y29.694 E16.65446
G1 X103.826 Y28.963 E16.69459
G1 X104.832 Y28.297 E16.73472
G1 X105.88 Y27.7 E16.77483
G1 X106.965 Y27.173 E16.81495
G1 X108.083 Y26.719 E16.85508
G1 X109.228 Y26.34 E16.8952
G1 X110.91 Y25.931 E16.95277
G1 X111.561 Y25.805 E16.97483
G1 X112.752 Y25.615 E17.01494
G1 X113.953 Y25.504 E17.05506
G1 X115.16 Y25.474 E17.09521
G1 X116.365 Y25.523 E17.13532
G1 X117.565 Y25.652 E17.17547
G1 X118.753 Y25.86 E17.21558
G1 X119.925 Y26.147 E17.25571
G1 X121.075 Y26.51 E17.29582
G1 X122.199 Y26.949 E17.33596
G1 X123.291 Y27.462 E17.37609
G1 X124.347 Y28.045 E17.41621
G1 X125.362 Y28.698 E17.45635
G1 X126.332 Y29.416 E17.49649
G1 X127.251 Y30.197 E17.5366
G1 X128.117 Y31.037 E17.57673
G1 X128.926 Y31.932 E17.61685
G1 X129.673 Y32.88 E17.657
G1 X130.356 Y33.874 E17.69711
G1 X130.971 Y34.912 E17.73724
G1 X131.517 Y35.988 E17.77737
G1 X131.99 Y37.098 E17.8175
G1 X132.341 Y38.087 E17.85241
G1 X132.45 Y38.425 E17.86422
G1 X132.782 Y39.585 E17.90435
G1 X133.036 Y40.764 E17.94446
G1 X133.212 Y41.958 E17.9846
G1 X133.308 Y43.161 E18.02474
G1 X133.325 Y44.367 E18.06486
G1 X133.261 Y45.572 E18.10499
G1 X133.118 Y46.77 E18.14512
G1 X132.895 Y47.955 E18.18523
G1 X132.595 Y49.124 E18.22537
G1 X132.218 Y50.27 E18.26549
G1 X131.766 Y51.389 E18.30563
G1 X131.24 Y52.475 E18.34577
G1 X130.644 Y53.524 E18.3859
G1 X129.98 Y54.531 E18.42601
G1 X129.25 Y55.492 E18.46615
G1 X128.459 Y56.402 E18.50626
G1 X127.608 Y57.258 E18.5464
G1 X126.703 Y58.056 E18.58653
G1 X125.747 Y58.792 E18.62666
G1 X124.745 Y59.463 E18.66677
G1 X123.7 Y60.066 E18.7069
G1 X122.617 Y60.599 E18.74705
G1 X121.881 Y60.912 E18.77365
G1 X121.418 Y61.097 E18.79023
G1 X120.283 Y61.507 E18.83037
G1 X119.124 Y61.841 E18.87048
G1 X117.945 Y62.098 E18.91062
G1 X116.752 Y62.276 E18.95074
G1 X115.55 Y62.374 E18.99085
G1 X114.343 Y62.393 E19.031
G1 X113.138 Y62.332 E19.07113
G1 X111.94 Y62.191 E19.11125
G1 X110.374 Y61.883 E19.16433
G1 X110.069 Y61.809 E19.17477
G1 X108.906 Y61.486 E19.21492
G1 X107.768 Y61.086 E19.25504
G1 X106.658 Y60.612 E19.29518
G1 X105.583 Y60.066 E19.33528
G1 X104.546 Y59.449 E19.37542
G1 X103.552 Y58.765 E19.41555
G1 X102.605 Y58.017 E19.45569
G1 X101.711 Y57.208 E19.49579
G1 X100.872 Y56.341 E19.53592
G1 X100.092 Y55.42 E19.57606
G1 X99.374 Y54.45 E19.6162
G1 X98.723 Y53.435 E19.6563
G1 X98.14 Y52.378 E19.69645
G1 X97.629 Y51.285 E19.73658
G1 X97.191 Y50.161 E19.77671
G1 X96.829 Y49.01 E19.81684
G1 X96.543 Y47.838 E19.85696
G1 X96.336 Y46.65 E19.89707
G1 X96.209 Y45.45 E19.9372
G1 X96.166 Y43.671 E19.99639
G1 X96.174 Y43.348 E20.00714
G1 X96.243 Y42.144 E20.04725
G1 X96.393 Y40.947 E20.08737
G1 X96.621 Y39.762 E20.12751
G1 X96.928 Y38.595 E20.16764
