;FLAVOR:Marlin
;TIME:3743
;Filament used: 3.336m
;Layer height: 0.2
;Generated with Cura_SteamEngine 3.6.0
M140 S70
M105
M190 S70
M104 S215
M105
M109 S215
M82 ;absolute extrusion mode
G28 ; home all axes
M117 Purge extruder
G92 E0 ; reset extruder
G1 Z1.0 F3000 ; move z up little to prevent scratching of surface
G1 X0.1 Y20 Z0.3 F5000.0 ; move to start-line position G1 X0.1 Y200.0 Z0.3 F1500.0 E15 ; draw 1st line
G1 X0.4 Y200.0 Z0.3 F5000.0 ; move to side a little
G1 X0.4 Y20 Z0.3 F1500.0 E30 ; draw 2nd line
G92 E0 ; reset extruder
G1 Z1.0 F3000 ; move z up little to prevent scratching of surface
M117 All systems go!
G92 E0
G1 F6000 E-5
;LAYER_COUNT:126
;LAYER:0
M107
M204 S5000
M205 X30 Y30
G0 F7200 X93.387 Y87.619 Z0.2
M204 S500
M205 X20 Y20
;TYPE:SKIRT
G1 F6000 E0
G1 F900 X94.259 Y86.712 E0.04185
G1 X95.186 Y85.861 E0.0837
G1 X96.166 Y85.071 E0.12557
G1 X97.049 Y84.442 E0.16163
G1 X97.284 Y84.284 E0.17104
G1 X98.351 Y83.615 E0.21293
G1 X99.457 Y83.015 E0.25478
G1 X100.599 Y82.487 E0.29663
G1 X101.773 Y82.033 E0.33849
G1 X102.973 Y81.654 E0.38035
G1 X104.194 Y81.352 E0.42218
G1 X105.433 Y81.128 E0.46406
G1 X106.683 Y80.984 E0.50591
G1 X108.315 Y80.915 E0.56024
G1 X126.508 Y80.899 E1.16534
G1 X127.765 Y80.938 E1.20717
G1 X129.018 Y81.057 E1.24903
G1 X130.261 Y81.255 E1.2909
G1 X131.489 Y81.531 E1.33276
G1 X132.287 Y81.756 E1.36034
G1 X132.504 Y81.822 E1.36788
G1 X133.695 Y82.226 E1.40971
G1 X134.859 Y82.705 E1.45157
G1 X135.99 Y83.257 E1.49343
G1 X137.083 Y83.88 E1.53528
G1 X138.135 Y84.571 E1.57714
G1 X139.141 Y85.328 E1.61901
G1 X140.096 Y86.146 E1.66084
G1 X140.998 Y87.024 E1.7027
G1 X141.842 Y87.958 E1.74457
G1 X142.793 Y89.172 E1.79586
G1 X142.871 Y89.28 E1.80029
G1 X143.575 Y90.323 E1.84215
G1 X144.212 Y91.409 E1.88402
G1 X144.778 Y92.533 E1.92588
G1 X145.271 Y93.691 E1.96774
G1 X145.69 Y94.877 E2.00958
G1 X146.033 Y96.088 E2.05144
G1 X146.298 Y97.318 E2.09329
G1 X146.485 Y98.563 E2.13516
G1 X146.592 Y99.817 E2.17702
G1 X146.613 Y101.389 E2.22931
G1 X146.335 Y112.057 E2.58425
G1 X146.307 Y112.71 E2.60599
G1 X146.105 Y116.126 E2.7198
G1 X145.991 Y117.379 E2.76165
G1 X145.798 Y118.622 E2.80349
G1 X145.63 Y119.421 E2.83064
G1 X145.546 Y119.784 E2.84304
G1 X145.224 Y121 E2.88488
G1 X144.825 Y122.194 E2.92675
G1 X144.35 Y123.359 E2.96859
G1 X143.803 Y124.493 E3.01047
G1 X143.185 Y125.589 E3.05232
G1 X142.499 Y126.643 E3.09414
G1 X141.746 Y127.652 E3.13602
G1 X140.932 Y128.611 E3.17786
G1 X140.058 Y129.517 E3.21973
G1 X139.128 Y130.365 E3.26159
G1 X138.371 Y130.981 E3.29405
G1 X138.265 Y131.063 E3.2985
G1 X137.246 Y131.801 E3.34035
G1 X136.182 Y132.473 E3.38221
G1 X135.077 Y133.075 E3.42406
G1 X133.936 Y133.607 E3.46593
G1 X132.764 Y134.065 E3.50778
G1 X131.565 Y134.447 E3.54964
G1 X130.344 Y134.753 E3.5915
G1 X129.107 Y134.98 E3.63333
G1 X127.857 Y135.128 E3.6752
G1 X126.148 Y135.202 E3.73209
G1 X108.752 Y135.2 E4.31069
G1 X107.494 Y135.16 E4.35255
G1 X106.241 Y135.04 E4.39442
G1 X104.999 Y134.841 E4.43625
G1 X103.771 Y134.563 E4.47813
G1 X102.564 Y134.208 E4.51997
G1 X101.382 Y133.776 E4.56183
G1 X100.229 Y133.271 E4.6037
G1 X99.111 Y132.693 E4.64556
G1 X98.032 Y132.046 E4.6874
G1 X96.997 Y131.331 E4.72924
G1 X96.177 Y130.692 E4.76382
G1 X96.07 Y130.604 E4.76843
G1 X95.124 Y129.775 E4.81026
G1 X94.233 Y128.886 E4.85212
G1 X93.399 Y127.943 E4.894
G1 X92.628 Y126.949 E4.93584
G1 X91.921 Y125.908 E4.97769
G1 X91.282 Y124.824 E5.01954
G1 X90.712 Y123.702 E5.0614
G1 X90.216 Y122.546 E5.10324
G1 X89.793 Y121.36 E5.14512
G1 X89.447 Y120.15 E5.18698
G1 X89.179 Y118.921 E5.22881
G1 X88.957 Y117.399 E5.27997
G1 X88.784 Y115.767 E5.33456
G1 X88.683 Y114.263 E5.38469
G1 X88.306 Y101.456 E5.81084
G1 X88.309 Y100.197 E5.85271
G1 X88.391 Y98.942 E5.89454
G1 X88.554 Y97.694 E5.9364
G1 X88.795 Y96.459 E5.97826
G1 X89.115 Y95.241 E6.02014
G1 X89.511 Y94.047 E6.06198
G1 X89.982 Y92.88 E6.10384
G1 X90.526 Y91.745 E6.1457
G1 X91.142 Y90.648 E6.18755
G1 X91.825 Y89.591 E6.2294
G1 X92.575 Y88.58 E6.27127
G1 X92.871 Y88.23 E6.28652
G0 F810 X93.387 Y87.619
M204 S5000
M205 X30 Y30
G0 F7200 X93.786 Y87.775
M204 S500
M205 X20 Y20
G1 F6000 E6.31312
G1 F900 X94.656 Y86.883 E6.35457
G1 X95.582 Y86.05 E6.39599
G1 X96.559 Y85.277 E6.43743
G1 X97.273 Y84.774 E6.46648
G1 X97.508 Y84.616 E6.4759
G1 X98.563 Y83.954 E6.51732
G1 X99.659 Y83.362 E6.55875
G1 X100.79 Y82.841 E6.60017
G1 X101.953 Y82.394 E6.64161
G1 X103.142 Y82.022 E6.68305
G1 X104.352 Y81.728 E6.72446
G1 X105.579 Y81.511 E6.76591
G1 X106.817 Y81.374 E6.80733
G1 X108.315 Y81.315 E6.8572
G1 X126.508 Y81.299 E7.4623
G1 X127.753 Y81.338 E7.50373
G1 X128.993 Y81.457 E7.54516
G1 X130.223 Y81.655 E7.5866
G1 X131.437 Y81.931 E7.628
G1 X132.17 Y82.138 E7.65334
G1 X132.387 Y82.204 E7.66088
G1 X133.567 Y82.605 E7.70233
G1 X134.718 Y83.08 E7.74375
G1 X135.836 Y83.629 E7.78517
G1 X136.917 Y84.248 E7.8266
G1 X137.956 Y84.935 E7.86803
G1 X138.949 Y85.687 E7.90946
G1 X139.892 Y86.502 E7.95092
G1 X140.78 Y87.375 E7.99233
G1 X141.61 Y88.303 E8.03374
G1 X142.469 Y89.406 E8.08024
G1 X142.547 Y89.514 E8.08467
G1 X143.244 Y90.547 E8.12612
G1 X143.872 Y91.622 E8.16753
G1 X144.431 Y92.736 E8.20898
G1 X144.917 Y93.883 E8.25042
G1 X145.328 Y95.059 E8.29185
G1 X145.663 Y96.258 E8.33326
G1 X145.92 Y97.477 E8.37469
G1 X146.099 Y98.71 E8.41613
G1 X146.198 Y99.952 E8.45757
G1 X146.213 Y101.378 E8.505
G1 X145.935 Y112.046 E8.85994
G1 X145.908 Y112.686 E8.88125
G1 X145.706 Y116.102 E8.99506
G1 X145.593 Y117.343 E9.03651
G1 X145.4 Y118.573 E9.07792
G1 X145.241 Y119.331 E9.10368
G1 X145.157 Y119.694 E9.11607
G1 X144.837 Y120.898 E9.15751
G1 X144.441 Y122.079 E9.19894
G1 X143.969 Y123.232 E9.24038
G1 X143.425 Y124.352 E9.28179
G1 X142.81 Y125.435 E9.32321
G1 X142.127 Y126.477 E9.36465
G1 X141.378 Y127.472 E9.40607
G1 X140.567 Y128.418 E9.44752
G1 X139.697 Y129.309 E9.48894
G1 X138.772 Y130.143 E9.53036
G1 X138.126 Y130.665 E9.55798
G1 X138.02 Y130.747 E9.56244
G1 X137.011 Y131.477 E9.60386
G1 X135.957 Y132.141 E9.6453
G1 X134.863 Y132.735 E9.6867
G1 X133.732 Y133.259 E9.72816
G1 X132.571 Y133.709 E9.76957
G1 X131.383 Y134.083 E9.811
G1 X130.173 Y134.38 E9.85244
G1 X128.947 Y134.599 E9.89386
G1 X127.709 Y134.739 E9.9353
G1 X126.148 Y134.802 E9.98726
G1 X108.752 Y134.8 E10.56585
G1 X107.507 Y134.76 E10.60728
G1 X106.267 Y134.64 E10.64872
G1 X105.037 Y134.441 E10.69016
G1 X103.823 Y134.163 E10.73158
G1 X102.629 Y133.808 E10.77301
G1 X101.46 Y133.377 E10.81445
G1 X100.322 Y132.872 E10.85586
G1 X99.218 Y132.295 E10.89729
G1 X98.153 Y131.648 E10.93874
G1 X97.133 Y130.934 E10.98015
G1 X96.431 Y130.384 E11.00981
G1 X96.324 Y130.296 E11.01442
G1 X95.388 Y129.474 E11.05585
G1 X94.506 Y128.594 E11.09729
G1 X93.683 Y127.659 E11.13872
G1 X92.922 Y126.673 E11.18015
G1 X92.225 Y125.641 E11.22157
G1 X91.596 Y124.565 E11.26302
G1 X91.037 Y123.452 E11.30445
G1 X90.551 Y122.305 E11.34588
G1 X90.14 Y121.129 E11.38731
G1 X89.805 Y119.93 E11.42872
G1 X89.547 Y118.711 E11.47016
G1 X89.355 Y117.357 E11.51565
G1 X89.182 Y115.725 E11.57023
G1 X89.082 Y114.251 E11.61937
G1 X88.705 Y101.444 E12.04552
G1 X88.709 Y100.198 E12.08696
G1 X88.792 Y98.955 E12.12839
G1 X88.955 Y97.72 E12.16983
G1 X89.197 Y96.498 E12.21126
G1 X89.516 Y95.295 E12.25265
G1 X89.913 Y94.114 E12.29409
G1 X90.384 Y92.961 E12.33552
G1 X90.928 Y91.84 E12.37696
G1 X91.543 Y90.757 E12.41839
G1 X92.227 Y89.716 E12.45982
G1 X92.975 Y88.72 E12.50124
G1 X93.265 Y88.382 E12.51606
G0 F810 X93.786 Y87.775
M204 S5000
M205 X30 Y30
G0 F7200 X94.185 Y87.932
M204 S500
M205 X20 Y20
G1 F6000 E12.54267
G1 F900 X95.054 Y87.057 E12.58368
G1 X95.977 Y86.24 E12.62468
G1 X96.952 Y85.485 E12.66569
G1 X97.496 Y85.105 E12.68776
G1 X97.731 Y84.947 E12.69718
G1 X98.776 Y84.293 E12.73819
G1 X99.861 Y83.708 E12.77918
G1 X100.981 Y83.195 E12.82016
G1 X102.133 Y82.755 E12.86117
G1 X103.311 Y82.391 E12.90218
G1 X104.509 Y82.104 E12.94315
G1 X105.724 Y81.895 E12.98416
G1 X106.95 Y81.765 E13.02516
G1 X108.315 Y81.715 E13.07059
G1 X126.508 Y81.699 E13.6757
G1 X127.74 Y81.738 E13.71669
G1 X128.967 Y81.857 E13.7577
G1 X130.184 Y82.055 E13.7987
G1 X131.385 Y82.331 E13.83969
G1 X132.054 Y82.521 E13.86282
G1 X132.271 Y82.587 E13.87037
G1 X133.438 Y82.984 E13.91137
G1 X134.577 Y83.456 E13.95237
G1 X135.683 Y84 E13.99337
G1 X136.751 Y84.615 E14.03436
G1 X137.777 Y85.298 E14.07535
G1 X138.757 Y86.046 E14.11636
G1 X139.686 Y86.856 E14.15735
G1 X140.561 Y87.725 E14.19837
G1 X141.377 Y88.649 E14.23937
G1 X142.145 Y89.641 E14.28109
G1 X142.223 Y89.749 E14.28553
G1 X142.912 Y90.771 E14.32652
G1 X143.533 Y91.836 E14.36752
G1 X144.084 Y92.938 E14.4085
G1 X144.562 Y94.075 E14.44953
G1 X144.966 Y95.239 E14.49051
G1 X145.293 Y96.428 E14.53152
G1 X145.542 Y97.635 E14.57251
G1 X145.713 Y98.856 E14.61352
G1 X145.804 Y100.085 E14.65451
G1 X145.814 Y101.368 E14.69718
G1 X145.536 Y112.036 E15.05212
G1 X145.509 Y112.663 E15.07299
G1 X145.307 Y116.079 E15.18681
G1 X145.194 Y117.306 E15.22779
G1 X145.002 Y118.524 E15.2688
G1 X144.851 Y119.241 E15.29317
G1 X144.767 Y119.604 E15.30557
G1 X144.45 Y120.795 E15.34656
G1 X144.057 Y121.963 E15.38755
G1 X143.589 Y123.103 E15.42853
G1 X143.047 Y124.211 E15.46956
G1 X142.435 Y125.281 E15.51056
G1 X141.755 Y126.309 E15.55155
G1 X141.01 Y127.291 E15.59255
G1 X140.203 Y128.223 E15.63355
G1 X139.337 Y129.1 E15.67455
G1 X138.416 Y129.919 E15.71554
G1 X137.882 Y130.348 E15.73832
G1 X137.776 Y130.43 E15.74278
G1 X136.777 Y131.152 E15.78378
G1 X135.733 Y131.808 E15.82478
G1 X134.649 Y132.395 E15.86579
G1 X133.529 Y132.911 E15.9068
G1 X132.378 Y133.352 E15.9478
G1 X131.201 Y133.718 E15.98879
G1 X130.003 Y134.007 E16.02978
G1 X128.788 Y134.218 E16.0708
G1 X127.562 Y134.349 E16.11181
G1 X126.148 Y134.402 E16.15887
G1 X108.752 Y134.4 E16.73746
G1 X107.52 Y134.36 E16.77846
G1 X106.293 Y134.24 E16.81947
G1 X105.076 Y134.041 E16.86048
G1 X103.875 Y133.763 E16.90148
G1 X102.695 Y133.408 E16.94247
G1 X101.54 Y132.977 E16.98347
G1 X100.415 Y132.472 E17.02448
G1 X99.326 Y131.896 E17.06546
G1 X98.276 Y131.25 E17.10646
G1 X97.27 Y130.537 E17.14747
G1 X96.685 Y130.075 E17.17227
G1 X96.578 Y129.987 E17.17687
G1 X95.652 Y129.173 E17.21788
G1 X94.781 Y128.301 E17.25887
G1 X93.967 Y127.375 E17.29988
G1 X93.216 Y126.397 E17.34089
G1 X92.53 Y125.373 E17.38189
G1 X91.911 Y124.307 E17.42289
G1 X91.363 Y123.203 E17.46388
G1 X90.888 Y122.066 E17.50487
G1 X90.487 Y120.9 E17.54588
G1 X90.163 Y119.71 E17.5869
G1 X89.917 Y118.503 E17.62787
G1 X89.753 Y117.315 E17.66775
G1 X89.58 Y115.683 E17.72234
G1 X89.482 Y114.239 E17.77048
G1 X89.105 Y101.432 E18.19662
G1 X89.109 Y100.199 E18.23763
G1 X89.193 Y98.969 E18.27864
G1 X89.356 Y97.748 E18.31961
G1 X89.598 Y96.539 E18.36062
G1 X89.918 Y95.348 E18.40164
G1 X90.314 Y94.181 E18.44263
G1 X90.786 Y93.042 E18.48363
G1 X91.33 Y91.936 E18.52463
G1 X91.945 Y90.868 E18.56562
G1 X92.628 Y89.841 E18.60664
G1 X93.376 Y88.861 E18.64765
G1 X93.66 Y88.535 E18.66203
G0 F810 X94.185 Y87.932
M204 S5000
M205 X30 Y30
G0 F7200 X94.584 Y88.091
M204 S500
M205 X20 Y20
G1 F6000 E18.68863
G1 F900 X95.451 Y87.233 E18.7292
G1 X96.372 Y86.434 E18.76976
G1 X97.719 Y85.437 E18.8255
G1 X97.954 Y85.279 E18.83491
G1 X98.988 Y84.632 E18.87548
G1 X100.062 Y84.055 E18.91603
G1 X101.172 Y83.548 E18.95662
G1 X102.312 Y83.116 E18.99717
G1 X103.479 Y82.759 E19.03776
G1 X104.666 Y82.48 E19.07831
G1 X105.869 Y82.279 E19.11888
G1 X107.082 Y82.157 E19.15943
G1 X108.316 Y82.115 E19.2005
G1 X126.509 Y82.099 E19.8056
G1 X127.728 Y82.138 E19.84616
G1 X128.942 Y82.257 E19.88673
G1 X130.145 Y82.455 E19.92728
G1 X131.333 Y82.731 E19.96785
G1 X131.937 Y82.904 E19.98875
G1 X132.154 Y82.97 E19.99629
G1 X133.309 Y83.363 E20.03687
G1 X134.435 Y83.831 E20.07742
G1 X135.529 Y84.371 E20.118
G1 X136.584 Y84.982 E20.15855
G1 X137.597 Y85.661 E20.19911
G1 X138.564 Y86.405 E20.23969
G1 X139.48 Y87.211 E20.28028
G1 X140.341 Y88.075 E20.32084
G1 X141.143 Y88.993 E20.36139
G1 X141.821 Y89.875 E20.39839
G1 X141.899 Y89.983 E20.40282
G1 X142.58 Y90.995 E20.44339
G1 X143.193 Y92.049 E20.48394
G1 X143.737 Y93.141 E20.52452
G1 X144.207 Y94.266 E20.56507
G1 X144.603 Y95.42 E20.60565
G1 X144.922 Y96.597 E20.64621
G1 X145.163 Y97.792 E20.68676
G1 X145.326 Y99.001 E20.72733
G1 X145.408 Y100.218 E20.7679
G1 X145.414 Y101.358 E20.80582
G1 X145.136 Y112.026 E21.16076
G1 X145.11 Y112.639 E21.18117
G1 X144.908 Y116.055 E21.29498
G1 X144.796 Y117.269 E21.33553
G1 X144.604 Y118.474 E21.37612
G1 X144.461 Y119.15 E21.3991
G1 X144.377 Y119.513 E21.41149
G1 X144.063 Y120.692 E21.45207
G1 X143.673 Y121.847 E21.49262
G1 X143.208 Y122.975 E21.5332
G1 X142.67 Y124.069 E21.57374
G1 X142.061 Y125.126 E21.61432
G1 X141.384 Y126.141 E21.6549
G1 X140.643 Y127.109 E21.69544
G1 X139.839 Y128.027 E21.73603
G1 X138.977 Y128.89 E21.7766
G1 X137.637 Y130.032 E21.83516
G1 X137.531 Y130.114 E21.83962
G1 X136.542 Y130.828 E21.88019
G1 X135.509 Y131.476 E21.92075
G1 X134.435 Y132.055 E21.96133
G1 X133.326 Y132.562 E22.00188
G1 X132.186 Y132.995 E22.04244
G1 X131.02 Y133.353 E22.08301
G1 X129.833 Y133.634 E22.12358
G1 X128.63 Y133.836 E22.16416
G1 X127.417 Y133.959 E22.20471
G1 X126.148 Y134.002 E22.24694
G1 X108.752 Y134 E22.82553
G1 X107.533 Y133.96 E22.8661
G1 X106.319 Y133.84 E22.90667
G1 X105.116 Y133.641 E22.94723
G1 X103.928 Y133.363 E22.98781
G1 X102.761 Y133.008 E23.02838
G1 X101.62 Y132.578 E23.06893
G1 X100.51 Y132.073 E23.10949
G1 X99.435 Y131.497 E23.15006
G1 X98.4 Y130.852 E23.19062
G1 X96.939 Y129.766 E23.25117
G1 X96.832 Y129.678 E23.25577
G1 X95.916 Y128.872 E23.29636
G1 X95.055 Y128.009 E23.3369
G1 X94.252 Y127.091 E23.37747
G1 X93.511 Y126.122 E23.41804
G1 X92.835 Y125.107 E23.4586
G1 X92.227 Y124.049 E23.49919
G1 X91.69 Y122.955 E23.53972
G1 X91.225 Y121.827 E23.5803
G1 X90.836 Y120.671 E23.62087
G1 X90.523 Y119.492 E23.66144
G1 X90.288 Y118.295 E23.70201
G1 X90.151 Y117.273 E23.73631
G1 X89.978 Y115.641 E23.79089
G1 X89.882 Y114.227 E23.83803
G1 X89.505 Y101.42 E24.26418
G1 X89.509 Y100.201 E24.30472
G1 X89.593 Y98.984 E24.3453
G1 X89.757 Y97.775 E24.38588
G1 X89.999 Y96.58 E24.42643
G1 X90.32 Y95.403 E24.46701
G1 X90.716 Y94.25 E24.50755
G1 X91.188 Y93.125 E24.54813
G1 X91.732 Y92.033 E24.58871
G1 X92.346 Y90.98 E24.62925
G1 X93.029 Y89.969 E24.66983
G1 X93.776 Y89.005 E24.71039
G1 X94.054 Y88.69 E24.72437
G0 F810 X94.584 Y88.091
M204 S5000
M205 X30 Y30
G0 F7200 X94.983 Y88.253
M204 S500
M205 X20 Y20
G1 F6000 E24.75097
G1 F900 X95.848 Y87.412 E24.7911
G1 X96.767 Y86.63 E24.83124
G1 X97.942 Y85.769 E24.87969
G1 X98.177 Y85.611 E24.8891
G1 X99.2 Y84.972 E24.92922
G1 X100.263 Y84.401 E24.96935
G1 X101.362 Y83.903 E25.00949
G1 X102.491 Y83.478 E25.04961
G1 X103.646 Y83.129 E25.08974
G1 X104.821 Y82.857 E25.12985
G1 X106.012 Y82.663 E25.16999
G1 X107.213 Y82.549 E25.21011
G1 X108.316 Y82.515 E25.24682
G1 X126.509 Y82.499 E25.85192
G1 X127.715 Y82.538 E25.89205
G1 X128.915 Y82.657 E25.93216
G1 X130.106 Y82.855 E25.97232
G1 X131.821 Y83.287 E26.03114
G1 X132.038 Y83.353 E26.03868
G1 X133.18 Y83.742 E26.07881
G1 X134.294 Y84.206 E26.11895
G1 X135.374 Y84.742 E26.15905
G1 X136.417 Y85.349 E26.19918
G1 X137.417 Y86.024 E26.23931
G1 X138.37 Y86.764 E26.27944
G1 X139.272 Y87.565 E26.31957
G1 X140.119 Y88.424 E26.35969
G1 X140.907 Y89.338 E26.39983
G1 X141.496 Y90.109 E26.4321
G1 X141.574 Y90.217 E26.43653
G1 X142.248 Y91.218 E26.47667
G1 X142.854 Y92.261 E26.51679
G1 X143.389 Y93.343 E26.55693
G1 X143.852 Y94.457 E26.59706
G1 X144.239 Y95.599 E26.63716
G1 X144.55 Y96.765 E26.6773
G1 X144.784 Y97.949 E26.71744
G1 X144.938 Y99.145 E26.75755
G1 X145.012 Y100.35 E26.7977
G1 X145.014 Y101.347 E26.83086
G1 X144.736 Y112.015 E27.1858
G1 X144.71 Y112.615 E27.20578
G1 X144.508 Y116.031 E27.31959
G1 X144.397 Y117.233 E27.35974
G1 X144.207 Y118.424 E27.39985
G1 X144.071 Y119.06 E27.42149
G1 X143.987 Y119.423 E27.43388
G1 X143.677 Y120.589 E27.47401
G1 X143.289 Y121.732 E27.51415
G1 X142.827 Y122.846 E27.55427
G1 X142.292 Y123.927 E27.59438
G1 X141.687 Y124.971 E27.63452
G1 X141.013 Y125.972 E27.67465
G1 X140.275 Y126.926 E27.71477
G1 X139.475 Y127.83 E27.75492
G1 X138.617 Y128.678 E27.79504
G1 X137.392 Y129.715 E27.84842
G1 X137.286 Y129.797 E27.85288
