;FLAVOR:RepRap
;TIME:10031
;Generated with Cura_SteamEngine 2.3.1
M190 S70
M104 S215
M109 S215
G28 ; home all axes
M117 Purge extruder
G92 E0 ; reset extruder
G1 Z1.0 F3000 ; move z up little to prevent scratching of surface
G1 X0.1 Y20 Z0.3 F5000.0 ; move to start-line position G1 X0.1 Y200.0 Z0.3 F1500.0 E15 ; draw 1st line
G1 X0.4 Y200.0 Z0.3 F5000.0 ; move to side a little
G1 X0.4 Y20 Z0.3 F1500.0 E30 ; draw 2nd line
G92 E0 ; reset extruder
G1 Z1.0 F3000 ; move z up little to prevent scratching of surface

M117 All systems go!
;LAYER_COUNT:500
;LAYER:0
M117 INDICATOR-Layer0
M107
G1 F4200 E-5
G0 F1800 X93.267 Y81.679 Z.16
G0 X92.958 Y82.135
;TYPE:SKIRT
G1 F4200 E0
G1 F1200 X93.267 Y81.679 E0.01612
G1 X93.639 Y81.273 E0.03224
G1 X94.066 Y80.924 E0.04838
G1 X94.539 Y80.641 E0.06451
G1 X95.048 Y80.43 E0.08064
G1 X95.582 Y80.294 E0.09677
G1 X96.249 Y80.235 E0.11637
G1 X108.701 Y80.235 E0.48082
G1 X109.251 Y80.275 E0.49696
G1 X109.789 Y80.394 E0.51309
G1 X110 Y80.474 E0.5197
G1 X110.305 Y80.367 E0.52916
G1 X110.846 Y80.262 E0.54529
G1 X111.299 Y80.235 E0.55857
G1 X123.751 Y80.235 E0.92303
G1 X124.301 Y80.275 E0.93917
G1 X124.839 Y80.394 E0.95529
G1 X125.354 Y80.59 E0.97142
G1 X125.835 Y80.858 E0.98754
G1 X126.273 Y81.192 E1.00366
G1 X126.657 Y81.587 E1.01978
G1 X127.042 Y82.135 E1.03939
G1 X133.266 Y92.917 E1.40377
G1 X133.506 Y93.413 E1.4199
G1 X133.672 Y93.939 E1.43604
G1 X133.708 Y94.164 E1.44271
G1 X133.955 Y94.376 E1.45224
G1 X134.316 Y94.791 E1.46834
G1 X134.565 Y95.169 E1.48158
G1 X140.791 Y105.951 E1.846
G1 X141.031 Y106.447 E1.86212
G1 X141.197 Y106.972 E1.87824
G1 X141.285 Y107.516 E1.89437
G1 X141.294 Y108.067 E1.9105
G1 X141.223 Y108.613 E1.92661
G1 X141.073 Y109.144 E1.94276
G1 X140.791 Y109.751 E1.96235
G1 X137.184 Y115.998 E2.17349
G1 X137.498 Y116.351 E2.18732
G1 X137.833 Y116.788 E2.20343
G1 X138.102 Y117.269 E2.21956
G1 X138.251 Y117.635 E2.23113
G1 X138.455 Y118.224 E2.24937
G1 X138.597 Y118.757 E2.26552
G1 X138.663 Y119.396 E2.28432
G1 X138.68 Y120.297 E2.3107
G1 X138.651 Y120.848 E2.32684
G1 X138.579 Y121.243 E2.3386
G1 X138.393 Y122.03 E2.36227
G1 X138.228 Y122.556 E2.3784
G1 X138.071 Y122.901 E2.38949
G1 X137.505 Y123.996 E2.42557
G1 X137.217 Y124.466 E2.44171
G1 X136.945 Y124.803 E2.45438
G1 X136.258 Y125.561 E2.48432
G1 X135.859 Y125.941 E2.50045
G1 X135.483 Y126.214 E2.51405
G1 X134.701 Y126.712 E2.54119
G1 X134.216 Y126.974 E2.55732
G1 X133.798 Y127.133 E2.57041
G1 X133.32 Y127.283 E2.58507
G1 X132.783 Y127.409 E2.60122
G1 X132.264 Y127.456 E2.61647
G1 X131.663 Y127.469 E2.63407
G1 X131.113 Y127.441 E2.65018
G1 X130.634 Y127.342 E2.6645
G1 X127.042 Y133.565 E2.87481
G1 X126.733 Y134.021 E2.89093
G1 X126.361 Y134.427 E2.90705
G1 X125.934 Y134.776 E2.92319
G1 X125.461 Y135.059 E2.93932
G1 X124.952 Y135.27 E2.95545
G1 X124.418 Y135.406 E2.97157
G1 X123.751 Y135.465 E2.99117
G1 X116.533 Y135.465 E3.20244
G1 X116.402 Y135.872 E3.21495
G1 X116.195 Y136.383 E3.23109
G1 X115.916 Y136.859 E3.24724
G1 X115.672 Y137.177 E3.25897
G1 X115.256 Y137.663 E3.27769
G1 X114.868 Y138.055 E3.29384
G1 X114.43 Y138.384 E3.30987
G1 X113.826 Y138.774 E3.33091
G1 X113.343 Y139.039 E3.34704
G1 X112.942 Y139.195 E3.35963
G1 X112 Y139.502 E3.38863
G1 X111.256 Y139.664 E3.41092
G1 X110.637 Y139.735 E3.42915
G1 X109.852 Y139.744 E3.45213
G1 X108.627 Y139.63 E3.48814
G1 X108.083 Y139.539 E3.50428
G1 X107.525 Y139.357 E3.52146
G1 X106.467 Y138.919 E3.55498
G1 X105.975 Y138.672 E3.57109
G1 X105.458 Y138.302 E3.5897
G1 X104.941 Y137.862 E3.60957
G1 X104.549 Y137.475 E3.62569
G1 X104.154 Y136.938 E3.6452
G1 X103.837 Y136.415 E3.6631
G1 X103.587 Y135.924 E3.67923
G1 X103.438 Y135.465 E3.69335
G1 X96.249 Y135.465 E3.90377
G1 X95.699 Y135.425 E3.91991
G1 X95.161 Y135.306 E3.93604
G1 X94.646 Y135.11 E3.95216
G1 X94.165 Y134.842 E3.96828
G1 X93.727 Y134.508 E3.9844
G1 X93.343 Y134.113 E4.00053
G1 X92.958 Y133.565 E4.02013
G1 X89.351 Y127.317 E4.23129
G1 X88.914 Y127.409 E4.24436
G1 X88.368 Y127.484 E4.26049
G1 X87.817 Y127.478 E4.27662
G1 X87.411 Y127.422 E4.28861
G1 X86.773 Y127.299 E4.30763
G1 X86.241 Y127.156 E4.32375
G1 X85.538 Y126.827 E4.34647
G1 X84.602 Y126.266 E4.37841
G1 X84.152 Y125.95 E4.3945
G1 X83.679 Y125.49 E4.41382
G1 X82.879 Y124.563 E4.44966
G1 X82.55 Y124.121 E4.46578
G1 X82.299 Y123.657 E4.48122
G1 X81.785 Y122.53 E4.51748
G1 X81.593 Y122.013 E4.53362
G1 X81.505 Y121.644 E4.54472
G1 X81.364 Y120.882 E4.5674
G1 X81.304 Y120.335 E4.58351
G1 X81.313 Y119.895 E4.59639
G1 X81.381 Y119.024 E4.62196
G1 X81.463 Y118.479 E4.63809
G1 X81.693 Y117.785 E4.65949
G1 X81.95 Y117.203 E4.67811
G1 X82.208 Y116.716 E4.69424
G1 X82.709 Y116.081 E4.71792
G1 X82.807 Y115.981 E4.72202
G1 X79.209 Y109.751 E4.93259
G1 X78.969 Y109.255 E4.94871
G1 X78.803 Y108.73 E4.96483
G1 X78.715 Y108.186 E4.98096
G1 X78.706 Y107.635 E4.99709
G1 X78.777 Y107.089 E5.0132
G1 X78.927 Y106.558 E5.02935
G1 X79.209 Y105.951 E5.04894
G1 X85.435 Y95.169 E5.41336
G1 X85.745 Y94.713 E5.4295
G1 X86.117 Y94.306 E5.44563
G1 X86.291 Y94.164 E5.45221
G1 X86.351 Y93.845 E5.46171
G1 X86.531 Y93.324 E5.47784
G1 X86.734 Y92.917 E5.49115
G1 X92.958 Y82.135 E5.85554
G0 F1800 X93.304 Y82.335
G1 F1200 X93.599 Y81.905 E5.8708
G1 X93.955 Y81.525 E5.88604
G1 X94.366 Y81.204 E5.9013
G1 X94.821 Y80.95 E5.91656
G1 X95.309 Y80.768 E5.9318
G1 X95.819 Y80.662 E5.94705
G1 X96.249 Y80.635 E5.95966
G1 X108.701 Y80.635 E6.32411
G1 X109.221 Y80.675 E6.33938
G1 X109.728 Y80.794 E6.35462
G1 X109.998 Y80.903 E6.36314
G1 X110.154 Y80.833 E6.36815
G1 X110.657 Y80.696 E6.38341
G1 X111.299 Y80.635 E6.40228
G1 X123.751 Y80.635 E6.76674
G1 X124.271 Y80.675 E6.782
G1 X124.778 Y80.794 E6.79725
G1 X125.261 Y80.989 E6.81249
G1 X125.709 Y81.255 E6.82774
G1 X126.111 Y81.587 E6.843
G1 X126.457 Y81.977 E6.85826
G1 X126.696 Y82.335 E6.87086
G1 X132.92 Y93.117 E7.23524
G1 X133.145 Y93.587 E7.25049
G1 X133.296 Y94.086 E7.26575
G1 X133.337 Y94.377 E7.27435
G1 X133.475 Y94.478 E7.27936
G1 X133.846 Y94.845 E7.29463
G1 X134.218 Y95.369 E7.31344
G1 X140.444 Y106.151 E7.67785
G1 X140.67 Y106.621 E7.69312
G1 X140.82 Y107.12 E7.70837
G1 X140.893 Y107.636 E7.72362
G1 X140.886 Y108.157 E7.73887
G1 X140.8 Y108.671 E7.75413
G1 X140.636 Y109.165 E7.76936
G1 X140.444 Y109.551 E7.78198
G1 X136.692 Y116.049 E8.0016
G1 X137.199 Y116.618 E8.0239
G1 X137.515 Y117.032 E8.03915
G1 X137.763 Y117.49 E8.05439
G1 X137.873 Y117.766 E8.06309
G1 X138.077 Y118.355 E8.08133
G1 X138.209 Y118.859 E8.09658
G1 X138.263 Y119.404 E8.11261
G1 X138.28 Y120.305 E8.13899
G1 X138.25 Y120.825 E8.15423
G1 X138.19 Y121.151 E8.16393
G1 X138.004 Y121.938 E8.1876
G1 X137.845 Y122.435 E8.20287
G1 X137.715 Y122.717 E8.21196
G1 X137.149 Y123.812 E8.24804
G1 X136.875 Y124.255 E8.26329
G1 X136.648 Y124.534 E8.27381
G1 X135.961 Y125.292 E8.30376
G1 X135.583 Y125.65 E8.31899
G1 X135.268 Y125.877 E8.33036
G1 X134.486 Y126.375 E8.35749
G1 X134.027 Y126.62 E8.37272
G1 X133.678 Y126.751 E8.38363
G1 X133.2 Y126.901 E8.3983
G1 X132.692 Y127.018 E8.41355
G1 X132.256 Y127.056 E8.42636
G1 X131.655 Y127.069 E8.44396
G1 X131.134 Y127.041 E8.45923
G1 X130.623 Y126.932 E8.47452
G1 X130.44 Y126.878 E8.48011
G1 X126.696 Y133.365 E8.69933
G1 X126.401 Y133.795 E8.71459
G1 X126.045 Y134.175 E8.72983
G1 X125.634 Y134.496 E8.7451
G1 X125.179 Y134.75 E8.76035
G1 X124.691 Y134.932 E8.77559
G1 X124.181 Y135.038 E8.79084
G1 X123.751 Y135.065 E8.80345
G1 X116.242 Y135.065 E9.02323
G1 X116.021 Y135.75 E9.0443
G1 X115.823 Y136.232 E9.05955
G1 X115.554 Y136.678 E9.07479
G1 X115.368 Y136.917 E9.08366
G1 X114.952 Y137.403 E9.10238
G1 X114.584 Y137.772 E9.11763
G1 X114.213 Y138.048 E9.13117
G1 X113.609 Y138.438 E9.15221
G1 X113.151 Y138.687 E9.16747
G1 X112.819 Y138.815 E9.17788
G1 X111.877 Y139.122 E9.20688
G1 X111.21 Y139.267 E9.22686
G1 X110.591 Y139.338 E9.2451
G1 X109.889 Y139.345 E9.26564
G1 X108.664 Y139.231 E9.30165
G1 X108.15 Y139.143 E9.31692
G1 X107.678 Y138.987 E9.33147
G1 X106.62 Y138.549 E9.36498
G1 X106.156 Y138.314 E9.38021
G1 X105.717 Y137.997 E9.39605
G1 X105.2 Y137.557 E9.41592
G1 X104.831 Y137.19 E9.43116
G1 X104.496 Y136.73 E9.44781
G1 X104.179 Y136.207 E9.46571
G1 X103.944 Y135.742 E9.48096
G1 X103.774 Y135.211 E9.49728
G1 X103.74 Y135.065 E9.50167
G1 X96.249 Y135.065 E9.72092
G1 X95.729 Y135.025 E9.73619
G1 X95.222 Y134.906 E9.75143
G1 X94.739 Y134.711 E9.76667
G1 X94.291 Y134.445 E9.78192
G1 X93.889 Y134.113 E9.79718
G1 X93.543 Y133.723 E9.81244
G1 X93.304 Y133.365 E9.82504
G1 X89.552 Y126.866 E10.04469
G1 X88.832 Y127.018 E10.06622
G1 X88.315 Y127.086 E10.08149
G1 X87.794 Y127.074 E10.09674
G1 X87.486 Y127.03 E10.10585
G1 X86.848 Y126.907 E10.12486
G1 X86.346 Y126.769 E10.1401
G1 X85.744 Y126.484 E10.1596
G1 X84.808 Y125.923 E10.19154
G1 X84.383 Y125.622 E10.20678
G1 X83.982 Y125.228 E10.22323
G1 X83.182 Y124.301 E10.25907
G1 X82.873 Y123.882 E10.27431
G1 X82.663 Y123.491 E10.2873
G1 X82.149 Y122.364 E10.32355
G1 X81.969 Y121.875 E10.33881
G1 X81.899 Y121.572 E10.34791
G1 X81.758 Y120.81 E10.37059
G1 X81.702 Y120.291 E10.38587
G1 X81.711 Y119.926 E10.39655
G1 X81.779 Y119.055 E10.42213
G1 X81.86 Y118.54 E10.43738
G1 X82.059 Y117.947 E10.45569
G1 X82.316 Y117.365 E10.47431
G1 X82.562 Y116.905 E10.48958
G1 X82.995 Y116.361 E10.50993
G1 X83.305 Y116.044 E10.52291
G1 X79.556 Y109.551 E10.74236
G1 X79.33 Y109.081 E10.75762
G1 X79.18 Y108.582 E10.77287
G1 X79.107 Y108.066 E10.78812
G1 X79.114 Y107.545 E10.80337
G1 X79.2 Y107.031 E10.81863
G1 X79.364 Y106.537 E10.83386
G1 X79.556 Y106.151 E10.84648
G1 X85.782 Y95.369 E11.21089
G1 X86.076 Y94.939 E11.22614
G1 X86.433 Y94.559 E11.2414
G1 X86.662 Y94.38 E11.24991
G1 X86.68 Y94.208 E11.25497
G1 X86.812 Y93.704 E11.27022
G1 X87.08 Y93.117 E11.2891
G1 X93.304 Y82.335 E11.65349
G0 F1800 X93.651 Y82.535
G1 F1200 X93.929 Y82.133 E11.66779
G1 X94.27 Y81.781 E11.68214
G1 X94.662 Y81.489 E11.69644
G1 X95.098 Y81.265 E11.71079
G1 X95.563 Y81.114 E11.7251
G1 X96.249 Y81.035 E11.74531
G1 X108.701 Y81.035 E12.10977
G1 X109.189 Y81.075 E12.1241
G1 X109.664 Y81.194 E12.13843
G1 X109.997 Y81.338 E12.14905
G1 X110.056 Y81.305 E12.15103
G1 X110.516 Y81.139 E12.16534
G1 X110.997 Y81.05 E12.17966
G1 X111.299 Y81.035 E12.18851
G1 X123.751 Y81.035 E12.55297
G1 X124.239 Y81.075 E12.5673
G1 X124.714 Y81.194 E12.58163
G1 X125.163 Y81.388 E12.59595
G1 X125.575 Y81.653 E12.61028
G1 X125.938 Y81.981 E12.6246
G1 X126.349 Y82.535 E12.64479
G1 X132.573 Y93.317 E13.00918
G1 X132.782 Y93.76 E13.02351
G1 X132.917 Y94.23 E13.03783
G1 X132.959 Y94.593 E13.04852
G1 X133.018 Y94.628 E13.05053
G1 X133.391 Y94.944 E13.06484
G1 X133.709 Y95.316 E13.07916
G1 X133.872 Y95.569 E13.08797
G1 X140.098 Y106.351 E13.45238
G1 X140.307 Y106.793 E13.46669
G1 X140.442 Y107.264 E13.48103
G1 X140.498 Y107.75 E13.49535
G1 X140.475 Y108.239 E13.50968
G1 X140.372 Y108.718 E13.52402
G1 X140.098 Y109.351 E13.54421
G1 X136.195 Y116.11 E13.77265
G1 X136.37 Y116.289 E13.77998
G1 X136.9 Y116.884 E13.8033
G1 X137.195 Y117.274 E13.81761
G1 X137.495 Y117.897 E13.83785
G1 X137.699 Y118.486 E13.8561
G1 X137.821 Y118.96 E13.87042
G1 X137.863 Y119.411 E13.88368
G1 X137.88 Y120.312 E13.91006
G1 X137.85 Y120.801 E13.9244
G1 X137.801 Y121.059 E13.93208
G1 X137.615 Y121.846 E13.95575
G1 X137.36 Y122.534 E13.97723
G1 X136.794 Y123.629 E14.0133
G1 X136.535 Y124.044 E14.02762
G1 X136.352 Y124.266 E14.03604
G1 X135.665 Y125.024 E14.06599
G1 X135.308 Y125.358 E14.08029
G1 X135.053 Y125.539 E14.08945
G1 X134.271 Y126.037 E14.11658
G1 X133.839 Y126.266 E14.13089
G1 X133.558 Y126.369 E14.13965
G1 X133.08 Y126.519 E14.15432
G1 X132.603 Y126.627 E14.16863
G1 X132.247 Y126.656 E14.17909
G1 X131.646 Y126.669 E14.19668
G1 X131.157 Y126.64 E14.21102
G1 X130.735 Y126.548 E14.22366
G1 X130.255 Y126.407 E14.2383
G1 X130.251 Y126.405 E14.23843
G1 X126.349 Y133.165 E14.46689
G1 X126.071 Y133.567 E14.48119
G1 X125.73 Y133.919 E14.49554
G1 X125.338 Y134.211 E14.50984
G1 X124.902 Y134.435 E14.52419
G1 X124.437 Y134.586 E14.5385
G1 X123.751 Y134.665 E14.55871
G1 X115.94 Y134.665 E14.78733
G1 X115.879 Y134.886 E14.79404
G1 X115.64 Y135.627 E14.81683
G1 X115.452 Y136.079 E14.83116
G1 X115.064 Y136.657 E14.85153
G1 X114.648 Y137.143 E14.87026
G1 X114.301 Y137.487 E14.88456
G1 X113.996 Y137.712 E14.89565
G1 X113.392 Y138.102 E14.9167
G1 X112.961 Y138.333 E14.93101
G1 X112.695 Y138.434 E14.93934
G1 X111.753 Y138.741 E14.96833
G1 X111.165 Y138.869 E14.98595
G1 X110.546 Y138.94 E15.00418
G1 X109.926 Y138.947 E15.02233
G1 X108.701 Y138.833 E15.05834
G1 X108.219 Y138.748 E15.07267
G1 X107.831 Y138.618 E15.08464
G1 X106.773 Y138.18 E15.11816
G1 X106.338 Y137.956 E15.13248
G1 X105.977 Y137.693 E15.14555
G1 X105.46 Y137.253 E15.16542
G1 X105.114 Y136.906 E15.17976
G1 X104.838 Y136.523 E15.19358
G1 X104.521 Y136 E15.21148
G1 X104.303 Y135.562 E15.2258
G1 X104.164 Y135.121 E15.23934
G1 X104.059 Y134.665 E15.25303
G1 X96.249 Y134.665 E15.48162
G1 X95.761 Y134.625 E15.49595
G1 X95.286 Y134.506 E15.51029
G1 X94.837 Y134.312 E15.5246
G1 X94.425 Y134.047 E15.53894
G1 X94.062 Y133.719 E15.55326
G1 X93.651 Y133.165 E15.57345
G1 X89.749 Y126.405 E15.8019
G1 X89.517 Y126.464 E15.80891
G1 X88.749 Y126.626 E15.83188
G1 X88.264 Y126.688 E15.84619
G1 X87.562 Y126.637 E15.86679
G1 X86.924 Y126.514 E15.88581
G1 X86.453 Y126.382 E15.90013
G1 X85.95 Y126.141 E15.91645
G1 X85.014 Y125.58 E15.94839
G1 X84.616 Y125.295 E15.96272
G1 X84.285 Y124.967 E15.97636
G1 X83.485 Y124.04 E16.0122
G1 X83.196 Y123.645 E16.02652
G1 X83.026 Y123.325 E16.03713
G1 X82.512 Y122.198 E16.07338
G1 X82.292 Y121.499 E16.09483
G1 X82.151 Y120.737 E16.11751
G1 X82.102 Y120.25 E16.13184
G1 X82.11 Y119.957 E16.14042
G1 X82.178 Y119.086 E16.16599
G1 X82.256 Y118.603 E16.18031
G1 X82.425 Y118.108 E16.19562
G1 X82.682 Y117.526 E16.21424
G1 X82.915 Y117.096 E16.22855
G1 X83.281 Y116.64 E16.24567
G1 X83.725 Y116.186 E16.26425
G1 X83.808 Y116.115 E16.26745
G1 X79.902 Y109.351 E16.49607
G1 X79.693 Y108.909 E16.51038
G1 X79.558 Y108.438 E16.52472
G1 X79.502 Y107.952 E16.53903
G1 X79.525 Y107.463 E16.55336
G1 X79.628 Y106.984 E16.5677
G1 X79.902 Y106.351 E16.58789
G1 X86.128 Y95.569 E16.9523
G1 X86.407 Y95.166 E16.96665
G1 X86.747 Y94.814 E16.98097
G1 X87.038 Y94.599 E16.99156
G1 X87.039 Y94.529 E16.99361
G1 X87.125 Y94.048 E17.00791
G1 X87.289 Y93.586 E17.02226
G1 X87.427 Y93.317 E17.03111
G1 X93.651 Y82.535 E17.3955
G0 F1800 X93.997 Y82.735
G1 F1200 X94.259 Y82.362 E17.40884
G1 X94.581 Y82.04 E17.42217
G1 X94.955 Y81.78 E17.4355
G1 X95.369 Y81.589 E17.44884
G1 X95.809 Y81.472 E17.46217
G1 X96.249 Y81.435 E17.47509
G1 X108.701 Y81.435 E17.83955
G1 X109.155 Y81.475 E17.85289
G1 X109.595 Y81.593 E17.86622
G1 X110.001 Y81.784 E17.87935
G1 X110.012 Y81.776 E17.87975
G1 X110.426 Y81.586 E17.89308
G1 X110.867 Y81.471 E17.90642
G1 X111.299 Y81.435 E17.91911
G1 X123.751 Y81.435 E18.28357
G1 X124.205 Y81.475 E18.29691
G1 X124.645 Y81.593 E18.31024
G1 X125.057 Y81.787 E18.32357
G1 X125.43 Y82.05 E18.33693
G1 X125.751 Y82.373 E18.35026
G1 X126.003 Y82.735 E18.36317
G1 X132.227 Y93.517 E18.72755
G1 X132.419 Y93.93 E18.74088
G1 X132.536 Y94.37 E18.75421
G1 X132.575 Y94.819 E18.7674
G1 X132.588 Y94.825 E18.76782
G1 X132.959 Y95.089 E18.78114
G1 X133.279 Y95.414 E18.79449
G1 X133.526 Y95.769 E18.80715
G1 X139.752 Y106.551 E19.17156
G1 X139.944 Y106.964 E19.18489
G1 X140.061 Y107.404 E19.19822
G1 X140.1 Y107.858 E19.21156
G1 X140.059 Y108.312 E19.2249
G1 X139.939 Y108.751 E19.23822
G1 X139.752 Y109.151 E19.25114
G1 X135.678 Y116.207 E19.48962
G1 X135.819 Y116.308 E19.49469
G1 X136.071 Y116.555 E19.50502
G1 X136.601 Y117.15 E19.52834
G1 X136.874 Y117.515 E19.54168
G1 X137.117 Y118.028 E19.5583
G1 X137.321 Y118.617 E19.57654
G1 X137.432 Y119.059 E19.58988
G1 X137.464 Y119.419 E19.60046
G1 X137.481 Y120.32 E19.62684
G1 X137.411 Y120.967 E19.64588
G1 X137.225 Y121.754 E19.66955
G1 X137.005 Y122.35 E19.68815
G1 X136.439 Y123.445 E19.72422
G1 X136.055 Y123.997 E19.74391
G1 X135.368 Y124.755 E19.77385
G1 X135.034 Y125.065 E19.78719
G1 X134.839 Y125.202 E19.79416
G1 X134.057 Y125.7 E19.8213
G1 X133.438 Y125.988 E19.84128
G1 X132.96 Y126.138 E19.85594
G1 X132.515 Y126.236 E19.86928
