;FLAVOR:Marlin
;TIME:7229
;Filament used: 5.61121m
;Layer height: 0.2
;Generated with Cura_SteamEngine 3.6.0
M140 S70
M105
M190 S70
M104 S215
M105
M109 S215
M82 ;absolute extrusion mode
G28 ; home all axes
M117 Purge extruder
G92 E0 ; reset extruder
G1 Z1.0 F3000 ; move z up little to prevent scratching of surface
G1 X0.1 Y20 Z0.3 F5000.0 ; move to start-line position G1 X0.1 Y200.0 Z0.3 F1500.0 E15 ; draw 1st line
G1 X0.4 Y200.0 Z0.3 F5000.0 ; move to side a little
G1 X0.4 Y20 Z0.3 F1500.0 E30 ; draw 2nd line
G92 E0 ; reset extruder
G1 Z1.0 F3000 ; move z up little to prevent scratching of surface
M117 All systems go!
G92 E0
G1 F6000 E-5
;LAYER_COUNT:286
;LAYER:0
M107
G0 F2400 X48.158 Y35.959 Z0.2
;TYPE:SKIRT
G1 F6000 E0
G1 F900 X48.937 Y34.963 E0.04626
G1 X50.153 Y33.633 E0.11219
G1 X50.282 Y33.504 E0.11887
G1 X51.204 Y32.638 E0.16515
G1 X52.18 Y31.832 E0.21146
G1 X53.204 Y31.089 E0.25774
G1 X54.274 Y30.412 E0.30407
G1 X55.383 Y29.805 E0.35032
G1 X56.53 Y29.268 E0.39666
G1 X57.707 Y28.805 E0.44293
G1 X58.912 Y28.418 E0.48924
G1 X60.138 Y28.107 E0.53551
G1 X61.382 Y27.875 E0.58181
G1 X62.638 Y27.721 E0.62811
G1 X64.438 Y27.64 E0.69403
G1 X82.556 Y27.64 E1.3569
G1 X83.108 Y27.519 E1.37757
G1 X84.352 Y27.287 E1.42387
G1 X85.609 Y27.135 E1.47019
G1 X87.331 Y27.055 E1.53326
G1 X87.987 Y27.053 E1.55726
G1 X89.252 Y27.089 E1.60356
G1 X90.512 Y27.205 E1.64986
G1 X91.38 Y27.332 E1.68195
G1 X92.079 Y27.45 E1.70789
G1 X93.022 Y27.64 E1.74308
G1 X100.154 Y27.64 E2.00401
G1 X101.419 Y27.68 E2.05032
G1 X102.678 Y27.8 E2.09659
G1 X103.928 Y27.999 E2.1429
G1 X104.251 Y28.072 E2.15501
G1 X105.306 Y27.875 E2.19428
G1 X106.562 Y27.721 E2.24057
G1 X108.362 Y27.64 E2.3065
G1 X130.289 Y27.64 E3.10872
G1 X130.289 Y26.786 E3.13997
G1 X130.329 Y25.521 E3.18627
G1 X130.449 Y24.262 E3.23254
G1 X130.648 Y23.012 E3.27885
G1 X130.926 Y21.778 E3.32513
G1 X131.282 Y20.563 E3.37145
G1 X131.713 Y19.374 E3.41772
G1 X132.219 Y18.214 E3.46402
G1 X132.797 Y17.088 E3.51033
G1 X133.444 Y16.001 E3.55661
G1 X134.16 Y14.957 E3.60292
G1 X134.939 Y13.96 E3.64922
G1 X136.153 Y12.633 E3.71502
G1 X136.282 Y12.504 E3.72169
G1 X137.204 Y11.638 E3.76797
G1 X138.18 Y10.832 E3.81428
G1 X139.204 Y10.089 E3.86057
G1 X140.274 Y9.412 E3.90689
G1 X141.383 Y8.805 E3.95315
G1 X142.53 Y8.268 E3.99948
G1 X143.707 Y7.805 E4.04576
G1 X144.912 Y7.418 E4.09206
G1 X146.138 Y7.107 E4.13834
G1 X147.382 Y6.875 E4.18463
G1 X148.638 Y6.721 E4.23093
G1 X150.438 Y6.64 E4.29685
G1 X152.18 Y6.64 E4.36058
G1 X153.445 Y6.68 E4.40689
G1 X154.704 Y6.8 E4.45316
G1 X155.954 Y6.999 E4.49947
G1 X157.189 Y7.277 E4.54578
G1 X158.403 Y7.632 E4.59206
G1 X159.593 Y8.063 E4.63836
G1 X160.753 Y8.568 E4.68465
G1 X161.879 Y9.146 E4.73096
G1 X162.966 Y9.794 E4.77726
G1 X164.01 Y10.509 E4.82355
G1 X165.006 Y11.288 E4.86981
G1 X166.336 Y12.504 E4.93575
G1 X166.465 Y12.633 E4.94242
G1 X167.331 Y13.555 E4.9887
G1 X168.137 Y14.531 E5.03501
G1 X168.88 Y15.555 E5.0813
G1 X169.557 Y16.625 E5.12762
G1 X170.164 Y17.734 E5.17388
G1 X170.701 Y18.881 E5.22021
G1 X171.164 Y20.058 E5.26648
G1 X171.551 Y21.263 E5.31279
G1 X171.862 Y22.489 E5.35906
G1 X172.094 Y23.733 E5.40536
G1 X172.248 Y24.989 E5.45166
G1 X172.329 Y26.789 E5.51758
G1 X172.329 Y49.531 E6.34962
G1 X172.289 Y50.796 E6.39593
G1 X172.169 Y52.055 E6.4422
G1 X171.97 Y53.305 E6.48851
G1 X171.692 Y54.54 E6.53482
G1 X171.337 Y55.754 E6.5811
G1 X170.906 Y56.944 E6.6274
G1 X170.401 Y58.104 E6.67369
G1 X169.823 Y59.23 E6.72
G1 X169.175 Y60.317 E6.76629
G1 X168.46 Y61.361 E6.81259
G1 X167.681 Y62.357 E6.85885
G1 X166.465 Y63.687 E6.92478
G1 X166.336 Y63.816 E6.93146
G1 X165.414 Y64.682 E6.97774
G1 X164.438 Y65.488 E7.02405
G1 X163.414 Y66.231 E7.07033
G1 X162.344 Y66.908 E7.11666
G1 X161.235 Y67.515 E7.16291
G1 X160.088 Y68.052 E7.20925
G1 X158.911 Y68.515 E7.25552
G1 X157.706 Y68.902 E7.30183
G1 X156.48 Y69.213 E7.3481
G1 X155.236 Y69.445 E7.3944
G1 X153.98 Y69.599 E7.4407
G1 X152.18 Y69.68 E7.50662
G1 X108.362 Y69.68 E9.10975
G1 X107.097 Y69.64 E9.15605
G1 X105.838 Y69.52 E9.20233
G1 X104.588 Y69.321 E9.24863
G1 X104.265 Y69.248 E9.26075
G1 X103.21 Y69.445 E9.30001
G1 X101.954 Y69.599 E9.34631
G1 X100.154 Y69.68 E9.41223
G1 X64.438 Y69.68 E10.71894
G1 X63.173 Y69.64 E10.76525
G1 X61.914 Y69.52 E10.81152
G1 X60.664 Y69.321 E10.85783
G1 X59.429 Y69.043 E10.90414
G1 X58.215 Y68.688 E10.95042
G1 X57.025 Y68.257 E10.99672
G1 X55.865 Y67.752 E11.04301
G1 X54.739 Y67.174 E11.08932
G1 X53.652 Y66.526 E11.13562
G1 X52.608 Y65.811 E11.18191
G1 X51.612 Y65.032 E11.22817
G1 X50.282 Y63.816 E11.2941
G1 X50.153 Y63.687 E11.30078
G1 X49.287 Y62.765 E11.34706
G1 X48.481 Y61.789 E11.39337
G1 X47.738 Y60.765 E11.43966
G1 X47.061 Y59.695 E11.48598
G1 X46.454 Y58.586 E11.53223
G1 X45.917 Y57.439 E11.57857
G1 X45.454 Y56.262 E11.62484
G1 X45.067 Y55.057 E11.67115
G1 X44.756 Y53.831 E11.71742
G1 X44.524 Y52.587 E11.76372
G1 X44.37 Y51.331 E11.81002
G1 X44.289 Y49.531 E11.87594
G1 X44.289 Y47.789 E11.93967
G1 X44.329 Y46.524 E11.98598
G1 X44.449 Y45.265 E12.03225
G1 X44.648 Y44.015 E12.07856
G1 X44.926 Y42.78 E12.12487
G1 X45.281 Y41.566 E12.17115
G1 X45.712 Y40.376 E12.21745
G1 X46.217 Y39.216 E12.26374
G1 X46.795 Y38.09 E12.31005
G1 X47.443 Y37.003 E12.35635
G1 X47.748 Y36.558 E12.37608
G0 F810 X48.158 Y35.959
G0 F2400 X48.595 Y36.108
G1 F6000 E12.40268
G1 F900 X49.373 Y35.128 E12.44846
G1 X50.464 Y33.944 E12.50736
G1 X50.593 Y33.815 E12.51404
G1 X51.506 Y32.959 E12.55983
G1 X52.471 Y32.163 E12.60559
G1 X53.485 Y31.43 E12.65137
G1 X54.545 Y30.763 E12.69719
G1 X55.644 Y30.166 E12.74295
G1 X56.78 Y29.64 E12.78875
G1 X57.946 Y29.187 E12.83452
G1 X59.14 Y28.81 E12.88033
G1 X60.355 Y28.511 E12.9261
G1 X61.586 Y28.289 E12.97187
G1 X62.829 Y28.146 E13.01764
G1 X64.438 Y28.08 E13.07656
G1 X82.6 Y28.08 E13.74104
G1 X83.203 Y27.948 E13.76362
G1 X84.433 Y27.72 E13.80939
G1 X85.675 Y27.57 E13.85516
G1 X87.332 Y27.495 E13.91585
G1 X87.988 Y27.493 E13.93985
G1 X89.239 Y27.529 E13.98563
G1 X90.485 Y27.645 E14.03142
G1 X91.307 Y27.766 E14.06182
G1 X92.006 Y27.884 E14.08775
G1 X92.976 Y28.08 E14.12396
G1 X100.154 Y28.08 E14.38657
G1 X101.405 Y28.12 E14.43236
G1 X102.65 Y28.24 E14.47813
G1 X103.886 Y28.439 E14.52393
G1 X104.242 Y28.52 E14.53729
G1 X104.279 Y28.511 E14.53868
G1 X105.51 Y28.289 E14.58444
G1 X106.753 Y28.146 E14.63022
G1 X108.362 Y28.08 E14.68914
G1 X130.729 Y28.08 E15.50746
G1 X130.729 Y26.786 E15.5548
G1 X130.769 Y25.535 E15.60059
G1 X130.889 Y24.29 E15.64635
G1 X131.088 Y23.054 E15.69216
G1 X131.366 Y21.834 E15.73794
G1 X131.721 Y20.634 E15.78372
G1 X132.153 Y19.459 E15.82952
G1 X132.658 Y18.315 E15.87527
G1 X133.235 Y17.204 E15.92108
G1 X133.882 Y16.133 E15.96686
G1 X134.597 Y15.106 E16.01264
G1 X135.375 Y14.126 E16.05842
G1 X136.464 Y12.944 E16.11722
G1 X136.593 Y12.815 E16.12389
G1 X137.506 Y11.959 E16.16968
G1 X138.471 Y11.163 E16.21545
G1 X139.485 Y10.43 E16.26122
G1 X140.545 Y9.763 E16.30705
G1 X141.644 Y9.166 E16.3528
G1 X142.78 Y8.64 E16.3986
G1 X143.946 Y8.187 E16.44437
G1 X145.14 Y7.81 E16.49018
G1 X146.355 Y7.511 E16.53596
G1 X147.586 Y7.289 E16.58172
G1 X148.829 Y7.146 E16.6275
G1 X150.438 Y7.08 E16.68641
G1 X152.18 Y7.08 E16.75015
G1 X153.431 Y7.12 E16.79594
G1 X154.676 Y7.24 E16.8417
G1 X155.912 Y7.439 E16.8875
G1 X157.132 Y7.717 E16.93328
G1 X158.332 Y8.072 E16.97907
G1 X159.507 Y8.503 E17.02486
G1 X160.652 Y9.008 E17.07064
G1 X161.762 Y9.585 E17.11641
G1 X162.833 Y10.232 E17.16219
G1 X163.861 Y10.946 E17.20798
G1 X164.841 Y11.724 E17.25376
G1 X166.025 Y12.815 E17.31267
G1 X166.154 Y12.944 E17.31934
G1 X167.01 Y13.857 E17.36513
G1 X167.806 Y14.822 E17.4109
G1 X168.539 Y15.836 E17.45667
G1 X169.206 Y16.896 E17.50249
G1 X169.803 Y17.995 E17.54825
G1 X170.329 Y19.131 E17.59405
G1 X170.782 Y20.297 E17.63982
G1 X171.159 Y21.491 E17.68563
G1 X171.458 Y22.706 E17.73141
G1 X171.68 Y23.937 E17.77717
G1 X171.823 Y25.18 E17.82295
G1 X171.889 Y26.789 E17.88186
G1 X171.889 Y49.531 E18.7139
G1 X171.849 Y50.782 E18.7597
G1 X171.729 Y52.027 E18.80546
G1 X171.53 Y53.263 E18.85126
G1 X171.252 Y54.483 E18.89704
G1 X170.897 Y55.683 E18.94282
G1 X170.466 Y56.858 E18.98861
G1 X169.961 Y58.003 E19.0344
G1 X169.384 Y59.113 E19.08017
G1 X168.737 Y60.184 E19.12595
G1 X168.023 Y61.212 E19.17174
G1 X167.245 Y62.192 E19.21752
G1 X166.154 Y63.376 E19.27642
G1 X166.025 Y63.505 E19.2831
G1 X165.112 Y64.361 E19.32889
G1 X164.147 Y65.157 E19.37465
G1 X163.133 Y65.89 E19.42043
G1 X162.073 Y66.557 E19.46625
G1 X160.974 Y67.154 E19.51201
G1 X159.838 Y67.68 E19.55781
G1 X158.672 Y68.133 E19.60357
G1 X157.478 Y68.51 E19.64938
G1 X156.263 Y68.809 E19.69516
G1 X155.032 Y69.031 E19.74093
G1 X153.789 Y69.174 E19.7867
G1 X152.18 Y69.24 E19.84562
G1 X108.362 Y69.24 E21.44875
G1 X107.111 Y69.2 E21.49454
G1 X105.866 Y69.08 E21.5403
G1 X104.63 Y68.881 E21.58611
G1 X104.274 Y68.8 E21.59946
G1 X104.237 Y68.809 E21.60086
G1 X103.006 Y69.031 E21.64662
G1 X101.763 Y69.174 E21.6924
G1 X100.154 Y69.24 E21.75132
G1 X64.438 Y69.24 E23.05803
G1 X63.187 Y69.2 E23.10382
G1 X61.942 Y69.08 E23.14958
G1 X60.706 Y68.881 E23.19538
G1 X59.486 Y68.603 E23.24116
G1 X58.286 Y68.248 E23.28695
G1 X57.111 Y67.817 E23.33274
G1 X55.966 Y67.312 E23.37852
G1 X54.856 Y66.735 E23.42429
G1 X53.785 Y66.088 E23.47007
G1 X52.757 Y65.374 E23.51586
G1 X51.777 Y64.596 E23.56164
G1 X50.593 Y63.505 E23.62054
G1 X50.464 Y63.376 E23.62722
G1 X49.608 Y62.463 E23.67301
G1 X48.812 Y61.498 E23.71877
G1 X48.079 Y60.484 E23.76455
G1 X47.412 Y59.424 E23.81037
G1 X46.815 Y58.325 E23.85613
G1 X46.289 Y57.189 E23.90193
G1 X45.836 Y56.023 E23.9477
G1 X45.459 Y54.829 E23.9935
G1 X45.16 Y53.614 E24.03928
G1 X44.938 Y52.383 E24.08505
G1 X44.795 Y51.14 E24.13082
G1 X44.729 Y49.531 E24.18974
G1 X44.729 Y47.789 E24.25347
G1 X44.769 Y46.538 E24.29927
G1 X44.889 Y45.293 E24.34503
G1 X45.088 Y44.057 E24.39083
G1 X45.366 Y42.837 E24.43661
G1 X45.721 Y41.637 E24.48239
G1 X46.152 Y40.462 E24.52818
G1 X46.657 Y39.317 E24.57397
G1 X47.234 Y38.207 E24.61974
G1 X47.881 Y37.136 E24.66552
G1 X48.181 Y36.705 E24.68473
G0 F810 X48.595 Y36.108
G0 F2400 X49.032 Y36.259
G1 F6000 E24.71133
G1 F900 X49.809 Y35.296 E24.7566
G1 X50.775 Y34.255 E24.80856
G1 X50.904 Y34.126 E24.81523
G1 X51.807 Y33.28 E24.8605
G1 X52.762 Y32.494 E24.90575
G1 X53.766 Y31.771 E24.95102
G1 X54.815 Y31.115 E24.99628
G1 X55.904 Y30.528 E25.04155
G1 X57.029 Y30.012 E25.08683
G1 X58.185 Y29.57 E25.13211
G1 X59.367 Y29.204 E25.17738
G1 X60.57 Y28.915 E25.22264
G1 X61.789 Y28.704 E25.26791
G1 X63.019 Y28.573 E25.31316
G1 X64.438 Y28.52 E25.36511
G1 X82.649 Y28.52 E26.03138
G1 X83.297 Y28.378 E26.05565
G1 X84.513 Y28.153 E26.1009
G1 X85.742 Y28.006 E26.14618
G1 X87.334 Y27.935 E26.20449
G1 X87.99 Y27.933 E26.22849
G1 X89.226 Y27.969 E26.27373
G1 X90.458 Y28.085 E26.319
G1 X91.234 Y28.2 E26.3477
G1 X91.933 Y28.318 E26.37364
G1 X92.933 Y28.52 E26.41096
G1 X100.154 Y28.52 E26.67515
G1 X101.391 Y28.56 E26.72043
G1 X102.622 Y28.68 E26.76568
G1 X103.843 Y28.879 E26.81094
G1 X104.252 Y28.973 E26.8263
G1 X104.494 Y28.915 E26.8354
G1 X105.713 Y28.704 E26.88066
G1 X106.943 Y28.573 E26.92592
G1 X108.362 Y28.52 E26.97787
G1 X131.169 Y28.52 E27.81229
G1 X131.169 Y26.786 E27.87573
G1 X131.209 Y25.55 E27.92097
G1 X131.329 Y24.318 E27.96626
G1 X131.528 Y23.097 E28.01152
G1 X131.806 Y21.891 E28.0568
G1 X132.161 Y20.706 E28.10206
G1 X132.592 Y19.546 E28.14734
G1 X133.097 Y18.417 E28.19259
G1 X133.674 Y17.322 E28.23787
G1 X134.32 Y16.267 E28.28313
G1 X135.034 Y15.256 E28.32841
G1 X135.811 Y14.294 E28.37365
G1 X136.775 Y13.255 E28.42551
G1 X136.904 Y13.126 E28.43218
G1 X137.807 Y12.28 E28.47745
G1 X138.762 Y11.494 E28.52271
G1 X139.766 Y10.771 E28.56797
G1 X140.815 Y10.115 E28.61324
G1 X141.904 Y9.528 E28.6585
G1 X143.029 Y9.012 E28.70378
G1 X144.185 Y8.57 E28.74906
G1 X145.367 Y8.204 E28.79433
G1 X146.57 Y7.915 E28.8396
G1 X147.789 Y7.704 E28.88486
G1 X149.019 Y7.573 E28.93011
G1 X150.438 Y7.52 E28.98207
G1 X152.18 Y7.52 E29.0458
G1 X153.417 Y7.56 E29.09108
G1 X154.648 Y7.68 E29.13633
G1 X155.869 Y7.879 E29.18159
G1 X157.075 Y8.156 E29.22686
G1 X158.26 Y8.511 E29.27212
G1 X159.42 Y8.942 E29.3174
G1 X160.55 Y9.447 E29.36268
G1 X161.644 Y10.024 E29.40793
G1 X162.699 Y10.67 E29.45319
G1 X163.71 Y11.383 E29.49845
G1 X164.673 Y12.16 E29.54372
G1 X165.714 Y13.126 E29.59568
G1 X165.843 Y13.255 E29.60236
G1 X166.689 Y14.158 E29.64763
G1 X167.475 Y15.113 E29.69288
G1 X168.198 Y16.117 E29.73814
G1 X168.854 Y17.166 E29.78341
G1 X169.441 Y18.255 E29.82867
G1 X169.957 Y19.38 E29.87395
G1 X170.399 Y20.536 E29.91923
G1 X170.765 Y21.718 E29.9645
G1 X171.054 Y22.921 E30.00977
G1 X171.265 Y24.14 E30.05503
G1 X171.396 Y25.37 E30.10029
G1 X171.449 Y26.789 E30.15224
G1 X171.449 Y49.531 E30.98428
G1 X171.409 Y50.768 E31.02956
G1 X171.289 Y51.999 E31.07481
G1 X171.09 Y53.22 E31.12007
G1 X170.813 Y54.426 E31.16535
G1 X170.458 Y55.611 E31.2106
G1 X170.027 Y56.771 E31.25588
G1 X169.522 Y57.901 E31.30116
G1 X168.945 Y58.995 E31.34641
G1 X168.299 Y60.05 E31.39167
G1 X167.586 Y61.061 E31.43693
G1 X166.809 Y62.024 E31.4822
G1 X165.843 Y63.065 E31.53416
G1 X165.714 Y63.194 E31.54084
G1 X164.811 Y64.04 E31.58611
G1 X163.856 Y64.826 E31.63136
G1 X162.852 Y65.549 E31.67663
G1 X161.803 Y66.205 E31.72189
G1 X160.714 Y66.792 E31.76715
G1 X159.589 Y67.308 E31.81244
G1 X158.433 Y67.75 E31.85772
G1 X157.251 Y68.116 E31.90299
G1 X156.048 Y68.405 E31.94825
G1 X154.829 Y68.616 E31.99351
G1 X153.599 Y68.747 E32.03877
G1 X152.18 Y68.8 E32.09072
G1 X108.362 Y68.8 E33.69385
G1 X107.125 Y68.76 E33.73913
G1 X105.894 Y68.64 E33.78438
G1 X104.673 Y68.441 E33.82965
G1 X104.264 Y68.347 E33.845
G1 X104.022 Y68.405 E33.8541
G1 X102.803 Y68.616 E33.89937
G1 X101.573 Y68.747 E33.94462
G1 X100.154 Y68.8 E33.99657
G1 X64.438 Y68.8 E35.30328
G1 X63.201 Y68.76 E35.34856
G1 X61.97 Y68.64 E35.39382
G1 X60.749 Y68.441 E35.43908
G1 X59.543 Y68.164 E35.48435
G1 X58.358 Y67.809 E35.52961
G1 X57.198 Y67.378 E35.57488
G1 X56.068 Y66.873 E35.62016
G1 X54.974 Y66.296 E35.66542
G1 X53.919 Y65.65 E35.71067
G1 X52.908 Y64.937 E35.75594
G1 X51.945 Y64.16 E35.80121
G1 X50.904 Y63.194 E35.85317
G1 X50.775 Y63.065 E35.85984
G1 X49.929 Y62.162 E35.90511
G1 X49.143 Y61.207 E35.95036
G1 X48.42 Y60.203 E35.99563
G1 X47.764 Y59.154 E36.04089
G1 X47.177 Y58.065 E36.08616
G1 X46.661 Y56.94 E36.13144
G1 X46.219 Y55.784 E36.17672
G1 X45.853 Y54.602 E36.22199
G1 X45.564 Y53.399 E36.26725
G1 X45.353 Y52.18 E36.31252
G1 X45.222 Y50.95 E36.35777
G1 X45.169 Y49.531 E36.40972
G1 X45.169 Y47.789 E36.47346
G1 X45.209 Y46.552 E36.51874
G1 X45.329 Y45.321 E36.56399
G1 X45.528 Y44.1 E36.60925
G1 X45.805 Y42.894 E36.65452
G1 X46.16 Y41.709 E36.69978
G1 X46.591 Y40.549 E36.74505
G1 X47.096 Y39.419 E36.79034
G1 X47.673 Y38.325 E36.83559
G1 X48.319 Y37.27 E36.88085
G1 X48.613 Y36.853 E36.89951
G0 F810 X49.032 Y36.259
G0 F2400 X49.469 Y36.411
G1 F6000 E36.92611
G1 F900 X50.244 Y35.465 E36.97085
G1 X51.086 Y34.566 E37.01592
G1 X51.215 Y34.437 E37.02259
G1 X52.108 Y33.601 E37.06735
G1 X53.053 Y32.825 E37.11208
G1 X54.047 Y32.113 E37.15682
G1 X55.085 Y31.467 E37.20155
G1 X56.164 Y30.89 E37.24631
G1 X57.278 Y30.385 E37.29106
G1 X58.422 Y29.954 E37.33579
G1 X59.592 Y29.599 E37.38052
G1 X60.783 Y29.321 E37.42527
G1 X61.99 Y29.121 E37.47003
G1 X63.207 Y29.001 E37.51477
G1 X64.438 Y28.96 E37.55983
G1 X82.697 Y28.96 E38.22786
G1 X83.391 Y28.808 E38.25385
G1 X84.593 Y28.586 E38.29857
G1 X85.808 Y28.442 E38.34334
G1 X87.335 Y28.375 E38.39926
G1 X87.991 Y28.373 E38.42326
G1 X89.213 Y28.409 E38.46799
G1 X90.431 Y28.525 E38.51275
G1 X91.161 Y28.634 E38.53975
G1 X91.86 Y28.752 E38.56569
G1 X92.885 Y28.96 E38.60395
G1 X100.154 Y28.96 E38.8699
G1 X101.376 Y29 E38.91463
G1 X102.593 Y29.12 E38.95937
G1 X103.8 Y29.319 E39.00413
G1 X104.259 Y29.426 E39.02137
G1 X104.707 Y29.321 E39.03821
G1 X105.914 Y29.121 E39.08297
G1 X107.131 Y29.001 E39.12771
G1 X108.362 Y28.96 E39.17277
G1 X131.609 Y28.96 E40.02329
G1 X131.609 Y26.786 E40.10283
G1 X131.649 Y25.564 E40.14756
G1 X131.769 Y24.347 E40.1923
G1 X131.968 Y23.14 E40.23706
G1 X132.246 Y21.949 E40.2818
G1 X132.601 Y20.779 E40.32654
G1 X133.032 Y19.634 E40.3713
G1 X133.536 Y18.52 E40.41603
