;FLAVOR:Marlin
;TIME:5634
;Filament used: 4.56081m
;Layer height: 0.2
;Generated with Cura_SteamEngine 3.6.0
M140 S70
M105
M190 S70
M104 S210
M105
M109 S210
M82 ;absolute extrusion mode
G28 ; home all axes
M117 Purge extruder
G92 E0 ; reset extruder
G1 Z1.0 F3000 ; move z up little to prevent scratching of surface
G1 X0.1 Y20 Z0.3 F5000.0 ; move to start-line position G1 X0.1 Y200.0 Z0.3 F1500.0 E15 ; draw 1st line
G1 X0.4 Y200.0 Z0.3 F5000.0 ; move to side a little
G1 X0.4 Y20 Z0.3 F1500.0 E30 ; draw 2nd line
G92 E0 ; reset extruder
G1 Z1.0 F3000 ; move z up little to prevent scratching of surface
M117 All systems go!
G92 E0
G1 F6000 E-5
;LAYER_COUNT:286
;LAYER:0
M107
M204 S5000
M205 X30 Y30
G0 F7200 X67.993 Y97.861 Z0.2
M204 S500
M205 X20 Y20
;TYPE:SKIRT
G1 F6000 E0
G1 F900 X68.747 Y97.387 E0.03258
G1 X69.54 Y96.984 E0.06513
G1 X70.366 Y96.653 E0.09768
G1 X71.218 Y96.398 E0.13022
G1 X72.09 Y96.22 E0.16278
G1 X72.974 Y96.122 E0.19532
G1 X73.629 Y96.1 E0.2193
G1 X75.371 Y96.1 E0.28303
G1 X76.26 Y96.14 E0.31559
G1 X77.141 Y96.26 E0.34812
G1 X78.009 Y96.458 E0.38069
G1 X78.855 Y96.733 E0.41324
G1 X79.673 Y97.083 E0.44579
G1 X80.456 Y97.506 E0.47835
G1 X81.198 Y97.996 E0.51088
G1 X81.893 Y98.552 E0.54345
G1 X82.371 Y99 E0.56742
G1 X82.5 Y99.129 E0.57409
G1 X83.101 Y99.785 E0.60664
G1 X83.639 Y100.493 E0.63917
G1 X84.113 Y101.247 E0.67176
G1 X84.516 Y102.04 E0.7043
G1 X84.847 Y102.866 E0.73686
G1 X85.102 Y103.718 E0.7694
G1 X85.28 Y104.59 E0.80196
G1 X85.378 Y105.474 E0.8345
G1 X85.4 Y106.117 E0.85804
G1 X85.414 Y117.081 E1.25917
G1 X86.719 Y117.082 E1.30691
G1 X86.676 Y116.44 E1.33045
G1 X86.676 Y109.576 E1.58158
G1 X86.716 Y108.687 E1.61414
G1 X86.836 Y107.806 E1.64667
G1 X87.034 Y106.938 E1.67924
G1 X87.309 Y106.092 E1.71179
G1 X87.659 Y105.274 E1.74434
G1 X88.082 Y104.491 E1.7769
G1 X88.572 Y103.749 E1.80943
G1 X89.128 Y103.054 E1.84199
G1 X89.576 Y102.576 E1.86596
G1 X89.822 Y102.33 E1.87869
G1 X90.478 Y101.729 E1.91124
G1 X91.186 Y101.191 E1.94377
G1 X91.94 Y100.717 E1.97636
G1 X92.733 Y100.314 E2.0089
G1 X93.559 Y99.983 E2.04146
G1 X94.411 Y99.728 E2.074
G1 X95.283 Y99.55 E2.10656
G1 X96.167 Y99.452 E2.1391
G1 X96.822 Y99.43 E2.16307
G1 X101.026 Y99.43 E2.31688
G1 X101.915 Y99.47 E2.34944
G1 X102.796 Y99.59 E2.38197
G1 X103.664 Y99.788 E2.41454
G1 X104.51 Y100.063 E2.44709
G1 X105.328 Y100.413 E2.47964
G1 X106.111 Y100.836 E2.5122
G1 X106.853 Y101.326 E2.54473
G1 X107.548 Y101.882 E2.5773
G1 X108.026 Y102.33 E2.60126
G1 X108.272 Y102.576 E2.61399
G1 X108.873 Y103.232 E2.64654
G1 X109.411 Y103.94 E2.67908
G1 X109.885 Y104.694 E2.71166
G1 X110.288 Y105.487 E2.7442
G1 X110.619 Y106.313 E2.77676
G1 X110.874 Y107.165 E2.8093
G1 X111.052 Y108.037 E2.84186
G1 X111.15 Y108.921 E2.8744
G1 X111.172 Y109.576 E2.89838
G1 X111.172 Y116.44 E3.1495
G1 X111.142 Y117.1 E3.17368
G1 X111.352 Y117.1 E3.18136
G1 X112.241 Y117.141 E3.21392
G1 X113.123 Y117.261 E3.24649
G1 X113.99 Y117.46 E3.27903
G1 X114.836 Y117.736 E3.31159
G1 X115.441 Y117.996 E3.33568
G1 X115.464 Y117.984 E3.33663
G1 X116.29 Y117.653 E3.36919
G1 X117.142 Y117.398 E3.40172
G1 X118.014 Y117.22 E3.43428
G1 X118.898 Y117.122 E3.46682
G1 X119.553 Y117.1 E3.4908
G1 X144.72 Y117.1 E4.41157
G1 X144.676 Y116.44 E4.43577
G1 X144.676 Y109.576 E4.68689
G1 X144.716 Y108.687 E4.71945
G1 X144.836 Y107.806 E4.75198
G1 X145.034 Y106.938 E4.78455
G1 X145.309 Y106.092 E4.8171
G1 X145.659 Y105.274 E4.84965
G1 X146.082 Y104.491 E4.88221
G1 X146.572 Y103.749 E4.91474
G1 X147.128 Y103.054 E4.94731
G1 X147.576 Y102.576 E4.97128
G1 X147.822 Y102.33 E4.984
G1 X148.478 Y101.729 E5.01655
G1 X149.186 Y101.191 E5.04909
G1 X149.94 Y100.717 E5.08167
G1 X150.733 Y100.314 E5.11421
G1 X151.559 Y99.983 E5.14677
G1 X152.411 Y99.728 E5.17931
G1 X153.283 Y99.55 E5.21187
G1 X154.167 Y99.452 E5.24441
G1 X154.822 Y99.43 E5.26839
G1 X159.026 Y99.43 E5.4222
G1 X159.915 Y99.47 E5.45475
G1 X160.796 Y99.59 E5.48728
G1 X161.664 Y99.788 E5.51986
G1 X162.51 Y100.063 E5.5524
G1 X163.328 Y100.413 E5.58495
G1 X164.111 Y100.836 E5.61751
G1 X164.853 Y101.326 E5.65005
G1 X165.548 Y101.882 E5.68261
G1 X166.026 Y102.33 E5.70658
G1 X166.272 Y102.576 E5.71931
G1 X166.873 Y103.232 E5.75186
G1 X167.411 Y103.94 E5.78439
G1 X167.885 Y104.694 E5.81697
G1 X168.288 Y105.487 E5.84952
G1 X168.619 Y106.313 E5.88207
G1 X168.874 Y107.165 E5.91461
G1 X169.052 Y108.037 E5.94717
G1 X169.15 Y108.921 E5.97971
G1 X169.172 Y109.576 E6.00369
G1 X169.172 Y116.44 E6.25482
G1 X169.132 Y117.329 E6.28738
G1 X169.012 Y118.21 E6.31991
G1 X168.814 Y119.078 E6.35248
G1 X168.539 Y119.924 E6.38502
G1 X168.466 Y120.095 E6.39183
G1 X168.5 Y120.129 E6.39359
G1 X169.101 Y120.785 E6.42614
G1 X169.639 Y121.493 E6.45867
G1 X170.113 Y122.247 E6.49125
G1 X170.516 Y123.04 E6.5238
G1 X170.847 Y123.866 E6.55635
G1 X171.102 Y124.718 E6.58889
G1 X171.28 Y125.59 E6.62145
G1 X171.378 Y126.474 E6.65399
G1 X171.4 Y127.129 E6.67797
G1 X171.4 Y128.871 E6.7417
G1 X171.36 Y129.76 E6.77426
G1 X171.24 Y130.641 E6.80679
G1 X171.042 Y131.509 E6.83936
G1 X170.767 Y132.355 E6.87191
G1 X170.417 Y133.173 E6.90446
G1 X169.994 Y133.956 E6.93702
G1 X169.504 Y134.698 E6.96955
G1 X168.948 Y135.393 E7.00212
G1 X168.5 Y135.871 E7.02608
G1 X168.371 Y136 E7.03276
G1 X167.715 Y136.601 E7.06531
G1 X167.007 Y137.139 E7.09784
G1 X166.253 Y137.613 E7.13043
G1 X165.46 Y138.016 E7.16297
G1 X164.634 Y138.347 E7.19553
G1 X163.782 Y138.602 E7.22806
G1 X162.91 Y138.78 E7.26063
G1 X162.026 Y138.878 E7.29317
G1 X161.371 Y138.9 E7.31714
G1 X119.553 Y138.9 E8.8471
G1 X118.664 Y138.86 E8.87966
G1 X117.783 Y138.74 E8.91219
G1 X116.915 Y138.542 E8.94476
G1 X116.069 Y138.267 E8.97731
G1 X115.456 Y138.005 E9.0017
G1 X115.434 Y138.016 E9.0026
G1 X114.608 Y138.347 E9.03516
G1 X113.756 Y138.602 E9.06769
G1 X112.884 Y138.78 E9.10025
G1 X112 Y138.878 E9.13279
G1 X111.345 Y138.9 E9.15677
G1 X73.629 Y138.9 E10.53666
G1 X72.74 Y138.86 E10.56921
G1 X71.859 Y138.74 E10.60174
G1 X70.991 Y138.542 E10.63432
G1 X70.145 Y138.267 E10.66686
G1 X69.327 Y137.917 E10.69941
G1 X68.544 Y137.494 E10.73197
G1 X67.802 Y137.004 E10.76451
G1 X67.107 Y136.448 E10.79707
G1 X66.629 Y136 E10.82104
G1 X66.5 Y135.871 E10.82771
G1 X65.899 Y135.215 E10.86026
G1 X65.361 Y134.507 E10.8928
G1 X64.887 Y133.753 E10.92538
G1 X64.484 Y132.96 E10.95792
G1 X64.153 Y132.134 E10.99048
G1 X63.898 Y131.282 E11.02302
G1 X63.72 Y130.41 E11.05558
G1 X63.622 Y129.526 E11.08812
G1 X63.6 Y128.871 E11.1121
G1 X63.6 Y106.129 E11.94414
G1 X63.64 Y105.24 E11.9767
G1 X63.76 Y104.359 E12.00923
G1 X63.958 Y103.491 E12.0418
G1 X64.233 Y102.645 E12.07435
G1 X64.583 Y101.827 E12.1069
G1 X65.006 Y101.044 E12.13946
G1 X65.496 Y100.302 E12.17199
G1 X66.052 Y99.607 E12.20455
G1 X66.5 Y99.129 E12.22852
G1 X66.629 Y99 E12.2352
G1 X67.285 Y98.399 E12.26775
G1 X67.415 Y98.3 E12.27372
G0 F810 X67.993 Y97.861
M204 S5000
M205 X30 Y30
G0 F7200 X68.276 Y98.2
M204 S500
M205 X20 Y20
G1 F6000 E12.30032
G1 F900 X69.015 Y97.741 E12.33215
G1 X69.793 Y97.353 E12.36396
G1 X70.603 Y97.037 E12.39577
G1 X71.439 Y96.797 E12.42759
G1 X72.294 Y96.635 E12.45943
G1 X73.159 Y96.552 E12.49122
G1 X73.629 Y96.54 E12.50842
G1 X75.371 Y96.54 E12.57215
G1 X76.24 Y96.58 E12.60398
G1 X77.101 Y96.7 E12.63578
G1 X77.948 Y96.898 E12.66761
G1 X78.773 Y97.173 E12.69943
G1 X79.569 Y97.523 E12.73124
G1 X80.33 Y97.944 E12.76306
G1 X81.049 Y98.434 E12.79489
G1 X81.72 Y98.987 E12.8267
G1 X82.06 Y99.311 E12.84389
G1 X82.189 Y99.44 E12.85056
G1 X82.775 Y100.082 E12.88236
G1 X83.3 Y100.776 E12.9142
G1 X83.759 Y101.515 E12.94603
G1 X84.147 Y102.293 E12.97783
G1 X84.463 Y103.103 E13.00964
G1 X84.703 Y103.939 E13.04147
G1 X84.865 Y104.794 E13.0733
G1 X84.948 Y105.659 E13.1051
G1 X84.96 Y106.117 E13.12186
G1 X84.974 Y117.521 E13.53909
G1 X87.184 Y117.522 E13.61994
G1 X87.163 Y117.378 E13.62527
G1 X87.116 Y116.44 E13.65963
G1 X87.116 Y109.576 E13.91075
G1 X87.156 Y108.707 E13.94258
G1 X87.276 Y107.846 E13.97439
G1 X87.474 Y106.999 E14.00621
G1 X87.749 Y106.174 E14.03803
G1 X88.099 Y105.378 E14.06984
G1 X88.52 Y104.617 E14.10166
G1 X89.01 Y103.898 E14.13349
G1 X89.563 Y103.227 E14.1653
G1 X89.887 Y102.887 E14.18249
G1 X90.133 Y102.641 E14.19522
G1 X90.775 Y102.055 E14.22702
G1 X91.469 Y101.53 E14.25886
G1 X92.208 Y101.071 E14.29068
G1 X92.986 Y100.683 E14.32249
G1 X93.796 Y100.367 E14.3543
G1 X94.632 Y100.127 E14.38612
G1 X95.487 Y99.965 E14.41796
G1 X96.352 Y99.882 E14.44975
G1 X96.822 Y99.87 E14.46695
G1 X101.026 Y99.87 E14.62076
G1 X101.895 Y99.91 E14.65259
G1 X102.756 Y100.03 E14.68439
G1 X103.603 Y100.228 E14.71622
G1 X104.428 Y100.503 E14.74803
G1 X105.224 Y100.853 E14.77985
G1 X105.985 Y101.274 E14.81167
G1 X106.704 Y101.764 E14.8435
G1 X107.375 Y102.317 E14.87531
G1 X107.715 Y102.641 E14.89249
G1 X107.961 Y102.887 E14.90522
G1 X108.547 Y103.529 E14.93702
G1 X109.072 Y104.223 E14.96886
G1 X109.531 Y104.962 E15.00069
G1 X109.919 Y105.74 E15.0325
G1 X110.235 Y106.55 E15.06431
G1 X110.475 Y107.386 E15.09613
G1 X110.637 Y108.241 E15.12797
G1 X110.72 Y109.106 E15.15976
G1 X110.732 Y109.576 E15.17696
G1 X110.732 Y116.44 E15.42809
G1 X110.692 Y117.309 E15.45991
G1 X110.66 Y117.539 E15.46841
G1 X111.352 Y117.54 E15.49373
G1 X112.221 Y117.581 E15.52556
G1 X113.082 Y117.701 E15.55736
G1 X113.929 Y117.9 E15.58919
G1 X114.754 Y118.175 E15.62101
G1 X115.455 Y118.484 E15.64904
G1 X115.717 Y118.353 E15.65975
G1 X116.527 Y118.037 E15.69156
G1 X117.363 Y117.797 E15.72339
G1 X118.218 Y117.635 E15.75522
G1 X119.083 Y117.552 E15.78702
G1 X119.553 Y117.54 E15.80422
G1 X145.187 Y117.54 E16.74207
G1 X145.163 Y117.378 E16.74806
G1 X145.116 Y116.44 E16.78242
G1 X145.116 Y109.576 E17.03355
G1 X145.156 Y108.707 E17.06537
G1 X145.276 Y107.846 E17.09718
G1 X145.474 Y106.999 E17.129
G1 X145.749 Y106.174 E17.16082
G1 X146.099 Y105.378 E17.19263
G1 X146.52 Y104.617 E17.22445
G1 X147.01 Y103.898 E17.25628
G1 X147.563 Y103.227 E17.2881
G1 X147.887 Y102.887 E17.30528
G1 X148.133 Y102.641 E17.31801
G1 X148.775 Y102.055 E17.34981
G1 X149.469 Y101.53 E17.38165
G1 X150.208 Y101.071 E17.41347
G1 X150.986 Y100.683 E17.44528
G1 X151.796 Y100.367 E17.47709
G1 X152.632 Y100.127 E17.50891
G1 X153.487 Y99.965 E17.54075
G1 X154.352 Y99.882 E17.57254
G1 X154.822 Y99.87 E17.58974
G1 X159.026 Y99.87 E17.74355
G1 X159.895 Y99.91 E17.77538
G1 X160.756 Y100.03 E17.80719
G1 X161.603 Y100.228 E17.83901
G1 X162.428 Y100.503 E17.87083
G1 X163.224 Y100.853 E17.90264
G1 X163.985 Y101.274 E17.93446
G1 X164.704 Y101.764 E17.96629
G1 X165.375 Y102.317 E17.9981
G1 X165.715 Y102.641 E18.01529
G1 X165.961 Y102.887 E18.02801
G1 X166.547 Y103.529 E18.05982
G1 X167.072 Y104.223 E18.09165
G1 X167.531 Y104.962 E18.12348
G1 X167.919 Y105.74 E18.15529
G1 X168.235 Y106.55 E18.1871
G1 X168.475 Y107.386 E18.21892
G1 X168.637 Y108.241 E18.25076
G1 X168.72 Y109.106 E18.28255
G1 X168.732 Y109.576 E18.29975
G1 X168.732 Y116.44 E18.55088
G1 X168.692 Y117.309 E18.58271
G1 X168.572 Y118.17 E18.61451
G1 X168.374 Y119.017 E18.64633
G1 X168.099 Y119.842 E18.67815
G1 X167.942 Y120.199 E18.69242
G1 X168.06 Y120.311 E18.69837
G1 X168.189 Y120.44 E18.70505
G1 X168.775 Y121.082 E18.73685
G1 X169.3 Y121.776 E18.76869
G1 X169.759 Y122.515 E18.80051
G1 X170.147 Y123.293 E18.83232
G1 X170.463 Y124.103 E18.86413
G1 X170.703 Y124.939 E18.89595
G1 X170.865 Y125.794 E18.92779
G1 X170.948 Y126.659 E18.95958
G1 X170.96 Y127.129 E18.97678
G1 X170.96 Y128.871 E19.04052
G1 X170.92 Y129.74 E19.07234
G1 X170.8 Y130.601 E19.10415
G1 X170.602 Y131.448 E19.13597
G1 X170.327 Y132.273 E19.16779
G1 X169.977 Y133.069 E19.1996
G1 X169.556 Y133.83 E19.23142
G1 X169.066 Y134.549 E19.26325
G1 X168.513 Y135.22 E19.29507
G1 X168.189 Y135.56 E19.31225
G1 X168.06 Y135.689 E19.31892
G1 X167.418 Y136.275 E19.35073
G1 X166.724 Y136.8 E19.38256
G1 X165.985 Y137.259 E19.41439
G1 X165.207 Y137.647 E19.4462
G1 X164.397 Y137.963 E19.47801
G1 X163.561 Y138.203 E19.50983
G1 X162.706 Y138.365 E19.54167
G1 X161.841 Y138.448 E19.57346
G1 X161.371 Y138.46 E19.59066
G1 X119.553 Y138.46 E21.12062
G1 X118.684 Y138.42 E21.15245
G1 X117.823 Y138.3 E21.18425
G1 X116.976 Y138.102 E21.21608
G1 X116.151 Y137.827 E21.24789
G1 X115.444 Y137.516 E21.27615
G1 X115.181 Y137.647 E21.2869
G1 X114.371 Y137.963 E21.31871
G1 X113.535 Y138.203 E21.35053
G1 X112.68 Y138.365 E21.38237
G1 X111.815 Y138.448 E21.41416
G1 X111.345 Y138.46 E21.43136
G1 X73.629 Y138.46 E22.81125
G1 X72.76 Y138.42 E22.84307
G1 X71.899 Y138.3 E22.87488
G1 X71.052 Y138.102 E22.9067
G1 X70.227 Y137.827 E22.93852
G1 X69.431 Y137.477 E22.97033
G1 X68.67 Y137.056 E23.00215
G1 X67.951 Y136.566 E23.03399
G1 X67.28 Y136.013 E23.0658
G1 X66.94 Y135.689 E23.08298
G1 X66.811 Y135.56 E23.08965
G1 X66.225 Y134.918 E23.12146
G1 X65.7 Y134.224 E23.15329
G1 X65.241 Y133.485 E23.18512
G1 X64.853 Y132.707 E23.21693
G1 X64.537 Y131.897 E23.24874
G1 X64.297 Y131.061 E23.28056
G1 X64.135 Y130.206 E23.3124
G1 X64.052 Y129.341 E23.34419
G1 X64.04 Y128.871 E23.36139
G1 X64.04 Y106.129 E24.19343
G1 X64.08 Y105.26 E24.22526
G1 X64.2 Y104.399 E24.25707
G1 X64.398 Y103.552 E24.28889
G1 X64.673 Y102.727 E24.32071
G1 X65.023 Y101.931 E24.35252
G1 X65.444 Y101.17 E24.38434
G1 X65.934 Y100.451 E24.41617
G1 X66.487 Y99.78 E24.44798
G1 X66.811 Y99.44 E24.46517
G1 X66.94 Y99.311 E24.47184
G1 X67.582 Y98.725 E24.50364
G1 X67.697 Y98.638 E24.50892
G0 F810 X68.276 Y98.2
M204 S5000
M205 X30 Y30
G0 F7200 X68.558 Y98.54
M204 S500
M205 X20 Y20
G1 F6000 E24.53552
G1 F900 X69.282 Y98.097 E24.56657
G1 X70.045 Y97.723 E24.59766
G1 X70.839 Y97.422 E24.62873
G1 X71.658 Y97.198 E24.65979
G1 X72.495 Y97.052 E24.69088
G1 X73.629 Y96.98 E24.73245
G1 X75.371 Y96.98 E24.79618
G1 X76.219 Y97.02 E24.82724
G1 X77.06 Y97.14 E24.85832
G1 X77.886 Y97.338 E24.8894
G1 X78.689 Y97.613 E24.92045
G1 X79.463 Y97.962 E24.95151
G1 X80.201 Y98.382 E24.98258
G1 X80.896 Y98.87 E25.01365
G1 X81.749 Y99.622 E25.05525
G1 X81.878 Y99.751 E25.06193
G1 X82.45 Y100.379 E25.09301
G1 X82.96 Y101.058 E25.12408
G1 X83.403 Y101.782 E25.15513
G1 X83.777 Y102.545 E25.18622
G1 X84.078 Y103.339 E25.21728
G1 X84.302 Y104.158 E25.24835
G1 X84.448 Y104.995 E25.27943
G1 X84.52 Y106.118 E25.3206
G1 X84.535 Y117.96 E25.75386
G1 X87.69 Y117.963 E25.86929
G1 X87.668 Y117.859 E25.87318
G1 X87.574 Y117.015 E25.90425
G1 X87.556 Y116.44 E25.92529
G1 X87.556 Y109.576 E26.17642
G1 X87.596 Y108.728 E26.20748
G1 X87.716 Y107.887 E26.23856
G1 X87.914 Y107.061 E26.26964
G1 X88.189 Y106.258 E26.30069
G1 X88.538 Y105.484 E26.33175
G1 X88.958 Y104.746 E26.36282
G1 X89.446 Y104.051 E26.39389
G1 X90.198 Y103.198 E26.4355
G1 X90.444 Y102.952 E26.44822
G1 X91.072 Y102.38 E26.4793
G1 X91.751 Y101.87 E26.51037
G1 X92.475 Y101.427 E26.54142
G1 X93.238 Y101.053 E26.57251
G1 X94.032 Y100.752 E26.60358
G1 X94.851 Y100.528 E26.63464
G1 X95.688 Y100.382 E26.66573
G1 X96.822 Y100.31 E26.7073
G1 X101.026 Y100.31 E26.86111
G1 X101.874 Y100.35 E26.89217
G1 X102.715 Y100.47 E26.92325
G1 X103.541 Y100.668 E26.95433
G1 X104.344 Y100.943 E26.98538
G1 X105.118 Y101.292 E27.01644
G1 X105.856 Y101.712 E27.04751
G1 X106.551 Y102.2 E27.07858
G1 X107.404 Y102.952 E27.12018
G1 X107.65 Y103.198 E27.13291
G1 X108.222 Y103.826 E27.16399
G1 X108.732 Y104.505 E27.19506
G1 X109.175 Y105.229 E27.22611
G1 X109.549 Y105.992 E27.2572
G1 X109.85 Y106.786 E27.28827
G1 X110.074 Y107.605 E27.31933
G1 X110.22 Y108.442 E27.35042
G1 X110.292 Y109.576 E27.39199
G1 X110.292 Y116.44 E27.64312
G1 X110.252 Y117.288 E27.67418
G1 X110.153 Y117.979 E27.69971
G1 X111.352 Y117.98 E27.74358
G1 X112.2 Y118.021 E27.77464
G1 X113.041 Y118.141 E27.80572
G1 X113.866 Y118.34 E27.83677
G1 X114.67 Y118.615 E27.86786
G1 X115.443 Y118.965 E27.89891
G1 X115.458 Y118.974 E27.89955
G1 X115.969 Y118.723 E27.92038
G1 X116.763 Y118.422 E27.95144
G1 X117.582 Y118.198 E27.98251
G1 X118.419 Y118.052 E28.01359
G1 X119.553 Y117.98 E28.05516
G1 X145.693 Y117.98 E29.01153
G1 X145.668 Y117.859 E29.01605
G1 X145.574 Y117.015 E29.04712
G1 X145.556 Y116.44 E29.06816
G1 X145.556 Y109.576 E29.31929
G1 X145.596 Y108.728 E29.35035
G1 X145.716 Y107.887 E29.38143
G1 X145.914 Y107.061 E29.41251
G1 X146.189 Y106.258 E29.44356
G1 X146.538 Y105.484 E29.47462
