;FLAVOR:RepRap
;TIME:9122
;Generated with Cura_SteamEngine 2.3.1
M190 S70
M104 S200
M109 S200
G28 ;Home
G1 Z15.0 F6000 ;Move the platform down 15mm
;Prime the extruder
G92 E0
G1 F200 E3
G92 E0
;LAYER_COUNT:76
;LAYER:0
M107
G1 F4200 E-5
G0 F1800 X9.047 Y99.152 Z.149
G0 X9.5 Y99.125
;TYPE:SKIRT
G1 F4200 E0
G1 F1200 X210.5 Y99.125 E5.47859
G1 X211.05 Y99.165 E5.49362
G1 X211.588 Y99.284 E5.50864
G1 X212.103 Y99.48 E5.52366
G1 X212.584 Y99.748 E5.53867
G1 X213.022 Y100.082 E5.55368
G1 X213.406 Y100.477 E5.5687
G1 X213.73 Y100.923 E5.58372
G1 X213.985 Y101.411 E5.59873
G1 X214.168 Y101.931 E5.61376
G1 X214.273 Y102.472 E5.62878
G1 X214.3 Y102.925 E5.64115
G1 X214.3 Y116.952 E6.02348
G1 X214.26 Y117.502 E6.03851
G1 X214.141 Y118.04 E6.05353
G1 X213.945 Y118.555 E6.06855
G1 X213.677 Y119.036 E6.08355
G1 X213.343 Y119.474 E6.09857
G1 X212.948 Y119.858 E6.11358
G1 X212.502 Y120.182 E6.12861
G1 X212.014 Y120.437 E6.14362
G1 X211.494 Y120.62 E6.15864
G1 X210.953 Y120.725 E6.17366
G1 X210.5 Y120.752 E6.18603
G1 X9.5 Y120.752 E11.66462
G1 X8.95 Y120.712 E11.67966
G1 X8.412 Y120.593 E11.69467
G1 X7.897 Y120.397 E11.70969
G1 X7.416 Y120.129 E11.7247
G1 X6.978 Y119.795 E11.73972
G1 X6.594 Y119.4 E11.75473
G1 X6.27 Y118.954 E11.76976
G1 X6.015 Y118.466 E11.78476
G1 X5.832 Y117.946 E11.79979
G1 X5.727 Y117.405 E11.81481
G1 X5.7 Y116.952 E11.82718
G1 X5.7 Y102.925 E12.20951
G1 X5.74 Y102.375 E12.22454
G1 X5.859 Y101.837 E12.23956
G1 X6.055 Y101.322 E12.25458
G1 X6.323 Y100.841 E12.26959
G1 X6.657 Y100.403 E12.2846
G1 X7.052 Y100.019 E12.29962
G1 X7.498 Y99.695 E12.31464
G1 X7.986 Y99.44 E12.32965
G1 X8.506 Y99.257 E12.34467
G1 X9.047 Y99.152 E12.3597
G1 X9.5 Y99.125 E12.37206
G0 F1800 X9.5 Y99.525
G1 F1200 X210.5 Y99.525 E17.85066
G1 X211.02 Y99.565 E17.86487
G1 X211.527 Y99.684 E17.87907
G1 X212.01 Y99.879 E17.89326
G1 X212.458 Y100.145 E17.90747
G1 X212.86 Y100.477 E17.92168
G1 X213.206 Y100.867 E17.93589
G1 X213.489 Y101.305 E17.9501
G1 X213.702 Y101.78 E17.96429
G1 X213.839 Y102.283 E17.9785
G1 X213.9 Y102.925 E17.99608
G1 X213.9 Y116.952 E18.37841
G1 X213.86 Y117.472 E18.39262
G1 X213.741 Y117.979 E18.40682
G1 X213.546 Y118.462 E18.42101
G1 X213.28 Y118.91 E18.43521
G1 X212.948 Y119.312 E18.44943
G1 X212.558 Y119.658 E18.46364
G1 X212.12 Y119.941 E18.47785
G1 X211.645 Y120.154 E18.49204
G1 X211.142 Y120.291 E18.50625
G1 X210.5 Y120.352 E18.52383
G1 X9.5 Y120.352 E24.00242
G1 X8.98 Y120.312 E24.01663
G1 X8.473 Y120.193 E24.03083
G1 X7.99 Y119.998 E24.04503
G1 X7.542 Y119.732 E24.05923
G1 X7.14 Y119.4 E24.07344
G1 X6.794 Y119.01 E24.08765
G1 X6.511 Y118.572 E24.10186
G1 X6.298 Y118.097 E24.11605
G1 X6.161 Y117.594 E24.13026
G1 X6.1 Y116.952 E24.14784
G1 X6.1 Y102.925 E24.53017
G1 X6.14 Y102.405 E24.54438
G1 X6.259 Y101.898 E24.55858
G1 X6.454 Y101.415 E24.57278
G1 X6.72 Y100.967 E24.58698
G1 X7.052 Y100.565 E24.60119
G1 X7.442 Y100.219 E24.6154
G1 X7.88 Y99.936 E24.62961
G1 X8.355 Y99.723 E24.6438
G1 X8.858 Y99.586 E24.65801
G1 X9.5 Y99.525 E24.67559
G0 F1800 X9.5 Y99.925
G1 F1200 X210.5 Y99.925 E30.15418
G1 X210.988 Y99.965 E30.16753
G1 X211.463 Y100.084 E30.18087
G1 X211.912 Y100.278 E30.19421
G1 X212.324 Y100.543 E30.20756
G1 X212.687 Y100.871 E30.22089
G1 X212.992 Y101.254 E30.23424
G1 X213.23 Y101.682 E30.24759
G1 X213.396 Y102.142 E30.26092
G1 X213.485 Y102.623 E30.27425
G1 X213.5 Y102.925 E30.28249
G1 X213.5 Y116.952 E30.66482
G1 X213.46 Y117.44 E30.67817
G1 X213.341 Y117.915 E30.69151
G1 X213.147 Y118.364 E30.70484
G1 X212.882 Y118.776 E30.7182
G1 X212.554 Y119.139 E30.73153
G1 X212.171 Y119.444 E30.74488
G1 X211.743 Y119.682 E30.75822
G1 X211.283 Y119.848 E30.77155
G1 X210.802 Y119.937 E30.78489
G1 X210.5 Y119.952 E30.79313
G1 X9.5 Y119.952 E36.27172
G1 X9.012 Y119.912 E36.28507
G1 X8.537 Y119.793 E36.29841
G1 X8.088 Y119.599 E36.31175
G1 X7.676 Y119.334 E36.3251
G1 X7.313 Y119.006 E36.33843
G1 X7.008 Y118.623 E36.35178
G1 X6.77 Y118.195 E36.36513
G1 X6.604 Y117.735 E36.37846
G1 X6.515 Y117.254 E36.39179
G1 X6.5 Y116.952 E36.40003
G1 X6.5 Y102.925 E36.78236
G1 X6.54 Y102.437 E36.79571
G1 X6.659 Y101.962 E36.80905
G1 X6.853 Y101.513 E36.82238
G1 X7.118 Y101.101 E36.83574
G1 X7.446 Y100.738 E36.84907
G1 X7.829 Y100.433 E36.86242
G1 X8.257 Y100.195 E36.87577
G1 X8.717 Y100.029 E36.88909
G1 X9.198 Y99.94 E36.90243
G1 X9.5 Y99.925 E36.91067
G0 F1800 X9.5 Y100.325
G1 F1200 X210.5 Y100.325 E42.38926
G1 X210.954 Y100.365 E42.40168
G1 X211.394 Y100.483 E42.4141
G1 X211.806 Y100.677 E42.42651
G1 X212.179 Y100.94 E42.43895
G1 X212.5 Y101.263 E42.45137
G1 X212.759 Y101.638 E42.46379
G1 X212.949 Y102.052 E42.4762
G1 X213.064 Y102.493 E42.48863
G1 X213.1 Y102.925 E42.50044
G1 X213.1 Y116.952 E42.88277
G1 X213.06 Y117.406 E42.89519
G1 X212.942 Y117.846 E42.90761
G1 X212.748 Y118.258 E42.92002
G1 X212.485 Y118.631 E42.93246
G1 X212.162 Y118.952 E42.94487
G1 X211.787 Y119.211 E42.9573
G1 X211.373 Y119.401 E42.96971
G1 X210.932 Y119.516 E42.98213
G1 X210.5 Y119.552 E42.99395
G1 X9.5 Y119.552 E48.47254
G1 X9.046 Y119.512 E48.48497
G1 X8.606 Y119.394 E48.49738
G1 X8.194 Y119.2 E48.5098
G1 X7.821 Y118.937 E48.52223
G1 X7.5 Y118.614 E48.53465
G1 X7.241 Y118.239 E48.54707
G1 X7.051 Y117.825 E48.55949
G1 X6.936 Y117.384 E48.57191
G1 X6.9 Y116.952 E48.58372
G1 X6.9 Y102.925 E48.96605
G1 X6.94 Y102.471 E48.97847
G1 X7.058 Y102.031 E48.99089
G1 X7.252 Y101.619 E49.0033
G1 X7.515 Y101.246 E49.01574
G1 X7.838 Y100.925 E49.02816
G1 X8.213 Y100.666 E49.04058
G1 X8.627 Y100.476 E49.05299
G1 X9.068 Y100.361 E49.06542
G1 X9.5 Y100.325 E49.07723
G0 F1800 X9.5 Y100.725
G1 F1200 X210.5 Y100.725 E54.55582
G1 X210.917 Y100.765 E54.56724
G1 X211.319 Y100.883 E54.57866
G1 X211.691 Y101.076 E54.59009
G1 X212.02 Y101.335 E54.6015
G1 X212.294 Y101.652 E54.61292
G1 X212.503 Y102.015 E54.62434
G1 X212.639 Y102.412 E54.63577
G1 X212.7 Y102.925 E54.64986
G1 X212.7 Y116.952 E55.03218
G1 X212.66 Y117.369 E55.0436
G1 X212.542 Y117.771 E55.05502
G1 X212.349 Y118.143 E55.06645
G1 X212.09 Y118.472 E55.07786
G1 X211.773 Y118.746 E55.08928
G1 X211.41 Y118.955 E55.1007
G1 X211.013 Y119.091 E55.11213
G1 X210.5 Y119.152 E55.12621
G1 X9.5 Y119.152 E60.60481
G1 X9.083 Y119.112 E60.61623
G1 X8.681 Y118.994 E60.62765
G1 X8.309 Y118.801 E60.63907
G1 X7.98 Y118.542 E60.65048
G1 X7.706 Y118.225 E60.6619
G1 X7.497 Y117.862 E60.67332
G1 X7.361 Y117.465 E60.68476
G1 X7.3 Y116.952 E60.69884
G1 X7.3 Y102.925 E61.08117
G1 X7.34 Y102.508 E61.09259
G1 X7.458 Y102.106 E61.10401
G1 X7.651 Y101.734 E61.11543
G1 X7.91 Y101.405 E61.12684
G1 X8.227 Y101.131 E61.13826
G1 X8.59 Y100.922 E61.14968
G1 X8.987 Y100.786 E61.16112
G1 X9.5 Y100.725 E61.1752
G0 F1800 X9.5 Y101.125
G1 F1200 X210.5 Y101.125 E66.65379
G1 X210.877 Y101.165 E66.66412
G1 X211.237 Y101.283 E66.67445
G1 X211.564 Y101.473 E66.68476
G1 X211.845 Y101.728 E66.6951
G1 X212.065 Y102.037 E66.70544
G1 X212.217 Y102.384 E66.71577
G1 X212.3 Y102.925 E66.73068
G1 X212.3 Y116.952 E67.11301
G1 X212.26 Y117.329 E67.12335
G1 X212.142 Y117.689 E67.13367
G1 X211.952 Y118.016 E67.14398
G1 X211.697 Y118.297 E67.15432
G1 X211.388 Y118.517 E67.16466
G1 X211.041 Y118.669 E67.17499
G1 X210.5 Y118.752 E67.18991
G1 X9.5 Y118.752 E72.6685
G1 X9.123 Y118.712 E72.67883
G1 X8.763 Y118.594 E72.68916
G1 X8.436 Y118.404 E72.69947
G1 X8.155 Y118.149 E72.70981
G1 X7.935 Y117.84 E72.72015
G1 X7.783 Y117.493 E72.73047
G1 X7.7 Y116.952 E72.74539
G1 X7.7 Y102.925 E73.12772
G1 X7.74 Y102.548 E73.13806
G1 X7.858 Y102.188 E73.14838
G1 X8.048 Y101.861 E73.15869
G1 X8.303 Y101.58 E73.16903
G1 X8.612 Y101.36 E73.17937
G1 X8.959 Y101.208 E73.1897
G1 X9.5 Y101.125 E73.20462
G0 F1800 X9.5 Y101.525
G1 F1200 X210.5 Y101.525 E78.68321
G1 X210.832 Y101.565 E78.69232
G1 X211.144 Y101.682 E78.70141
G1 X211.421 Y101.87 E78.71053
G1 X211.644 Y102.118 E78.71962
G1 X211.803 Y102.412 E78.72873
G1 X211.887 Y102.736 E78.73785
G1 X211.9 Y102.925 E78.74302
G1 X211.9 Y116.952 E79.12535
G1 X211.86 Y117.284 E79.13446
G1 X211.743 Y117.596 E79.14355
G1 X211.555 Y117.873 E79.15267
G1 X211.307 Y118.096 E79.16176
G1 X211.013 Y118.255 E79.17087
G1 X210.689 Y118.339 E79.17999
G1 X210.5 Y118.352 E79.18516
G1 X9.5 Y118.352 E84.66375
G1 X9.168 Y118.312 E84.67286
G1 X8.856 Y118.195 E84.68195
G1 X8.579 Y118.007 E84.69107
G1 X8.356 Y117.759 E84.70016
G1 X8.197 Y117.465 E84.70927
G1 X8.113 Y117.141 E84.7184
G1 X8.1 Y116.952 E84.72356
G1 X8.1 Y102.925 E85.10589
G1 X8.14 Y102.593 E85.115
G1 X8.257 Y102.281 E85.12409
G1 X8.445 Y102.004 E85.13321
G1 X8.693 Y101.781 E85.1423
G1 X8.987 Y101.622 E85.15141
G1 X9.311 Y101.538 E85.16054
G1 X9.5 Y101.525 E85.1657
G0 F1800 X9.5 Y101.925
G1 F1200 X210.5 Y101.925 E90.64429
G1 X210.779 Y101.965 E90.65197
G1 X211.036 Y102.081 E90.65966
G1 X211.251 Y102.264 E90.66735
G1 X211.405 Y102.5 E90.67504
G1 X211.488 Y102.77 E90.68274
G1 X211.5 Y102.925 E90.68697
G1 X211.5 Y116.952 E91.0693
G1 X211.46 Y117.231 E91.07698
G1 X211.344 Y117.488 E91.08467
G1 X211.161 Y117.703 E91.09237
G1 X210.925 Y117.857 E91.10005
G1 X210.655 Y117.94 E91.10775
G1 X210.5 Y117.952 E91.11198
G1 X9.5 Y117.952 E96.59058
G1 X9.221 Y117.912 E96.59826
G1 X8.964 Y117.796 E96.60594
G1 X8.749 Y117.613 E96.61364
G1 X8.595 Y117.377 E96.62132
G1 X8.512 Y117.107 E96.62902
G1 X8.5 Y116.952 E96.63326
G1 X8.5 Y102.925 E97.01559
G1 X8.54 Y102.646 E97.02327
G1 X8.656 Y102.389 E97.03095
G1 X8.839 Y102.174 E97.03865
G1 X9.075 Y102.02 E97.04633
G1 X9.345 Y101.937 E97.05403
G1 X9.5 Y101.925 E97.05827
G0 F1800 X9.5 Y102.325
G1 F1200 X210.5 Y102.325 E102.53686
G1 X210.715 Y102.365 E102.54282
G1 X210.901 Y102.478 E102.54875
G1 X211.034 Y102.651 E102.5547
G1 X211.1 Y102.925 E102.56238
G1 X211.1 Y116.952 E102.94471
G1 X211.06 Y117.167 E102.95067
G1 X210.947 Y117.353 E102.9566
G1 X210.774 Y117.486 E102.96255
G1 X210.5 Y117.552 E102.97023
G1 X9.5 Y117.552 E108.44883
G1 X9.285 Y117.512 E108.45479
G1 X9.099 Y117.399 E108.46072
G1 X8.966 Y117.226 E108.46667
G1 X8.9 Y116.952 E108.47435
G1 X8.9 Y102.925 E108.85668
G1 X8.94 Y102.71 E108.86264
G1 X9.053 Y102.524 E108.86857
G1 X9.226 Y102.391 E108.87452
G1 X9.5 Y102.325 E108.8822
G0 F1800 X9.3 Y102.925
G1 F1200 X9.339 Y102.806 E108.88562
G1 X9.5 Y102.725 E108.89053
G1 X210.5 Y102.725 E114.36912
G1 X210.619 Y102.764 E114.37253
G1 X210.7 Y102.925 E114.37745
G1 X210.7 Y116.952 E114.75978
G1 X210.661 Y117.071 E114.76319
G1 X210.5 Y117.152 E114.7681
G1 X9.5 Y117.152 E120.24669
G1 X9.381 Y117.113 E120.25011
G1 X9.3 Y116.952 E120.25502
G1 X9.3 Y102.925 E120.63735
G1 F4200 E115.63735
G0 F1800 X9.299 Y102.26
G0 X9.816 Y102.296
G0 X9.896 Y102.301
G0 X100.584 Y108.741
G0 X100.663 Y108.747
G0 X100.665 Y108.748
G0 X100.4 Y108.748
;TYPE:SUPPORT
G1 F4200 E120.63735
G1 F1200 X105.085 Y108.748 E120.76505
G1 X105.209 Y108.808 E120.7688
G1 X111.73 Y108.804 E120.94654
G1 X114.39 Y108.806 E121.01905
G1 X114.506 Y108.747 E121.02259
G1 X119.599 Y108.747 E121.16141
G1 X119.599 Y111.129 E121.22634
G1 X114.39 Y111.129 E121.36832
G1 X114.257 Y111.065 E121.37234
G1 X111.536 Y111.072 E121.4465
G1 X111.505 Y111.098 E121.44761
G1 X109.45 Y111.1 E121.50362
G1 X108.579 Y111.099 E121.52736
G1 X108.552 Y111.073 E121.52838
G1 X105.128 Y111.073 E121.62171
G1 X105.012 Y111.129 E121.62522
G1 X100.4 Y111.129 E121.75093
G1 X100.4 Y108.748 E121.81583
G0 F1800 X100.579 Y109.306
G1 F1200 X119.418 Y109.306 E122.32931
G1 F4200 E117.32931
G0 F1800 X117.304 Y108.927
G1 F4200 E122.32931
G1 F1200 X117.304 Y110.949 E122.38443
G1 F4200 E117.38443
G0 F1800 X114.638 Y110.949
G1 F4200 E122.38443
G1 F1200 X114.638 Y108.927 E122.43954
G1 F4200 E117.43954
G0 F1800 X111.972 Y108.985
G1 F4200 E122.43954
G1 F1200 X111.972 Y110.891 E122.49149
G1 F4200 E117.49149
G0 F1800 X109.306 Y110.919
G1 F4200 E122.49149
G1 F1200 X109.306 Y108.985 E122.54421
G1 F4200 E117.54421
G0 F1800 X106.64 Y108.987
G1 F4200 E122.54421
G1 F1200 X106.64 Y110.893 E122.59616
G1 F4200 E117.59616
G0 F1800 X103.974 Y110.949
G1 F4200 E122.59616
G1 F1200 X103.974 Y108.928 E122.65124
G1 F4200 E117.65124
G0 F1800 X101.308 Y108.928
G1 F4200 E122.65124
G1 F1200 X101.308 Y110.949 E122.70633
G1 F4200 E117.70633
G0 F1800 X101.308 Y112.743
G0 X97.8 Y114.303
;TYPE:WALL-INNER
G1 F4200 E122.70633
G1 F1200 X122.199 Y114.303 E123.37136
G1 X122.199 Y105.772 E123.60389
G1 X122.199 Y105.572 E123.60934
G1 X121.999 Y105.572 E123.61287
G1 X97.8 Y105.573 E124.27246
G1 X97.8 Y114.303 E124.51041
G0 F1800 X28.513 Y105.118
G1 F1200 X208.3 Y105.122 E129.4108
G1 X208.3 Y114.555 E129.66792
G1 X208.3 Y114.755 E129.67337
G1 X208.1 Y114.755 E129.6769
G1 X11.7 Y114.754 E135.03011
G1 X11.7 Y105.125 E135.29256
G1 X28.513 Y105.118 E135.75083
G0 F1800 X28.513 Y104.718
G1 F1200 X208.7 Y104.722 E140.66213
G1 X208.7 Y114.955 E140.94105
G1 X208.7 Y115.155 E140.9465
G1 X208.5 Y115.155 E140.95003
G1 X11.3 Y115.154 E146.32505
G1 X11.3 Y104.725 E146.60931
G1 X28.513 Y104.718 E147.07848
G0 F1800 X98.2 Y105.973
G1 F1200 X98.2 Y113.903 E147.29462
G1 X121.799 Y113.903 E147.93785
G1 X121.799 Y106.172 E148.14857
G1 X121.799 Y105.972 E148.15402
G1 X121.599 Y105.972 E148.15755
G1 X98.2 Y105.973 E148.79533
G0 F1800 X98.6 Y106.373
G1 F1200 X98.6 Y113.503 E148.98967
G1 X121.399 Y113.503 E149.6111
G1 X121.399 Y106.572 E149.80001
G1 X121.399 Y106.372 E149.80547
G1 X121.199 Y106.372 E149.809
G1 X98.6 Y106.373 E150.42497
G0 F1800 X28.513 Y104.318
G1 F1200 X209.1 Y104.322 E155.34717
G1 X209.1 Y115.355 E155.64789
G1 X209.1 Y115.555 E155.65335
G1 X208.9 Y115.555 E155.65688
G1 X10.9 Y115.554 E161.0537
G1 X10.9 Y104.325 E161.35976
G1 X28.513 Y104.318 E161.83984
G0 F1800 X28.513 Y103.918
G1 F1200 X209.5 Y103.922 E166.77294
G1 X209.5 Y115.755 E167.09547
G1 X209.5 Y115.955 E167.10092
G1 X209.3 Y115.955 E167.10445
G1 X10.5 Y115.954 E172.52308
G1 X10.5 Y103.925 E172.85095
G1 X28.513 Y103.918 E173.34192
G0 F1800 X99 Y106.773
G1 F1200 X99 Y113.103 E173.51446
G1 X120.999 Y113.103 E174.11408
G1 X120.999 Y106.972 E174.28119
G1 X120.999 Y106.772 E174.28664
G1 X120.799 Y106.772 E174.29017
G1 X99 Y106.773 E174.88434
G0 F1800 X99.4 Y107.173
G1 F1200 X99.4 Y112.703 E175.03507
G1 X120.599 Y112.703 E175.61288
G1 X120.599 Y107.372 E175.75819
G1 X120.599 Y107.172 E175.76364
G1 X120.399 Y107.172 E175.76717
G1 X99.4 Y107.173 E176.33953
G0 F1800 X99.33 Y107.103
G0 X28.513 Y103.618
G0 X28.513 Y103.518
G1 F1200 X209.9 Y103.522 E181.28354
G1 X209.9 Y116.355 E181.63332
G1 X14.253 Y116.359 E186.96601
G1 X10.1 Y116.353 E187.07921
G1 X10.1 Y103.525 E187.42886
G1 X28.513 Y103.518 E187.93073
G0 F1800 X28.513 Y103.118
;TYPE:WALL-OUTER
G1 F1200 X208.855 Y103.118 E192.84626
G1 X210.3 Y103.124 E192.88565
G1 X210.3 Y116.753 E193.25713
G1 X208.854 Y116.759 E193.29654
G1 X14.253 Y116.759 E198.60072
G1 X9.7 Y116.752 E198.72482
G1 X9.7 Y103.125 E199.09624
G1 X28.513 Y103.118 E199.60902
G0 F1800 X28.513 Y103.618
G0 X99.3 Y107.573
G0 X99.8 Y107.573
G1 F1200 X99.8 Y112.303 E199.73795
G1 X120.199 Y112.303 E200.29396
G1 X120.199 Y107.772 E200.41746
G1 X120.199 Y107.572 E200.42291
G1 X119.999 Y107.572 E200.42644
G1 X99.8 Y107.573 E200.977
G0 F1800 X99.3 Y107.573
G0 X99.735 Y105.392
G0 X99.688 Y105.345
G1 F1200 X99.122 Y105.345 E200.98058
G1 X98.557 Y105.345 E200.98416
G1 X97.991 Y105.345 E200.98775
G1 X97.499 Y105.419 E200.99416
G0 F1800 X96.814 Y105.299
;TYPE:SKIN
G1 F1200 X97.62 Y106.105 E201.02523
G0 X97.69 Y106.175
G0 F1800 X97.62 Y106.671
G1 F1200 X96.248 Y105.299 E201.07811
G0 X96.178 Y105.229
G0 F1800 X95.682 Y105.299
G1 F1200 X97.62 Y107.236 E201.1528
G0 X97.69 Y107.306
G0 F1800 X97.62 Y107.802
G1 F1200 X95.117 Y105.299 E201.24928
G0 X95.047 Y105.229
G0 F1800 X94.551 Y105.299
G1 F1200 X97.62 Y108.368 E201.36758
G0 X97.69 Y108.438
G0 F1800 X97.62 Y108.934
G1 F1200 X93.985 Y105.299 E201.5077
G0 X93.915 Y105.229
G0 F1800 X93.42 Y105.299
G1 F1200 X97.62 Y109.499 E201.66959
G0 X97.69 Y109.569
G0 F1800 X97.62 Y110.065
G1 F1200 X92.854 Y105.299 E201.85331
G0 X92.784 Y105.229
G0 F1800 X92.288 Y105.299
G1 F1200 X97.62 Y110.631 E202.05884
G0 X97.69 Y110.701
G0 F1800 X97.62 Y111.196
G1 F1200 X91.723 Y105.299 E202.28615
G0 X91.653 Y105.229
G0 F1800 X91.157 Y105.299
G1 F1200 X97.62 Y111.762 E202.53528
G0 X97.69 Y111.832
G0 F1800 X97.62 Y112.328
