;FLAVOR:Marlin
;TIME:406
;Filament used: 0.181682m
;Layer height: 0.2
;Generated with Cura_SteamEngine 4.0.0
M140 S70
M105
M190 S70
M104 S215
M105
M109 S215
M82 ;absolute extrusion mode
G28 ; home all axes
M117 Purge extruder
G92 E0 ; reset extruder
G1 Z1.0 F3000 ; move z up little to prevent scratching of surface
G1 X0.1 Y20 Z0.3 F5000.0 ; move to start-line position G1 X0.1 Y200.0 Z0.3 F1500.0 E15 ; draw 1st line
G1 X0.4 Y200.0 Z0.3 F5000.0 ; move to side a little
G1 X0.4 Y20 Z0.3 F1500.0 E30 ; draw 2nd line
G92 E0 ; reset extruder
G1 Z1.0 F3000 ; move z up little to prevent scratching of surface
M117 All systems go!
G92 E0
G1 F6000 E-5
;LAYER_COUNT:21
;LAYER:0
M107
M204 S5000
M205 X30 Y30
G0 F7200 X98.455 Y25.492 Z0.2
M204 S500
M205 X20 Y20
;TYPE:SKIRT
G1 F6000 E0
G1 F900 X98.701 Y24.641 E0.02946
G1 X99.022 Y23.816 E0.05891
G1 X99.416 Y23.023 E0.08836
G1 X99.702 Y22.543 E0.10694
G1 X100.027 Y21.926 E0.13014
G1 X100.348 Y21.414 E0.15024
G1 X100.532 Y21.14 E0.16121
G1 X100.81 Y20.764 E0.17677
G1 X101.104 Y20.307 E0.19484
G1 X101.412 Y19.896 E0.21192
G1 X101.628 Y19.623 E0.2235
G1 X102.007 Y19.186 E0.24274
G1 X102.545 Y18.535 E0.27083
G1 X103.008 Y18.058 E0.29294
G1 X103.259 Y17.816 E0.30454
G1 X103.612 Y17.505 E0.32018
G1 X103.967 Y17.129 E0.33738
G1 X104.629 Y16.542 E0.36681
G1 X105.215 Y16.111 E0.391
G1 X105.742 Y15.686 E0.41352
G1 X106.479 Y15.196 E0.44296
G1 X106.806 Y15.019 E0.45533
G1 X106.817 Y15.01 E0.4558
G1 X107.562 Y14.532 E0.48524
G1 X108.346 Y14.122 E0.51466
G1 X108.826 Y13.925 E0.53192
G1 X109.077 Y13.791 E0.54139
G1 X109.317 Y13.673 E0.55028
G1 X110.128 Y13.319 E0.57971
G1 X110.968 Y13.04 E0.60915
G1 X110.993 Y13.034 E0.61001
G1 X111.494 Y12.85 E0.62776
G1 X112.136 Y12.67 E0.64993
G1 X112.46 Y12.591 E0.66103
G1 X112.711 Y12.541 E0.66954
G1 X113.317 Y12.361 E0.69056
G1 X114.184 Y12.186 E0.71998
G1 X115.064 Y12.089 E0.74943
G1 X115.089 Y12.089 E0.75026
G1 X115.685 Y11.993 E0.77034
G1 X116.568 Y11.933 E0.79978
G1 X117.164 Y11.946 E0.8196
G1 X117.229 Y11.941 E0.82177
G1 X118.114 Y11.915 E0.85122
G1 X118.997 Y11.969 E0.88064
G1 X119.473 Y12.042 E0.89666
G1 X120.288 Y12.108 E0.92386
G1 X120.602 Y12.155 E0.93442
G1 X121.236 Y12.279 E0.9559
G1 X121.547 Y12.312 E0.9663
G1 X122.415 Y12.483 E0.99573
G1 X123.265 Y12.733 E1.0252
G1 X123.593 Y12.862 E1.03692
G1 X124.156 Y13.01 E1.05628
G1 X124.988 Y13.311 E1.08571
G1 X125.424 Y13.515 E1.10172
G1 X126.062 Y13.756 E1.1244
G1 X126.859 Y14.142 E1.15386
G1 X127.543 Y14.553 E1.1804
G1 X127.914 Y14.735 E1.19414
G1 X128.671 Y15.194 E1.22359
G1 X129.197 Y15.582 E1.24533
G1 X129.749 Y15.938 E1.26717
G1 X130.447 Y16.482 E1.29661
G1 X130.927 Y16.931 E1.31847
G1 X131.091 Y17.06 E1.32541
G1 X131.298 Y17.235 E1.33442
G1 X131.947 Y17.837 E1.36387
G1 X132.54 Y18.494 E1.3933
G1 X132.899 Y18.866 E1.4105
G1 X133.194 Y19.216 E1.42572
G1 X133.397 Y19.469 E1.43651
G1 X133.795 Y20.013 E1.45893
G1 X134.324 Y20.696 E1.48766
G1 X134.506 Y20.963 E1.49841
G1 X134.971 Y21.716 E1.52785
G1 X134.986 Y21.747 E1.52899
G1 X135.05 Y21.84 E1.53275
G1 X135.191 Y22.059 E1.54141
G1 X135.636 Y22.824 E1.57084
G1 X136.01 Y23.626 E1.60028
G1 X136.02 Y23.655 E1.6013
G1 X136.185 Y23.96 E1.61283
G1 X136.533 Y24.774 E1.64227
G1 X136.807 Y25.616 E1.67173
G1 X137.003 Y26.479 E1.70116
G1 X137.117 Y27.317 E1.72929
G1 X137.158 Y27.76 E1.74409
G1 X137.2 Y28.644 E1.77352
G1 X137.162 Y29.528 E1.80295
G1 X137.044 Y30.406 E1.83241
G1 X136.847 Y31.269 E1.86186
G1 X136.573 Y32.111 E1.89131
G1 X136.225 Y32.924 E1.92072
G1 X135.804 Y33.703 E1.95017
G1 X135.315 Y34.441 E1.97962
G1 X134.762 Y35.132 E2.00905
G1 X133.89 Y36.006 E2.05012
G1 X133.778 Y36.105 E2.05509
G1 X133.089 Y36.66 E2.08452
G1 X132.353 Y37.152 E2.11396
G1 X131.575 Y37.574 E2.1434
G1 X130.763 Y37.925 E2.17282
G1 X129.922 Y38.202 E2.20227
G1 X129.059 Y38.401 E2.23173
G1 X128.182 Y38.521 E2.26117
G1 X127.291 Y38.562 E2.29083
G1 X108.27 Y38.568 E2.92348
G1 X107.386 Y38.528 E2.95291
G1 X106.509 Y38.409 E2.98234
G1 X105.646 Y38.211 E3.01179
G1 X104.804 Y37.936 E3.04125
G1 X103.991 Y37.586 E3.07069
G1 X103.213 Y37.164 E3.10013
G1 X102.476 Y36.674 E3.12957
G1 X101.786 Y36.119 E3.15902
G1 X101.149 Y35.504 E3.18847
G1 X100.571 Y34.835 E3.21788
G1 X100.127 Y34.225 E3.24297
G1 X100.007 Y34.046 E3.25014
G1 X99.548 Y33.289 E3.27958
G1 X99.159 Y32.494 E3.30902
G1 X98.843 Y31.667 E3.33846
G1 X98.746 Y31.323 E3.35035
G1 X98.657 Y31.081 E3.35893
G1 X98.427 Y30.226 E3.38838
G1 X98.276 Y29.354 E3.41781
G1 X98.203 Y28.464 E3.44751
G1 X98.191 Y28.127 E3.45873
G1 X98.2 Y27.242 E3.48816
G1 X98.288 Y26.361 E3.51761
G1 X98.304 Y26.278 E3.52042
G0 F810 X98.455 Y25.492
M204 S5000
M205 X30 Y30
G0 F7200 X98.857 Y25.533
M204 S500
M205 X20 Y20
G1 F6000 E3.54703
G1 F900 X99.103 Y24.701 E3.57589
G1 X99.424 Y23.896 E3.60471
G1 X99.818 Y23.124 E3.63354
G1 X100.02 Y22.79 E3.64652
G1 X100.023 Y22.783 E3.64678
G1 X100.436 Y22.02 E3.67563
G1 X100.68 Y21.637 E3.69074
G1 X100.864 Y21.363 E3.70172
G1 X101.169 Y20.951 E3.71876
G1 X101.725 Y20.144 E3.75136
G1 X101.941 Y19.871 E3.76294
G1 X102.332 Y19.422 E3.78274
G1 X102.366 Y19.373 E3.78472
G1 X102.926 Y18.712 E3.81354
G1 X103.286 Y18.346 E3.83061
G1 X103.537 Y18.104 E3.84221
G1 X103.889 Y17.795 E3.85779
G1 X104.258 Y17.404 E3.87567
G1 X104.909 Y16.831 E3.90451
G1 X105.376 Y16.49 E3.92375
G1 X106.051 Y15.956 E3.95237
G1 X106.778 Y15.484 E3.9812
G1 X107.046 Y15.343 E3.99128
G1 X107.107 Y15.296 E3.99384
G1 X107.84 Y14.833 E4.02267
G1 X108.613 Y14.44 E4.05151
G1 X108.918 Y14.326 E4.06234
G1 X109.254 Y14.15 E4.07496
G1 X109.494 Y14.032 E4.08386
G1 X110.288 Y13.686 E4.11266
G1 X111.087 Y13.423 E4.14064
G1 X111.735 Y13.194 E4.1635
G1 X112.23 Y13.059 E4.18056
G1 X112.554 Y12.98 E4.19166
G1 X112.808 Y12.93 E4.20027
G1 X113.431 Y12.745 E4.22188
G1 X114.281 Y12.575 E4.25071
G1 X115.127 Y12.487 E4.279
G1 X115.766 Y12.386 E4.30052
G1 X116.631 Y12.331 E4.32935
G1 X117.171 Y12.347 E4.34732
G1 X117.259 Y12.34 E4.35025
G1 X118.125 Y12.316 E4.37907
G1 X118.991 Y12.371 E4.40793
G1 X119.344 Y12.427 E4.41981
G1 X120.229 Y12.504 E4.44936
G1 X120.543 Y12.551 E4.45992
G1 X121.178 Y12.676 E4.48145
G1 X121.523 Y12.713 E4.49299
G1 X122.372 Y12.885 E4.5218
G1 X123.203 Y13.134 E4.55065
G1 X123.478 Y13.245 E4.56052
G1 X124.054 Y13.397 E4.58033
G1 X124.868 Y13.695 E4.60916
G1 X125.252 Y13.877 E4.62329
G1 X125.937 Y14.138 E4.64768
G1 X126.715 Y14.519 E4.67649
G1 X127.327 Y14.893 E4.70034
G1 X127.738 Y15.095 E4.71557
G1 X128.478 Y15.546 E4.7444
G1 X128.951 Y15.899 E4.76403
G1 X129.547 Y16.285 E4.78765
G1 X130.228 Y16.821 E4.81647
G1 X130.646 Y17.218 E4.83564
G1 X130.833 Y17.366 E4.84358
G1 X131.04 Y17.541 E4.85259
G1 X131.675 Y18.13 E4.8814
G1 X132.254 Y18.776 E4.91025
G1 X132.257 Y18.78 E4.91042
G1 X132.882 Y19.466 E4.94128
G1 X133.085 Y19.719 E4.95207
G1 X133.354 Y20.089 E4.96729
G1 X133.356 Y20.091 E4.96738
G1 X133.993 Y20.922 E5.00221
G1 X134.175 Y21.189 E5.01295
G1 X134.63 Y21.927 E5.04179
G1 X134.654 Y21.975 E5.04358
G1 X134.714 Y22.056 E5.04693
G1 X134.855 Y22.275 E5.05559
G1 X135.29 Y23.025 E5.08443
G1 X135.654 Y23.812 E5.11327
G1 X135.662 Y23.835 E5.11408
G1 X135.863 Y24.215 E5.12838
G1 X136.196 Y25.016 E5.15723
G1 X136.454 Y25.843 E5.18604
G1 X136.634 Y26.691 E5.21487
G1 X136.719 Y27.354 E5.23711
G1 X136.76 Y27.797 E5.2519
G1 X136.8 Y28.663 E5.28074
G1 X136.76 Y29.529 E5.30957
G1 X136.64 Y30.387 E5.33839
G1 X136.442 Y31.231 E5.36722
G1 X136.167 Y32.054 E5.39608
G1 X135.818 Y32.847 E5.4249
G1 X135.396 Y33.605 E5.45375
G1 X134.907 Y34.32 E5.48256
G1 X134.354 Y34.988 E5.51141
G1 X133.625 Y35.706 E5.54544
G1 X133.513 Y35.805 E5.55041
G1 X132.838 Y36.349 E5.57924
G1 X132.116 Y36.828 E5.60806
G1 X131.352 Y37.238 E5.6369
G1 X130.554 Y37.576 E5.66573
G1 X129.728 Y37.84 E5.69457
G1 X128.881 Y38.026 E5.72341
G1 X128.021 Y38.133 E5.75223
G1 X127.291 Y38.162 E5.77653
G1 X108.27 Y38.168 E6.40917
G1 X107.404 Y38.128 E6.43801
G1 X106.545 Y38.009 E6.46685
G1 X105.701 Y37.811 E6.49569
G1 X104.879 Y37.536 E6.52451
G1 X104.086 Y37.187 E6.55333
G1 X103.328 Y36.766 E6.58217
G1 X102.612 Y36.277 E6.61101
G1 X101.944 Y35.724 E6.63985
G1 X101.33 Y35.112 E6.66868
G1 X100.775 Y34.446 E6.69752
G1 X100.459 Y34.002 E6.71565
G1 X100.339 Y33.823 E6.72281
G1 X99.89 Y33.082 E6.75163
G1 X99.511 Y32.302 E6.78047
G1 X99.206 Y31.49 E6.80932
G1 X99.122 Y31.184 E6.81988
G1 X99.011 Y30.874 E6.83083
G1 X98.795 Y30.035 E6.85964
G1 X98.657 Y29.179 E6.88848
G1 X98.603 Y28.45 E6.9128
G1 X98.591 Y28.113 E6.92401
G1 X98.6 Y27.246 E6.95285
G1 X98.689 Y26.383 E6.9817
G1 X98.702 Y26.318 E6.98391
G0 F810 X98.857 Y25.533
M204 S5000
M205 X30 Y30
G0 F7200 X99.259 Y25.575
M204 S500
M205 X20 Y20
G1 F6000 E7.01052
G1 F900 X99.505 Y24.763 E7.03874
G1 X99.826 Y23.978 E7.06694
G1 X100.391 Y22.949 E7.10599
G1 X100.431 Y22.858 E7.1093
G1 X101.012 Y21.86 E7.1477
G1 X101.196 Y21.586 E7.15868
G1 X101.411 Y21.296 E7.17069
G1 X101.425 Y21.271 E7.17164
G1 X102.039 Y20.393 E7.20728
G1 X102.255 Y20.12 E7.21885
G1 X102.668 Y19.646 E7.23976
G1 X102.75 Y19.531 E7.24446
G1 X103.563 Y18.634 E7.28473
G1 X103.814 Y18.392 E7.29632
G1 X104.167 Y18.083 E7.31193
G1 X104.549 Y17.679 E7.33042
G1 X105.187 Y17.12 E7.35863
G1 X105.643 Y16.792 E7.37732
G1 X105.689 Y16.748 E7.37943
G1 X106.359 Y16.228 E7.40764
G1 X107.075 Y15.774 E7.43584
G1 X107.264 Y15.682 E7.44283
G1 X107.396 Y15.582 E7.44834
G1 X108.117 Y15.136 E7.47654
G1 X108.878 Y14.76 E7.50477
G1 X109.199 Y14.642 E7.51614
G1 X109.43 Y14.509 E7.52501
G1 X109.67 Y14.391 E7.5339
G1 X110.448 Y14.053 E7.56212
G1 X111.133 Y13.829 E7.58609
G1 X111.17 Y13.813 E7.58743
G1 X112.325 Y13.447 E7.62773
G1 X112.649 Y13.368 E7.63882
G1 X112.91 Y13.317 E7.64766
G1 X113.545 Y13.129 E7.66969
G1 X114.377 Y12.966 E7.69789
G1 X115.129 Y12.89 E7.72303
G1 X115.846 Y12.78 E7.74715
G1 X116.693 Y12.731 E7.77537
G1 X117.169 Y12.748 E7.79121
G1 X117.288 Y12.739 E7.79518
G1 X118.136 Y12.716 E7.8234
G1 X118.983 Y12.773 E7.85163
G1 X119.205 Y12.809 E7.85911
G1 X120.169 Y12.899 E7.89132
G1 X120.483 Y12.946 E7.90188
G1 X121.116 Y13.071 E7.92334
G1 X121.497 Y13.114 E7.93609
G1 X122.328 Y13.286 E7.96431
G1 X123.139 Y13.536 E7.99254
G1 X123.365 Y13.63 E8.00068
G1 X123.952 Y13.785 E8.02087
G1 X124.748 Y14.078 E8.04909
G1 X125.09 Y14.242 E8.0617
G1 X125.811 Y14.519 E8.08739
G1 X126.571 Y14.897 E8.11562
G1 X127.114 Y15.234 E8.13688
G1 X127.562 Y15.454 E8.15348
G1 X128.284 Y15.898 E8.18167
G1 X128.707 Y16.216 E8.19927
G1 X129.344 Y16.631 E8.22456
G1 X130.007 Y17.159 E8.25275
G1 X130.361 Y17.5 E8.2691
G1 X130.575 Y17.671 E8.27821
G1 X130.782 Y17.846 E8.28722
G1 X131.403 Y18.424 E8.31544
G1 X131.845 Y18.92 E8.33754
G1 X131.887 Y18.958 E8.33942
G1 X132.57 Y19.717 E8.37338
G1 X132.773 Y19.97 E8.38417
G1 X133.063 Y20.369 E8.40057
G1 X133.124 Y20.435 E8.40356
G1 X133.663 Y21.147 E8.43326
G1 X133.845 Y21.414 E8.44401
G1 X134.289 Y22.137 E8.47223
G1 X134.313 Y22.186 E8.47405
G1 X134.377 Y22.273 E8.47764
G1 X134.518 Y22.492 E8.4863
G1 X134.943 Y23.226 E8.51451
G1 X135.297 Y23.997 E8.54273
G1 X135.299 Y24.003 E8.54294
G1 X135.54 Y24.468 E8.56036
G1 X135.857 Y25.255 E8.58858
G1 X136.098 Y26.068 E8.61678
G1 X136.262 Y26.901 E8.64502
G1 X136.321 Y27.391 E8.66143
G1 X136.362 Y27.834 E8.67623
G1 X136.4 Y28.681 E8.70443
G1 X136.358 Y29.528 E8.73264
G1 X136.237 Y30.368 E8.76086
G1 X136.037 Y31.192 E8.78907
G1 X135.761 Y31.994 E8.81728
G1 X135.41 Y32.767 E8.84551
G1 X134.988 Y33.503 E8.87373
G1 X134.499 Y34.195 E8.90191
G1 X133.946 Y34.839 E8.93015
G1 X133.361 Y35.406 E8.95724
G1 X133.249 Y35.505 E8.96221
G1 X132.587 Y36.037 E8.99046
G1 X131.879 Y36.503 E9.01865
G1 X131.13 Y36.901 E9.04686
G1 X130.346 Y37.226 E9.07509
G1 X129.536 Y37.477 E9.1033
G1 X128.705 Y37.65 E9.13153
G1 X127.862 Y37.744 E9.15974
G1 X127.291 Y37.762 E9.17874
G1 X108.27 Y37.768 E9.81138
G1 X107.422 Y37.728 E9.83962
G1 X106.583 Y37.609 E9.8678
G1 X105.758 Y37.411 E9.89602
G1 X104.955 Y37.136 E9.92425
G1 X104.182 Y36.787 E9.95246
G1 X103.445 Y36.367 E9.98067
G1 X102.751 Y35.88 E10.00887
G1 X102.106 Y35.329 E10.03709
G1 X101.516 Y34.719 E10.06531
G1 X100.791 Y33.78 E10.10477
G1 X100.671 Y33.601 E10.11194
G1 X100.233 Y32.874 E10.14017
G1 X99.864 Y32.11 E10.16839
G1 X99.57 Y31.315 E10.19658
G1 X99.499 Y31.048 E10.20577
G1 X99.367 Y30.67 E10.21909
G1 X99.165 Y29.846 E10.2473
G1 X99.041 Y29.007 E10.27551
G1 X99.003 Y28.435 E10.29458
G1 X98.991 Y28.098 E10.30579
G1 X99 Y27.25 E10.334
G1 X99.09 Y26.406 E10.36223
G1 X99.1 Y26.358 E10.36386
G0 F810 X99.259 Y25.575
M204 S5000
M205 X30 Y30
G0 F7200 X99.66 Y25.619
M204 S500
M205 X20 Y20
G1 F6000 E10.39047
G1 F900 X99.907 Y24.827 E10.41806
G1 X100.229 Y24.063 E10.44564
G1 X100.732 Y23.157 E10.48011
G1 X100.757 Y23.118 E10.48165
G1 X100.839 Y22.937 E10.48825
G1 X101.344 Y22.083 E10.52125
G1 X101.528 Y21.809 E10.53223
G1 X101.767 Y21.487 E10.54557
G1 X101.825 Y21.385 E10.54947
G1 X102.353 Y20.641 E10.57981
G1 X102.569 Y20.368 E10.59139
G1 X103.003 Y19.871 E10.61334
G1 X103.134 Y19.692 E10.62072
G1 X103.841 Y18.922 E10.65549
G1 X104.092 Y18.68 E10.66708
G1 X104.441 Y18.374 E10.68252
G1 X104.84 Y17.954 E10.70179
G1 X105.465 Y17.41 E10.72935
G1 X105.904 Y17.097 E10.74728
G1 X106.005 Y17.004 E10.75185
G1 X106.665 Y16.502 E10.77943
G1 X107.371 Y16.066 E10.80702
G1 X107.509 Y16 E10.81211
G1 X107.683 Y15.87 E10.81934
G1 X108.393 Y15.441 E10.84693
G1 X109.141 Y15.083 E10.87451
G1 X109.379 Y14.997 E10.88292
G1 X109.606 Y14.868 E10.89161
G1 X109.846 Y14.75 E10.9005
G1 X110.607 Y14.421 E10.92808
G1 X111.298 Y14.198 E10.95223
G1 X111.42 Y14.145 E10.95665
G1 X112.42 Y13.836 E10.99146
G1 X112.744 Y13.757 E11.00256
G1 X113.002 Y13.707 E11.0113
G1 X113.658 Y13.513 E11.03405
G1 X114.473 Y13.356 E11.06166
G1 X115.119 Y13.295 E11.08324
G1 X115.925 Y13.174 E11.11034
G1 X116.753 Y13.13 E11.13792
G1 X117.178 Y13.148 E11.15207
G1 X117.318 Y13.138 E11.15674
G1 X118.147 Y13.116 E11.18432
G1 X118.974 Y13.174 E11.2119
G1 X119.192 Y13.211 E11.21925
G1 X119.269 Y13.211 E11.22181
G1 X120.11 Y13.295 E11.24992
G1 X120.424 Y13.342 E11.26048
G1 X121.046 Y13.466 E11.28158
G1 X121.471 Y13.515 E11.29581
G1 X122.282 Y13.688 E11.32339
G1 X123.073 Y13.938 E11.35098
G1 X123.247 Y14.012 E11.35727
G1 X123.849 Y14.172 E11.37799
G1 X124.626 Y14.461 E11.40556
G1 X124.918 Y14.603 E11.41636
G1 X125.684 Y14.9 E11.44368
G1 X126.425 Y15.273 E11.47127
G1 X126.909 Y15.579 E11.49032
G1 X127.385 Y15.813 E11.50796
G1 X128.09 Y16.25 E11.53555
G1 X128.451 Y16.525 E11.55064
G1 X129.14 Y16.977 E11.57805
G1 X129.786 Y17.497 E11.60563
G1 X130.154 Y17.857 E11.62276
G1 X130.316 Y17.976 E11.62944
G1 X130.523 Y18.151 E11.63846
G1 X131.13 Y18.717 E11.66606
G1 X131.579 Y19.225 E11.68861
G1 X131.684 Y19.322 E11.69336
G1 X132.258 Y19.967 E11.72208
G1 X132.461 Y20.22 E11.73287
G1 X132.771 Y20.647 E11.75042
G1 X132.889 Y20.778 E11.75629
G1 X133.332 Y21.372 E11.78093
G1 X133.514 Y21.639 E11.79168
G1 X133.948 Y22.346 E11.81927
G1 X133.97 Y22.392 E11.82097
G1 X134.041 Y22.489 E11.82496
G1 X134.182 Y22.708 E11.83363
G1 X134.597 Y23.427 E11.86124
G1 X134.917 Y24.13 E11.88693
G1 X135.215 Y24.72 E11.90891
G1 X135.515 Y25.493 E11.93649
G1 X135.74 Y26.291 E11.96407
G1 X135.922 Y27.427 E12.00233
G1 X135.963 Y27.87 E12.01713
G1 X136 Y28.699 E12.04473
G1 X135.956 Y29.527 E12.07231
G1 X135.834 Y30.347 E12.09988
G1 X135.632 Y31.151 E12.12746
G1 X135.354 Y31.933 E12.15506
G1 X135.002 Y32.683 E12.18262
G1 X134.58 Y33.397 E12.2102
G1 X134.091 Y34.066 E12.23776
G1 X133.539 Y34.686 E12.26537
G1 X133.096 Y35.107 E12.2857
G1 X132.984 Y35.206 E12.29067
G1 X132.337 Y35.724 E12.31824
G1 X131.643 Y36.178 E12.34582
G1 X130.908 Y36.563 E12.37342
G1 X130.14 Y36.875 E12.40099
G1 X129.345 Y37.112 E12.42858
G1 X128.532 Y37.272 E12.45614
G1 X127.706 Y37.352 E12.48374
G1 X127.291 Y37.362 E12.49755
G1 X108.27 Y37.368 E13.13019
G1 X107.441 Y37.328 E13.15779
G1 X106.621 Y37.209 E13.18535
G1 X105.816 Y37.011 E13.21292
G1 X105.033 Y36.737 E13.24052
G1 X104.281 Y36.388 E13.26809
G1 X103.565 Y35.969 E13.29568
G1 X102.894 Y35.483 E13.32324
G1 X102.272 Y34.934 E13.35083
G1 X101.706 Y34.328 E13.37841
G1 X101.124 Y33.557 E13.41054
G1 X101.004 Y33.378 E13.41771
G1 X100.576 Y32.668 E13.44528
G1 X100.218 Y31.919 E13.47289
G1 X99.934 Y31.14 E13.50047
