;FLAVOR:Marlin
;TIME:3948
;Filament used: 2.8836m
;Layer height: 0.2
;Generated with Cura_SteamEngine 3.6.0
M140 S70
M105
M190 S70
M104 S215
M105
M109 S215
M82 ;absolute extrusion mode
G28 ; home all axes
M117 Purge extruder
G92 E0 ; reset extruder
G1 Z1.0 F3000 ; move z up little to prevent scratching of surface
G1 X0.1 Y20 Z0.3 F5000.0 ; move to start-line position G1 X0.1 Y200.0 Z0.3 F1500.0 E15 ; draw 1st line
G1 X0.4 Y200.0 Z0.3 F5000.0 ; move to side a little
G1 X0.4 Y20 Z0.3 F1500.0 E30 ; draw 2nd line
G92 E0 ; reset extruder
G1 Z1.0 F3000 ; move z up little to prevent scratching of surface
M117 All systems go!
G92 E0
G1 F6000 E-5
;LAYER_COUNT:251
;LAYER:0
M107
M204 S5000
M205 X30 Y30
G0 F7200 X71.911 Y30.93 Z0.2
M204 S500
M205 X20 Y20
;TYPE:SKIRT
G1 F6000 E0
G1 F900 X72.446 Y29.715 E0.04416
G1 X72.839 Y28.921 E0.07362
G1 X73.302 Y28.167 E0.10305
G1 X73.678 Y27.649 E0.12434
G1 X74.558 Y26.517 E0.17203
G1 X75.132 Y25.844 E0.20145
G1 X76.007 Y25.016 E0.24152
G1 X77.182 Y24.033 E0.29247
G1 X77.886 Y23.496 E0.32192
G1 X78.666 Y23.007 E0.35254
G1 X80.101 Y22.2 E0.4073
G1 X80.892 Y21.801 E0.43676
G1 X81.525 Y21.543 E0.4595
G1 X83.166 Y20.94 E0.51765
G1 X84.01 Y20.673 E0.54709
G1 X84.551 Y20.544 E0.56559
G1 X86.335 Y20.173 E0.62619
G1 X87.209 Y20.032 E0.65564
G1 X87.668 Y19.99 E0.67097
G1 X89.529 Y19.864 E0.73301
G1 X90.845 Y19.864 E0.77678
G1 X92.685 Y19.987 E0.83811
G1 X93.564 Y20.086 E0.86753
G1 X94.016 Y20.168 E0.88281
G1 X95.8 Y20.537 E0.9434
G1 X96.658 Y20.755 E0.97285
G1 X97.034 Y20.881 E0.98604
G1 X97.474 Y20.132 E1.01493
G1 X97.99 Y19.412 E1.04439
G1 X98.568 Y18.742 E1.07382
G1 X99.204 Y18.126 E1.10327
G1 X99.927 Y17.546 E1.1341
G1 X100.856 Y16.87 E1.17231
G1 X101.594 Y16.382 E1.20174
G1 X102.374 Y15.963 E1.23119
G1 X103.188 Y15.615 E1.26063
G1 X104.031 Y15.343 E1.29009
G1 X104.894 Y15.148 E1.31952
G1 X105.771 Y15.031 E1.34895
G1 X106.622 Y14.994 E1.37728
G1 X108.23 Y14.994 E1.43076
G1 X109.012 Y15.029 E1.4568
G1 X109.262 Y14.973 E1.46532
G1 X110.139 Y14.857 E1.49474
G1 X110.988 Y14.82 E1.52301
G1 X112.628 Y14.82 E1.57755
G1 X112.74 Y14.825 E1.58128
G1 X113.2 Y14.676 E1.59736
G1 X114.063 Y14.48 E1.6268
G1 X114.94 Y14.363 E1.65623
G1 X115.795 Y14.326 E1.68469
G1 X117.447 Y14.326 E1.73964
G1 X118.331 Y14.366 E1.76907
G1 X119.208 Y14.486 E1.79851
G1 X120.071 Y14.684 E1.82796
G1 X120.912 Y14.959 E1.85739
G1 X121.725 Y15.309 E1.88683
G1 X122.504 Y15.731 E1.91629
G1 X123.216 Y16.204 E1.94473
G1 X124.552 Y17.177 E1.9997
G1 X125.244 Y17.73 E2.02916
G1 X125.882 Y18.343 E2.05859
G1 X126.463 Y19.011 E2.08803
G1 X126.981 Y19.729 E2.11748
G1 X127.178 Y20.062 E2.13035
G1 X128.592 Y19.542 E2.18046
G1 X129.436 Y19.275 E2.2099
G1 X129.977 Y19.146 E2.2284
G1 X131.761 Y18.775 E2.289
G1 X132.635 Y18.634 E2.31845
G1 X133.091 Y18.593 E2.33368
G1 X134.944 Y18.467 E2.39545
G1 X136.26 Y18.466 E2.43922
G1 X138.108 Y18.589 E2.50082
G1 X138.988 Y18.687 E2.53027
G1 X139.442 Y18.77 E2.54562
G1 X141.226 Y19.139 E2.60621
G1 X142.084 Y19.357 E2.63566
G1 X142.608 Y19.532 E2.65403
G1 X144.251 Y20.133 E2.71222
G1 X145.067 Y20.475 E2.74165
G1 X145.668 Y20.784 E2.76412
G1 X147.102 Y21.586 E2.81877
G1 X147.854 Y22.052 E2.8482
G1 X148.593 Y22.611 E2.87901
G1 X149.771 Y23.593 E2.93002
G1 X150.425 Y24.19 E2.95948
G1 X151.201 Y25.065 E2.99837
G1 X152.079 Y26.182 E3.04563
G1 X152.594 Y26.902 E3.07507
G1 X153.042 Y27.665 E3.1045
G1 X153.326 Y28.251 E3.12616
G1 X153.868 Y29.468 E3.17047
G1 X154.192 Y30.292 E3.19992
G1 X154.439 Y31.142 E3.22936
G1 X154.611 Y32.023 E3.25921
G1 X154.798 Y33.289 E3.30178
G1 X154.887 Y34.17 E3.33123
G1 X154.897 Y35.055 E3.36067
G1 X154.806 Y36.097 E3.39546
G1 X154.626 Y37.366 E3.43809
G1 X154.462 Y38.236 E3.46753
G1 X154.22 Y39.088 E3.49699
G1 X153.892 Y39.939 E3.52732
G1 X153.357 Y41.154 E3.57148
G1 X152.964 Y41.948 E3.60095
G1 X152.501 Y42.702 E3.63037
G1 X152.123 Y43.222 E3.65176
G1 X151.244 Y44.352 E3.69937
G1 X150.67 Y45.026 E3.72882
G1 X149.806 Y45.844 E3.76839
G1 X148.629 Y46.831 E3.81948
G1 X147.926 Y47.369 E3.84892
G1 X147.136 Y47.864 E3.87993
G1 X145.701 Y48.671 E3.93469
G1 X144.91 Y49.07 E3.96415
G1 X144.277 Y49.328 E3.98689
G1 X142.636 Y49.931 E4.04504
G1 X141.792 Y50.198 E4.07448
G1 X141.255 Y50.326 E4.09284
G1 X139.474 Y50.697 E4.15335
G1 X138.6 Y50.838 E4.18279
G1 X138.126 Y50.881 E4.19863
G1 X136.264 Y51.005 E4.26069
G1 X134.961 Y51.005 E4.30403
G1 X133.116 Y50.882 E4.36553
G1 X132.236 Y50.784 E4.39498
G1 X131.783 Y50.701 E4.4103
G1 X130.004 Y50.333 E4.47072
G1 X129.146 Y50.115 E4.50017
G1 X128.617 Y49.938 E4.51872
G1 X126.977 Y49.337 E4.57681
G1 X126.16 Y48.995 E4.60627
G1 X125.568 Y48.689 E4.62844
G1 X124.126 Y47.883 E4.68338
G1 X123.373 Y47.417 E4.71283
G1 X122.632 Y46.857 E4.74373
G1 X121.46 Y45.88 E4.79447
G1 X120.806 Y45.283 E4.82393
G1 X120.022 Y44.398 E4.86325
G1 X119.141 Y43.274 E4.91075
G1 X118.627 Y42.553 E4.9402
G1 X118.18 Y41.789 E4.96964
G1 X117.905 Y41.222 E4.9906
G1 X117.365 Y40.012 E5.03467
G1 X117.041 Y39.188 E5.06412
G1 X116.987 Y39.004 E5.0705
G1 X116.822 Y39.01 E5.07599
G1 X115.795 Y39.01 E5.11015
G1 X115.592 Y39.001 E5.11691
G1 X115.218 Y39.122 E5.12998
G1 X114.354 Y39.317 E5.15944
G1 X113.477 Y39.433 E5.18886
G1 X112.628 Y39.47 E5.21713
G1 X110.989 Y39.47 E5.27164
G1 X110.105 Y39.43 E5.30107
G1 X109.232 Y39.31 E5.33038
G1 X109.096 Y39.316 E5.33491
G1 X109.036 Y39.634 E5.34567
G1 X108.794 Y40.486 E5.37513
G1 X108.466 Y41.337 E5.40547
G1 X107.931 Y42.552 E5.44962
G1 X107.538 Y43.346 E5.47909
G1 X107.075 Y44.1 E5.50852
G1 X106.697 Y44.62 E5.5299
G1 X105.818 Y45.75 E5.57751
G1 X105.244 Y46.424 E5.60696
G1 X104.38 Y47.242 E5.64653
G1 X103.203 Y48.229 E5.69762
G1 X102.5 Y48.767 E5.72707
G1 X101.71 Y49.262 E5.75807
G1 X100.275 Y50.069 E5.81283
G1 X99.484 Y50.468 E5.8423
G1 X98.851 Y50.726 E5.86503
G1 X97.21 Y51.329 E5.92318
G1 X96.366 Y51.596 E5.95262
G1 X95.829 Y51.724 E5.97098
G1 X94.048 Y52.095 E6.03149
G1 X93.174 Y52.236 E6.06094
G1 X92.7 Y52.279 E6.07677
G1 X90.838 Y52.403 E6.13884
G1 X89.535 Y52.403 E6.18217
G1 X87.69 Y52.28 E6.24367
G1 X86.81 Y52.182 E6.27312
G1 X86.357 Y52.099 E6.28844
G1 X84.578 Y51.731 E6.34886
G1 X83.72 Y51.513 E6.37831
G1 X83.191 Y51.336 E6.39686
G1 X81.551 Y50.735 E6.45496
G1 X80.734 Y50.393 E6.48441
G1 X80.142 Y50.087 E6.50658
G1 X78.7 Y49.281 E6.56152
G1 X77.947 Y48.815 E6.59098
G1 X77.206 Y48.255 E6.62187
G1 X76.034 Y47.278 E6.67262
G1 X75.38 Y46.681 E6.70207
G1 X74.596 Y45.796 E6.74139
G1 X73.715 Y44.672 E6.78889
G1 X73.201 Y43.951 E6.81834
G1 X72.754 Y43.187 E6.84778
G1 X72.479 Y42.62 E6.86874
G1 X71.939 Y41.41 E6.91281
G1 X71.615 Y40.586 E6.94226
G1 X71.367 Y39.736 E6.97171
G1 X71.193 Y38.846 E7.00187
G1 X71.006 Y37.578 E7.0445
G1 X70.916 Y36.697 E7.07396
G1 X70.907 Y35.812 E7.1034
G1 X70.997 Y34.779 E7.13788
G1 X71.176 Y33.51 E7.18051
G1 X71.339 Y32.64 E7.20995
G1 X71.58 Y31.788 E7.2394
G1 X71.623 Y31.676 E7.24339
G0 F810 X71.911 Y30.93
M204 S5000
M205 X30 Y30
G0 F7200 X72.277 Y31.091
M204 S500
M205 X20 Y20
G1 F6000 E7.27
G1 F900 X72.812 Y29.876 E7.31415
G1 X73.198 Y29.099 E7.34301
G1 X73.653 Y28.362 E7.37182
G1 X73.994 Y27.895 E7.39105
G1 X74.874 Y26.763 E7.43874
G1 X75.437 Y26.104 E7.46757
G1 X76.263 Y25.322 E7.5054
G1 X77.438 Y24.339 E7.55635
G1 X78.128 Y23.814 E7.58519
G1 X78.862 Y23.356 E7.61396
G1 X80.297 Y22.549 E7.66872
G1 X81.072 Y22.159 E7.69758
G1 X81.663 Y21.919 E7.71879
G1 X83.304 Y21.316 E7.77694
G1 X84.131 Y21.055 E7.80579
G1 X84.632 Y20.936 E7.82291
G1 X86.416 Y20.565 E7.88352
G1 X87.695 Y20.389 E7.92646
G1 X89.556 Y20.263 E7.9885
G1 X90.818 Y20.263 E8.03047
G1 X92.658 Y20.386 E8.09181
G1 X93.935 Y20.56 E8.13467
G1 X95.719 Y20.929 E8.19526
G1 X96.559 Y21.143 E8.2241
G1 X97.044 Y21.306 E8.24111
G1 X97.241 Y21.378 E8.24809
G1 X97.491 Y20.878 E8.26668
G1 X97.949 Y20.142 E8.29551
G1 X98.473 Y19.451 E8.32436
G1 X99.058 Y18.811 E8.3532
G1 X99.7 Y18.228 E8.38204
G1 X100.162 Y17.869 E8.4015
G1 X101.091 Y17.193 E8.43971
G1 X101.815 Y16.716 E8.46855
G1 X102.58 Y16.308 E8.49739
G1 X103.379 Y15.971 E8.52623
G1 X104.205 Y15.71 E8.55504
G1 X105.053 Y15.526 E8.5839
G1 X105.913 Y15.421 E8.61272
G1 X106.622 Y15.394 E8.63632
G1 X108.23 Y15.394 E8.6898
G1 X109.052 Y15.432 E8.71717
G1 X109.42 Y15.352 E8.72969
G1 X110.281 Y15.247 E8.75854
G1 X110.988 Y15.22 E8.78207
G1 X112.628 Y15.22 E8.83662
G1 X112.792 Y15.228 E8.84208
G1 X113.375 Y15.043 E8.86243
G1 X114.222 Y14.859 E8.89125
G1 X115.082 Y14.753 E8.92007
G1 X115.795 Y14.726 E8.94381
G1 X117.447 Y14.726 E8.99875
G1 X118.313 Y14.766 E9.02759
G1 X119.172 Y14.886 E9.05643
G1 X120.016 Y15.084 E9.08527
G1 X120.838 Y15.359 E9.1141
G1 X121.631 Y15.709 E9.14293
G1 X122.389 Y16.13 E9.17177
G1 X122.981 Y16.528 E9.19549
G1 X124.317 Y17.501 E9.25046
G1 X124.993 Y18.043 E9.27928
G1 X125.617 Y18.645 E9.30812
G1 X126.183 Y19.302 E9.33696
G1 X126.685 Y20.008 E9.36577
G1 X127.003 Y20.556 E9.38685
G1 X127.089 Y20.521 E9.38994
G1 X128.73 Y19.918 E9.44808
G1 X129.557 Y19.657 E9.47693
G1 X130.058 Y19.538 E9.49405
G1 X131.842 Y19.167 E9.55466
G1 X133.118 Y18.992 E9.5975
G1 X134.971 Y18.866 E9.65927
G1 X136.233 Y18.865 E9.70124
G1 X138.081 Y18.988 E9.76285
G1 X139.361 Y19.162 E9.80581
G1 X141.145 Y19.531 E9.8664
G1 X141.985 Y19.745 E9.89523
G1 X142.47 Y19.908 E9.91225
G1 X144.113 Y20.509 E9.97044
G1 X144.913 Y20.844 E9.99929
G1 X145.472 Y21.133 E10.02022
G1 X146.906 Y21.935 E10.07486
G1 X147.643 Y22.393 E10.10372
G1 X148.337 Y22.919 E10.13269
G1 X149.515 Y23.901 E10.1837
G1 X150.155 Y24.486 E10.21253
G1 X150.886 Y25.312 E10.24922
G1 X151.764 Y26.429 E10.29648
G1 X152.268 Y27.135 E10.32533
G1 X152.705 Y27.884 E10.35417
G1 X152.961 Y28.414 E10.37375
G1 X153.503 Y29.631 E10.41806
G1 X153.819 Y30.438 E10.44688
G1 X154.059 Y31.271 E10.47571
G1 X154.215 Y32.081 E10.50315
G1 X154.402 Y33.347 E10.54571
G1 X154.489 Y34.21 E10.57456
G1 X154.496 Y35.077 E10.6034
G1 X154.41 Y36.041 E10.63559
G1 X154.23 Y37.31 E10.67822
G1 X154.069 Y38.162 E10.70706
G1 X153.83 Y38.995 E10.73588
G1 X153.526 Y39.778 E10.76382
G1 X152.991 Y40.993 E10.80797
G1 X152.605 Y41.77 E10.83683
G1 X152.15 Y42.507 E10.86564
G1 X151.808 Y42.976 E10.88494
G1 X150.929 Y44.106 E10.93256
G1 X150.365 Y44.766 E10.96144
G1 X149.549 Y45.538 E10.9988
G1 X148.372 Y46.525 E11.04989
G1 X147.683 Y47.051 E11.07872
G1 X146.94 Y47.515 E11.10785
G1 X145.505 Y48.322 E11.16261
G1 X144.73 Y48.712 E11.19147
G1 X144.139 Y48.952 E11.21268
G1 X142.498 Y49.555 E11.27083
G1 X141.671 Y49.816 E11.29967
G1 X141.173 Y49.934 E11.3167
G1 X139.392 Y50.305 E11.3772
G1 X138.536 Y50.443 E11.40604
G1 X138.1 Y50.482 E11.4206
G1 X136.238 Y50.606 E11.48267
G1 X134.988 Y50.606 E11.52424
G1 X133.143 Y50.483 E11.58575
G1 X131.864 Y50.309 E11.62868
G1 X130.085 Y49.941 E11.6891
G1 X129.245 Y49.727 E11.71793
G1 X128.755 Y49.562 E11.73513
G1 X127.115 Y48.961 E11.79322
G1 X126.315 Y48.625 E11.82208
G1 X125.763 Y48.34 E11.84274
G1 X124.321 Y47.534 E11.89769
G1 X123.584 Y47.077 E11.92653
G1 X122.888 Y46.549 E11.95559
G1 X121.716 Y45.572 E12.00634
G1 X121.076 Y44.987 E12.03518
G1 X120.337 Y44.151 E12.07229
G1 X119.456 Y43.027 E12.11979
G1 X118.953 Y42.321 E12.14862
G1 X118.517 Y41.571 E12.17747
G1 X118.27 Y41.059 E12.19638
G1 X117.73 Y39.849 E12.24045
G1 X117.414 Y39.042 E12.26928
G1 X117.286 Y38.598 E12.28464
G1 X117.276 Y38.599 E12.28498
G1 X116.822 Y38.61 E12.30008
G1 X115.795 Y38.61 E12.33424
G1 X115.537 Y38.598 E12.34283
G1 X115.043 Y38.754 E12.36006
G1 X114.196 Y38.938 E12.38889
G1 X113.335 Y39.043 E12.41774
G1 X112.628 Y39.07 E12.44127
G1 X110.989 Y39.07 E12.49579
G1 X110.123 Y39.03 E12.52462
G1 X109.264 Y38.91 E12.55347
G1 X109.263 Y38.91 E12.5535
G1 X109.221 Y38.915 E12.55491
G1 X108.762 Y38.929 E12.57018
G1 X108.643 Y39.56 E12.59154
G1 X108.404 Y40.393 E12.62036
G1 X108.1 Y41.176 E12.6483
G1 X107.565 Y42.391 E12.69245
G1 X107.179 Y43.168 E12.72131
G1 X106.724 Y43.905 E12.75012
G1 X106.382 Y44.374 E12.76942
G1 X105.503 Y45.504 E12.81704
G1 X104.939 Y46.164 E12.84591
G1 X104.123 Y46.936 E12.88328
G1 X102.946 Y47.923 E12.93437
G1 X102.257 Y48.449 E12.9632
G1 X101.514 Y48.913 E12.99233
G1 X100.079 Y49.72 E13.04709
G1 X99.304 Y50.11 E13.07595
G1 X98.713 Y50.35 E13.09716
G1 X97.072 Y50.953 E13.15531
G1 X96.245 Y51.214 E13.18415
G1 X95.747 Y51.332 E13.20118
G1 X93.966 Y51.703 E13.26168
G1 X93.11 Y51.841 E13.29052
G1 X92.674 Y51.88 E13.30508
G1 X90.812 Y52.004 E13.36715
G1 X89.562 Y52.004 E13.40872
G1 X87.717 Y51.881 E13.47023
G1 X86.438 Y51.707 E13.51316
G1 X84.659 Y51.339 E13.57358
G1 X83.819 Y51.125 E13.60241
G1 X83.329 Y50.96 E13.61961
G1 X81.689 Y50.359 E13.6777
G1 X80.889 Y50.023 E13.70656
G1 X80.337 Y49.738 E13.72722
G1 X78.895 Y48.932 E13.78217
G1 X78.158 Y48.475 E13.81101
G1 X77.462 Y47.947 E13.84007
G1 X76.29 Y46.97 E13.89082
G1 X75.65 Y46.385 E13.91965
G1 X74.911 Y45.549 E13.95677
G1 X74.03 Y44.425 E14.00427
G1 X73.527 Y43.719 E14.0331
G1 X73.091 Y42.969 E14.06195
G1 X72.844 Y42.457 E14.08086
G1 X72.304 Y41.247 E14.12493
G1 X71.988 Y40.44 E14.15375
G1 X71.747 Y39.607 E14.1826
G1 X71.589 Y38.787 E14.21037
G1 X71.402 Y37.519 E14.253
G1 X71.315 Y36.657 E14.28182
G1 X71.308 Y35.79 E14.31066
G1 X71.393 Y34.835 E14.34254
G1 X71.572 Y33.566 E14.38517
G1 X71.733 Y32.714 E14.41401
G1 X71.971 Y31.881 E14.44282
G1 X71.988 Y31.837 E14.44439
G0 F810 X72.277 Y31.091
M204 S5000
M205 X30 Y30
G0 F7200 X72.643 Y31.252
M204 S500
M205 X20 Y20
G1 F6000 E14.471
G1 F900 X73.178 Y30.037 E14.51515
G1 X73.556 Y29.278 E14.54336
G1 X74.004 Y28.557 E14.57159
G1 X74.309 Y28.14 E14.58877
G1 X75.189 Y27.008 E14.63646
G1 X75.741 Y26.364 E14.66467
G1 X76.52 Y25.629 E14.7003
G1 X77.695 Y24.646 E14.75125
G1 X78.371 Y24.133 E14.77947
G1 X79.058 Y23.704 E14.80641
G1 X80.493 Y22.897 E14.86117
G1 X81.252 Y22.517 E14.8894
G1 X81.801 Y22.294 E14.90911
G1 X83.442 Y21.691 E14.96726
G1 X84.251 Y21.437 E14.99546
G1 X84.714 Y21.328 E15.01128
G1 X86.498 Y20.957 E15.07189
G1 X87.722 Y20.789 E15.11298
G1 X89.583 Y20.663 E15.17502
G1 X90.791 Y20.662 E15.2152
G1 X92.631 Y20.785 E15.27653
G1 X93.854 Y20.952 E15.31759
G1 X95.638 Y21.321 E15.37818
G1 X96.46 Y21.531 E15.4064
G1 X96.907 Y21.682 E15.42209
G1 X97.45 Y21.88 E15.44131
G1 X97.56 Y21.616 E15.45082
G1 X97.959 Y20.868 E15.47902
G1 X98.426 Y20.16 E15.50723
G1 X98.959 Y19.499 E15.53547
G1 X99.551 Y18.892 E15.56367
G1 X100.398 Y18.193 E15.6002
G1 X101.327 Y17.517 E15.63841
G1 X102.035 Y17.05 E15.66662
G1 X102.785 Y16.653 E15.69485
G1 X103.568 Y16.328 E15.72304
G1 X104.379 Y16.078 E15.75127
G1 X105.209 Y15.906 E15.77946
G1 X106.053 Y15.812 E15.80771
G1 X106.622 Y15.794 E15.82664
G1 X108.23 Y15.794 E15.88012
G1 X109.077 Y15.834 E15.90833
G1 X109.08 Y15.834 E15.90843
G1 X109.577 Y15.731 E15.92531
G1 X110.42 Y15.638 E15.95352
G1 X110.988 Y15.62 E15.97242
G1 X112.628 Y15.62 E16.02696
G1 X112.839 Y15.63 E16.03399
G1 X113.548 Y15.411 E16.05867
G1 X114.379 Y15.238 E16.0869
G1 X115.222 Y15.144 E16.11511
G1 X115.795 Y15.126 E16.13418
G1 X117.447 Y15.126 E16.18913
G1 X118.294 Y15.166 E16.21733
G1 X119.134 Y15.286 E16.24555
G1 X119.959 Y15.484 E16.27377
G1 X120.762 Y15.759 E16.302
G1 X121.535 Y16.108 E16.33021
G1 X122.271 Y16.528 E16.3584
G1 X122.745 Y16.851 E16.37747
G1 X124.081 Y17.824 E16.43245
G1 X124.743 Y18.355 E16.46067
G1 X125.351 Y18.946 E16.48887
G1 X125.901 Y19.592 E16.51709
G1 X126.388 Y20.287 E16.54532
G1 X126.808 Y21.024 E16.57353
G1 X126.824 Y21.06 E16.57484
G1 X127.227 Y20.896 E16.58931
G1 X128.868 Y20.293 E16.64746
G1 X129.677 Y20.039 E16.67566
G1 X130.14 Y19.93 E16.69148
G1 X131.924 Y19.559 E16.75209
G1 X133.145 Y19.391 E16.79308
G1 X134.998 Y19.265 E16.85486
G1 X136.207 Y19.264 E16.89507
G1 X138.055 Y19.387 E16.95667
G1 X139.28 Y19.554 E16.99779
G1 X141.064 Y19.923 E17.05838
G1 X141.886 Y20.133 E17.0866
G1 X142.333 Y20.284 E17.10229
G1 X143.976 Y20.885 E17.16048
G1 X144.758 Y21.213 E17.18868
G1 X145.277 Y21.482 E17.20813
G1 X146.711 Y22.284 E17.26277
G1 X147.431 Y22.733 E17.291
G1 X148.081 Y23.226 E17.31813
G1 X149.259 Y24.208 E17.36914
G1 X149.884 Y24.781 E17.39734
G1 X150.572 Y25.559 E17.43188
G1 X151.45 Y26.676 E17.47914
G1 X151.942 Y27.367 E17.50735
G1 X152.367 Y28.101 E17.53556
G1 X152.596 Y28.576 E17.5531
G1 X153.138 Y29.793 E17.59741
G1 X153.446 Y30.584 E17.62564
