;FLAVOR:Marlin
;TIME:3376
;Filament used: 2.38988m
;Layer height: 0.2
;Generated with Cura_SteamEngine 3.6.0
M140 S70
M105
M190 S70
M104 S215
M105
M109 S215
M82 ;absolute extrusion mode
G28 ; home all axes
M117 Purge extruder
G92 E0 ; reset extruder
G1 Z1.0 F3000 ; move z up little to prevent scratching of surface
G1 X0.1 Y20 Z0.3 F5000.0 ; move to start-line position G1 X0.1 Y200.0 Z0.3 F1500.0 E15 ; draw 1st line
G1 X0.4 Y200.0 Z0.3 F5000.0 ; move to side a little
G1 X0.4 Y20 Z0.3 F1500.0 E30 ; draw 2nd line
G92 E0 ; reset extruder
G1 Z1.0 F3000 ; move z up little to prevent scratching of surface
M117 All systems go!
G92 E0
G1 F6000 E-5
;LAYER_COUNT:291
;LAYER:0
M107
M204 S5000
M205 X30 Y30
G0 F7200 X95.799 Y23.515 Z0.2
M204 S500
M205 X20 Y20
;TYPE:SKIRT
G1 F6000 E0
G1 F900 X95.994 Y22.809 E0.02436
G1 X96.268 Y21.967 E0.05381
G1 X96.64 Y21.105 E0.08504
G1 X96.961 Y20.45 E0.1093
G1 X97.386 Y19.674 E0.13873
G1 X97.908 Y18.901 E0.16975
G1 X98.332 Y18.333 E0.19332
G1 X98.893 Y17.648 E0.22277
G1 X99.636 Y16.904 E0.25774
G1 X100.157 Y16.436 E0.28104
G1 X100.842 Y15.875 E0.31049
G1 X101.771 Y15.26 E0.34754
G1 X102.356 Y14.919 E0.37006
G1 X103.14 Y14.509 E0.39949
G1 X104.183 Y14.092 E0.43685
G1 X104.829 Y13.876 E0.45951
G1 X105.681 Y13.633 E0.48897
G1 X106.879 Y13.427 E0.5294
G1 X107.533 Y13.356 E0.55128
G1 X108.697 Y13.3 E0.59004
G1 X109.959 Y13.314 E0.63202
G1 X110.698 Y13.132 E0.65733
G1 X111.574 Y12.999 E0.6868
G1 X111.956 Y12.976 E0.69953
G1 X112.8 Y12.828 E0.72803
G1 X113.875 Y12.748 E0.76389
G1 X114.501 Y12.736 E0.78471
G1 X115.386 Y12.759 E0.81416
G1 X116.265 Y12.862 E0.84359
G1 X116.36 Y12.882 E0.84682
G1 X116.606 Y12.878 E0.855
G1 X117.489 Y12.944 E0.88445
G1 X118.346 Y13.086 E0.91335
G1 X119.015 Y13.228 E0.93609
G1 X120.482 Y13.218 E0.98489
G1 X121.366 Y13.252 E1.01431
G1 X122.244 Y13.366 E1.04376
G1 X122.644 Y13.455 E1.05739
G1 X123.055 Y13.504 E1.07115
G1 X123.921 Y13.688 E1.1006
G1 X124.596 Y13.888 E1.12402
G1 X125.242 Y14.106 E1.14669
G1 X126.067 Y14.427 E1.17614
G1 X127.129 Y14.976 E1.2159
G1 X127.714 Y15.325 E1.23855
G1 X128.453 Y15.812 E1.26799
G1 X129.29 Y16.494 E1.3039
G1 X129.803 Y16.961 E1.32697
G1 X130.43 Y17.586 E1.35642
G1 X131.087 Y18.383 E1.39077
G1 X131.512 Y18.958 E1.41456
G1 X132.005 Y19.693 E1.44399
G1 X132.455 Y20.52 E1.47531
G1 X132.581 Y20.782 E1.48498
G1 X132.996 Y21.328 E1.50779
G1 X133.466 Y22.078 E1.53722
G1 X133.866 Y22.868 E1.56668
G1 X134.194 Y23.69 E1.59611
G1 X134.445 Y24.539 E1.62556
G1 X134.62 Y25.407 E1.65501
G1 X134.715 Y26.287 E1.68445
G1 X134.734 Y26.899 E1.70481
G1 X134.734 Y30.703 E1.83133
G1 X134.694 Y31.587 E1.86077
G1 X134.574 Y32.464 E1.89021
G1 X134.376 Y33.327 E1.91966
G1 X134.101 Y34.168 E1.94909
G1 X134.097 Y34.177 E1.94941
G1 X134.041 Y34.967 E1.97575
G1 X133.938 Y35.846 E2.00519
G1 X133.691 Y36.954 E2.04295
G1 X133.167 Y38.797 E2.10668
G1 X132.887 Y39.637 E2.13613
G1 X132.466 Y40.58 E2.17047
G1 X131.555 Y42.361 E2.23701
G1 X131.117 Y43.13 E2.26644
G1 X130.478 Y44.026 E2.30305
G1 X129.204 Y45.616 E2.37081
G1 X128.62 Y46.281 E2.40025
G1 X127.796 Y47.045 E2.43762
G1 X126.241 Y48.329 E2.5047
G1 X125.533 Y48.861 E2.53415
G1 X124.797 Y49.318 E2.56297
G1 X123.211 Y50.208 E2.62345
G1 X122.42 Y50.606 E2.65291
G1 X121.52 Y50.957 E2.68504
G1 X119.688 Y51.569 E2.74928
G1 X118.837 Y51.811 E2.7787
G1 X117.627 Y52.018 E2.81953
G1 X115.723 Y52.222 E2.88322
G1 X114.839 Y52.277 E2.91268
G1 X113.609 Y52.219 E2.95364
G1 X111.707 Y52.01 E3.01728
G1 X110.832 Y51.874 E3.04673
G1 X109.657 Y51.559 E3.08719
G1 X107.826 Y50.944 E3.15144
G1 X107 Y50.625 E3.18089
G1 X106.117 Y50.182 E3.21374
G1 X104.51 Y49.272 E3.27517
G1 X103.76 Y48.801 E3.30462
G1 X103.065 Y48.273 E3.33365
G1 X101.511 Y46.978 E3.40093
G1 X100.857 Y46.381 E3.43039
G1 X100.107 Y45.539 E3.46789
G1 X98.846 Y43.949 E3.53539
G1 X98.327 Y43.231 E3.56485
G1 X97.772 Y42.269 E3.60179
G1 X96.868 Y40.475 E3.66861
G1 X96.506 Y39.667 E3.69806
G1 X96.184 Y38.712 E3.73158
G1 X95.671 Y36.883 E3.79476
G1 X95.471 Y36.02 E3.82422
G1 X95.33 Y34.904 E3.86163
G1 X95.157 Y32.373 E3.94601
G1 X95.136 Y31.488 E3.97545
G1 X95.173 Y30.827 E3.99747
G1 X95.362 Y28.725 E4.06767
G1 X95.448 Y28.091 E4.08895
G1 X95.415 Y27.713 E4.10157
G1 X95.378 Y26.829 E4.131
G1 X95.418 Y25.974 E4.15947
G1 X95.485 Y25.237 E4.18408
G1 X95.605 Y24.36 E4.21352
G1 X95.62 Y24.295 E4.21574
G0 F810 X95.799 Y23.515
M204 S5000
M205 X30 Y30
G0 F7200 X96.184 Y23.621
M204 S500
M205 X20 Y20
G1 F6000 E4.24235
G1 F900 X96.379 Y22.915 E4.26671
G1 X96.648 Y22.091 E4.29554
G1 X96.999 Y21.281 E4.3249
G1 X97.32 Y20.626 E4.34916
G1 X97.737 Y19.866 E4.37799
G1 X98.228 Y19.14 E4.40714
G1 X98.652 Y18.572 E4.43072
G1 X99.202 Y17.902 E4.45955
G1 X99.903 Y17.202 E4.4925
G1 X100.424 Y16.734 E4.51579
G1 X101.095 Y16.185 E4.54463
G1 X101.972 Y15.606 E4.57958
G1 X102.557 Y15.265 E4.6021
G1 X103.326 Y14.863 E4.63096
G1 X104.31 Y14.471 E4.66619
G1 X104.956 Y14.255 E4.68885
G1 X105.79 Y14.018 E4.71768
G1 X106.922 Y13.825 E4.75588
G1 X107.576 Y13.754 E4.77776
G1 X108.692 Y13.7 E4.81492
G1 X110.004 Y13.714 E4.85856
G1 X110.794 Y13.521 E4.88561
G1 X111.651 Y13.393 E4.91443
G1 X112.032 Y13.372 E4.92712
G1 X112.12 Y13.349 E4.93014
G1 X112.976 Y13.209 E4.95899
G1 X113.883 Y13.148 E4.98923
G1 X114.509 Y13.136 E5.01005
G1 X115.375 Y13.159 E5.03887
G1 X116.236 Y13.262 E5.06771
G1 X116.339 Y13.284 E5.07121
G1 X116.755 Y13.284 E5.08505
G1 X117.619 Y13.365 E5.11391
G1 X118.263 Y13.478 E5.13566
G1 X118.971 Y13.628 E5.15973
G1 X120.484 Y13.618 E5.21005
G1 X121.351 Y13.653 E5.23891
G1 X122.21 Y13.766 E5.26773
G1 X122.583 Y13.851 E5.28045
G1 X123.008 Y13.902 E5.29469
G1 X123.856 Y14.084 E5.32354
G1 X124.468 Y14.267 E5.34478
G1 X125.114 Y14.485 E5.36746
G1 X125.921 Y14.8 E5.39627
G1 X126.924 Y15.319 E5.43383
G1 X127.509 Y15.668 E5.45649
G1 X128.232 Y16.146 E5.48532
G1 X129.021 Y16.79 E5.51919
G1 X129.534 Y17.257 E5.54226
G1 X130.147 Y17.869 E5.57107
G1 X130.765 Y18.621 E5.60345
G1 X131.19 Y19.196 E5.62723
G1 X131.673 Y19.916 E5.65607
G1 X132.095 Y20.694 E5.6855
G1 X132.237 Y20.989 E5.69639
G1 X132.688 Y21.585 E5.72125
G1 X133.144 Y22.322 E5.75008
G1 X133.531 Y23.097 E5.77889
G1 X133.845 Y23.906 E5.80775
G1 X134.083 Y24.739 E5.83657
G1 X134.243 Y25.591 E5.8654
G1 X134.323 Y26.454 E5.89423
G1 X134.334 Y26.899 E5.90903
G1 X134.334 Y30.703 E6.03555
G1 X134.294 Y31.569 E6.06439
G1 X134.174 Y32.428 E6.09324
G1 X133.976 Y33.272 E6.12207
G1 X133.702 Y34.091 E6.15079
G1 X133.642 Y34.938 E6.17904
G1 X133.54 Y35.799 E6.20787
G1 X133.307 Y36.845 E6.24352
G1 X132.783 Y38.688 E6.30724
G1 X132.507 Y39.51 E6.33608
G1 X132.11 Y40.398 E6.36844
G1 X131.199 Y42.179 E6.43497
G1 X130.769 Y42.932 E6.46381
G1 X130.166 Y43.776 E6.49831
G1 X128.892 Y45.366 E6.56608
G1 X128.319 Y46.017 E6.59492
G1 X127.541 Y46.736 E6.63016
G1 X125.986 Y48.02 E6.69723
G1 X125.293 Y48.541 E6.72607
G1 X124.601 Y48.969 E6.75313
G1 X123.015 Y49.859 E6.81362
G1 X122.24 Y50.248 E6.84246
G1 X121.393 Y50.578 E6.87269
G1 X119.561 Y51.19 E6.93694
G1 X118.727 Y51.426 E6.96576
G1 X117.584 Y51.621 E7.00433
G1 X115.68 Y51.825 E7.06802
G1 X114.815 Y51.877 E7.09684
G1 X113.652 Y51.822 E7.13557
G1 X111.75 Y51.613 E7.19921
G1 X110.894 Y51.478 E7.22803
G1 X109.784 Y51.18 E7.26626
G1 X107.953 Y50.565 E7.3305
G1 X107.145 Y50.251 E7.35933
G1 X106.314 Y49.834 E7.39025
G1 X104.707 Y48.924 E7.45168
G1 X103.973 Y48.462 E7.48052
G1 X103.321 Y47.965 E7.50779
G1 X101.767 Y46.67 E7.57507
G1 X101.128 Y46.085 E7.60389
G1 X100.42 Y45.29 E7.63929
G1 X99.159 Y43.7 E7.70679
G1 X98.652 Y42.997 E7.73562
G1 X98.13 Y42.089 E7.77045
G1 X97.226 Y40.295 E7.83727
G1 X96.872 Y39.504 E7.86609
G1 X96.569 Y38.604 E7.89768
G1 X96.056 Y36.775 E7.96086
G1 X95.861 Y35.93 E7.9897
G1 X95.729 Y34.877 E8.025
G1 X95.556 Y32.346 E8.10938
G1 X95.537 Y31.479 E8.13822
G1 X95.572 Y30.863 E8.15874
G1 X95.761 Y28.761 E8.22894
G1 X95.851 Y28.101 E8.25109
G1 X95.814 Y27.679 E8.26518
G1 X95.778 Y26.812 E8.29404
G1 X95.817 Y26.01 E8.32075
G1 X95.884 Y25.273 E8.34536
G1 X96.002 Y24.414 E8.3742
G1 X96.005 Y24.401 E8.37464
G0 F810 X96.184 Y23.621
M204 S5000
M205 X30 Y30
G0 F7200 X96.57 Y23.728
M204 S500
M205 X20 Y20
G1 F6000 E8.40125
G1 F900 X96.765 Y23.022 E8.42561
G1 X97.029 Y22.216 E8.45382
G1 X97.358 Y21.457 E8.48134
G1 X97.679 Y20.802 E8.5056
G1 X98.088 Y20.059 E8.53381
G1 X98.549 Y19.379 E8.56113
G1 X98.973 Y18.811 E8.58471
G1 X99.512 Y18.156 E8.61292
G1 X100.171 Y17.5 E8.64385
G1 X100.692 Y17.032 E8.66714
G1 X101.349 Y16.495 E8.69536
G1 X102.174 Y15.952 E8.72821
G1 X102.759 Y15.611 E8.75073
G1 X103.511 Y15.218 E8.77895
G1 X104.437 Y14.85 E8.8121
G1 X105.083 Y14.634 E8.83475
G1 X105.899 Y14.404 E8.86295
G1 X106.966 Y14.223 E8.89894
G1 X107.62 Y14.152 E8.92082
G1 X108.688 Y14.1 E8.95639
G1 X110.048 Y14.115 E9.00163
G1 X110.064 Y14.11 E9.00218
G1 X110.889 Y13.91 E9.03042
G1 X111.728 Y13.788 E9.05862
G1 X112.106 Y13.769 E9.0712
G1 X112.31 Y13.718 E9.0782
G1 X113.149 Y13.593 E9.10641
G1 X113.891 Y13.548 E9.13114
G1 X114.517 Y13.536 E9.15196
G1 X115.364 Y13.559 E9.18014
G1 X116.206 Y13.663 E9.20836
G1 X116.294 Y13.682 E9.21135
G1 X116.901 Y13.693 E9.23155
G1 X117.744 Y13.788 E9.25976
G1 X118.18 Y13.869 E9.27451
G1 X118.932 Y14.028 E9.30008
G1 X120.487 Y14.018 E9.3518
G1 X121.335 Y14.053 E9.38003
G1 X122.175 Y14.167 E9.40822
G1 X122.516 Y14.246 E9.41986
G1 X122.96 Y14.3 E9.43474
G1 X123.789 Y14.48 E9.46295
G1 X124.34 Y14.646 E9.48209
G1 X124.986 Y14.864 E9.50477
G1 X125.776 Y15.173 E9.53298
G1 X126.719 Y15.663 E9.56833
G1 X127.304 Y16.012 E9.59099
G1 X128.011 Y16.48 E9.61919
G1 X128.752 Y17.086 E9.65102
G1 X129.265 Y17.553 E9.6741
G1 X129.864 Y18.153 E9.7023
G1 X130.444 Y18.858 E9.73266
G1 X130.869 Y19.433 E9.75644
G1 X131.34 Y20.139 E9.78467
G1 X131.735 Y20.868 E9.81225
G1 X131.892 Y21.192 E9.82422
G1 X132.378 Y21.841 E9.85119
G1 X132.821 Y22.564 E9.87939
G1 X133.194 Y23.326 E9.90761
G1 X133.494 Y24.12 E9.93584
G1 X133.718 Y24.938 E9.96405
G1 X133.863 Y25.774 E9.99227
G1 X133.934 Y26.899 E10.02976
G1 X133.934 Y30.703 E10.15628
G1 X133.894 Y31.55 E10.18448
G1 X133.774 Y32.39 E10.21271
G1 X133.576 Y33.215 E10.24093
G1 X133.308 Y33.999 E10.26848
G1 X133.243 Y34.91 E10.29886
G1 X133.143 Y35.752 E10.32706
G1 X132.922 Y36.735 E10.36057
G1 X132.398 Y38.578 E10.4243
G1 X132.128 Y39.382 E10.45251
G1 X131.754 Y40.216 E10.48291
G1 X130.843 Y41.997 E10.54945
G1 X130.421 Y42.733 E10.57766
G1 X129.854 Y43.526 E10.61009
G1 X128.58 Y45.116 E10.67785
G1 X128.018 Y45.752 E10.70608
G1 X127.286 Y46.428 E10.73922
G1 X125.731 Y47.712 E10.80629
G1 X125.053 Y48.221 E10.83449
G1 X124.405 Y48.621 E10.85982
G1 X122.819 Y49.511 E10.92031
G1 X122.061 Y49.89 E10.9485
G1 X121.267 Y50.198 E10.97682
G1 X119.435 Y50.81 E11.04106
G1 X118.618 Y51.041 E11.0693
G1 X117.542 Y51.223 E11.1056
G1 X115.638 Y51.427 E11.16929
G1 X114.791 Y51.477 E11.19751
G1 X113.696 Y51.424 E11.23397
G1 X111.794 Y51.215 E11.29761
G1 X110.956 Y51.083 E11.32583
G1 X109.911 Y50.801 E11.36183
G1 X108.08 Y50.186 E11.42607
G1 X107.29 Y49.878 E11.45427
G1 X106.511 Y49.486 E11.48328
G1 X104.904 Y48.576 E11.5447
G1 X104.187 Y48.123 E11.57291
G1 X103.577 Y47.658 E11.59842
G1 X102.023 Y46.363 E11.6657
G1 X101.398 Y45.79 E11.6939
G1 X100.733 Y45.041 E11.72722
G1 X99.472 Y43.451 E11.79471
G1 X98.977 Y42.763 E11.8229
G1 X98.487 Y41.909 E11.85565
G1 X97.583 Y40.115 E11.92247
G1 X97.237 Y39.34 E11.9507
G1 X96.954 Y38.496 E11.9803
G1 X96.441 Y36.667 E12.04349
G1 X96.251 Y35.84 E12.07171
G1 X96.128 Y34.85 E12.10489
G1 X95.955 Y32.319 E12.18927
G1 X95.937 Y31.471 E12.21748
G1 X95.97 Y30.899 E12.23653
G1 X96.159 Y28.797 E12.30673
G1 X96.253 Y28.115 E12.32963
G1 X96.212 Y27.644 E12.34535
G1 X96.178 Y26.796 E12.37358
G1 X96.215 Y26.046 E12.39855
G1 X96.282 Y25.309 E12.42317
G1 X96.393 Y24.508 E12.45006
G0 F810 X96.398 Y24.469
G0 X96.57 Y23.728
M204 S5000
M205 X30 Y30
G0 F7200 X96.955 Y23.834
M204 S500
M205 X20 Y20
G1 F6000 E12.47667
G1 F900 X97.15 Y23.128 E12.50103
G1 X97.409 Y22.341 E12.52859
G1 X97.718 Y21.633 E12.55428
G1 X98.039 Y20.978 E12.57854
G1 X98.439 Y20.252 E12.60611
G1 X98.869 Y19.619 E12.63156
G1 X99.293 Y19.051 E12.65514
G1 X99.821 Y18.411 E12.68274
G1 X100.438 Y17.797 E12.71169
G1 X100.959 Y17.329 E12.73498
G1 X101.602 Y16.805 E12.76257
G1 X102.375 Y16.297 E12.79333
G1 X102.96 Y15.956 E12.81585
G1 X103.696 Y15.574 E12.84343
G1 X104.564 Y15.23 E12.87449
G1 X105.21 Y15.014 E12.89714
G1 X106.008 Y14.789 E12.92472
G1 X107.009 Y14.62 E12.95849
G1 X107.663 Y14.549 E12.98037
G1 X108.684 Y14.499 E13.01436
G1 X110.108 Y14.514 E13.06173
G1 X110.177 Y14.494 E13.06412
G1 X110.983 Y14.299 E13.0917
G1 X111.804 Y14.182 E13.11928
G1 X112.178 Y14.165 E13.13174
G1 X112.498 Y14.09 E13.14267
G1 X113.32 Y13.978 E13.17026
G1 X113.898 Y13.948 E13.18951
G1 X114.524 Y13.936 E13.21033
G1 X115.353 Y13.96 E13.23792
G1 X116.176 Y14.063 E13.2655
G1 X116.232 Y14.076 E13.26742
G1 X117.042 Y14.105 E13.29437
G1 X118.097 Y14.26 E13.32984
G1 X118.867 Y14.423 E13.35602
G1 X118.888 Y14.429 E13.35675
G1 X120.49 Y14.418 E13.41003
G1 X121.318 Y14.453 E13.43759
G1 X122.139 Y14.567 E13.46516
G1 X122.446 Y14.64 E13.47566
G1 X122.912 Y14.697 E13.49127
G1 X123.722 Y14.876 E13.51886
G1 X124.212 Y15.025 E13.5359
G1 X124.858 Y15.243 E13.55857
G1 X125.63 Y15.546 E13.58616
G1 X126.514 Y16.006 E13.6193
G1 X127.099 Y16.355 E13.64196
G1 X127.79 Y16.814 E13.66955
G1 X128.482 Y17.381 E13.6993
G1 X128.995 Y17.848 E13.72238
G1 X129.581 Y18.436 E13.74999
G1 X130.122 Y19.096 E13.77837
G1 X130.547 Y19.671 E13.80215
G1 X131.007 Y20.361 E13.82974
G1 X131.375 Y21.042 E13.85548
G1 X131.553 Y21.409 E13.86905
G1 X131.573 Y21.432 E13.87006
G1 X132.068 Y22.097 E13.89764
G1 X132.498 Y22.806 E13.92521
G1 X132.857 Y23.553 E13.95278
G1 X133.142 Y24.332 E13.98037
G1 X133.351 Y25.134 E14.00793
G1 X133.482 Y25.953 E14.03552
G1 X133.534 Y26.899 E14.06703
G1 X133.534 Y30.703 E14.19355
G1 X133.494 Y31.531 E14.22113
G1 X133.374 Y32.352 E14.24872
G1 X133.176 Y33.157 E14.2763
G1 X132.913 Y33.908 E14.30276
G1 X132.844 Y34.882 E14.33524
G1 X132.745 Y35.705 E14.36281
G1 X132.537 Y36.626 E14.39421
G1 X132.013 Y38.469 E14.45794
G1 X131.748 Y39.255 E14.48553
G1 X131.397 Y40.033 E14.51392
G1 X130.486 Y41.814 E14.58045
G1 X130.074 Y42.534 E14.60804
G1 X129.541 Y43.276 E14.63843
G1 X128.267 Y44.866 E14.70619
G1 X127.718 Y45.487 E14.73376
G1 X127.032 Y46.119 E14.76479
G1 X125.477 Y47.403 E14.83186
G1 X124.813 Y47.9 E14.85944
G1 X124.21 Y48.272 E14.88301
G1 X122.624 Y49.162 E14.9435
G1 X121.882 Y49.532 E14.97108
G1 X121.14 Y49.819 E14.99754
G1 X119.308 Y50.431 E15.06178
G1 X118.51 Y50.655 E15.08935
G1 X117.499 Y50.825 E15.12344
G1 X115.595 Y51.029 E15.18713
G1 X114.767 Y51.078 E15.21472
G1 X113.74 Y51.027 E15.24892
G1 X111.838 Y50.818 E15.31256
G1 X111.019 Y50.687 E15.34015
G1 X110.039 Y50.421 E15.37392
G1 X108.208 Y49.806 E15.43817
G1 X107.435 Y49.505 E15.46576
G1 X106.708 Y49.137 E15.49286
G1 X105.101 Y48.227 E15.55428
G1 X104.4 Y47.785 E15.58185
G1 X103.833 Y47.351 E15.6056
G1 X102.279 Y46.056 E15.67288
G1 X101.669 Y45.495 E15.70044
G1 X101.047 Y44.793 E15.73163
G1 X99.786 Y43.203 E15.79913
G1 X99.303 Y42.529 E15.82671
G1 X98.844 Y41.729 E15.85739
G1 X97.94 Y39.935 E15.9242
G1 X97.603 Y39.177 E15.95179
G1 X97.34 Y38.388 E15.97946
G1 X96.827 Y36.559 E16.04264
G1 X96.641 Y35.75 E16.07024
G1 X96.527 Y34.822 E16.10134
G1 X96.354 Y32.291 E16.18572
G1 X96.337 Y31.462 E16.2133
G1 X96.369 Y30.935 E16.23086
G1 X96.558 Y28.833 E16.30105
G1 X96.656 Y28.126 E16.32479
G1 X96.611 Y27.609 E16.34205
G1 X96.578 Y26.78 E16.36965
G1 X96.613 Y26.082 E16.39289
G1 X96.68 Y25.345 E16.41751
G1 X96.783 Y24.615 E16.44203
G0 F810 X96.795 Y24.524
G0 X96.955 Y23.834
M204 S5000
M205 X30 Y30
G0 F7200 X97.341 Y23.941
M204 S500
M205 X20 Y20
G1 F6000 E16.46864
G1 F900 X97.536 Y23.235 E16.493
G1 X97.79 Y22.466 E16.51993
G1 X98.077 Y21.809 E16.54378
G1 X98.398 Y21.154 E16.56804
G1 X98.789 Y20.446 E16.59494
G1 X99.19 Y19.858 E16.61861
G1 X99.614 Y19.29 E16.64219
G1 X100.13 Y18.666 E16.66912
G1 X100.705 Y18.095 E16.69607
G1 X101.226 Y17.627 E16.71936
G1 X101.855 Y17.116 E16.74632
G1 X102.577 Y16.643 E16.77503
G1 X103.162 Y16.302 E16.79755
G1 X103.88 Y15.929 E16.82446
G1 X104.691 Y15.609 E16.85346
