;FLAVOR:Marlin
;TIME:11169
;Filament used: 13.1976m
;Layer height: 0.2
;Generated with Cura_SteamEngine 3.6.0
M140 S70
M105
M190 S70
M104 S210
M105
M109 S210
M82 ;absolute extrusion mode
G28 ; home all axes
M117 Purge extruder
G92 E0 ; reset extruder
G1 Z1.0 F3000 ; move z up little to prevent scratching of surface
G1 X0.1 Y20 Z0.3 F5000.0 ; move to start-line position G1 X0.1 Y200.0 Z0.3 F1500.0 E15 ; draw 1st line
G1 X0.4 Y200.0 Z0.3 F5000.0 ; move to side a little
G1 X0.4 Y20 Z0.3 F1500.0 E30 ; draw 2nd line
G92 E0 ; reset extruder
G1 Z1.0 F3000 ; move z up little to prevent scratching of surface
M117 All systems go!
G92 E0
G1 F6000 E-5
;LAYER_COUNT:227
;LAYER:0
M107
M204 S5000
M205 X30 Y30
G0 F7200 X77.458 Y81.154 Z0.2
M204 S500
M205 X20 Y20
;TYPE:SKIRT
G1 F6000 E0
G1 F900 X78.114 Y80.553 E0.03255
G1 X78.822 Y80.015 E0.06508
G1 X79.576 Y79.541 E0.09767
G1 X80.369 Y79.138 E0.13021
G1 X81.195 Y78.807 E0.16277
G1 X82.047 Y78.552 E0.19531
G1 X82.919 Y78.374 E0.22787
G1 X83.803 Y78.276 E0.26041
G1 X84.458 Y78.254 E0.28438
G1 X85.32 Y78.254 E0.31592
G1 X85.73 Y77.996 E0.33364
G1 X86.523 Y77.593 E0.36619
G1 X87.349 Y77.262 E0.39875
G1 X88.201 Y77.007 E0.43128
G1 X89.073 Y76.829 E0.46384
G1 X89.957 Y76.731 E0.49638
G1 X90.612 Y76.709 E0.52036
G1 X144.371 Y76.709 E2.4872
G1 X145.26 Y76.749 E2.51975
G1 X146.141 Y76.869 E2.55228
G1 X147.009 Y77.067 E2.58486
G1 X147.855 Y77.342 E2.6174
G1 X148.673 Y77.692 E2.64995
G1 X149.456 Y78.115 E2.68251
G1 X149.666 Y78.254 E2.69173
G1 X150.541 Y78.254 E2.72374
G1 X151.43 Y78.294 E2.7563
G1 X152.311 Y78.414 E2.78883
G1 X153.179 Y78.612 E2.8214
G1 X154.025 Y78.887 E2.85395
G1 X154.843 Y79.237 E2.8865
G1 X155.626 Y79.66 E2.91906
G1 X156.368 Y80.15 E2.95159
G1 X157.063 Y80.706 E2.98415
G1 X157.541 Y81.154 E3.00812
G1 X157.67 Y81.283 E3.0148
G1 X158.271 Y81.939 E3.04735
G1 X158.809 Y82.647 E3.07988
G1 X159.283 Y83.401 E3.11247
G1 X159.686 Y84.194 E3.14501
G1 X160.017 Y85.02 E3.17757
G1 X160.272 Y85.872 E3.2101
G1 X160.45 Y86.744 E3.24266
G1 X160.548 Y87.628 E3.2752
G1 X160.57 Y88.281 E3.29911
G1 X160.571 Y94.024 E3.50922
G1 X160.531 Y94.913 E3.54178
G1 X160.412 Y95.795 E3.57434
G1 X160.214 Y96.662 E3.60688
G1 X159.938 Y97.508 E3.63944
G1 X159.588 Y98.326 E3.67199
G1 X159.166 Y99.109 E3.70453
G1 X158.676 Y99.852 E3.73709
G1 X158.12 Y100.547 E3.76966
G1 X157.671 Y101.026 E3.79368
G1 X157.542 Y101.155 E3.80035
G1 X156.886 Y101.756 E3.8329
G1 X156.178 Y102.294 E3.86543
G1 X155.424 Y102.768 E3.89802
G1 X154.631 Y103.171 E3.93056
G1 X154.417 Y103.257 E3.939
G1 X154.418 Y129.86 E4.9123
G1 X154.851 Y130.046 E4.92954
G1 X155.634 Y130.469 E4.9621
G1 X156.376 Y130.96 E4.99466
G1 X157.07 Y131.516 E5.02719
G1 X157.542 Y131.959 E5.05087
G1 X157.671 Y132.088 E5.05755
G1 X158.272 Y132.744 E5.0901
G1 X158.81 Y133.452 E5.12263
G1 X159.284 Y134.206 E5.15522
G1 X159.687 Y134.999 E5.18776
G1 X160.018 Y135.825 E5.22032
G1 X160.273 Y136.677 E5.25285
G1 X160.451 Y137.549 E5.28542
G1 X160.549 Y138.433 E5.31796
G1 X160.571 Y139.088 E5.34193
G1 X160.571 Y144.826 E5.55186
G1 X160.531 Y145.715 E5.58442
G1 X160.411 Y146.596 E5.61695
G1 X160.213 Y147.464 E5.64952
G1 X159.938 Y148.31 E5.68207
G1 X159.588 Y149.128 E5.71462
G1 X159.165 Y149.911 E5.74718
G1 X158.675 Y150.653 E5.77971
G1 X158.119 Y151.348 E5.81228
G1 X157.671 Y151.826 E5.83625
G1 X157.542 Y151.955 E5.84292
G1 X156.886 Y152.556 E5.87547
G1 X156.178 Y153.094 E5.908
G1 X155.424 Y153.568 E5.94059
G1 X154.631 Y153.971 E5.97313
G1 X153.805 Y154.302 E6.00569
G1 X152.953 Y154.557 E6.03823
G1 X152.081 Y154.735 E6.07079
G1 X151.883 Y154.757 E6.07808
G1 X151.517 Y155.147 E6.09764
G1 X151.388 Y155.276 E6.10432
G1 X150.732 Y155.877 E6.13687
G1 X150.024 Y156.415 E6.1694
G1 X149.27 Y156.889 E6.20199
G1 X148.477 Y157.292 E6.23453
G1 X147.651 Y157.623 E6.26709
G1 X146.799 Y157.878 E6.29962
G1 X145.927 Y158.056 E6.33218
G1 X145.043 Y158.154 E6.36473
G1 X144.387 Y158.176 E6.38874
G1 X126.276 Y158.175 E7.05135
G1 X125.388 Y158.135 E7.08387
G1 X124.506 Y158.015 E7.11644
G1 X123.639 Y157.817 E7.14898
G1 X122.793 Y157.542 E7.18152
G1 X121.975 Y157.191 E7.21409
G1 X121.192 Y156.769 E7.24663
G1 X120.45 Y156.278 E7.27918
G1 X119.755 Y155.723 E7.31172
G1 X119.277 Y155.275 E7.33569
G1 X119.148 Y155.146 E7.34237
G1 X118.547 Y154.49 E7.37492
G1 X118.009 Y153.782 E7.40745
G1 X117.535 Y153.028 E7.44003
G1 X117.497 Y152.952 E7.44314
G1 X117.346 Y153.231 E7.45475
G1 X116.856 Y153.973 E7.48728
G1 X116.3 Y154.668 E7.51984
G1 X115.852 Y155.146 E7.54381
G1 X115.723 Y155.275 E7.55049
G1 X115.067 Y155.876 E7.58304
G1 X114.359 Y156.414 E7.61557
G1 X113.605 Y156.888 E7.64815
G1 X112.812 Y157.291 E7.6807
G1 X111.986 Y157.622 E7.71325
G1 X111.134 Y157.877 E7.74579
G1 X110.262 Y158.055 E7.77835
G1 X109.378 Y158.153 E7.81089
G1 X108.724 Y158.175 E7.83483
G1 X90.613 Y158.176 E8.49745
G1 X89.724 Y158.136 E8.53
G1 X88.842 Y158.017 E8.56257
G1 X87.975 Y157.818 E8.59511
G1 X87.129 Y157.543 E8.62766
G1 X86.311 Y157.193 E8.66021
G1 X85.528 Y156.771 E8.69275
G1 X84.785 Y156.28 E8.72533
G1 X84.09 Y155.724 E8.7579
G1 X83.612 Y155.276 E8.78187
G1 X83.483 Y155.147 E8.78854
G1 X83.118 Y154.749 E8.8083
G1 X82.679 Y154.689 E8.82451
G1 X81.812 Y154.49 E8.85705
G1 X80.966 Y154.214 E8.88961
G1 X80.149 Y153.863 E8.92214
G1 X79.366 Y153.44 E8.9547
G1 X78.624 Y152.949 E8.98726
G1 X77.93 Y152.393 E9.01979
G1 X77.458 Y151.95 E9.04347
G1 X77.329 Y151.821 E9.05015
G1 X76.728 Y151.165 E9.0827
G1 X76.19 Y150.457 E9.11523
G1 X75.716 Y149.703 E9.14781
G1 X75.313 Y148.91 E9.18036
G1 X74.982 Y148.084 E9.21292
G1 X74.727 Y147.232 E9.24545
G1 X74.549 Y146.36 E9.27801
G1 X74.451 Y145.476 E9.31055
G1 X74.429 Y144.821 E9.33453
G1 X74.429 Y139.083 E9.54446
G1 X74.469 Y138.194 E9.57702
G1 X74.589 Y137.313 E9.60955
G1 X74.787 Y136.445 E9.64212
G1 X75.062 Y135.599 E9.67467
G1 X75.412 Y134.781 E9.70722
G1 X75.835 Y133.998 E9.73978
G1 X76.325 Y133.256 E9.77231
G1 X76.881 Y132.561 E9.80488
G1 X77.329 Y132.083 E9.82884
G1 X77.458 Y131.954 E9.83552
G1 X78.114 Y131.353 E9.86807
G1 X78.822 Y130.815 E9.9006
G1 X79.576 Y130.341 E9.93319
G1 X80.369 Y129.938 E9.96573
G1 X80.583 Y129.852 E9.97417
G1 X80.583 Y103.249 E10.94747
G1 X80.149 Y103.063 E10.96475
G1 X79.366 Y102.64 E10.99731
G1 X78.624 Y102.149 E11.02986
G1 X77.93 Y101.593 E11.06239
G1 X77.458 Y101.15 E11.08608
G1 X77.329 Y101.021 E11.09275
G1 X76.728 Y100.365 E11.1253
G1 X76.19 Y99.657 E11.15783
G1 X75.716 Y98.903 E11.19042
G1 X75.313 Y98.11 E11.22296
G1 X74.982 Y97.284 E11.25552
G1 X74.727 Y96.432 E11.28806
G1 X74.549 Y95.56 E11.32062
G1 X74.451 Y94.676 E11.35316
G1 X74.429 Y94.021 E11.37713
G1 X74.429 Y88.283 E11.58707
G1 X74.469 Y87.394 E11.61962
G1 X74.589 Y86.513 E11.65215
G1 X74.787 Y85.645 E11.68473
G1 X75.062 Y84.799 E11.71727
G1 X75.412 Y83.981 E11.74982
G1 X75.835 Y83.198 E11.78238
G1 X76.325 Y82.456 E11.81492
G1 X76.881 Y81.761 E11.84748
G1 X76.957 Y81.68 E11.85154
G0 F810 X77.329 Y81.283
G0 X77.458 Y81.154
M204 S5000
M205 X30 Y30
G0 F7200 X77.769 Y81.465
M204 S500
M205 X20 Y20
G1 F6000 E11.87814
G1 F900 X78.411 Y80.879 E11.90994
G1 X79.105 Y80.354 E11.94178
G1 X79.844 Y79.895 E11.97361
G1 X80.622 Y79.507 E12.00542
G1 X81.432 Y79.191 E12.03723
G1 X82.268 Y78.951 E12.06905
G1 X83.123 Y78.789 E12.10088
G1 X83.988 Y78.706 E12.13268
G1 X84.458 Y78.694 E12.14988
G1 X85.444 Y78.694 E12.18595
G1 X85.998 Y78.35 E12.20981
G1 X86.776 Y77.962 E12.24162
G1 X87.586 Y77.646 E12.27343
G1 X88.422 Y77.406 E12.30525
G1 X89.277 Y77.244 E12.33709
G1 X90.142 Y77.161 E12.36888
G1 X90.612 Y77.149 E12.38608
G1 X144.371 Y77.149 E14.35292
G1 X145.24 Y77.189 E14.38474
G1 X146.101 Y77.309 E14.41655
G1 X146.948 Y77.507 E14.44837
G1 X147.773 Y77.782 E14.48019
G1 X148.569 Y78.132 E14.512
G1 X149.33 Y78.553 E14.54382
G1 X149.537 Y78.694 E14.55298
G1 X150.541 Y78.694 E14.58972
G1 X151.41 Y78.734 E14.62154
G1 X152.271 Y78.854 E14.65335
G1 X153.118 Y79.052 E14.68517
G1 X153.943 Y79.327 E14.71699
G1 X154.739 Y79.677 E14.7488
G1 X155.5 Y80.098 E14.78062
G1 X156.219 Y80.588 E14.81245
G1 X156.89 Y81.141 E14.84427
G1 X157.23 Y81.465 E14.86145
G1 X157.359 Y81.594 E14.86812
G1 X157.945 Y82.236 E14.89992
G1 X158.47 Y82.93 E14.93176
G1 X158.929 Y83.669 E14.96359
G1 X159.317 Y84.447 E14.9954
G1 X159.633 Y85.257 E15.02721
G1 X159.873 Y86.093 E15.05903
G1 X160.035 Y86.948 E15.09087
G1 X160.118 Y87.813 E15.12266
G1 X160.13 Y88.281 E15.13979
G1 X160.131 Y94.024 E15.3499
G1 X160.091 Y94.893 E15.38173
G1 X159.972 Y95.755 E15.41356
G1 X159.774 Y96.601 E15.44535
G1 X159.499 Y97.427 E15.4772
G1 X159.149 Y98.223 E15.50902
G1 X158.728 Y98.984 E15.54084
G1 X158.238 Y99.703 E15.57267
G1 X157.685 Y100.374 E15.60448
G1 X157.36 Y100.715 E15.62172
G1 X157.231 Y100.844 E15.62839
G1 X156.589 Y101.43 E15.66019
G1 X155.895 Y101.955 E15.69203
G1 X155.156 Y102.414 E15.72386
G1 X154.378 Y102.802 E15.75567
G1 X153.977 Y102.958 E15.77141
G1 X153.978 Y130.147 E16.76615
G1 X154.747 Y130.485 E16.79688
G1 X155.508 Y130.907 E16.82872
G1 X156.226 Y131.397 E16.86052
G1 X156.897 Y131.951 E16.89236
G1 X157.231 Y132.27 E16.90925
G1 X157.36 Y132.399 E16.91593
G1 X157.946 Y133.041 E16.94773
G1 X158.471 Y133.735 E16.97957
G1 X158.93 Y134.474 E17.01139
G1 X159.318 Y135.252 E17.0432
G1 X159.634 Y136.062 E17.07501
G1 X159.874 Y136.898 E17.10683
G1 X160.036 Y137.753 E17.13867
G1 X160.119 Y138.618 E17.17046
G1 X160.131 Y139.088 E17.18767
G1 X160.131 Y144.826 E17.3976
G1 X160.091 Y145.695 E17.42942
G1 X159.971 Y146.556 E17.46123
G1 X159.773 Y147.403 E17.49305
G1 X159.498 Y148.228 E17.52487
G1 X159.148 Y149.024 E17.55668
G1 X158.727 Y149.785 E17.5885
G1 X158.237 Y150.504 E17.62033
G1 X157.684 Y151.175 E17.65215
G1 X157.36 Y151.515 E17.66933
G1 X157.231 Y151.644 E17.676
G1 X156.589 Y152.23 E17.70781
G1 X155.895 Y152.755 E17.73964
G1 X155.156 Y153.214 E17.77147
G1 X154.378 Y153.602 E17.80328
G1 X153.568 Y153.918 E17.83509
G1 X152.732 Y154.158 E17.86691
G1 X151.877 Y154.32 E17.89875
G1 X151.658 Y154.341 E17.9068
G1 X151.53 Y154.496 E17.91415
G1 X151.206 Y154.836 E17.93133
G1 X151.077 Y154.965 E17.93801
G1 X150.435 Y155.551 E17.96981
G1 X149.741 Y156.076 E18.00165
G1 X149.002 Y156.535 E18.03348
G1 X148.224 Y156.923 E18.06528
G1 X147.414 Y157.239 E18.09709
G1 X146.578 Y157.479 E18.12891
G1 X145.723 Y157.641 E18.16075
G1 X144.858 Y157.724 E18.19254
G1 X144.387 Y157.736 E18.20978
G1 X126.276 Y157.735 E18.87239
G1 X125.408 Y157.695 E18.90418
G1 X124.546 Y157.575 E18.93603
G1 X123.699 Y157.377 E18.96785
G1 X122.874 Y157.102 E18.99967
G1 X122.078 Y156.752 E19.03148
G1 X121.317 Y156.331 E19.0633
G1 X120.598 Y155.841 E19.09513
G1 X119.928 Y155.288 E19.12692
G1 X119.588 Y154.964 E19.1441
G1 X119.459 Y154.835 E19.15077
G1 X118.873 Y154.193 E19.18257
G1 X118.348 Y153.499 E19.21441
G1 X117.889 Y152.76 E19.24624
G1 X117.501 Y151.982 E19.27805
G1 X117.495 Y151.967 E19.27864
G1 X117.329 Y152.344 E19.29371
G1 X116.908 Y153.105 E19.32553
G1 X116.418 Y153.824 E19.35736
G1 X115.865 Y154.495 E19.38917
G1 X115.541 Y154.835 E19.40636
G1 X115.412 Y154.964 E19.41303
G1 X114.77 Y155.55 E19.44483
G1 X114.076 Y156.075 E19.47667
G1 X113.337 Y156.534 E19.5085
G1 X112.559 Y156.922 E19.54031
G1 X111.749 Y157.238 E19.57212
G1 X110.913 Y157.478 E19.60394
G1 X110.058 Y157.64 E19.63577
G1 X109.193 Y157.723 E19.66757
G1 X108.724 Y157.735 E19.68473
G1 X90.613 Y157.736 E20.34734
G1 X89.744 Y157.696 E20.37917
G1 X88.882 Y157.577 E20.41101
G1 X88.035 Y157.378 E20.44284
G1 X87.21 Y157.103 E20.47466
G1 X86.414 Y156.754 E20.50645
G1 X85.653 Y156.332 E20.53829
G1 X84.934 Y155.843 E20.5701
G1 X84.263 Y155.289 E20.60194
G1 X83.923 Y154.965 E20.61912
G1 X83.794 Y154.836 E20.6258
G1 X83.337 Y154.335 E20.65061
G1 X82.72 Y154.249 E20.6734
G1 X81.873 Y154.05 E20.70523
G1 X81.049 Y153.774 E20.73702
G1 X80.253 Y153.424 E20.76884
G1 X79.492 Y153.002 E20.80067
G1 X78.774 Y152.512 E20.83248
G1 X78.103 Y151.958 E20.86431
G1 X77.769 Y151.639 E20.88121
G1 X77.64 Y151.51 E20.88788
G1 X77.054 Y150.868 E20.91969
G1 X76.529 Y150.174 E20.95152
G1 X76.07 Y149.435 E20.98335
G1 X75.682 Y148.657 E21.01516
G1 X75.366 Y147.847 E21.04697
G1 X75.126 Y147.011 E21.07879
G1 X74.964 Y146.156 E21.11063
G1 X74.881 Y145.291 E21.14242
G1 X74.869 Y144.821 E21.15962
G1 X74.869 Y139.083 E21.36955
G1 X74.909 Y138.214 E21.40138
G1 X75.029 Y137.353 E21.43318
G1 X75.227 Y136.506 E21.46501
G1 X75.502 Y135.681 E21.49682
G1 X75.852 Y134.885 E21.52864
G1 X76.273 Y134.124 E21.56046
G1 X76.763 Y133.405 E21.59229
G1 X77.316 Y132.734 E21.6241
G1 X77.64 Y132.394 E21.64129
G1 X77.769 Y132.265 E21.64796
G1 X78.411 Y131.679 E21.67976
G1 X79.105 Y131.154 E21.7116
G1 X79.844 Y130.695 E21.74343
G1 X80.622 Y130.307 E21.77523
G1 X81.023 Y130.151 E21.79098
G1 X81.023 Y102.963 E22.78568
G1 X80.253 Y102.624 E22.81646
G1 X79.492 Y102.202 E22.8483
G1 X78.774 Y101.712 E22.8801
G1 X78.103 Y101.158 E22.91194
G1 X77.769 Y100.839 E22.92883
G1 X77.64 Y100.71 E22.93551
G1 X77.054 Y100.068 E22.96731
G1 X76.529 Y99.374 E22.99915
G1 X76.07 Y98.635 E23.03098
G1 X75.682 Y97.857 E23.06278
G1 X75.366 Y97.047 E23.09459
G1 X75.126 Y96.211 E23.12641
G1 X74.964 Y95.356 E23.15825
G1 X74.881 Y94.491 E23.19004
G1 X74.869 Y94.021 E23.20725
G1 X74.869 Y88.283 E23.41718
G1 X74.909 Y87.414 E23.449
G1 X75.029 Y86.553 E23.48081
G1 X75.227 Y85.706 E23.51263
G1 X75.502 Y84.881 E23.54445
G1 X75.852 Y84.085 E23.57626
G1 X76.273 Y83.324 E23.60808
G1 X76.763 Y82.605 E23.63991
G1 X77.268 Y81.992 E23.66897
G0 F810 X77.316 Y81.934
G0 X77.64 Y81.594
G0 X77.769 Y81.465
M204 S5000
M205 X30 Y30
G0 F7200 X78.08 Y81.776
M204 S500
M205 X20 Y20
G1 F6000 E23.69557
G1 F900 X78.708 Y81.204 E23.72665
G1 X79.387 Y80.694 E23.75772
G1 X80.111 Y80.251 E23.78877
G1 X80.874 Y79.877 E23.81986
G1 X81.668 Y79.576 E23.85093
G1 X82.487 Y79.352 E23.88199
G1 X83.324 Y79.206 E23.91308
G1 X84.458 Y79.134 E23.95465
G1 X85.566 Y79.134 E23.99519
G1 X86.265 Y78.706 E24.02517
G1 X87.028 Y78.332 E24.05626
G1 X87.822 Y78.031 E24.08733
G1 X88.641 Y77.807 E24.11839
G1 X89.478 Y77.661 E24.14948
G1 X90.612 Y77.589 E24.19105
G1 X144.371 Y77.589 E26.15788
G1 X145.219 Y77.629 E26.18894
G1 X146.06 Y77.749 E26.22002
G1 X146.886 Y77.947 E26.2511
G1 X147.689 Y78.222 E26.28215
G1 X148.463 Y78.571 E26.31322
G1 X149.201 Y78.991 E26.34428
G1 X149.405 Y79.134 E26.3534
G1 X150.541 Y79.134 E26.39496
G1 X151.389 Y79.174 E26.42602
G1 X152.23 Y79.294 E26.4571
G1 X153.056 Y79.492 E26.48818
G1 X153.859 Y79.767 E26.51923
G1 X154.633 Y80.116 E26.55029
G1 X155.371 Y80.536 E26.58136
G1 X156.066 Y81.024 E26.61243
G1 X156.919 Y81.776 E26.65403
G1 X157.048 Y81.905 E26.66071
G1 X157.62 Y82.533 E26.69179
G1 X158.13 Y83.212 E26.72286
G1 X158.573 Y83.936 E26.75391
G1 X158.947 Y84.699 E26.785
G1 X159.248 Y85.493 E26.81607
G1 X159.472 Y86.312 E26.84713
G1 X159.618 Y87.149 E26.87821
G1 X159.69 Y88.281 E26.91971
G1 X159.691 Y94.024 E27.12983
G1 X159.651 Y94.873 E27.16092
G1 X159.532 Y95.714 E27.192
G1 X159.334 Y96.539 E27.22304
G1 X159.059 Y97.343 E27.25413
G1 X158.71 Y98.117 E27.28519
G1 X158.289 Y98.855 E27.31628
G1 X157.802 Y99.55 E27.34733
G1 X157.049 Y100.404 E27.38898
G1 X156.92 Y100.533 E27.39566
G1 X156.292 Y101.105 E27.42673
G1 X155.613 Y101.615 E27.4578
G1 X154.889 Y102.058 E27.48886
G1 X154.126 Y102.432 E27.51995
G1 X153.537 Y102.655 E27.54299
G1 X153.538 Y130.461 E28.5603
G1 X153.867 Y130.574 E28.57303
G1 X154.641 Y130.924 E28.60411
G1 X155.379 Y131.345 E28.63519
G1 X156.073 Y131.834 E28.66625
G1 X156.92 Y132.581 E28.70757
G1 X157.049 Y132.71 E28.71425
G1 X157.621 Y133.338 E28.74532
G1 X158.131 Y134.017 E28.77639
G1 X158.574 Y134.741 E28.80745
G1 X158.948 Y135.504 E28.83853
G1 X159.249 Y136.298 E28.8696
G1 X159.473 Y137.117 E28.90067
G1 X159.619 Y137.954 E28.93175
G1 X159.691 Y139.088 E28.97332
G1 X159.691 Y144.826 E29.18325
G1 X159.651 Y145.674 E29.21431
G1 X159.531 Y146.515 E29.24539
G1 X159.333 Y147.341 E29.27647
G1 X159.058 Y148.144 E29.30752
G1 X158.709 Y148.918 E29.33859
G1 X158.289 Y149.656 E29.36965
G1 X157.801 Y150.351 E29.40072
G1 X157.049 Y151.204 E29.44233
G1 X156.92 Y151.333 E29.449
G1 X156.292 Y151.905 E29.48008
G1 X155.613 Y152.415 E29.51115
G1 X154.889 Y152.858 E29.5422
G1 X154.126 Y153.232 E29.57329
G1 X153.332 Y153.533 E29.60436
