;FLAVOR:Marlin
;TIME:12712
;Filament used: 14.3192m
;Layer height: 0.2
;Generated with Cura_SteamEngine 3.6.0
M140 S70
M105
M190 S70
M104 S215
M105
M109 S215
M82 ;absolute extrusion mode
G28 ; home all axes
M117 Purge extruder
G92 E0 ; reset extruder
G1 Z1.0 F3000 ; move z up little to prevent scratching of surface
G1 X0.1 Y20 Z0.3 F5000.0 ; move to start-line position G1 X0.1 Y200.0 Z0.3 F1500.0 E15 ; draw 1st line
G1 X0.4 Y200.0 Z0.3 F5000.0 ; move to side a little
G1 X0.4 Y20 Z0.3 F1500.0 E30 ; draw 2nd line
G92 E0 ; reset extruder
G1 Z1.0 F3000 ; move z up little to prevent scratching of surface
M117 All systems go!
G92 E0
G1 F6000 E-5
;LAYER_COUNT:251
;LAYER:0
M107
M204 S5000
M205 X30 Y30
G0 F7200 X82.68 Y70.787 Z0.2
M204 S500
M205 X20 Y20
;TYPE:SKIRT
G1 F6000 E0
G1 F900 X83.257 Y70.271 E0.02832
G1 X83.376 Y70.18 E0.0338
G1 X83.905 Y69.826 E0.05709
G1 X84.473 Y69.541 E0.08034
G1 X85.073 Y69.33 E0.10361
G1 X85.695 Y69.196 E0.12689
G1 X86.45 Y69.139 E0.15459
G1 X148.968 Y69.139 E2.44188
G1 X149.603 Y69.179 E2.46516
G1 X150.227 Y69.298 E2.4884
G1 X150.832 Y69.495 E2.51168
G1 X151.451 Y69.79 E2.53677
G1 X151.554 Y69.848 E2.54109
G1 X152.087 Y70.194 E2.56434
G1 X152.573 Y70.605 E2.58763
G1 X153.003 Y71.073 E2.61088
G1 X153.477 Y71.768 E2.64166
G1 X155.357 Y75.096 E2.7815
G1 X155.634 Y75.668 E2.80475
G1 X155.837 Y76.271 E2.82803
G1 X155.964 Y76.894 E2.85129
G1 X156.011 Y77.528 E2.87455
G1 X155.978 Y78.164 E2.89785
G1 X155.839 Y78.894 E2.92504
G1 X153.557 Y87.417 E3.24785
G1 X153.354 Y88.019 E3.27109
G1 X153.077 Y88.592 E3.29438
G1 X152.731 Y89.125 E3.31762
G1 X152.32 Y89.611 E3.34091
G1 X151.743 Y90.127 E3.36923
G1 X151.624 Y90.218 E3.37471
G1 X151.095 Y90.572 E3.398
G1 X150.527 Y90.857 E3.42125
G1 X149.927 Y91.068 E3.44452
G1 X149.305 Y91.202 E3.4678
G1 X148.55 Y91.259 E3.4955
G1 X111.918 Y91.259 E4.83572
G1 X109.805 Y93.371 E4.94502
G1 X118.732 Y108.833 E5.59823
G1 X119.753 Y108.089 E5.64445
G1 X120.289 Y107.748 E5.6677
G1 X120.865 Y107.477 E5.69099
G1 X121.469 Y107.28 E5.71423
G1 X122.094 Y107.16 E5.73751
G1 X122.731 Y107.12 E5.76086
G1 X125.675 Y107.12 E5.86857
G1 X126.31 Y107.16 E5.89185
G1 X126.934 Y107.279 E5.91509
G1 X127.539 Y107.476 E5.93837
G1 X128.114 Y107.747 E5.96163
G1 X128.653 Y108.089 E5.98498
G1 X131.035 Y109.823 E6.09278
G1 X131.525 Y110.229 E6.11606
G1 X131.959 Y110.693 E6.1393
G1 X132.333 Y111.208 E6.16259
G1 X132.638 Y111.766 E6.18585
G1 X132.868 Y112.347 E6.20872
G1 X133.779 Y115.144 E6.31634
G1 X133.938 Y115.76 E6.33961
G1 X134.018 Y116.391 E6.36289
G1 X134.018 Y117.027 E6.38615
G1 X133.939 Y117.658 E6.40942
G1 X133.779 Y118.278 E6.43285
G1 X132.868 Y121.075 E6.54047
G1 X132.634 Y121.666 E6.56372
G1 X132.327 Y122.223 E6.58699
G1 X131.953 Y122.737 E6.61025
G1 X131.517 Y123.2 E6.63352
G1 X131.035 Y123.599 E6.65641
G1 X128.988 Y125.089 E6.74904
G1 X128.451 Y125.43 E6.77231
G1 X128.343 Y125.481 E6.77668
G1 X147.146 Y158.051 E8.15261
G1 X147.429 Y158.621 E8.1759
G1 X147.638 Y159.221 E8.19914
G1 X147.77 Y159.843 E8.22241
G1 X147.823 Y160.477 E8.24568
G1 X147.796 Y161.112 E8.26894
G1 X147.69 Y161.739 E8.2922
G1 X147.505 Y162.348 E8.31549
G1 X147.155 Y163.096 E8.3457
G1 X147.029 Y163.316 E8.35498
G1 X146.679 Y163.847 E8.37824
G1 X146.265 Y164.329 E8.40149
G1 X145.794 Y164.756 E8.42475
G1 X145.273 Y165.121 E8.44802
G1 X144.71 Y165.417 E8.4713
G1 X144.115 Y165.641 E8.49456
G1 X143.496 Y165.788 E8.51783
G1 X142.638 Y165.861 E8.54934
G1 X129.104 Y165.861 E9.04449
G1 X128.469 Y165.821 E9.06777
G1 X127.845 Y165.702 E9.09101
G1 X127.24 Y165.505 E9.11429
G1 X126.621 Y165.21 E9.13938
G1 X126.518 Y165.152 E9.1437
G1 X125.985 Y164.806 E9.16695
G1 X125.499 Y164.395 E9.19024
G1 X125.069 Y163.927 E9.21349
G1 X124.618 Y163.271 E9.24262
G1 X114.005 Y144.872 E10.01973
G1 X112.978 Y145.62 E10.06621
G1 X112.442 Y145.961 E10.08945
G1 X111.866 Y146.232 E10.11274
G1 X111.262 Y146.429 E10.13598
G1 X110.637 Y146.549 E10.15927
G1 X110 Y146.589 E10.18262
G1 X107.056 Y146.589 E10.29033
G1 X106.421 Y146.549 E10.31361
G1 X105.797 Y146.43 E10.33685
G1 X105.192 Y146.233 E10.36013
G1 X104.617 Y145.962 E10.38338
G1 X104.026 Y145.581 E10.40911
G1 X101.623 Y143.784 E10.51889
G1 X101.138 Y143.372 E10.54217
G1 X100.71 Y142.903 E10.5654
G1 X100.267 Y142.255 E10.59412
G1 X95.567 Y134.084 E10.93899
G1 X95.285 Y133.514 E10.96226
G1 X95.164 Y133.195 E10.97474
G1 X94.195 Y130.355 E11.08453
G1 X94.028 Y129.741 E11.10781
G1 X93.939 Y129.112 E11.13105
G1 X93.93 Y128.476 E11.15432
G1 X94.001 Y127.844 E11.17759
G1 X94.173 Y127.154 E11.20361
G1 X95.084 Y124.357 E11.31123
G1 X95.318 Y123.766 E11.33448
G1 X95.625 Y123.209 E11.35775
G1 X95.999 Y122.695 E11.38101
G1 X96.435 Y122.232 E11.40428
G1 X96.917 Y121.833 E11.42717
G1 X98.965 Y120.342 E11.51985
G1 X99.501 Y120.001 E11.54309
G1 X99.625 Y119.942 E11.54812
G1 X79.666 Y85.34 E13.00958
G1 X79.383 Y84.771 E13.03283
G1 X79.175 Y84.17 E13.0561
G1 X79.043 Y83.548 E13.07936
G1 X78.99 Y82.914 E13.10264
G1 X79.017 Y82.279 E13.12589
G1 X79.161 Y81.503 E13.15477
G1 X81.443 Y72.981 E13.47754
G1 X81.646 Y72.378 E13.50082
G1 X81.923 Y71.806 E13.52407
G1 X82.22 Y71.349 E13.54401
G0 F810 X82.269 Y71.273
G0 X82.68 Y70.787
M204 S5000
M205 X30 Y30
G0 F7200 X83.073 Y71.014
M204 S500
M205 X20 Y20
G1 F6000 E13.57061
G1 F900 X83.525 Y70.62 E13.59254
G1 X83.644 Y70.529 E13.59802
G1 X84.149 Y70.193 E13.62022
G1 X84.695 Y69.925 E13.64247
G1 X85.271 Y69.732 E13.66469
G1 X85.868 Y69.616 E13.68694
G1 X86.45 Y69.579 E13.70828
G1 X148.968 Y69.579 E15.99557
G1 X149.574 Y69.619 E16.01779
G1 X150.17 Y69.738 E16.04003
G1 X150.745 Y69.934 E16.06225
G1 X151.235 Y70.173 E16.0822
G1 X151.338 Y70.231 E16.08653
G1 X151.847 Y70.564 E16.10878
G1 X152.307 Y70.96 E16.13099
G1 X152.712 Y71.413 E16.15322
G1 X153.094 Y71.985 E16.17838
G1 X154.974 Y75.313 E16.31823
G1 X155.237 Y75.86 E16.34043
G1 X155.426 Y76.438 E16.36268
G1 X155.538 Y77.035 E16.3849
G1 X155.571 Y77.642 E16.40714
G1 X155.523 Y78.247 E16.42935
G1 X155.414 Y78.78 E16.44925
G1 X153.132 Y87.303 E16.77206
G1 X152.936 Y87.878 E16.79428
G1 X152.667 Y88.423 E16.81652
G1 X152.329 Y88.928 E16.83875
G1 X151.927 Y89.384 E16.86099
G1 X151.475 Y89.778 E16.88293
G1 X151.356 Y89.869 E16.88841
G1 X150.851 Y90.205 E16.9106
G1 X150.305 Y90.473 E16.93286
G1 X149.729 Y90.666 E16.95508
G1 X149.132 Y90.782 E16.97733
G1 X148.55 Y90.819 E16.99867
G1 X111.736 Y90.819 E18.34555
G1 X109.256 Y93.299 E18.47387
G1 X118.602 Y109.488 E19.15778
G1 X118.736 Y109.374 E19.16421
G1 X120.012 Y108.445 E19.22196
G1 X120.525 Y108.12 E19.24418
G1 X121.077 Y107.866 E19.26641
G1 X121.658 Y107.686 E19.28866
G1 X122.257 Y107.584 E19.31089
G1 X122.731 Y107.56 E19.32826
G1 X125.675 Y107.56 E19.43597
G1 X126.281 Y107.6 E19.45818
G1 X126.877 Y107.719 E19.48042
G1 X127.452 Y107.915 E19.50265
G1 X127.996 Y108.186 E19.52488
G1 X128.394 Y108.445 E19.54225
G1 X130.776 Y110.179 E19.65005
G1 X131.243 Y110.568 E19.67229
G1 X131.654 Y111.015 E19.6945
G1 X132.004 Y111.512 E19.71674
G1 X132.285 Y112.051 E19.73898
G1 X132.45 Y112.483 E19.7559
G1 X133.361 Y115.28 E19.86352
G1 X133.511 Y115.869 E19.88576
G1 X133.582 Y116.473 E19.90801
G1 X133.573 Y117.08 E19.93022
G1 X133.485 Y117.681 E19.95244
G1 X133.361 Y118.142 E19.96991
G1 X132.45 Y120.939 E20.07753
G1 X132.224 Y121.503 E20.09976
G1 X131.926 Y122.033 E20.12201
G1 X131.561 Y122.518 E20.14421
G1 X131.136 Y122.952 E20.16644
G1 X130.776 Y123.243 E20.18337
G1 X128.729 Y124.733 E20.276
G1 X128.215 Y125.058 E20.29825
G1 X127.722 Y125.285 E20.31811
G1 X146.765 Y158.271 E21.71161
G1 X147.034 Y158.816 E21.73385
G1 X147.228 Y159.392 E21.75608
G1 X147.346 Y159.988 E21.77831
G1 X147.384 Y160.594 E21.80053
G1 X147.342 Y161.201 E21.82279
G1 X147.221 Y161.796 E21.845
G1 X147.023 Y162.37 E21.86722
G1 X146.773 Y162.877 E21.8879
G1 X146.647 Y163.097 E21.89717
G1 X146.311 Y163.603 E21.9194
G1 X145.912 Y164.061 E21.94162
G1 X145.455 Y164.463 E21.96389
G1 X144.95 Y164.801 E21.98612
G1 X144.406 Y165.069 E22.00831
G1 X143.83 Y165.265 E22.03057
G1 X143.234 Y165.382 E22.05279
G1 X142.638 Y165.421 E22.07464
G1 X129.104 Y165.421 E22.5698
G1 X128.498 Y165.381 E22.59202
G1 X127.902 Y165.262 E22.61425
G1 X127.327 Y165.066 E22.63648
G1 X126.837 Y164.827 E22.65643
G1 X126.734 Y164.769 E22.66075
G1 X126.225 Y164.436 E22.683
G1 X125.765 Y164.04 E22.70521
G1 X125.36 Y163.587 E22.72744
G1 X124.999 Y163.051 E22.75108
G1 X114.135 Y144.216 E23.5466
G1 X113.995 Y144.335 E23.55332
G1 X112.719 Y145.264 E23.61107
G1 X112.206 Y145.589 E23.63329
G1 X111.654 Y145.843 E23.65552
G1 X111.073 Y146.023 E23.67777
G1 X110.474 Y146.125 E23.7
G1 X110 Y146.149 E23.71736
G1 X107.056 Y146.149 E23.82507
G1 X106.45 Y146.109 E23.84729
G1 X105.854 Y145.99 E23.86953
G1 X105.279 Y145.794 E23.89176
G1 X104.735 Y145.523 E23.91399
G1 X104.289 Y145.229 E23.93353
G1 X101.886 Y143.432 E24.04332
G1 X101.425 Y143.037 E24.06553
G1 X101.019 Y142.585 E24.08775
G1 X100.648 Y142.036 E24.112
G1 X95.948 Y133.865 E24.45687
G1 X95.581 Y133.053 E24.48947
G1 X94.612 Y130.213 E24.59926
G1 X94.454 Y129.626 E24.6215
G1 X94.374 Y129.024 E24.64372
G1 X94.374 Y128.416 E24.66596
G1 X94.454 Y127.814 E24.68818
G1 X94.591 Y127.29 E24.70799
G1 X95.502 Y124.493 E24.81562
G1 X95.728 Y123.929 E24.83785
G1 X96.026 Y123.399 E24.86009
G1 X96.391 Y122.914 E24.8823
G1 X96.816 Y122.48 E24.90452
G1 X97.176 Y122.189 E24.92146
G1 X99.224 Y120.698 E25.01414
G1 X99.737 Y120.373 E25.03636
G1 X100.246 Y120.139 E25.05686
G1 X80.047 Y85.12 E26.53592
G1 X79.779 Y84.575 E26.55814
G1 X79.584 Y84 E26.58035
G1 X79.467 Y83.403 E26.60261
G1 X79.429 Y82.797 E26.62482
G1 X79.471 Y82.191 E26.64705
G1 X79.586 Y81.617 E26.66847
G1 X81.868 Y73.095 E26.99124
G1 X82.064 Y72.52 E27.01346
G1 X82.333 Y71.975 E27.0357
G1 X82.605 Y71.569 E27.05358
G0 F810 X82.671 Y71.47
G0 X83.073 Y71.014
M204 S5000
M205 X30 Y30
G0 F7200 X83.464 Y71.248
M204 S500
M205 X20 Y20
G1 F6000 E27.08018
G1 F900 X83.792 Y70.97 E27.09591
G1 X83.911 Y70.879 E27.10139
G1 X84.393 Y70.56 E27.12254
G1 X84.915 Y70.311 E27.14369
G1 X85.466 Y70.137 E27.16484
G1 X86.035 Y70.04 E27.18595
G1 X86.45 Y70.019 E27.20116
G1 X148.968 Y70.019 E29.48845
G1 X149.545 Y70.059 E29.50961
G1 X150.11 Y70.178 E29.53073
G1 X150.654 Y70.374 E29.55189
G1 X151.019 Y70.557 E29.56683
G1 X151.122 Y70.615 E29.57115
G1 X151.605 Y70.932 E29.59229
G1 X152.039 Y71.314 E29.61344
G1 X152.417 Y71.751 E29.63458
G1 X152.71 Y72.201 E29.65423
G1 X154.59 Y75.529 E29.79407
G1 X154.839 Y76.051 E29.81523
G1 X155.014 Y76.602 E29.83638
G1 X155.11 Y77.171 E29.85749
G1 X155.128 Y77.749 E29.87865
G1 X155.065 Y78.324 E29.89981
G1 X154.989 Y78.666 E29.91263
G1 X152.707 Y87.189 E30.23544
G1 X152.519 Y87.736 E30.2566
G1 X152.258 Y88.251 E30.27772
G1 X151.928 Y88.726 E30.29888
G1 X151.536 Y89.15 E30.32001
G1 X151.208 Y89.428 E30.33574
G1 X151.089 Y89.519 E30.34122
G1 X150.607 Y89.838 E30.36237
G1 X150.085 Y90.087 E30.38353
G1 X149.534 Y90.261 E30.40467
G1 X148.965 Y90.358 E30.42579
G1 X148.55 Y90.379 E30.44099
G1 X111.553 Y90.379 E31.79457
G1 X108.706 Y93.226 E31.94187
G1 X118.491 Y110.175 E32.65789
G1 X118.728 Y109.941 E32.67008
G1 X118.995 Y109.73 E32.68253
G1 X120.271 Y108.801 E32.74027
G1 X120.76 Y108.494 E32.7614
G1 X121.288 Y108.257 E32.78257
G1 X121.842 Y108.096 E32.80368
G1 X122.414 Y108.012 E32.82483
G1 X122.731 Y108 E32.83644
G1 X125.675 Y108 E32.94415
G1 X126.252 Y108.04 E32.96531
G1 X126.817 Y108.159 E32.98643
G1 X127.361 Y108.355 E33.00759
G1 X127.872 Y108.624 E33.02872
G1 X128.135 Y108.801 E33.04031
G1 X130.517 Y110.535 E33.14811
G1 X130.96 Y110.906 E33.16925
G1 X131.347 Y111.335 E33.19039
G1 X131.671 Y111.814 E33.21154
G1 X131.926 Y112.332 E33.23267
G1 X132.031 Y112.619 E33.24385
G1 X132.942 Y115.416 E33.35147
G1 X133.083 Y115.977 E33.37263
G1 X133.145 Y116.552 E33.39379
G1 X133.127 Y117.129 E33.41491
G1 X133.03 Y117.699 E33.43607
G1 X132.942 Y118.006 E33.44775
G1 X132.031 Y120.803 E33.55537
G1 X131.815 Y121.338 E33.57648
G1 X131.527 Y121.839 E33.59763
G1 X131.172 Y122.295 E33.61877
G1 X130.758 Y122.698 E33.63991
G1 X130.517 Y122.888 E33.65113
G1 X128.47 Y124.378 E33.74376
G1 X127.98 Y124.685 E33.76492
G1 X127.453 Y124.921 E33.78605
G1 X127.068 Y125.033 E33.80072
G1 X146.384 Y158.491 E35.21417
G1 X146.638 Y159.01 E35.23531
G1 X146.817 Y159.56 E35.25647
G1 X146.919 Y160.129 E35.27762
G1 X146.942 Y160.706 E35.29874
G1 X146.885 Y161.281 E35.31988
G1 X146.749 Y161.843 E35.34104
G1 X146.537 Y162.38 E35.36216
G1 X146.391 Y162.658 E35.37365
G1 X146.265 Y162.878 E35.38292
G1 X145.944 Y163.359 E35.40408
G1 X145.56 Y163.79 E35.4252
G1 X145.119 Y164.165 E35.44638
G1 X144.632 Y164.475 E35.4675
G1 X144.106 Y164.715 E35.48865
G1 X143.552 Y164.88 E35.5098
G1 X142.981 Y164.967 E35.53093
G1 X142.638 Y164.981 E35.54349
G1 X129.104 Y164.981 E36.03865
G1 X128.527 Y164.941 E36.05981
G1 X127.962 Y164.822 E36.08094
G1 X127.418 Y164.626 E36.10209
G1 X127.053 Y164.443 E36.11703
G1 X126.95 Y164.385 E36.12135
G1 X126.467 Y164.068 E36.14249
G1 X126.033 Y163.686 E36.16364
G1 X125.655 Y163.249 E36.18478
G1 X125.38 Y162.832 E36.20306
G1 X114.245 Y143.529 E37.01836
G1 X114.003 Y143.768 E37.0308
G1 X113.736 Y143.979 E37.04325
G1 X112.46 Y144.908 E37.101
G1 X111.971 Y145.215 E37.12212
G1 X111.443 Y145.452 E37.1433
G1 X110.889 Y145.613 E37.16441
G1 X110.317 Y145.697 E37.18556
G1 X110 Y145.709 E37.19716
G1 X107.056 Y145.709 E37.30487
G1 X106.479 Y145.669 E37.32603
G1 X105.914 Y145.55 E37.34716
G1 X105.37 Y145.354 E37.36831
G1 X104.859 Y145.085 E37.38944
G1 X104.553 Y144.877 E37.40298
G1 X102.15 Y143.08 E37.51276
G1 X101.712 Y142.702 E37.53393
G1 X101.33 Y142.268 E37.55508
G1 X101.03 Y141.816 E37.57493
G1 X96.33 Y133.645 E37.9198
G1 X95.997 Y132.911 E37.94929
G1 X95.028 Y130.071 E38.05907
G1 X94.88 Y129.512 E38.08023
G1 X94.81 Y128.939 E38.10135
G1 X94.82 Y128.361 E38.1225
G1 X94.909 Y127.79 E38.14364
G1 X95.01 Y127.426 E38.15746
G1 X95.921 Y124.629 E38.26509
G1 X96.137 Y124.094 E38.2862
G1 X96.425 Y123.593 E38.30734
G1 X96.78 Y123.137 E38.32848
G1 X97.194 Y122.734 E38.34962
G1 X97.435 Y122.545 E38.36082
G1 X99.483 Y121.054 E38.45351
G1 X99.972 Y120.747 E38.47463
G1 X100.5 Y120.51 E38.4958
G1 X100.901 Y120.394 E38.51108
G1 X80.428 Y84.901 E40.01017
G1 X80.175 Y84.381 E40.03133
G1 X79.995 Y83.832 E40.05247
G1 X79.893 Y83.263 E40.07361
G1 X79.871 Y82.685 E40.09478
G1 X79.928 Y82.11 E40.11592
G1 X80.011 Y81.731 E40.13011
G1 X82.293 Y73.209 E40.45288
G1 X82.481 Y72.662 E40.47404
G1 X82.742 Y72.147 E40.49517
G1 X82.987 Y71.795 E40.51086
G0 F810 X83.072 Y71.672
G0 X83.464 Y71.248
M204 S5000
M205 X30 Y30
G0 F7200 X83.472 Y71.879
M204 S500
M205 X20 Y20
G1 F6000 E40.53746
G1 F900 X84.059 Y71.319 E40.56714
G1 X84.178 Y71.228 E40.57262
G1 X84.635 Y70.929 E40.5926
G1 X85.132 Y70.699 E40.61264
G1 X85.656 Y70.544 E40.63263
G1 X86.45 Y70.459 E40.66184
G1 X148.968 Y70.459 E42.94914
G1 X149.513 Y70.499 E42.96913
G1 X150.047 Y70.618 E42.98915
G1 X150.557 Y70.813 E43.00912
G1 X150.803 Y70.94 E43.01925
G1 X150.906 Y70.998 E43.02358
G1 X151.362 Y71.3 E43.04359
G1 X151.768 Y71.666 E43.06358
G1 X152.117 Y72.087 E43.08359
G1 X152.327 Y72.417 E43.0979
G1 X154.207 Y75.745 E43.23775
G1 X154.441 Y76.24 E43.25778
G1 X154.6 Y76.763 E43.27778
G1 X154.68 Y77.303 E43.29775
G1 X154.682 Y77.85 E43.31776
G1 X154.564 Y78.552 E43.34381
G1 X152.282 Y87.075 E43.66661
G1 X152.102 Y87.592 E43.68664
G1 X151.849 Y88.076 E43.70662
G1 X151.528 Y88.519 E43.72664
G1 X150.941 Y89.079 E43.75632
G1 X150.822 Y89.17 E43.7618
G1 X150.365 Y89.469 E43.78178
G1 X149.868 Y89.699 E43.80182
G1 X149.344 Y89.854 E43.82181
G1 X148.55 Y89.939 E43.85102
G1 X111.371 Y89.939 E45.21126
G1 X108.156 Y93.153 E45.37758
G1 X118.42 Y110.933 E46.12869
G1 X118.47 Y110.856 E46.13205
G1 X118.83 Y110.445 E46.15204
G1 X119.254 Y110.085 E46.17239
G1 X120.53 Y109.156 E46.23014
G1 X120.994 Y108.868 E46.25012
G1 X121.495 Y108.65 E46.27011
G1 X122.023 Y108.508 E46.29011
G1 X122.731 Y108.44 E46.31613
G1 X125.675 Y108.44 E46.42384
G1 X126.22 Y108.48 E46.44384
G1 X126.754 Y108.599 E46.46385
G1 X127.264 Y108.794 E46.48383
G1 X127.876 Y109.156 E46.50984
G1 X130.258 Y110.89 E46.61764
G1 X130.675 Y111.243 E46.63763
G1 X131.037 Y111.654 E46.65766
G1 X131.334 Y112.112 E46.67763
