;FLAVOR:Marlin
;TIME:879
;Filament used: 0.561591m
;Layer height: 0.2
;Generated with Cura_SteamEngine 3.6.0
M140 S70
M105
M190 S70
M104 S210
M105
M109 S210
M82 ;absolute extrusion mode
G28 ; home all axes
M117 Purge extruder
G92 E0 ; reset extruder
G1 Z1.0 F3000 ; move z up little to prevent scratching of surface
G1 X0.1 Y20 Z0.3 F5000.0 ; move to start-line position G1 X0.1 Y200.0 Z0.3 F1500.0 E15 ; draw 1st line
G1 X0.4 Y200.0 Z0.3 F5000.0 ; move to side a little
G1 X0.4 Y20 Z0.3 F1500.0 E30 ; draw 2nd line
G92 E0 ; reset extruder
G1 Z1.0 F3000 ; move z up little to prevent scratching of surface
M117 All systems go!
G92 E0
G1 F6000 E-5
;LAYER_COUNT:13
;LAYER:0
M107
M204 S5000
M205 X30 Y30
G0 F7200 X96.145 Y96.624 Z0.2
M204 S500
M205 X20 Y20
;TYPE:SKIRT
G1 F6000 E0
G1 F900 X96.78 Y96.001 E0.03255
G1 X97.386 Y95.499 E0.06134
G1 X98.006 Y95.026 E0.08987
G1 X98.737 Y94.519 E0.12241
G1 X99.511 Y94.079 E0.15499
G1 X100.287 Y93.724 E0.18621
G1 X101.016 Y93.428 E0.215
G1 X101.854 Y93.131 E0.24752
G1 X102.716 Y92.91 E0.28008
G1 X103.451 Y92.785 E0.30736
G1 X104.22 Y92.684 E0.33573
G1 X105.509 Y92.6 E0.38299
G1 X129.505 Y92.601 E1.26091
G1 X130.394 Y92.641 E1.29347
G1 X130.839 Y92.691 E1.30986
G1 X131.626 Y92.798 E1.33891
G1 X132.501 Y92.958 E1.37146
G1 X133.359 Y93.195 E1.40402
G1 X134.137 Y93.485 E1.4344
G1 X134.856 Y93.788 E1.46295
G1 X135.659 Y94.17 E1.49548
G1 X136.425 Y94.623 E1.52804
G1 X137.078 Y95.088 E1.55737
G1 X137.697 Y95.568 E1.58603
G1 X138.375 Y96.144 E1.61858
G1 X138.998 Y96.779 E1.65112
G1 X139.501 Y97.386 E1.67996
G1 X139.974 Y98.006 E1.70849
G1 X140.481 Y98.737 E1.74104
G1 X140.921 Y99.511 E1.77362
G1 X141.273 Y100.28 E1.80456
G1 X141.57 Y101.01 E1.83339
G1 X141.868 Y101.849 E1.86597
G1 X142.089 Y102.71 E1.89849
G1 X142.216 Y103.458 E1.92625
G1 X142.316 Y104.223 E1.95447
G1 X142.4 Y105.506 E2.00151
G1 X142.399 Y129.505 E2.87954
G1 X142.359 Y130.394 E2.9121
G1 X142.309 Y130.839 E2.92848
G1 X142.202 Y131.626 E2.95754
G1 X142.042 Y132.501 E2.99009
G1 X141.805 Y133.359 E3.02265
G1 X141.518 Y134.13 E3.05275
G1 X141.216 Y134.848 E3.08125
G1 X140.834 Y135.652 E3.11382
G1 X140.382 Y136.418 E3.14636
G1 X139.912 Y137.078 E3.176
G1 X139.431 Y137.698 E3.20471
G1 X138.855 Y138.376 E3.23726
G1 X138.22 Y138.999 E3.2698
G1 X137.614 Y139.501 E3.29859
G1 X136.994 Y139.974 E3.32713
G1 X136.263 Y140.481 E3.35967
G1 X135.489 Y140.921 E3.39225
G1 X134.713 Y141.276 E3.42347
G1 X133.984 Y141.572 E3.45225
G1 X133.146 Y141.869 E3.48478
G1 X132.284 Y142.09 E3.51734
G1 X131.549 Y142.215 E3.54462
G1 X130.78 Y142.316 E3.57299
G1 X129.491 Y142.4 E3.62025
G1 X105.495 Y142.399 E4.49817
G1 X104.606 Y142.359 E4.53073
G1 X104.161 Y142.309 E4.54711
G1 X103.374 Y142.202 E4.57617
G1 X102.499 Y142.042 E4.60872
G1 X101.641 Y141.805 E4.64128
G1 X100.863 Y141.515 E4.67166
G1 X100.144 Y141.212 E4.70021
G1 X99.341 Y140.83 E4.73274
G1 X98.575 Y140.377 E4.7653
G1 X97.922 Y139.912 E4.79463
G1 X97.303 Y139.432 E4.82328
G1 X96.625 Y138.856 E4.85583
G1 X96.002 Y138.221 E4.88838
G1 X95.499 Y137.614 E4.91722
G1 X95.026 Y136.994 E4.94575
G1 X94.519 Y136.263 E4.9783
G1 X94.079 Y135.489 E5.01087
G1 X93.727 Y134.72 E5.04182
G1 X93.43 Y133.99 E5.07065
G1 X93.132 Y133.151 E5.10322
G1 X92.911 Y132.29 E5.13575
G1 X92.784 Y131.542 E5.1635
G1 X92.684 Y130.777 E5.19173
G1 X92.6 Y129.494 E5.23877
G1 X92.601 Y105.495 E6.1168
G1 X92.641 Y104.606 E6.14936
G1 X92.691 Y104.161 E6.16574
G1 X92.798 Y103.374 E6.1948
G1 X92.958 Y102.499 E6.22734
G1 X93.195 Y101.641 E6.25991
G1 X93.482 Y100.87 E6.29001
G1 X93.784 Y100.152 E6.31851
G1 X94.166 Y99.348 E6.35107
G1 X94.618 Y98.582 E6.38361
G1 X95.088 Y97.922 E6.41326
G1 X95.569 Y97.302 E6.44197
G1 X95.674 Y97.178 E6.44791
G0 F810 X96.145 Y96.624
M204 S5000
M205 X30 Y30
G0 F7200 X96.481 Y96.909
M204 S500
M205 X20 Y20
G1 F6000 E6.47451
G1 F900 X97.103 Y96.302 E6.50631
G1 X97.653 Y95.849 E6.53238
G1 X98.273 Y95.376 E6.56091
G1 X98.988 Y94.881 E6.59272
G1 X99.745 Y94.453 E6.62454
G1 X100.452 Y94.132 E6.65295
G1 X101.181 Y93.836 E6.68173
G1 X102.001 Y93.546 E6.71356
G1 X102.844 Y93.333 E6.74537
G1 X103.508 Y93.222 E6.77
G1 X104.277 Y93.121 E6.79837
G1 X105.509 Y93.04 E6.84354
G1 X129.505 Y93.041 E7.72147
G1 X130.779 Y93.127 E7.76818
G1 X131.566 Y93.234 E7.79724
G1 X132.422 Y93.391 E7.82908
G1 X133.259 Y93.625 E7.86088
G1 X133.966 Y93.89 E7.8885
G1 X134.685 Y94.193 E7.91705
G1 X135.47 Y94.568 E7.94888
G1 X136.217 Y95.012 E7.98067
G1 X136.808 Y95.435 E8.00726
G1 X137.427 Y95.915 E8.03592
G1 X138.089 Y96.479 E8.06774
G1 X138.697 Y97.102 E8.09958
G1 X139.151 Y97.653 E8.1257
G1 X139.624 Y98.273 E8.15424
G1 X140.119 Y98.988 E8.18605
G1 X140.547 Y99.745 E8.21787
G1 X140.866 Y100.446 E8.24605
G1 X141.163 Y101.176 E8.27488
G1 X141.453 Y101.996 E8.3067
G1 X141.667 Y102.839 E8.33852
G1 X141.78 Y103.515 E8.3636
G1 X141.88 Y104.28 E8.39182
G1 X141.96 Y105.506 E8.43677
G1 X141.959 Y129.505 E9.3148
G1 X141.873 Y130.779 E9.36152
G1 X141.766 Y131.566 E9.39058
G1 X141.609 Y132.422 E9.42242
G1 X141.375 Y133.259 E9.45422
G1 X141.112 Y133.96 E9.48161
G1 X140.81 Y134.678 E9.51011
G1 X140.436 Y135.463 E9.54192
G1 X139.992 Y136.211 E9.57374
G1 X139.564 Y136.809 E9.60065
G1 X139.083 Y137.429 E9.62936
G1 X138.519 Y138.091 E9.66118
G1 X137.897 Y138.698 E9.69297
G1 X137.347 Y139.151 E9.71904
G1 X136.727 Y139.624 E9.74757
G1 X136.012 Y140.119 E9.77939
G1 X135.255 Y140.547 E9.81121
G1 X134.548 Y140.868 E9.83961
G1 X133.819 Y141.164 E9.8684
G1 X132.999 Y141.454 E9.90022
G1 X132.156 Y141.667 E9.93203
G1 X131.492 Y141.778 E9.95666
G1 X130.723 Y141.879 E9.98504
G1 X129.491 Y141.96 E10.03021
G1 X105.495 Y141.959 E10.90813
G1 X104.221 Y141.873 E10.95485
G1 X103.434 Y141.766 E10.98391
G1 X102.578 Y141.609 E11.01575
G1 X101.741 Y141.375 E11.04754
G1 X101.034 Y141.11 E11.07517
G1 X100.315 Y140.807 E11.10371
G1 X99.53 Y140.432 E11.13554
G1 X98.783 Y139.988 E11.16733
G1 X98.192 Y139.565 E11.19393
G1 X97.573 Y139.085 E11.22258
G1 X96.911 Y138.521 E11.2544
G1 X96.303 Y137.898 E11.28625
G1 X95.849 Y137.347 E11.31237
G1 X95.376 Y136.727 E11.3409
G1 X94.881 Y136.012 E11.37272
G1 X94.453 Y135.255 E11.40453
G1 X94.134 Y134.554 E11.43271
G1 X93.837 Y133.824 E11.46154
G1 X93.547 Y133.004 E11.49337
G1 X93.333 Y132.161 E11.52519
G1 X93.22 Y131.485 E11.55026
G1 X93.12 Y130.72 E11.57849
G1 X93.04 Y129.494 E11.62344
G1 X93.041 Y105.495 E12.50147
G1 X93.127 Y104.221 E12.54819
G1 X93.234 Y103.434 E12.57724
G1 X93.391 Y102.578 E12.60908
G1 X93.625 Y101.741 E12.64088
G1 X93.888 Y101.04 E12.66827
G1 X94.19 Y100.322 E12.69677
G1 X94.564 Y99.537 E12.72859
G1 X95.008 Y98.789 E12.76041
G1 X95.436 Y98.191 E12.78731
G1 X95.917 Y97.571 E12.81602
G1 X96.01 Y97.462 E12.82127
G0 F810 X96.481 Y96.909
M204 S5000
M205 X30 Y30
G0 F7200 X96.816 Y97.195
M204 S500
M205 X20 Y20
G1 F6000 E12.84786
G1 F900 X97.426 Y96.604 E12.87894
G1 X97.92 Y96.199 E12.90231
G1 X98.54 Y95.726 E12.93084
G1 X99.239 Y95.243 E12.96193
G1 X99.98 Y94.828 E12.993
G1 X100.618 Y94.54 E13.01861
G1 X101.347 Y94.244 E13.04739
G1 X102.148 Y93.962 E13.07846
G1 X102.972 Y93.756 E13.10954
G1 X103.565 Y93.658 E13.13153
G1 X104.334 Y93.557 E13.1599
G1 X105.509 Y93.48 E13.20298
G1 X129.505 Y93.481 E14.08091
G1 X130.72 Y93.563 E14.12546
G1 X131.507 Y93.67 E14.15452
G1 X132.342 Y93.824 E14.18558
G1 X133.159 Y94.056 E14.21665
G1 X133.795 Y94.296 E14.24152
G1 X134.514 Y94.599 E14.27007
G1 X135.28 Y94.965 E14.30113
G1 X136.008 Y95.402 E14.3322
G1 X136.538 Y95.783 E14.35608
G1 X137.157 Y96.263 E14.38473
G1 X137.803 Y96.814 E14.4158
G1 X138.394 Y97.424 E14.44687
G1 X138.801 Y97.92 E14.47035
G1 X139.274 Y98.54 E14.49888
G1 X139.757 Y99.239 E14.52996
G1 X140.172 Y99.98 E14.56104
G1 X140.458 Y100.612 E14.58641
G1 X140.755 Y101.342 E14.61525
G1 X141.038 Y102.143 E14.64633
G1 X141.244 Y102.966 E14.67737
G1 X141.344 Y103.572 E14.69984
G1 X141.444 Y104.337 E14.72807
G1 X141.52 Y105.506 E14.77093
G1 X141.519 Y129.505 E15.64896
G1 X141.437 Y130.72 E15.69351
G1 X141.33 Y131.507 E15.72257
G1 X141.176 Y132.342 E15.75363
G1 X140.944 Y133.159 E15.78471
G1 X140.706 Y133.789 E15.80934
G1 X140.404 Y134.507 E15.83784
G1 X140.039 Y135.274 E15.86892
G1 X139.603 Y136.002 E15.89997
G1 X139.217 Y136.539 E15.92416
G1 X138.736 Y137.159 E15.95287
G1 X138.184 Y137.805 E15.98396
G1 X137.574 Y138.396 E16.01503
G1 X137.08 Y138.801 E16.0384
G1 X136.46 Y139.274 E16.06693
G1 X135.761 Y139.757 E16.09802
G1 X135.02 Y140.172 E16.12909
G1 X134.382 Y140.46 E16.1547
G1 X133.653 Y140.756 E16.18349
G1 X132.852 Y141.038 E16.21456
G1 X132.028 Y141.244 E16.24563
G1 X131.435 Y141.342 E16.26762
G1 X130.666 Y141.443 E16.296
G1 X129.491 Y141.52 E16.33908
G1 X105.495 Y141.519 E17.217
G1 X104.28 Y141.437 E17.26155
G1 X103.493 Y141.33 E17.29061
G1 X102.658 Y141.176 E17.32168
G1 X101.841 Y140.944 E17.35275
G1 X101.205 Y140.704 E17.37762
G1 X100.486 Y140.401 E17.40617
G1 X99.72 Y140.035 E17.43723
G1 X98.992 Y139.598 E17.46829
G1 X98.462 Y139.217 E17.49217
G1 X97.843 Y138.737 E17.52083
G1 X97.197 Y138.186 E17.55189
G1 X96.606 Y137.576 E17.58297
G1 X96.199 Y137.08 E17.60644
G1 X95.726 Y136.46 E17.63497
G1 X95.243 Y135.761 E17.66606
G1 X94.828 Y135.02 E17.69713
G1 X94.542 Y134.388 E17.72251
G1 X94.245 Y133.658 E17.75134
G1 X93.962 Y132.857 E17.78242
G1 X93.756 Y132.034 E17.81346
G1 X93.656 Y131.428 E17.83593
G1 X93.556 Y130.663 E17.86416
G1 X93.48 Y129.494 E17.90702
G1 X93.481 Y105.495 E18.78505
G1 X93.563 Y104.28 E18.8296
G1 X93.67 Y103.493 E18.85866
G1 X93.824 Y102.658 E18.88973
G1 X94.056 Y101.841 E18.9208
G1 X94.294 Y101.211 E18.94544
G1 X94.596 Y100.493 E18.97394
G1 X94.961 Y99.726 E19.00501
G1 X95.397 Y98.998 E19.03606
G1 X95.783 Y98.461 E19.06026
G1 X96.264 Y97.841 E19.08897
G1 X96.344 Y97.748 E19.09345
G0 F810 X96.816 Y97.195
M204 S5000
M205 X30 Y30
G0 F7200 X97.151 Y97.482
M204 S500
M205 X20 Y20
G1 F6000 E19.12005
G1 F900 X97.747 Y96.907 E19.15035
G1 X98.187 Y96.548 E19.17113
G1 X98.807 Y96.075 E19.19966
G1 X99.489 Y95.605 E19.22996
G1 X100.213 Y95.203 E19.26026
G1 X100.783 Y94.947 E19.28312
G1 X101.512 Y94.651 E19.31191
G1 X102.294 Y94.377 E19.34222
G1 X103.098 Y94.18 E19.37251
G1 X103.623 Y94.094 E19.39197
G1 X104.392 Y93.993 E19.42035
G1 X105.509 Y93.92 E19.4613
G1 X129.505 Y93.921 E20.33922
G1 X130.661 Y93.999 E20.38161
G1 X131.448 Y94.106 E20.41067
G1 X132.262 Y94.257 E20.44096
G1 X133.058 Y94.486 E20.47126
G1 X133.624 Y94.701 E20.49341
G1 X134.343 Y95.004 E20.52196
G1 X135.09 Y95.363 E20.55228
G1 X135.799 Y95.791 E20.58258
G1 X136.269 Y96.131 E20.60381
G1 X136.888 Y96.611 E20.63246
G1 X137.517 Y97.149 E20.66275
G1 X138.091 Y97.746 E20.69305
G1 X138.452 Y98.187 E20.7139
G1 X138.925 Y98.807 E20.74243
G1 X139.395 Y99.489 E20.77273
G1 X139.797 Y100.213 E20.80303
G1 X140.05 Y100.778 E20.82568
G1 X140.347 Y101.508 E20.85451
G1 X140.622 Y102.289 E20.8848
G1 X140.82 Y103.093 E20.9151
G1 X140.908 Y103.629 E20.93497
G1 X141.008 Y104.394 E20.9632
G1 X141.08 Y105.506 E21.00397
G1 X141.079 Y129.505 E21.882
G1 X141.001 Y130.661 E21.92439
G1 X140.894 Y131.448 E21.95345
G1 X140.743 Y132.262 E21.98373
G1 X140.514 Y133.058 E22.01404
G1 X140.301 Y133.619 E22.03599
G1 X139.999 Y134.337 E22.06449
G1 X139.641 Y135.084 E22.0948
G1 X139.213 Y135.793 E22.1251
G1 X138.869 Y136.269 E22.14658
G1 X138.388 Y136.889 E22.17529
G1 X137.849 Y137.518 E22.2056
G1 X137.253 Y138.093 E22.2359
G1 X136.813 Y138.452 E22.25667
G1 X136.193 Y138.925 E22.2852
G1 X135.511 Y139.395 E22.31551
G1 X134.787 Y139.797 E22.34581
G1 X134.217 Y140.053 E22.36867
G1 X133.488 Y140.349 E22.39745
G1 X132.706 Y140.623 E22.42777
G1 X131.902 Y140.82 E22.45805
G1 X131.377 Y140.906 E22.47752
G1 X130.608 Y141.007 E22.50589
G1 X129.491 Y141.08 E22.54685
G1 X105.495 Y141.079 E23.42477
G1 X104.339 Y141.001 E23.46716
G1 X103.552 Y140.894 E23.49622
G1 X102.738 Y140.743 E23.52651
G1 X101.942 Y140.514 E23.55681
G1 X101.376 Y140.299 E23.57896
G1 X100.657 Y139.996 E23.60751
G1 X99.91 Y139.637 E23.63783
G1 X99.201 Y139.209 E23.66813
G1 X98.731 Y138.869 E23.68935
G1 X98.112 Y138.389 E23.71801
G1 X97.483 Y137.851 E23.74829
G1 X96.909 Y137.254 E23.77859
G1 X96.548 Y136.813 E23.79944
G1 X96.075 Y136.193 E23.82797
G1 X95.605 Y135.511 E23.85828
G1 X95.203 Y134.787 E23.88857
G1 X94.95 Y134.222 E23.91122
G1 X94.653 Y133.492 E23.94006
G1 X94.378 Y132.711 E23.97035
G1 X94.18 Y131.907 E24.00064
G1 X94.092 Y131.371 E24.02052
G1 X93.992 Y130.606 E24.04874
G1 X93.92 Y129.494 E24.08951
G1 X93.921 Y105.495 E24.96754
G1 X93.999 Y104.339 E25.00993
G1 X94.106 Y103.552 E25.03899
G1 X94.257 Y102.738 E25.06928
G1 X94.486 Y101.942 E25.09958
G1 X94.699 Y101.381 E25.12154
G1 X95.001 Y100.663 E25.15004
G1 X95.359 Y99.916 E25.18034
G1 X95.787 Y99.207 E25.21064
G1 X96.131 Y98.731 E25.23213
G1 X96.612 Y98.111 E25.26084
G1 X96.678 Y98.034 E25.26455
G0 F810 X97.151 Y97.482
M204 S5000
M205 X30 Y30
G0 F7200 X97.485 Y97.768
M204 S500
M205 X20 Y20
G1 F6000 E25.29115
G1 F900 X98.068 Y97.211 E25.32065
G1 X98.454 Y96.898 E25.33883
G1 X99.074 Y96.425 E25.36736
G1 X99.739 Y95.968 E25.39688
G1 X100.445 Y95.579 E25.42637
G1 X100.949 Y95.355 E25.44655
G1 X101.678 Y95.059 E25.47534
G1 X102.439 Y94.793 E25.50483
G1 X103.223 Y94.604 E25.53434
G1 X103.68 Y94.53 E25.55127
G1 X104.449 Y94.429 E25.57965
G1 X105.509 Y94.36 E25.61851
G1 X129.505 Y94.361 E26.49643
G1 X130.602 Y94.435 E26.53666
G1 X131.389 Y94.542 E26.56572
G1 X132.182 Y94.69 E26.59523
G1 X132.956 Y94.916 E26.62473
G1 X133.453 Y95.107 E26.64421
G1 X134.172 Y95.41 E26.67276
G1 X134.899 Y95.76 E26.70228
G1 X135.588 Y96.18 E26.7318
G1 X135.999 Y96.478 E26.75037
G1 X136.618 Y96.958 E26.77903
G1 X137.23 Y97.484 E26.80856
G1 X137.788 Y98.067 E26.83808
G1 X138.102 Y98.454 E26.85632
G1 X138.575 Y99.074 E26.88485
G1 X139.032 Y99.739 E26.91437
G1 X139.421 Y100.445 E26.94386
G1 X139.643 Y100.943 E26.96381
G1 X139.94 Y101.673 E26.99264
G1 X140.206 Y102.435 E27.02217
G1 X140.396 Y103.219 E27.05168
G1 X140.471 Y103.686 E27.06899
G1 X140.571 Y104.451 E27.09721
G1 X140.64 Y105.506 E27.13589
G1 X140.639 Y129.505 E28.01393
G1 X140.565 Y130.602 E28.05415
G1 X140.458 Y131.389 E28.08321
G1 X140.31 Y132.182 E28.11272
G1 X140.084 Y132.956 E28.14222
G1 X139.895 Y133.448 E28.16151
G1 X139.593 Y134.166 E28.19
G1 X139.244 Y134.893 E28.21951
G1 X138.825 Y135.582 E28.24901
G1 X138.521 Y136 E28.26792
G1 X138.04 Y136.62 E28.29663
G1 X137.515 Y137.232 E28.32613
G1 X136.932 Y137.789 E28.35563
G1 X136.546 Y138.102 E28.37381
G1 X135.926 Y138.575 E28.40234
G1 X135.261 Y139.032 E28.43187
G1 X134.555 Y139.421 E28.46136
G1 X134.051 Y139.645 E28.48153
G1 X133.322 Y139.941 E28.51032
G1 X132.561 Y140.207 E28.53981
G1 X131.777 Y140.396 E28.56932
G1 X131.32 Y140.47 E28.58626
G1 X130.551 Y140.571 E28.61463
G1 X129.491 Y140.64 E28.6535
G1 X105.495 Y140.639 E29.53142
G1 X104.398 Y140.565 E29.57164
G1 X103.611 Y140.458 E29.6007
G1 X102.818 Y140.31 E29.63022
G1 X102.044 Y140.084 E29.65972
G1 X101.547 Y139.893 E29.6792
G1 X100.828 Y139.59 E29.70774
G1 X100.101 Y139.24 E29.73726
G1 X99.412 Y138.82 E29.76678
G1 X99.001 Y138.522 E29.78536
G1 X98.382 Y138.042 E29.81402
G1 X97.77 Y137.516 E29.84354
G1 X97.212 Y136.933 E29.87307
G1 X96.898 Y136.546 E29.8913
G1 X96.425 Y135.926 E29.91983
G1 X95.968 Y135.261 E29.94935
G1 X95.579 Y134.555 E29.97884
G1 X95.357 Y134.057 E29.99879
G1 X95.06 Y133.327 E30.02762
G1 X94.794 Y132.565 E30.05715
G1 X94.604 Y131.781 E30.08667
G1 X94.529 Y131.314 E30.10397
G1 X94.429 Y130.549 E30.1322
G1 X94.36 Y129.494 E30.17088
G1 X94.361 Y105.495 E31.04891
G1 X94.435 Y104.398 E31.08914
G1 X94.542 Y103.611 E31.11819
G1 X94.69 Y102.818 E31.14771
G1 X94.916 Y102.044 E31.17721
G1 X95.105 Y101.552 E31.19649
G1 X95.407 Y100.834 E31.22499
G1 X95.756 Y100.107 E31.25449
G1 X96.175 Y99.418 E31.284
G1 X96.479 Y99 E31.30291
G1 X96.96 Y98.38 E31.33161
G1 X97.012 Y98.32 E31.33452
G0 F810 X97.485 Y97.768
M204 S5000
M205 X30 Y30
G0 F7200 X97.819 Y98.056
M204 S500
M205 X20 Y20
G1 F6000 E31.36112
G1 F900 X98.389 Y97.516 E31.38984
G1 X98.721 Y97.248 E31.40545
G1 X99.341 Y96.775 E31.43399
G1 X99.988 Y96.332 E31.46267
G1 X100.677 Y95.956 E31.49139
G1 X101.114 Y95.763 E31.50887
G1 X101.843 Y95.467 E31.53765
G1 X102.584 Y95.209 E31.56636
G1 X103.348 Y95.028 E31.59509
