;FLAVOR:Marlin
;TIME:1317
;Filament used: 0.691012m
;Layer height: 0.2
;Generated with Cura_SteamEngine 3.6.0
M140 S70
M105
M190 S70
M104 S210
M105
M109 S210
M82 ;absolute extrusion mode
G28 ; home all axes
M117 Purge extruder
G92 E0 ; reset extruder
G1 Z1.0 F3000 ; move z up little to prevent scratching of surface
G1 X0.1 Y20 Z0.3 F5000.0 ; move to start-line position G1 X0.1 Y200.0 Z0.3 F1500.0 E15 ; draw 1st line
G1 X0.4 Y200.0 Z0.3 F5000.0 ; move to side a little
G1 X0.4 Y20 Z0.3 F1500.0 E30 ; draw 2nd line
G92 E0 ; reset extruder
G1 Z1.0 F3000 ; move z up little to prevent scratching of surface
M117 All systems go!
G92 E0
G1 F6000 E-5
;LAYER_COUNT:163
;LAYER:0
M107
M204 S5000
M205 X30 Y30
G0 F7200 X108.466 Y109.752 Z0.2
M204 S500
M205 X20 Y20
;TYPE:SKIRT
G1 F6000 E0
G1 F900 X109.002 Y109.222 E0.02758
G1 X109.662 Y108.626 E0.06011
G1 X110.373 Y108.091 E0.09267
G1 X111.129 Y107.622 E0.12522
G1 X111.925 Y107.223 E0.15779
G1 X112.752 Y106.897 E0.19032
G1 X113.606 Y106.647 E0.22287
G1 X114.479 Y106.474 E0.25543
G1 X115.364 Y106.38 E0.28799
G1 X115.916 Y106.362 E0.3082
G1 X117.178 Y106.356 E0.35437
G1 X118.067 Y106.392 E0.38692
G1 X118.949 Y106.507 E0.41947
G1 X119.214 Y106.566 E0.4294
G1 X119.531 Y106.605 E0.44108
G1 X120.401 Y106.792 E0.47364
G1 X121.25 Y107.056 E0.50617
G1 X122.073 Y107.396 E0.53875
G1 X122.967 Y107.87 E0.57577
G1 X123.141 Y107.974 E0.58319
G1 X123.884 Y108.465 E0.61577
G1 X124.579 Y109.02 E0.64831
G1 X125.222 Y109.635 E0.68086
G1 X125.748 Y110.232 E0.70997
G1 X126.076 Y110.636 E0.72901
G1 X126.605 Y111.351 E0.76155
G1 X127.068 Y112.111 E0.79411
G1 X127.461 Y112.909 E0.82665
G1 X127.78 Y113.74 E0.85922
G1 X128.024 Y114.596 E0.89179
G1 X128.19 Y115.47 E0.92433
G1 X128.276 Y116.355 E0.95687
G1 X128.283 Y117.245 E0.98943
G1 X128.21 Y118.132 E1.02199
G1 X128.058 Y119.008 E1.05452
G1 X127.723 Y120.178 E1.09904
G1 X127.567 Y120.619 E1.11616
G1 X127.233 Y121.443 E1.14869
G1 X126.826 Y122.234 E1.18123
G1 X126.35 Y122.986 E1.21379
G1 X125.808 Y123.692 E1.24636
G1 X125.206 Y124.346 E1.27888
G1 X124.546 Y124.944 E1.31146
G1 X123.836 Y125.48 E1.34401
G1 X123.081 Y125.949 E1.37653
G1 X122.286 Y126.35 E1.40911
G1 X121.459 Y126.677 E1.44164
G1 X120.377 Y126.982 E1.48277
G1 X119.66 Y127.141 E1.50964
G1 X118.784 Y127.295 E1.54218
G1 X117.537 Y127.376 E1.5879
G1 X116.086 Y127.379 E1.64099
G1 X115.198 Y127.341 E1.6735
G1 X114.316 Y127.223 E1.70606
G1 X113.448 Y127.027 E1.73862
G1 X112.601 Y126.753 E1.77119
G1 X111.956 Y126.486 E1.79673
G1 X111.395 Y126.23 E1.81929
G1 X110.603 Y125.824 E1.85185
G1 X109.851 Y125.349 E1.88439
G1 X109.144 Y124.809 E1.91694
G1 X108.488 Y124.207 E1.94951
G1 X107.89 Y123.549 E1.98204
G1 X107.353 Y122.84 E2.01458
G1 X106.881 Y122.085 E2.04716
G1 X106.48 Y121.291 E2.07971
G1 X106.151 Y120.465 E2.11223
G1 X105.897 Y119.612 E2.1448
G1 X105.763 Y118.986 E2.16822
G1 X105.685 Y118.555 E2.18424
G1 X105.566 Y117.673 E2.2168
G1 X105.527 Y116.784 E2.24936
G1 X105.568 Y115.896 E2.28188
G1 X105.688 Y115.014 E2.31445
G1 X105.887 Y114.147 E2.347
G1 X106.163 Y113.301 E2.37955
G1 X106.514 Y112.483 E2.41212
G1 X106.937 Y111.701 E2.44465
G1 X107.428 Y110.959 E2.4772
G1 X107.97 Y110.282 E2.50893
G0 F810 X107.984 Y110.264
G0 X108.466 Y109.752
M204 S5000
M205 X30 Y30
G0 F7200 X108.776 Y110.065
M204 S500
M205 X20 Y20
G1 F6000 E2.53553
G1 F900 X109.312 Y109.535 E2.5631
G1 X109.957 Y108.953 E2.59489
G1 X110.654 Y108.432 E2.62673
G1 X111.396 Y107.978 E2.65855
G1 X112.176 Y107.593 E2.69038
G1 X112.988 Y107.282 E2.72219
G1 X113.825 Y107.047 E2.75399
G1 X114.68 Y106.889 E2.78581
G1 X115.918 Y106.802 E2.83121
G1 X117.18 Y106.796 E2.87738
G1 X118.049 Y106.832 E2.9092
G1 X118.911 Y106.947 E2.94102
G1 X119.156 Y107.003 E2.95022
G1 X119.554 Y107.056 E2.9649
G1 X120.402 Y107.248 E2.99672
G1 X121.229 Y107.518 E3.02854
G1 X122.028 Y107.862 E3.06037
G1 X122.741 Y108.248 E3.09003
G1 X122.915 Y108.352 E3.09745
G1 X123.641 Y108.832 E3.12929
G1 X124.319 Y109.377 E3.16112
G1 X124.944 Y109.981 E3.19292
G1 X125.406 Y110.509 E3.21859
G1 X125.734 Y110.913 E3.23762
G1 X126.251 Y111.613 E3.26946
G1 X126.701 Y112.357 E3.30127
G1 X127.081 Y113.14 E3.33312
G1 X127.387 Y113.953 E3.3649
G1 X127.618 Y114.792 E3.39674
G1 X127.77 Y115.648 E3.42854
G1 X127.843 Y116.515 E3.46038
G1 X127.836 Y117.385 E3.49221
G1 X127.75 Y118.25 E3.52401
G1 X127.584 Y119.104 E3.55584
G1 X127.308 Y120.031 E3.59123
G1 X127.152 Y120.472 E3.60834
G1 X126.825 Y121.278 E3.64016
G1 X126.425 Y122.05 E3.67197
G1 X125.956 Y122.782 E3.70378
G1 X125.421 Y123.468 E3.73561
G1 X124.826 Y124.102 E3.76742
G1 X124.175 Y124.679 E3.79925
G1 X123.474 Y125.193 E3.83105
G1 X122.728 Y125.641 E3.86289
G1 X121.945 Y126.019 E3.8947
G1 X121.13 Y126.323 E3.92652
G1 X120.282 Y126.553 E3.95867
G1 X119.565 Y126.712 E3.98554
G1 X118.708 Y126.861 E4.01736
G1 X117.537 Y126.936 E4.06029
G1 X116.086 Y126.939 E4.11338
G1 X115.217 Y126.901 E4.1452
G1 X114.355 Y126.783 E4.17703
G1 X113.508 Y126.587 E4.20884
G1 X112.682 Y126.313 E4.24068
G1 X112.139 Y126.085 E4.26223
G1 X111.578 Y125.829 E4.28479
G1 X110.804 Y125.432 E4.31661
G1 X110.07 Y124.966 E4.34842
G1 X109.382 Y124.434 E4.38024
G1 X108.745 Y123.841 E4.41208
G1 X108.166 Y123.192 E4.4439
G1 X107.649 Y122.493 E4.47571
G1 X107.198 Y121.749 E4.50754
G1 X106.818 Y120.967 E4.53935
G1 X106.51 Y120.154 E4.57116
G1 X106.196 Y118.908 E4.61817
G1 X106.118 Y118.477 E4.63419
G1 X106.003 Y117.615 E4.66601
G1 X105.967 Y116.746 E4.69783
G1 X106.011 Y115.877 E4.72967
G1 X106.135 Y115.016 E4.76149
G1 X106.338 Y114.17 E4.79332
G1 X106.617 Y113.347 E4.82511
G1 X106.97 Y112.552 E4.85694
G1 X107.395 Y111.793 E4.88877
G1 X107.888 Y111.077 E4.92057
G1 X108.285 Y110.601 E4.94325
G0 F810 X108.445 Y110.409
G0 X108.776 Y110.065
M204 S5000
M205 X30 Y30
G0 F7200 X109.085 Y110.378
M204 S500
M205 X20 Y20
G1 F6000 E4.96985
G1 F900 X109.621 Y109.848 E4.99742
G1 X110.252 Y109.28 E5.02848
G1 X110.934 Y108.774 E5.05955
G1 X111.661 Y108.334 E5.09064
G1 X112.425 Y107.965 E5.12169
G1 X113.221 Y107.669 E5.15276
G1 X114.042 Y107.449 E5.18385
G1 X114.879 Y107.307 E5.21491
G1 X115.92 Y107.242 E5.25307
G1 X117.182 Y107.236 E5.29925
G1 X118.031 Y107.272 E5.33034
G1 X118.872 Y107.388 E5.3614
G1 X119.082 Y107.437 E5.36929
G1 X119.575 Y107.507 E5.3875
G1 X120.401 Y107.705 E5.41858
G1 X121.204 Y107.98 E5.44963
G1 X121.979 Y108.329 E5.48073
G1 X122.516 Y108.626 E5.50318
G1 X122.69 Y108.73 E5.5106
G1 X123.397 Y109.199 E5.54164
G1 X124.058 Y109.733 E5.57273
G1 X124.665 Y110.327 E5.6038
G1 X125.065 Y110.787 E5.6261
G1 X125.393 Y111.191 E5.64514
G1 X125.896 Y111.874 E5.67617
G1 X126.333 Y112.603 E5.70727
G1 X126.7 Y113.369 E5.73835
G1 X126.993 Y114.166 E5.76941
G1 X127.21 Y114.987 E5.80048
G1 X127.349 Y115.825 E5.83156
G1 X127.408 Y116.672 E5.86262
G1 X127.387 Y117.521 E5.89369
G1 X127.286 Y118.364 E5.92476
G1 X127.107 Y119.194 E5.95582
G1 X126.894 Y119.884 E5.98224
G1 X126.738 Y120.325 E5.99936
G1 X126.417 Y121.111 E6.03042
G1 X126.024 Y121.864 E6.06149
G1 X125.562 Y122.577 E6.09258
G1 X125.035 Y123.243 E6.12365
G1 X124.447 Y123.856 E6.15473
G1 X123.805 Y124.411 E6.18578
G1 X123.113 Y124.904 E6.21686
G1 X122.378 Y125.329 E6.24792
G1 X121.606 Y125.683 E6.279
G1 X120.804 Y125.963 E6.31008
G1 X120.187 Y126.123 E6.3334
G1 X119.47 Y126.282 E6.36026
G1 X118.633 Y126.427 E6.39134
G1 X117.536 Y126.496 E6.43156
G1 X116.085 Y126.499 E6.48464
G1 X115.236 Y126.461 E6.51574
G1 X114.395 Y126.343 E6.54681
G1 X113.569 Y126.147 E6.57787
G1 X112.765 Y125.873 E6.60894
G1 X112.321 Y125.685 E6.62658
G1 X111.76 Y125.429 E6.64914
G1 X111.005 Y125.04 E6.68022
G1 X110.29 Y124.583 E6.71126
G1 X109.621 Y124.06 E6.74233
G1 X109.004 Y123.476 E6.77341
G1 X108.445 Y122.837 E6.80448
G1 X107.948 Y122.148 E6.83556
G1 X107.519 Y121.415 E6.86663
G1 X107.16 Y120.646 E6.89768
G1 X106.875 Y119.846 E6.92875
G1 X106.629 Y118.829 E6.96703
G1 X106.551 Y118.398 E6.98306
G1 X106.439 Y117.556 E7.01413
G1 X106.407 Y116.708 E7.04518
G1 X106.455 Y115.86 E7.07626
G1 X106.583 Y115.02 E7.10734
G1 X106.789 Y114.196 E7.13842
G1 X107.071 Y113.395 E7.16949
G1 X107.427 Y112.625 E7.20052
G1 X107.855 Y111.891 E7.23161
G1 X108.349 Y111.2 E7.26269
G1 X108.6 Y110.919 E7.27647
G0 F810 X109.085 Y110.378
M204 S5000
M205 X30 Y30
G0 F7200 X109.394 Y110.691
M204 S500
M205 X20 Y20
G1 F6000 E7.30307
G1 F900 X109.93 Y110.161 E7.33065
G1 X110.547 Y109.608 E7.36096
G1 X111.213 Y109.116 E7.39125
G1 X111.925 Y108.692 E7.42157
G1 X112.673 Y108.338 E7.45185
G1 X113.453 Y108.057 E7.48218
G1 X114.255 Y107.854 E7.51245
G1 X115.074 Y107.728 E7.54277
G1 X115.922 Y107.682 E7.57384
G1 X117.184 Y107.676 E7.62001
G1 X118.012 Y107.712 E7.65033
G1 X118.832 Y107.828 E7.68063
G1 X119 Y107.869 E7.68696
G1 X119.593 Y107.959 E7.7089
G1 X120.396 Y108.163 E7.73921
G1 X121.175 Y108.443 E7.7695
G1 X121.924 Y108.797 E7.79981
G1 X122.29 Y109.003 E7.81517
G1 X122.464 Y109.107 E7.82259
G1 X123.154 Y109.566 E7.85291
G1 X123.796 Y110.089 E7.88321
G1 X124.384 Y110.672 E7.9135
G1 X124.723 Y111.064 E7.93246
G1 X125.051 Y111.468 E7.9515
G1 X125.541 Y112.135 E7.98178
G1 X125.965 Y112.847 E8.0121
G1 X126.318 Y113.596 E8.04239
G1 X126.598 Y114.376 E8.07271
G1 X126.801 Y115.179 E8.10302
G1 X126.925 Y115.998 E8.13332
G1 X126.97 Y116.825 E8.16362
G1 X126.935 Y117.652 E8.19391
G1 X126.82 Y118.473 E8.22424
G1 X126.627 Y119.278 E8.25452
G1 X126.479 Y119.737 E8.27217
G1 X126.323 Y120.178 E8.28928
G1 X126.009 Y120.945 E8.3196
G1 X125.623 Y121.678 E8.34991
G1 X125.168 Y122.37 E8.38021
G1 X124.649 Y123.015 E8.4105
G1 X124.07 Y123.607 E8.4408
G1 X123.436 Y124.14 E8.4711
G1 X122.754 Y124.61 E8.5014
G1 X122.029 Y125.012 E8.53173
G1 X121.27 Y125.342 E8.56201
G1 X120.092 Y125.694 E8.607
G1 X119.375 Y125.853 E8.63387
G1 X118.558 Y125.993 E8.66419
G1 X117.535 Y126.056 E8.70169
G1 X116.084 Y126.059 E8.75478
G1 X115.256 Y126.021 E8.7851
G1 X114.437 Y125.903 E8.81538
G1 X113.632 Y125.706 E8.8457
G1 X112.504 Y125.285 E8.88975
G1 X111.943 Y125.029 E8.91231
G1 X111.207 Y124.649 E8.94261
G1 X110.511 Y124.2 E8.97291
G1 X109.862 Y123.686 E9.0032
G1 X109.265 Y123.112 E9.0335
G1 X108.726 Y122.482 E9.06384
G1 X108.25 Y121.804 E9.09415
G1 X107.843 Y121.084 E9.12441
G1 X107.506 Y120.327 E9.15472
G1 X107.244 Y119.541 E9.18503
G1 X107.062 Y118.751 E9.21469
G1 X106.984 Y118.32 E9.23072
G1 X106.876 Y117.499 E9.26101
G1 X106.848 Y116.671 E9.29133
G1 X106.899 Y115.844 E9.32164
G1 X107.031 Y115.027 E9.35192
G1 X107.24 Y114.225 E9.38224
G1 X107.526 Y113.448 E9.41253
G1 X107.885 Y112.701 E9.44285
G1 X108.314 Y111.993 E9.47314
G1 X108.81 Y111.33 E9.50344
G1 X108.904 Y111.228 E9.50851
G0 F810 X109.394 Y110.691
M204 S5000
M205 X30 Y30
G0 F7200 X109.704 Y111.004
M204 S500
M205 X20 Y20
G1 F6000 E9.53511
G1 F900 X110.24 Y110.474 E9.56269
G1 X110.841 Y109.936 E9.5922
G1 X111.492 Y109.46 E9.6217
G1 X112.187 Y109.051 E9.65121
G1 X112.92 Y108.712 E9.68075
G1 X113.682 Y108.448 E9.71026
G1 X114.467 Y108.261 E9.73978
G1 X115.266 Y108.152 E9.76928
G1 X115.924 Y108.122 E9.79338
G1 X117.186 Y108.116 E9.83956
G1 X117.992 Y108.152 E9.86907
G1 X118.791 Y108.268 E9.89861
G1 X118.906 Y108.296 E9.90294
G1 X119.608 Y108.412 E9.92897
G1 X120.387 Y108.621 E9.95848
G1 X121.142 Y108.907 E9.98802
G1 X122.064 Y109.381 E10.02595
G1 X122.238 Y109.485 E10.03337
G1 X122.909 Y109.933 E10.06288
G1 X123.533 Y110.445 E10.09242
G1 X124.103 Y111.016 E10.12193
G1 X124.381 Y111.341 E10.13758
G1 X124.709 Y111.745 E10.15662
G1 X125.186 Y112.396 E10.18615
G1 X125.596 Y113.091 E10.21567
G1 X125.936 Y113.823 E10.2452
G1 X126.201 Y114.585 E10.27471
G1 X126.389 Y115.369 E10.30421
G1 X126.499 Y116.168 E10.33372
G1 X126.529 Y116.974 E10.36323
G1 X126.48 Y117.78 E10.39277
G1 X126.351 Y118.576 E10.42227
G1 X126.064 Y119.591 E10.46086
G1 X125.908 Y120.032 E10.47798
G1 X125.602 Y120.778 E10.50748
G1 X125.223 Y121.49 E10.53699
G1 X124.775 Y122.161 E10.56651
G1 X124.264 Y122.785 E10.59601
G1 X123.693 Y123.355 E10.62553
G1 X123.068 Y123.866 E10.65507
G1 X122.396 Y124.312 E10.68458
G1 X121.684 Y124.69 E10.71407
G1 X120.937 Y124.995 E10.74359
G1 X119.996 Y125.264 E10.7794
G1 X119.279 Y125.423 E10.80627
G1 X118.484 Y125.558 E10.83577
G1 X117.534 Y125.616 E10.87059
G1 X116.083 Y125.619 E10.92368
G1 X115.277 Y125.581 E10.9532
G1 X114.479 Y125.463 E10.98271
G1 X113.696 Y125.266 E11.01225
G1 X112.687 Y124.884 E11.05172
G1 X112.126 Y124.628 E11.07428
G1 X111.409 Y124.258 E11.1038
G1 X110.733 Y123.818 E11.13331
G1 X110.104 Y123.313 E11.16282
G1 X109.527 Y122.748 E11.19237
G1 X109.01 Y122.129 E11.22188
G1 X108.556 Y121.462 E11.2514
G1 X108.171 Y120.754 E11.28088
G1 X107.857 Y120.011 E11.31039
G1 X107.619 Y119.24 E11.33991
G1 X107.495 Y118.673 E11.36115
G1 X107.417 Y118.242 E11.37717
G1 X107.313 Y117.442 E11.40669
G1 X107.289 Y116.635 E11.43623
G1 X107.344 Y115.83 E11.46575
G1 X107.479 Y115.035 E11.49525
G1 X107.692 Y114.257 E11.52476
G1 X107.981 Y113.504 E11.55427
G1 X108.343 Y112.783 E11.58379
G1 X108.774 Y112.101 E11.6133
G1 X109.214 Y111.54 E11.63939
G0 F810 X109.271 Y111.466
G0 X109.704 Y111.004
M204 S5000
M205 X30 Y30
G0 F7200 X110.013 Y111.317
M204 S500
M205 X20 Y20
G1 F6000 E11.66599
G1 F900 X110.549 Y110.787 E11.69356
G1 X111.134 Y110.264 E11.72227
G1 X111.77 Y109.804 E11.75099
G1 X112.449 Y109.411 E11.77969
G1 X113.164 Y109.089 E11.80838
G1 X113.909 Y108.841 E11.83711
G1 X114.675 Y108.671 E11.86582
G1 X115.454 Y108.579 E11.89452
G1 X115.926 Y108.562 E11.9118
G1 X117.188 Y108.556 E11.95797
G1 X117.972 Y108.592 E11.98668
G1 X118.748 Y108.708 E12.01539
G1 X118.817 Y108.726 E12.018
G1 X118.848 Y108.728 E12.01913
G1 X119.62 Y108.865 E12.04782
G1 X120.375 Y109.081 E12.07655
G1 X121.104 Y109.372 E12.10527
G1 X121.838 Y109.759 E12.13563
G1 X122.012 Y109.863 E12.14304
G1 X122.665 Y110.299 E12.17177
G1 X123.269 Y110.799 E12.20046
G1 X124.04 Y111.619 E12.24164
G1 X124.368 Y112.023 E12.26067
G1 X124.831 Y112.656 E12.28937
G1 X125.227 Y113.334 E12.31809
G1 X125.552 Y114.048 E12.3468
G1 X125.802 Y114.791 E12.37548
G1 X125.976 Y115.556 E12.40418
G1 X126.071 Y116.335 E12.43289
G1 X126.086 Y117.12 E12.46162
G1 X126.021 Y117.902 E12.49033
G1 X125.877 Y118.673 E12.51902
G1 X125.649 Y119.444 E12.54844
G1 X125.493 Y119.885 E12.56555
G1 X125.194 Y120.61 E12.59424
G1 X124.823 Y121.301 E12.62294
G1 X124.383 Y121.951 E12.65165
G1 X123.88 Y122.553 E12.68036
G1 X123.318 Y123.1 E12.70905
G1 X122.703 Y123.588 E12.73777
G1 X122.041 Y124.01 E12.76649
G1 X121.34 Y124.363 E12.79521
G1 X120.607 Y124.642 E12.8239
G1 X119.901 Y124.834 E12.85067
G1 X119.184 Y124.993 E12.87754
G1 X118.41 Y125.124 E12.90626
G1 X117.533 Y125.176 E12.9384
G1 X116.082 Y125.179 E12.99149
G1 X115.298 Y125.141 E13.02021
G1 X114.523 Y125.023 E13.04889
G1 X113.763 Y124.826 E13.07761
G1 X112.869 Y124.484 E13.11263
G1 X112.308 Y124.228 E13.13519
G1 X111.612 Y123.866 E13.1639
G1 X110.956 Y123.436 E13.19259
G1 X110.348 Y122.941 E13.22128
G1 X109.793 Y122.386 E13.24999
G1 X109.297 Y121.778 E13.2787
G1 X108.865 Y121.123 E13.30741
G1 X108.503 Y120.427 E13.33611
G1 X108.213 Y119.697 E13.36485
G1 X107.928 Y118.594 E13.40653
G1 X107.85 Y118.163 E13.42255
G1 X107.75 Y117.385 E13.45125
G1 X107.729 Y116.601 E13.47995
G1 X107.789 Y115.818 E13.50868
G1 X107.928 Y115.046 E13.53738
G1 X108.144 Y114.292 E13.56607
G1 X108.436 Y113.564 E13.59477
G1 X108.801 Y112.869 E13.62349
G1 X109.235 Y112.215 E13.65221
G1 X109.528 Y111.858 E13.6691
G0 F810 X109.733 Y111.609
G0 X110.013 Y111.317
M204 S5000
M205 X30 Y30
G0 F7200 X110.322 Y111.63
M204 S500
M205 X20 Y20
G1 F6000 E13.6957
G1 F900 X110.858 Y111.1 E13.72328
G1 X111.427 Y110.593 E13.75116
G1 X112.046 Y110.149 E13.77903
G1 X112.709 Y109.772 E13.80694
G1 X113.407 Y109.467 E13.8348
G1 X114.133 Y109.236 E13.86268
G1 X114.879 Y109.083 E13.89054
G1 X115.928 Y109.002 E13.92903
G1 X117.19 Y108.996 E13.9752
G1 X117.951 Y109.032 E14.00308
G1 X118.704 Y109.148 E14.03095
G1 X118.777 Y109.167 E14.03371
G1 X118.881 Y109.176 E14.03753
G1 X119.629 Y109.32 E14.0654
G1 X120.358 Y109.541 E14.09327
G1 X121.06 Y109.837 E14.12114
G1 X121.613 Y110.136 E14.14414
G1 X121.787 Y110.24 E14.15156
G1 X122.419 Y110.665 E14.17942
G1 X123.004 Y111.153 E14.2073
G1 X123.698 Y111.896 E14.24449
G1 X124.026 Y112.3 E14.26353
G1 X124.475 Y112.916 E14.29142
