;FLAVOR:Marlin
;TIME:854
;Filament used: 0.767099m
;Layer height: 0.2
;Generated with Cura_SteamEngine 3.6.0
M140 S70
M105
M190 S70
M104 S210
M105
M109 S210
M82 ;absolute extrusion mode
G28 ; home all axes
M117 Purge extruder
G92 E0 ; reset extruder
G1 Z1.0 F3000 ; move z up little to prevent scratching of surface
G1 X0.1 Y20 Z0.3 F5000.0 ; move to start-line position G1 X0.1 Y200.0 Z0.3 F1500.0 E15 ; draw 1st line
G1 X0.4 Y200.0 Z0.3 F5000.0 ; move to side a little
G1 X0.4 Y20 Z0.3 F1500.0 E30 ; draw 2nd line
G92 E0 ; reset extruder
G1 Z1.0 F3000 ; move z up little to prevent scratching of surface
M117 All systems go!
G92 E0
G1 F6000 E-5
;LAYER_COUNT:65
;LAYER:0
M107
M204 S5000
M205 X30 Y30
G0 F7200 X99.897 Y109.388 Z0.2
M204 S500
M205 X20 Y20
;TYPE:SKIRT
G1 F6000 E0
G1 F900 X100.593 Y108.834 E0.03255
G1 X101.602 Y108.191 E0.07632
G1 X101.973 Y107.985 E0.09185
G1 X102.77 Y107.588 E0.12442
G1 X103.598 Y107.265 E0.15694
G1 X104.453 Y107.017 E0.18951
G1 X105.326 Y106.847 E0.22205
G1 X106.211 Y106.756 E0.2546
G1 X106.78 Y106.74 E0.27542
G1 X119.581 Y106.741 E0.74376
G1 X120.47 Y106.781 E0.77632
G1 X121.257 Y106.884 E0.80536
G1 X122.304 Y107.064 E0.84423
G1 X123.174 Y107.254 E0.87681
G1 X124.022 Y107.521 E0.90933
G1 X124.843 Y107.864 E0.94189
G1 X125.631 Y108.279 E0.97447
G1 X126.377 Y108.762 E1.00699
G1 X127.078 Y109.311 E1.03956
G1 X127.726 Y109.92 E1.0721
G1 X128.317 Y110.586 E1.10467
G1 X128.845 Y111.301 E1.13719
G1 X129.308 Y112.061 E1.16975
G1 X129.7 Y112.86 E1.20231
G1 X130.019 Y113.691 E1.23488
G1 X130.262 Y114.546 E1.2674
G1 X130.427 Y115.421 E1.29998
G1 X130.514 Y116.306 E1.33251
G1 X130.527 Y116.765 E1.34931
G1 X130.529 Y117.117 E1.36219
G1 X130.494 Y118.006 E1.39474
G1 X130.379 Y118.888 E1.42728
G1 X130.186 Y119.757 E1.45985
G1 X129.915 Y120.604 E1.49238
G1 X129.57 Y121.424 E1.52493
G1 X129.152 Y122.21 E1.5575
G1 X128.665 Y122.954 E1.59004
G1 X128.114 Y123.653 E1.6226
G1 X127.502 Y124.298 E1.65513
G1 X126.835 Y124.887 E1.68769
G1 X126.117 Y125.413 E1.72025
G1 X125.355 Y125.872 E1.7528
G1 X124.555 Y126.261 E1.78534
G1 X123.723 Y126.577 E1.8179
G1 X122.817 Y126.828 E1.8523
G1 X121.983 Y127.017 E1.88358
G1 X121.107 Y127.175 E1.91615
G1 X120.551 Y127.233 E1.9366
G1 X119.794 Y127.291 E1.96438
G1 X119.038 Y127.32 E1.99206
G1 X106.873 Y127.32 E2.43713
G1 X105.984 Y127.28 E2.46969
G1 X105.103 Y127.16 E2.50222
G1 X104.235 Y126.962 E2.53479
G1 X103.389 Y126.687 E2.56734
G1 X102.571 Y126.337 E2.59989
G1 X101.788 Y125.914 E2.63245
G1 X101.245 Y125.565 E2.65606
G1 X100.792 Y125.252 E2.67621
G1 X100.084 Y124.714 E2.70874
G1 X99.426 Y124.114 E2.74132
G1 X98.826 Y123.458 E2.77385
G1 X98.286 Y122.75 E2.80642
G1 X97.812 Y121.997 E2.83898
G1 X97.408 Y121.205 E2.87151
G1 X97.076 Y120.379 E2.90408
G1 X96.82 Y119.527 E2.93662
G1 X96.642 Y118.656 E2.96915
G1 X96.53 Y117.562 E3.00938
G1 X96.518 Y117.301 E3.01894
G1 X96.518 Y116.411 E3.0515
G1 X96.597 Y115.525 E3.08405
G1 X96.755 Y114.649 E3.11661
G1 X96.991 Y113.791 E3.14917
G1 X97.303 Y112.958 E3.18172
G1 X97.689 Y112.157 E3.21425
G1 X98.145 Y111.393 E3.2468
G1 X98.668 Y110.673 E3.27936
G1 X99.254 Y110.003 E3.31192
G1 X99.372 Y109.89 E3.3179
G0 F810 X99.897 Y109.388
M204 S5000
M205 X30 Y30
G0 F7200 X100.335 Y109.593
M204 S500
M205 X20 Y20
G1 F6000 E3.3445
G1 F900 X101.027 Y109.066 E3.37632
G1 X101.816 Y108.575 E3.41032
G1 X102.187 Y108.369 E3.42585
G1 X102.966 Y107.983 E3.45765
G1 X103.777 Y107.669 E3.48947
G1 X104.613 Y107.431 E3.52127
G1 X105.468 Y107.271 E3.5531
G1 X106.334 Y107.19 E3.58492
G1 X106.78 Y107.18 E3.60124
G1 X119.581 Y107.181 E4.06958
G1 X120.45 Y107.221 E4.10141
G1 X121.183 Y107.318 E4.12846
G1 X122.23 Y107.498 E4.16733
G1 X123.079 Y107.684 E4.19912
G1 X123.908 Y107.948 E4.23095
G1 X124.709 Y108.287 E4.26278
G1 X125.476 Y108.698 E4.29461
G1 X126.201 Y109.178 E4.32642
G1 X126.879 Y109.722 E4.35823
G1 X127.505 Y110.326 E4.39005
G1 X128.072 Y110.985 E4.42186
G1 X128.577 Y111.694 E4.45371
G1 X129.014 Y112.445 E4.4855
G1 X129.381 Y113.234 E4.51733
G1 X129.673 Y114.053 E4.54914
G1 X129.889 Y114.896 E4.58098
G1 X130.027 Y115.754 E4.61278
G1 X130.087 Y116.767 E4.6499
G1 X130.089 Y117.119 E4.66278
G1 X130.054 Y117.988 E4.6946
G1 X129.939 Y118.85 E4.72642
G1 X129.746 Y119.698 E4.75824
G1 X129.475 Y120.525 E4.79008
G1 X129.13 Y121.323 E4.82188
G1 X128.713 Y122.086 E4.8537
G1 X128.228 Y122.808 E4.88552
G1 X127.678 Y123.482 E4.91734
G1 X127.069 Y124.103 E4.94917
G1 X126.405 Y124.665 E4.98099
G1 X125.693 Y125.164 E5.0128
G1 X124.937 Y125.595 E5.04464
G1 X124.146 Y125.955 E5.07644
G1 X123.324 Y126.241 E5.10828
G1 X122.72 Y126.399 E5.13112
G1 X121.886 Y126.588 E5.16241
G1 X121.03 Y126.741 E5.19422
G1 X120.518 Y126.794 E5.21305
G1 X119.761 Y126.852 E5.24083
G1 X119.038 Y126.88 E5.2673
G1 X106.873 Y126.88 E5.71237
G1 X106.004 Y126.84 E5.7442
G1 X105.143 Y126.72 E5.77601
G1 X104.296 Y126.522 E5.80783
G1 X103.471 Y126.247 E5.83965
G1 X102.675 Y125.897 E5.87146
G1 X101.914 Y125.476 E5.90328
G1 X101.495 Y125.203 E5.92157
G1 X101.042 Y124.89 E5.94172
G1 X100.35 Y124.363 E5.97354
G1 X99.71 Y123.775 E6.00534
G1 X99.126 Y123.131 E6.03715
G1 X98.603 Y122.435 E6.069
G1 X98.147 Y121.695 E6.1008
G1 X97.761 Y120.916 E6.13261
G1 X97.447 Y120.104 E6.16446
G1 X97.21 Y119.268 E6.19625
G1 X97.051 Y118.413 E6.22807
G1 X96.97 Y117.541 E6.26011
G1 X96.958 Y117.28 E6.26967
G1 X96.958 Y116.411 E6.30146
G1 X97.038 Y115.545 E6.33328
G1 X97.197 Y114.69 E6.3651
G1 X97.434 Y113.853 E6.39692
G1 X97.747 Y113.041 E6.42876
G1 X98.133 Y112.262 E6.46057
G1 X98.589 Y111.521 E6.4924
G1 X99.111 Y110.826 E6.5242
G1 X99.695 Y110.181 E6.55604
G1 X99.8 Y110.084 E6.56127
G0 F810 X100.335 Y109.593
M204 S5000
M205 X30 Y30
G0 F7200 X100.772 Y109.803
M204 S500
M205 X20 Y20
G1 F6000 E6.58786
G1 F900 X101.46 Y109.305 E6.61894
G1 X102.029 Y108.96 E6.64328
G1 X102.4 Y108.754 E6.65881
G1 X103.161 Y108.377 E6.68988
G1 X103.954 Y108.074 E6.72094
G1 X104.773 Y107.846 E6.75204
G1 X105.609 Y107.696 E6.78312
G1 X106.78 Y107.62 E6.82605
G1 X119.581 Y107.621 E7.29439
G1 X120.429 Y107.661 E7.32545
G1 X121.108 Y107.751 E7.35051
G1 X122.155 Y107.931 E7.38937
G1 X122.985 Y108.115 E7.42048
G1 X123.793 Y108.375 E7.45153
G1 X124.573 Y108.71 E7.48259
G1 X125.319 Y109.117 E7.51368
G1 X126.022 Y109.592 E7.54472
G1 X126.678 Y110.132 E7.57581
G1 X127.28 Y110.731 E7.60688
G1 X127.824 Y111.383 E7.63795
G1 X128.303 Y112.084 E7.66901
G1 X128.715 Y112.827 E7.70009
G1 X129.054 Y113.605 E7.73114
G1 X129.319 Y114.412 E7.76222
G1 X129.507 Y115.24 E7.79328
G1 X129.617 Y116.083 E7.82438
G1 X129.647 Y116.77 E7.84954
G1 X129.649 Y117.122 E7.86242
G1 X129.614 Y117.97 E7.89347
G1 X129.499 Y118.812 E7.92456
G1 X129.305 Y119.639 E7.95564
G1 X129.035 Y120.444 E7.98671
G1 X128.69 Y121.22 E8.01778
G1 X128.274 Y121.96 E8.04883
G1 X127.79 Y122.658 E8.07991
G1 X127.242 Y123.307 E8.11099
G1 X126.636 Y123.902 E8.14206
G1 X125.977 Y124.437 E8.17311
G1 X125.27 Y124.907 E8.20417
G1 X124.522 Y125.31 E8.23526
G1 X123.739 Y125.64 E8.26635
G1 X122.623 Y125.97 E8.30893
G1 X121.789 Y126.159 E8.34021
G1 X120.952 Y126.307 E8.37131
G1 X120.484 Y126.356 E8.38853
G1 X119.727 Y126.414 E8.4163
G1 X119.038 Y126.44 E8.44153
G1 X106.873 Y126.44 E8.8866
G1 X106.025 Y126.4 E8.91766
G1 X105.184 Y126.28 E8.94874
G1 X104.358 Y126.082 E8.97982
G1 X103.555 Y125.807 E9.01087
G1 X102.781 Y125.458 E9.04193
G1 X101.746 Y124.841 E9.08602
G1 X101.293 Y124.528 E9.10616
G1 X100.617 Y124.013 E9.13725
G1 X99.994 Y123.436 E9.16832
G1 X99.427 Y122.804 E9.19938
G1 X98.922 Y122.121 E9.23046
G1 X98.484 Y121.394 E9.26151
G1 X98.116 Y120.628 E9.29261
G1 X97.821 Y119.832 E9.32366
G1 X97.603 Y119.011 E9.35474
G1 X97.463 Y118.173 E9.38583
G1 X97.41 Y117.521 E9.40976
G1 X97.398 Y117.26 E9.41932
G1 X97.398 Y116.411 E9.45038
G1 X97.479 Y115.566 E9.48144
G1 X97.639 Y114.732 E9.51251
G1 X97.877 Y113.916 E9.5436
G1 X98.19 Y113.127 E9.57466
G1 X98.577 Y112.371 E9.60573
G1 X99.032 Y111.654 E9.6368
G1 X99.553 Y110.983 E9.66788
G1 X100.135 Y110.365 E9.69894
G1 X100.227 Y110.284 E9.70342
G0 F810 X100.772 Y109.803
M204 S5000
M205 X30 Y30
G0 F7200 X100.575 Y110.554
M204 S500
M205 X20 Y20
G1 F6000 E9.73002
G1 F900 X101.208 Y110.021 E9.7603
G1 X102.243 Y109.345 E9.80552
G1 X102.614 Y109.139 E9.82105
G1 X103.357 Y108.772 E9.85137
G1 X104.131 Y108.479 E9.88165
G1 X104.93 Y108.262 E9.91194
G1 X105.747 Y108.122 E9.94227
G1 X106.78 Y108.06 E9.98013
G1 X119.581 Y108.061 E10.44847
G1 X120.408 Y108.101 E10.47876
G1 X121.034 Y108.185 E10.50187
G1 X122.081 Y108.365 E10.54073
G1 X122.889 Y108.545 E10.57102
G1 X123.677 Y108.801 E10.60133
G1 X124.436 Y109.133 E10.63164
G1 X125.159 Y109.536 E10.66193
G1 X125.841 Y110.007 E10.69225
G1 X126.473 Y110.541 E10.72252
G1 X127.052 Y111.134 E10.75284
G1 X127.57 Y111.78 E10.78314
G1 X128.024 Y112.473 E10.81345
G1 X128.409 Y113.207 E10.84377
G1 X128.721 Y113.974 E10.87407
G1 X128.958 Y114.767 E10.90435
G1 X129.117 Y115.58 E10.93466
G1 X129.207 Y116.772 E10.97839
G1 X129.209 Y117.124 E10.99127
G1 X129.174 Y117.952 E11.02159
G1 X129.059 Y118.772 E11.05188
G1 X128.865 Y119.577 E11.08218
G1 X128.595 Y120.36 E11.11248
G1 X128.251 Y121.114 E11.1428
G1 X127.835 Y121.83 E11.1731
G1 X127.353 Y122.503 E11.20339
G1 X126.807 Y123.127 E11.23372
G1 X126.204 Y123.695 E11.26403
G1 X125.55 Y124.202 E11.2943
G1 X124.849 Y124.643 E11.3246
G1 X124.109 Y125.016 E11.35492
G1 X123.337 Y125.315 E11.38521
G1 X122.525 Y125.541 E11.41605
G1 X121.691 Y125.73 E11.44733
G1 X120.876 Y125.874 E11.47761
G1 X120.45 Y125.917 E11.49328
G1 X119.693 Y125.975 E11.52106
G1 X119.038 Y126 E11.54504
G1 X106.873 Y126 E11.99011
G1 X106.046 Y125.96 E12.0204
G1 X105.226 Y125.84 E12.05072
G1 X104.422 Y125.642 E12.08101
G1 X103.641 Y125.368 E12.1113
G1 X102.889 Y125.019 E12.14163
G1 X101.996 Y124.479 E12.17981
G1 X101.543 Y124.166 E12.19995
G1 X100.885 Y123.663 E12.23025
G1 X100.278 Y123.098 E12.26059
G1 X99.729 Y122.478 E12.29089
G1 X99.243 Y121.808 E12.32117
G1 X98.823 Y121.094 E12.35148
G1 X98.474 Y120.343 E12.38178
G1 X98.199 Y119.562 E12.41207
G1 X98 Y118.758 E12.44238
G1 X97.88 Y117.938 E12.4727
G1 X97.849 Y117.501 E12.48872
G1 X97.837 Y117.24 E12.49828
G1 X97.839 Y116.412 E12.52858
G1 X97.921 Y115.588 E12.55887
G1 X98.082 Y114.775 E12.58919
G1 X98.32 Y113.982 E12.61949
G1 X98.634 Y113.215 E12.64981
G1 X99.02 Y112.483 E12.68008
G1 X99.475 Y111.791 E12.71038
G1 X99.995 Y111.146 E12.7407
G1 X100.066 Y111.073 E12.74442
G0 F810 X100.575 Y110.554
M204 S5000
M205 X30 Y30
G0 F7200 X101.014 Y110.75
M204 S500
M205 X20 Y20
G1 F6000 E12.77102
G1 F900 X101.643 Y110.246 E12.80051
G1 X102.456 Y109.729 E12.83576
G1 X102.827 Y109.523 E12.85128
G1 X103.551 Y109.167 E12.8808
G1 X104.307 Y108.884 E12.91034
G1 X105.087 Y108.678 E12.93985
G1 X105.883 Y108.549 E12.96935
G1 X106.78 Y108.5 E13.00222
G1 X119.581 Y108.501 E13.47056
G1 X120.386 Y108.541 E13.50005
G1 X120.959 Y108.619 E13.5212
G1 X122.006 Y108.799 E13.56007
G1 X122.794 Y108.975 E13.58961
G1 X123.56 Y109.228 E13.61913
G1 X124.297 Y109.555 E13.64863
G1 X124.998 Y109.954 E13.67814
G1 X125.656 Y110.42 E13.70764
G1 X126.265 Y110.95 E13.73717
G1 X126.819 Y111.537 E13.7667
G1 X127.311 Y112.175 E13.79618
G1 X127.738 Y112.86 E13.82571
G1 X128.095 Y113.583 E13.85521
G1 X128.379 Y114.338 E13.88472
G1 X128.587 Y115.118 E13.91426
G1 X128.716 Y115.914 E13.94376
G1 X128.767 Y116.775 E13.97532
G1 X128.769 Y117.127 E13.9882
G1 X128.733 Y117.933 E14.01771
G1 X128.618 Y118.731 E14.04721
G1 X128.425 Y119.514 E14.07671
G1 X128.155 Y120.275 E14.10626
G1 X127.811 Y121.004 E14.13575
G1 X127.396 Y121.696 E14.16527
G1 X126.916 Y122.344 E14.19477
G1 X126.373 Y122.941 E14.2243
G1 X125.774 Y123.481 E14.25381
G1 X125.124 Y123.959 E14.28332
G1 X124.43 Y124.371 E14.31285
G1 X123.699 Y124.712 E14.34236
G1 X122.938 Y124.979 E14.37187
G1 X122.428 Y125.112 E14.39115
G1 X121.594 Y125.301 E14.42244
G1 X120.417 Y125.478 E14.46598
G1 X119.66 Y125.536 E14.49376
G1 X119.038 Y125.56 E14.51654
G1 X106.873 Y125.56 E14.96161
G1 X106.067 Y125.52 E14.99113
G1 X105.269 Y125.4 E15.02065
G1 X104.487 Y125.203 E15.05016
G1 X103.729 Y124.928 E15.07966
G1 X103.001 Y124.58 E15.10918
G1 X102.246 Y124.117 E15.14158
G1 X101.793 Y123.804 E15.16173
G1 X101.153 Y123.313 E15.19124
G1 X100.564 Y122.761 E15.22077
G1 X100.033 Y122.154 E15.25028
G1 X99.565 Y121.497 E15.27979
G1 X99.164 Y120.797 E15.30931
G1 X98.835 Y120.06 E15.33884
G1 X98.58 Y119.295 E15.36834
G1 X98.402 Y118.508 E15.39786
G1 X98.289 Y117.481 E15.43566
G1 X98.277 Y117.22 E15.44522
G1 X98.28 Y116.413 E15.47474
G1 X98.362 Y115.611 E15.50424
G1 X98.524 Y114.82 E15.53378
G1 X98.763 Y114.05 E15.56328
G1 X99.078 Y113.307 E15.5928
G1 X99.464 Y112.599 E15.6223
G1 X99.918 Y111.932 E15.65182
G1 X100.437 Y111.314 E15.68135
G1 X100.494 Y111.258 E15.68427
G0 F810 X101.014 Y110.75
M204 S5000
M205 X30 Y30
G0 F7200 X101.452 Y110.953
M204 S500
M205 X20 Y20
G1 F6000 E15.71087
G1 F900 X102.077 Y110.479 E15.73957
G1 X102.67 Y110.114 E15.76505
G1 X103.041 Y109.908 E15.78057
G1 X103.746 Y109.563 E15.80929
G1 X104.482 Y109.291 E15.838
G1 X105.241 Y109.095 E15.86668
G1 X106.017 Y108.978 E15.89539
G1 X106.78 Y108.94 E15.92334
G1 X119.581 Y108.941 E16.39168
G1 X120.364 Y108.981 E16.42036
G1 X120.885 Y109.052 E16.4396
G1 X121.932 Y109.232 E16.47847
G1 X122.697 Y109.404 E16.50715
G1 X123.441 Y109.654 E16.53587
G1 X124.156 Y109.977 E16.56457
G1 X124.834 Y110.372 E16.59328
G1 X125.468 Y110.833 E16.62196
G1 X126.053 Y111.357 E16.65069
G1 X126.58 Y111.938 E16.67939
G1 X127.047 Y112.569 E16.70811
G1 X127.446 Y113.244 E16.7368
G1 X127.774 Y113.957 E16.76551
G1 X128.029 Y114.699 E16.79422
G1 X128.206 Y115.463 E16.82291
G1 X128.305 Y116.242 E16.85164
G1 X128.327 Y116.777 E16.87123
G1 X128.329 Y117.129 E16.88411
G1 X128.293 Y117.913 E16.91282
G1 X128.178 Y118.689 E16.94152
G1 X127.985 Y119.45 E16.97025
G1 X127.715 Y120.186 E16.99893
G1 X127.371 Y120.892 E17.02766
G1 X126.958 Y121.559 E17.05637
G1 X126.479 Y122.18 E17.08506
G1 X125.939 Y122.749 E17.11376
G1 X125.344 Y123.261 E17.14248
G1 X124.7 Y123.709 E17.17118
G1 X124.014 Y124.089 E17.19987
G1 X123.292 Y124.398 E17.2286
G1 X122.331 Y124.683 E17.26528
G1 X121.497 Y124.872 E17.29656
G1 X120.383 Y125.039 E17.33778
G1 X119.626 Y125.097 E17.36555
G1 X119.038 Y125.12 E17.38708
G1 X106.873 Y125.12 E17.83215
G1 X106.089 Y125.08 E17.86087
G1 X105.314 Y124.961 E17.88956
G1 X104.555 Y124.763 E17.91826
G1 X103.82 Y124.489 E17.94696
G1 X103.116 Y124.141 E17.97569
G1 X102.496 Y123.755 E18.00241
G1 X102.043 Y123.442 E18.02255
G1 X101.421 Y122.964 E18.05125
G1 X100.851 Y122.424 E18.07998
G1 X100.339 Y121.83 E18.10867
G1 X99.89 Y121.187 E18.13736
G1 X99.508 Y120.501 E18.16609
G1 X99.199 Y119.78 E18.19479
G1 X98.964 Y119.031 E18.22351
G1 X98.807 Y118.263 E18.25219
G1 X98.728 Y117.461 E18.28167
G1 X98.716 Y117.2 E18.29123
G1 X98.72 Y116.415 E18.31995
G1 X98.804 Y115.635 E18.34866
G1 X98.967 Y114.867 E18.37738
G1 X99.207 Y114.12 E18.40609
G1 X99.521 Y113.402 E18.43476
G1 X99.908 Y112.719 E18.46348
G1 X100.361 Y112.079 E18.49216
G1 X100.878 Y111.488 E18.52089
G1 X100.92 Y111.449 E18.52299
G0 F810 X101.452 Y110.953
M204 S5000
M205 X30 Y30
G0 F7200 X101.889 Y111.164
M204 S500
M205 X20 Y20
G1 F6000 E18.54959
G1 F900 X102.509 Y110.722 E18.57744
G1 X102.884 Y110.499 E18.59341
G1 X103.255 Y110.293 E18.60893
G1 X103.939 Y109.958 E18.6368
G1 X104.655 Y109.698 E18.66467
G1 X105.394 Y109.513 E18.69254
G1 X106.149 Y109.407 E18.72043
G1 X106.78 Y109.38 E18.74354
G1 X119.581 Y109.381 E19.21188
G1 X120.341 Y109.421 E19.23972
G1 X120.81 Y109.486 E19.25705
G1 X121.857 Y109.666 E19.29591
G1 X122.6 Y109.834 E19.32378
G1 X123.321 Y110.08 E19.35165
G1 X124.013 Y110.399 E19.37953
G1 X124.667 Y110.789 E19.40739
G1 X125.277 Y111.246 E19.43528
G1 X125.836 Y111.764 E19.46316
G1 X126.337 Y112.337 E19.49101
G1 X126.776 Y112.961 E19.51892
G1 X127.146 Y113.626 E19.54676
G1 X127.445 Y114.327 E19.57465
G1 X127.669 Y115.055 E19.60251
G1 X127.815 Y115.803 E19.63039
G1 X127.887 Y116.78 E19.66624
G1 X127.889 Y117.132 E19.67912
G1 X127.853 Y117.893 E19.70699
G1 X127.738 Y118.646 E19.73486
G1 X127.545 Y119.383 E19.76273
G1 X127.275 Y120.095 E19.79059
G1 X126.932 Y120.776 E19.81849
G1 X126.52 Y121.416 E19.84633
