;FLAVOR:Marlin
;TIME:1912
;Filament used: 1.57105m
;Layer height: 0.2
;Generated with Cura_SteamEngine 3.6.0
M140 S70
M105
M190 S70
M104 S215
M105
M109 S215
M82 ;absolute extrusion mode
G28 ; home all axes
M117 Purge extruder
G92 E0 ; reset extruder
G1 Z1.0 F3000 ; move z up little to prevent scratching of surface
G1 X0.1 Y20 Z0.3 F5000.0 ; move to start-line position G1 X0.1 Y200.0 Z0.3 F1500.0 E15 ; draw 1st line
G1 X0.4 Y200.0 Z0.3 F5000.0 ; move to side a little
G1 X0.4 Y20 Z0.3 F1500.0 E30 ; draw 2nd line
G92 E0 ; reset extruder
G1 Z1.0 F3000 ; move z up little to prevent scratching of surface
M117 All systems go!
G92 E0
G1 F6000 E-5
;LAYER_COUNT:55
;LAYER:0
M107
M204 S5000
M205 X30 Y30
G0 F7200 X102.114 Y101.837 Z0.2
M204 S500
M205 X20 Y20
;TYPE:SKIRT
G1 F6000 E0
G1 F900 X103.305 Y100.751 E0.05897
G1 X103.669 Y100.449 E0.07627
G1 X104.918 Y99.508 E0.13349
G1 X105.303 Y99.244 E0.15057
G1 X106.635 Y98.421 E0.20785
G1 X107.058 Y98.187 E0.22554
G1 X108.535 Y97.459 E0.28578
G1 X108.985 Y97.264 E0.30373
G1 X110.527 Y96.682 E0.36403
G1 X111.129 Y96.497 E0.38707
G1 X113.628 Y95.895 E0.48111
G1 X114.269 Y95.783 E0.50492
G1 X116.007 Y95.595 E0.56888
G1 X116.543 Y95.566 E0.58851
G1 X118.379 Y95.563 E0.65569
G1 X119.044 Y95.606 E0.68007
G1 X121.65 Y95.947 E0.77622
G1 X122.407 Y96.105 E0.80452
G1 X124.83 Y96.81 E0.89684
G1 X125.424 Y97.025 E0.91995
G1 X126.978 Y97.697 E0.9819
G1 X127.416 Y97.912 E0.99975
G1 X128.801 Y98.677 E1.05763
G1 X129.211 Y98.929 E1.07524
G1 X130.548 Y99.843 E1.1345
G1 X130.928 Y100.13 E1.15192
G1 X132.123 Y101.124 E1.20879
G1 X132.462 Y101.433 E1.22557
G1 X133.565 Y102.534 E1.28259
G1 X133.885 Y102.885 E1.29996
G1 X134.895 Y104.103 E1.35785
G1 X135.179 Y104.479 E1.37509
G1 X136.06 Y105.769 E1.43225
G1 X136.311 Y106.178 E1.4498
G1 X137.102 Y107.611 E1.50969
G1 X137.364 Y108.161 E1.53198
G1 X138.276 Y110.419 E1.62107
G1 X138.503 Y111.129 E1.64834
G1 X139.104 Y113.624 E1.74224
G1 X139.215 Y114.263 E1.76596
G1 X139.404 Y116.003 E1.83
G1 X139.434 Y116.535 E1.84949
G1 X139.439 Y118.322 E1.91487
G1 X139.397 Y118.988 E1.93929
G1 X139.049 Y121.666 E2.03809
G1 X138.889 Y122.429 E2.06661
G1 X138.19 Y124.828 E2.15803
G1 X137.977 Y125.421 E2.18108
G1 X137.304 Y126.978 E2.24314
G1 X137.088 Y127.416 E2.26101
G1 X136.323 Y128.801 E2.3189
G1 X136.072 Y129.21 E2.33646
G1 X135.159 Y130.546 E2.39566
G1 X134.871 Y130.927 E2.41313
G1 X133.876 Y132.123 E2.47005
G1 X133.567 Y132.462 E2.48683
G1 X132.467 Y133.564 E2.5438
G1 X132.116 Y133.884 E2.56118
G1 X130.897 Y134.895 E2.61912
G1 X130.521 Y135.179 E2.63636
G1 X129.231 Y136.06 E2.69351
G1 X128.822 Y136.311 E2.71107
G1 X127.389 Y137.102 E2.77095
G1 X126.954 Y137.316 E2.78869
G1 X125.48 Y137.954 E2.84745
G1 X124.9 Y138.164 E2.87002
G1 X122.484 Y138.876 E2.96217
G1 X121.732 Y139.036 E2.9903
G1 X119.127 Y139.388 E3.08647
G1 X118.457 Y139.434 E3.11104
G1 X116.626 Y139.437 E3.17803
G1 X115.962 Y139.394 E3.20238
G1 X113.352 Y139.053 E3.29868
G1 X112.594 Y138.895 E3.32701
G1 X110.171 Y138.19 E3.41933
G1 X109.575 Y137.975 E3.44251
G1 X108.02 Y137.302 E3.5045
G1 X107.585 Y137.088 E3.52224
G1 X106.199 Y136.323 E3.58016
G1 X105.788 Y136.07 E3.59782
G1 X104.451 Y135.156 E3.65707
G1 X104.072 Y134.869 E3.67446
G1 X102.878 Y133.876 E3.73128
G1 X102.538 Y133.567 E3.74809
G1 X101.435 Y132.466 E3.80511
G1 X101.114 Y132.114 E3.82254
G1 X100.103 Y130.894 E3.8805
G1 X99.82 Y130.518 E3.89772
G1 X98.935 Y129.222 E3.95514
G1 X98.683 Y128.812 E3.97275
G1 X97.892 Y127.377 E4.03269
G1 X97.63 Y126.827 E4.05498
G1 X96.723 Y124.578 E4.1437
G1 X96.497 Y123.871 E4.17086
G1 X95.893 Y121.366 E4.26514
G1 X95.768 Y120.581 E4.29422
G1 X95.556 Y117.911 E4.39221
G1 X95.547 Y117.243 E4.41665
G1 X95.642 Y115.445 E4.48253
G1 X95.719 Y114.792 E4.50658
G1 X96.189 Y112.249 E4.6012
G1 X96.385 Y111.509 E4.6292
G1 X97.219 Y109.108 E4.7222
G1 X97.456 Y108.54 E4.74471
G1 X98.149 Y107.127 E4.80229
G1 X98.38 Y106.707 E4.81983
G1 X99.223 Y105.334 E4.87877
G1 X99.493 Y104.938 E4.89631
G1 X100.46 Y103.654 E4.95512
G1 X100.76 Y103.292 E4.97232
G1 X101.609 Y102.36 E5.01844
G0 F810 X101.781 Y102.17
G0 X102.114 Y101.837
M204 S5000
M205 X30 Y30
G0 F7200 X102.41 Y102.162
M204 S500
M205 X20 Y20
G1 F6000 E5.04504
G1 F900 X103.601 Y101.076 E5.10401
G1 X103.934 Y100.8 E5.11984
G1 X105.183 Y99.859 E5.17705
G1 X105.535 Y99.619 E5.19264
G1 X106.867 Y98.796 E5.24992
G1 X107.252 Y98.582 E5.26604
G1 X108.729 Y97.854 E5.32628
G1 X109.141 Y97.676 E5.3427
G1 X110.683 Y97.094 E5.403
G1 X111.232 Y96.924 E5.42403
G1 X113.731 Y96.322 E5.51807
G1 X114.316 Y96.221 E5.53979
G1 X116.054 Y96.033 E5.60375
G1 X116.543 Y96.006 E5.62167
G1 X118.379 Y96.003 E5.68884
G1 X118.986 Y96.042 E5.71109
G1 X121.592 Y96.383 E5.80725
G1 X122.284 Y96.528 E5.83312
G1 X124.707 Y97.233 E5.92544
G1 X125.25 Y97.429 E5.94656
G1 X126.804 Y98.101 E6.00851
G1 X127.204 Y98.297 E6.0248
G1 X128.589 Y99.062 E6.08269
G1 X128.962 Y99.292 E6.09872
G1 X130.299 Y100.206 E6.15798
G1 X130.646 Y100.468 E6.17388
G1 X131.841 Y101.462 E6.23075
G1 X132.151 Y101.744 E6.24608
G1 X133.254 Y102.845 E6.3031
G1 X133.546 Y103.166 E6.31898
G1 X134.556 Y104.384 E6.37687
G1 X134.815 Y104.727 E6.39259
G1 X135.696 Y106.017 E6.44975
G1 X135.926 Y106.39 E6.46578
G1 X136.717 Y107.823 E6.52566
G1 X136.956 Y108.326 E6.54604
G1 X137.868 Y110.584 E6.63513
G1 X138.076 Y111.232 E6.66003
G1 X138.677 Y113.727 E6.75393
G1 X138.778 Y114.31 E6.77557
G1 X138.967 Y116.05 E6.83961
G1 X138.994 Y116.536 E6.85742
G1 X138.999 Y118.323 E6.9228
G1 X138.96 Y118.931 E6.94509
G1 X138.612 Y121.609 E7.04389
G1 X138.467 Y122.306 E7.06993
G1 X137.768 Y124.705 E7.16135
G1 X137.573 Y125.246 E7.18239
G1 X136.9 Y126.803 E7.24445
G1 X136.703 Y127.204 E7.2608
G1 X135.938 Y128.589 E7.31868
G1 X135.708 Y128.962 E7.33472
G1 X134.795 Y130.298 E7.39392
G1 X134.533 Y130.646 E7.40986
G1 X133.538 Y131.842 E7.46678
G1 X133.256 Y132.151 E7.48208
G1 X132.156 Y133.253 E7.53905
G1 X131.835 Y133.545 E7.55492
G1 X130.616 Y134.556 E7.61287
G1 X130.273 Y134.815 E7.62859
G1 X128.983 Y135.696 E7.68574
G1 X128.61 Y135.926 E7.70178
G1 X127.177 Y136.717 E7.76166
G1 X126.779 Y136.912 E7.77788
G1 X125.305 Y137.55 E7.83664
G1 X124.776 Y137.742 E7.85723
G1 X122.36 Y138.454 E7.94938
G1 X121.673 Y138.6 E7.97507
G1 X119.068 Y138.952 E8.07125
G1 X118.457 Y138.994 E8.09365
G1 X116.626 Y138.997 E8.16064
G1 X116.019 Y138.958 E8.1829
G1 X113.409 Y138.617 E8.2792
G1 X112.717 Y138.472 E8.30507
G1 X110.294 Y137.767 E8.39739
G1 X109.75 Y137.571 E8.41855
G1 X108.195 Y136.898 E8.48054
G1 X107.797 Y136.703 E8.49675
G1 X106.411 Y135.938 E8.55467
G1 X106.037 Y135.707 E8.57075
G1 X104.7 Y134.793 E8.63001
G1 X104.353 Y134.531 E8.64592
G1 X103.159 Y133.538 E8.70273
G1 X102.849 Y133.256 E8.71806
G1 X101.746 Y132.155 E8.77508
G1 X101.453 Y131.833 E8.79101
G1 X100.442 Y130.613 E8.84898
G1 X100.184 Y130.27 E8.86468
G1 X99.299 Y128.974 E8.9221
G1 X99.068 Y128.599 E8.93821
G1 X98.277 Y127.164 E8.99816
G1 X98.038 Y126.662 E9.0185
G1 X97.131 Y124.413 E9.10723
G1 X96.925 Y123.768 E9.132
G1 X96.321 Y121.263 E9.22627
G1 X96.206 Y120.546 E9.25284
G1 X95.994 Y117.876 E9.35083
G1 X95.986 Y117.266 E9.37315
G1 X96.081 Y115.468 E9.43903
G1 X96.152 Y114.872 E9.46099
G1 X96.622 Y112.329 E9.5556
G1 X96.801 Y111.653 E9.58118
G1 X97.635 Y109.252 E9.67418
G1 X97.851 Y108.734 E9.69471
G1 X98.544 Y107.321 E9.75229
G1 X98.755 Y106.938 E9.76829
G1 X99.598 Y105.565 E9.82723
G1 X99.845 Y105.203 E9.84327
G1 X100.812 Y103.919 E9.90207
G1 X101.085 Y103.589 E9.91774
G1 X101.907 Y102.686 E9.96242
G0 F810 X102.106 Y102.467
G0 X102.41 Y102.162
M204 S5000
M205 X30 Y30
G0 F7200 X102.707 Y102.487
M204 S500
M205 X20 Y20
G1 F6000 E9.98902
G1 F900 X103.898 Y101.401 E10.04799
G1 X104.199 Y101.151 E10.0623
G1 X105.448 Y100.21 E10.11952
G1 X105.766 Y99.993 E10.1336
G1 X107.098 Y99.17 E10.19088
G1 X107.447 Y98.977 E10.20548
G1 X108.924 Y98.249 E10.26572
G1 X109.296 Y98.087 E10.28057
G1 X110.838 Y97.505 E10.34087
G1 X111.335 Y97.352 E10.35989
G1 X113.834 Y96.75 E10.45394
G1 X114.363 Y96.658 E10.47358
G1 X116.101 Y96.47 E10.53754
G1 X116.544 Y96.446 E10.55377
G1 X118.38 Y96.443 E10.62094
G1 X118.929 Y96.478 E10.64107
G1 X121.535 Y96.819 E10.73722
G1 X122.161 Y96.95 E10.76062
G1 X124.584 Y97.655 E10.85295
G1 X125.075 Y97.832 E10.87204
G1 X126.629 Y98.504 E10.93399
G1 X126.991 Y98.682 E10.94875
G1 X128.376 Y99.447 E11.00663
G1 X128.714 Y99.655 E11.02115
G1 X130.051 Y100.569 E11.08041
G1 X130.365 Y100.806 E11.0948
G1 X131.56 Y101.8 E11.15167
G1 X131.84 Y102.056 E11.16555
G1 X132.943 Y103.157 E11.22257
G1 X133.208 Y103.447 E11.23694
G1 X134.218 Y104.665 E11.29483
G1 X134.452 Y104.976 E11.30907
G1 X135.333 Y106.266 E11.36622
G1 X135.541 Y106.603 E11.38071
G1 X136.332 Y108.036 E11.44059
G1 X136.548 Y108.491 E11.45902
G1 X137.46 Y110.749 E11.54812
G1 X137.648 Y111.335 E11.57063
G1 X138.249 Y113.83 E11.66453
G1 X138.341 Y114.358 E11.68413
G1 X138.53 Y116.098 E11.74817
G1 X138.554 Y116.537 E11.76425
G1 X138.559 Y118.324 E11.82963
G1 X138.524 Y118.875 E11.84983
G1 X138.176 Y121.553 E11.94863
G1 X138.044 Y122.183 E11.97218
G1 X137.345 Y124.582 E12.0636
G1 X137.169 Y125.071 E12.08262
G1 X136.496 Y126.628 E12.14468
G1 X136.318 Y126.991 E12.15947
G1 X135.553 Y128.376 E12.21736
G1 X135.345 Y128.713 E12.23185
G1 X134.432 Y130.049 E12.29105
G1 X134.194 Y130.364 E12.30549
G1 X133.199 Y131.56 E12.36241
G1 X132.944 Y131.84 E12.37627
G1 X131.844 Y132.942 E12.43323
G1 X131.554 Y133.206 E12.44758
G1 X130.335 Y134.217 E12.50552
G1 X130.024 Y134.452 E12.51978
G1 X128.734 Y135.333 E12.57694
G1 X128.397 Y135.541 E12.59143
G1 X126.964 Y136.332 E12.65131
G1 X126.604 Y136.508 E12.66597
G1 X125.13 Y137.146 E12.72473
G1 X124.652 Y137.32 E12.74335
G1 X122.236 Y138.032 E12.8355
G1 X121.614 Y138.164 E12.85876
G1 X119.009 Y138.516 E12.95493
G1 X118.456 Y138.554 E12.97521
G1 X116.625 Y138.557 E13.0422
G1 X116.076 Y138.522 E13.06233
G1 X113.466 Y138.181 E13.15863
G1 X112.84 Y138.05 E13.18203
G1 X110.417 Y137.345 E13.27435
G1 X109.925 Y137.167 E13.2935
G1 X108.37 Y136.494 E13.35549
G1 X108.01 Y136.318 E13.37015
G1 X106.624 Y135.553 E13.42807
G1 X106.285 Y135.344 E13.44264
G1 X104.948 Y134.43 E13.50189
G1 X104.634 Y134.193 E13.51628
G1 X103.44 Y133.2 E13.5731
G1 X103.16 Y132.944 E13.58698
G1 X102.057 Y131.843 E13.644
G1 X101.791 Y131.552 E13.65842
G1 X100.78 Y130.332 E13.71639
G1 X100.547 Y130.022 E13.73058
G1 X99.662 Y128.726 E13.788
G1 X99.453 Y128.387 E13.80257
G1 X98.662 Y126.952 E13.86252
G1 X98.446 Y126.497 E13.88094
G1 X97.539 Y124.248 E13.96967
G1 X97.352 Y123.665 E13.99207
G1 X96.748 Y121.16 E14.08634
G1 X96.645 Y120.511 E14.11038
G1 X96.433 Y117.841 E14.20837
G1 X96.426 Y117.289 E14.22857
G1 X96.521 Y115.491 E14.29444
G1 X96.585 Y114.952 E14.3143
G1 X97.055 Y112.409 E14.40892
G1 X97.216 Y111.797 E14.43207
G1 X98.05 Y109.396 E14.52506
G1 X98.246 Y108.927 E14.54366
G1 X98.939 Y107.514 E14.60124
G1 X99.13 Y107.168 E14.6157
G1 X99.973 Y105.795 E14.67464
G1 X100.196 Y105.467 E14.68915
G1 X101.163 Y104.183 E14.74796
G1 X101.41 Y103.885 E14.76212
G1 X102.205 Y103.012 E14.80532
G0 F810 X102.431 Y102.763
G0 X102.707 Y102.487
M204 S5000
M205 X30 Y30
G0 F7200 X103.003 Y102.812
M204 S500
M205 X20 Y20
G1 F6000 E14.83192
G1 F900 X104.194 Y101.726 E14.89089
G1 X104.464 Y101.503 E14.9037
G1 X105.713 Y100.562 E14.96092
G1 X105.997 Y100.367 E14.97352
G1 X107.329 Y99.544 E15.0308
G1 X107.642 Y99.371 E15.04389
G1 X109.119 Y98.643 E15.10413
G1 X109.451 Y98.499 E15.11737
G1 X110.993 Y97.917 E15.17767
G1 X111.438 Y97.78 E15.19471
G1 X113.937 Y97.178 E15.28875
G1 X114.411 Y97.096 E15.30635
G1 X116.149 Y96.908 E15.37031
G1 X116.545 Y96.886 E15.38482
G1 X118.381 Y96.883 E15.45199
G1 X118.872 Y96.915 E15.46999
G1 X121.478 Y97.256 E15.56615
G1 X122.038 Y97.373 E15.58708
G1 X124.461 Y98.078 E15.67941
G1 X124.9 Y98.236 E15.69648
G1 X126.454 Y98.908 E15.75842
G1 X126.778 Y99.067 E15.77162
G1 X128.163 Y99.832 E15.82951
G1 X128.466 Y100.019 E15.84254
G1 X129.803 Y100.933 E15.90179
G1 X130.084 Y101.145 E15.91467
G1 X131.279 Y102.139 E15.97154
G1 X131.529 Y102.367 E15.98392
G1 X132.632 Y103.468 E16.04094
G1 X132.869 Y103.728 E16.05381
G1 X133.879 Y104.946 E16.1117
G1 X134.088 Y105.224 E16.12442
G1 X134.969 Y106.514 E16.18157
G1 X135.155 Y106.816 E16.19455
G1 X135.946 Y108.249 E16.25443
G1 X136.14 Y108.655 E16.2709
G1 X137.052 Y110.913 E16.35999
G1 X137.22 Y111.438 E16.38016
G1 X137.821 Y113.933 E16.47405
G1 X137.903 Y114.405 E16.49158
G1 X138.092 Y116.145 E16.55561
G1 X138.114 Y116.539 E16.57005
G1 X138.119 Y118.326 E16.63543
G1 X138.088 Y118.818 E16.65347
G1 X137.74 Y121.496 E16.75227
G1 X137.622 Y122.06 E16.77335
G1 X136.923 Y124.459 E16.86477
G1 X136.765 Y124.897 E16.88181
G1 X136.092 Y126.454 E16.94386
G1 X135.933 Y126.778 E16.95707
G1 X135.168 Y128.163 E17.01496
G1 X134.982 Y128.465 E17.02793
G1 X134.069 Y129.801 E17.08714
G1 X133.856 Y130.083 E17.10007
G1 X132.861 Y131.279 E17.15699
G1 X132.633 Y131.529 E17.16936
G1 X131.533 Y132.631 E17.22633
G1 X131.274 Y132.868 E17.23918
G1 X130.055 Y133.879 E17.29712
G1 X129.776 Y134.088 E17.30987
G1 X128.486 Y134.969 E17.36702
G1 X128.184 Y135.155 E17.38
G1 X126.751 Y135.946 E17.43988
G1 X126.43 Y136.104 E17.45297
G1 X124.956 Y136.742 E17.51174
G1 X124.527 Y136.897 E17.52843
G1 X122.111 Y137.609 E17.62058
G1 X121.555 Y137.728 E17.64138
G1 X118.95 Y138.08 E17.73755
G1 X118.455 Y138.114 E17.7557
G1 X116.624 Y138.117 E17.82269
G1 X116.133 Y138.085 E17.8407
G1 X113.523 Y137.744 E17.937
G1 X112.963 Y137.627 E17.95793
G1 X110.54 Y136.922 E18.05025
G1 X110.099 Y136.763 E18.0674
G1 X108.544 Y136.09 E18.12939
G1 X108.223 Y135.932 E18.14248
G1 X106.837 Y135.167 E18.2004
G1 X106.533 Y134.98 E18.21346
G1 X105.196 Y134.066 E18.27271
G1 X104.916 Y133.855 E18.28554
G1 X103.722 Y132.862 E18.34236
G1 X103.471 Y132.633 E18.35479
G1 X102.368 Y131.532 E18.41181
G1 X102.13 Y131.271 E18.42473
G1 X101.119 Y130.051 E18.4827
G1 X100.91 Y129.774 E18.4954
G1 X100.025 Y128.478 E18.55281
G1 X99.839 Y128.174 E18.56585
G1 X99.048 Y126.739 E18.6258
G1 X98.854 Y126.333 E18.64226
G1 X97.947 Y124.084 E18.73098
G1 X97.78 Y123.562 E18.75104
G1 X97.176 Y121.057 E18.84531
G1 X97.084 Y120.476 E18.86683
G1 X96.872 Y117.806 E18.96482
G1 X96.865 Y117.313 E18.98286
G1 X96.96 Y115.515 E19.04874
G1 X97.017 Y115.032 E19.06653
G1 X97.487 Y112.489 E19.16114
G1 X97.632 Y111.942 E19.18185
G1 X98.466 Y109.541 E19.27484
G1 X98.641 Y109.121 E19.29149
G1 X99.334 Y107.708 E19.34907
G1 X99.505 Y107.398 E19.36202
G1 X100.348 Y106.025 E19.42096
G1 X100.547 Y105.732 E19.43392
G1 X101.514 Y104.448 E19.49273
G1 X101.736 Y104.181 E19.50544
G1 X102.502 Y103.339 E19.54708
G0 F810 X102.757 Y103.059
G0 X103.003 Y102.812
M204 S5000
M205 X30 Y30
G0 F7200 X103.3 Y103.138
M204 S500
M205 X20 Y20
G1 F6000 E19.57368
G1 F900 X104.491 Y102.052 E19.63265
G1 X104.728 Y101.854 E19.64395
G1 X105.977 Y100.913 E19.70116
G1 X106.228 Y100.742 E19.71227
G1 X107.56 Y99.919 E19.76956
G1 X107.836 Y99.766 E19.7811
G1 X109.313 Y99.038 E19.84135
G1 X109.607 Y98.911 E19.85306
G1 X111.149 Y98.329 E19.91337
G1 X111.541 Y98.208 E19.92837
G1 X114.04 Y97.606 E20.02242
G1 X114.458 Y97.533 E20.03794
G1 X116.196 Y97.345 E20.1019
G1 X116.546 Y97.326 E20.11473
G1 X118.382 Y97.323 E20.1819
G1 X118.815 Y97.351 E20.19777
G1 X121.421 Y97.692 E20.29393
G1 X121.915 Y97.795 E20.31239
G1 X124.338 Y98.5 E20.40472
G1 X124.726 Y98.64 E20.41981
G1 X126.28 Y99.312 E20.48175
G1 X126.566 Y99.452 E20.4934
G1 X127.951 Y100.217 E20.55129
G1 X128.217 Y100.382 E20.56274
G1 X129.554 Y101.296 E20.62199
G1 X129.802 Y101.483 E20.63336
G1 X130.997 Y102.477 E20.69022
G1 X131.218 Y102.678 E20.70115
G1 X132.321 Y103.779 E20.75817
G1 X132.53 Y104.009 E20.76954
G1 X133.54 Y105.227 E20.82743
G1 X133.725 Y105.472 E20.83866
G1 X134.606 Y106.762 E20.89582
G1 X134.77 Y107.028 E20.90725
G1 X135.561 Y108.461 E20.96713
G1 X135.732 Y108.82 E20.98168
G1 X136.644 Y111.078 E21.07078
G1 X136.792 Y111.541 E21.08856
G1 X137.393 Y114.036 E21.18246
G1 X137.466 Y114.453 E21.19794
G1 X137.655 Y116.193 E21.26198
G1 X137.674 Y116.54 E21.27469
G1 X137.679 Y118.327 E21.34007
G1 X137.651 Y118.761 E21.35598
G1 X137.303 Y121.439 E21.45479
G1 X137.199 Y121.937 E21.4734
