;FLAVOR:Marlin
;TIME:2026
;Filament used: 1.63322m
;Layer height: 0.2
;Generated with Cura_SteamEngine 3.6.0
M140 S70
M105
M190 S70
M104 S210
M105
M109 S210
M82 ;absolute extrusion mode
G28 ; home all axes
M117 Purge extruder
G92 E0 ; reset extruder
G1 Z1.0 F3000 ; move z up little to prevent scratching of surface
G1 X0.1 Y20 Z0.3 F5000.0 ; move to start-line position G1 X0.1 Y200.0 Z0.3 F1500.0 E15 ; draw 1st line
G1 X0.4 Y200.0 Z0.3 F5000.0 ; move to side a little
G1 X0.4 Y20 Z0.3 F1500.0 E30 ; draw 2nd line
G92 E0 ; reset extruder
G1 Z1.0 F3000 ; move z up little to prevent scratching of surface
M117 All systems go!
G92 E0
G1 F6000 E-5
;LAYER_COUNT:55
;LAYER:0
M107
M204 S5000
M205 X30 Y30
G0 F7200 X98.853 Y98.261 Z0.2
M204 S500
M205 X20 Y20
;TYPE:SKIRT
G1 F6000 E0
G1 F900 X100.044 Y97.175 E0.05897
G1 X100.757 Y96.583 E0.09287
G1 X102.006 Y95.642 E0.15009
G1 X102.759 Y95.127 E0.18346
G1 X104.091 Y94.304 E0.24075
G1 X104.918 Y93.846 E0.27534
G1 X106.395 Y93.118 E0.33558
G1 X107.276 Y92.736 E0.37071
G1 X108.818 Y92.154 E0.43101
G1 X109.995 Y91.791 E0.47608
G1 X112.494 Y91.189 E0.57012
G1 X113.748 Y90.971 E0.61669
G1 X115.486 Y90.783 E0.68065
G1 X116.535 Y90.726 E0.71908
G1 X118.371 Y90.723 E0.78625
G1 X119.671 Y90.807 E0.83392
G1 X122.277 Y91.148 E0.93007
G1 X123.154 Y91.303 E0.96265
G1 X123.759 Y91.458 E0.9855
G1 X126.182 Y92.163 E1.07783
G1 X127.345 Y92.582 E1.12306
G1 X128.899 Y93.254 E1.185
G1 X129.757 Y93.675 E1.21996
G1 X131.142 Y94.44 E1.27785
G1 X131.942 Y94.933 E1.31223
G1 X133.279 Y95.847 E1.37149
G1 X134.023 Y96.409 E1.4056
G1 X135.218 Y97.403 E1.46247
G1 X135.881 Y98.007 E1.49528
G1 X136.984 Y99.108 E1.5523
G1 X137.611 Y99.796 E1.58636
G1 X138.621 Y101.014 E1.64424
G1 X139.175 Y101.75 E1.67795
G1 X140.056 Y103.04 E1.7351
G1 X140.548 Y103.839 E1.76943
G1 X141.339 Y105.272 E1.82932
G1 X141.852 Y106.348 E1.87293
G1 X142.764 Y108.606 E1.96202
G1 X143.059 Y109.446 E1.99459
G1 X143.209 Y109.996 E2.01545
G1 X143.81 Y112.491 E2.10935
G1 X144.027 Y113.74 E2.15573
G1 X144.216 Y115.48 E2.21976
G1 X144.274 Y116.521 E2.25791
G1 X144.279 Y118.308 E2.32329
G1 X144.196 Y119.612 E2.37109
G1 X143.848 Y122.29 E2.46989
G1 X143.694 Y123.166 E2.50243
G1 X143.536 Y123.783 E2.52573
G1 X142.837 Y126.182 E2.61715
G1 X142.419 Y127.341 E2.66223
G1 X141.746 Y128.898 E2.72429
G1 X141.325 Y129.757 E2.75929
G1 X140.56 Y131.142 E2.81718
G1 X140.068 Y131.941 E2.85151
G1 X139.155 Y133.277 E2.91071
G1 X138.592 Y134.023 E2.9449
G1 X137.597 Y135.219 E3.00182
G1 X136.993 Y135.881 E3.03461
G1 X135.893 Y136.983 E3.09158
G1 X135.206 Y137.609 E3.12558
G1 X133.987 Y138.62 E3.18352
G1 X133.25 Y139.175 E3.21728
G1 X131.96 Y140.056 E3.27443
G1 X131.161 Y140.548 E3.30876
G1 X129.728 Y141.339 E3.36864
G1 X128.877 Y141.757 E3.40333
G1 X127.403 Y142.395 E3.46209
G1 X126.269 Y142.806 E3.50622
G1 X123.853 Y143.518 E3.59837
G1 X122.989 Y143.731 E3.63093
G1 X122.38 Y143.833 E3.65352
G1 X119.775 Y144.185 E3.74969
G1 X118.465 Y144.274 E3.79773
G1 X116.634 Y144.277 E3.86472
G1 X115.335 Y144.194 E3.91234
G1 X112.725 Y143.853 E4.00865
G1 X111.849 Y143.698 E4.04119
G1 X111.242 Y143.542 E4.06412
G1 X108.819 Y142.837 E4.15645
G1 X107.653 Y142.417 E4.20179
G1 X106.098 Y141.744 E4.26378
G1 X105.246 Y141.325 E4.29852
G1 X103.86 Y140.56 E4.35644
G1 X103.057 Y140.066 E4.39093
G1 X101.72 Y139.152 E4.45018
G1 X100.977 Y138.591 E4.48425
G1 X99.783 Y137.598 E4.54106
G1 X99.119 Y136.993 E4.57393
G1 X98.016 Y135.892 E4.63095
G1 X97.387 Y135.202 E4.66511
G1 X96.376 Y133.982 E4.72307
G1 X95.823 Y133.248 E4.7567
G1 X94.938 Y131.952 E4.81411
G1 X94.444 Y131.148 E4.84864
G1 X93.653 Y129.713 E4.90859
G1 X93.142 Y128.637 E4.95217
G1 X92.235 Y126.388 E5.04089
G1 X91.939 Y125.549 E5.07344
G1 X91.792 Y125.006 E5.09402
G1 X91.188 Y122.501 E5.18829
G1 X91.018 Y121.627 E5.22087
G1 X90.943 Y120.964 E5.24528
G1 X90.731 Y118.294 E5.34327
G1 X90.714 Y116.988 E5.39106
G1 X90.809 Y115.19 E5.45693
G1 X90.96 Y113.913 E5.50398
G1 X91.43 Y111.37 E5.59859
G1 X91.631 Y110.503 E5.63116
G1 X91.813 Y109.921 E5.65347
G1 X92.647 Y107.52 E5.74646
G1 X93.11 Y106.409 E5.79049
G1 X93.803 Y104.996 E5.84807
G1 X94.255 Y104.175 E5.88236
G1 X95.098 Y102.802 E5.94131
G1 X95.627 Y102.026 E5.97567
G1 X96.594 Y100.742 E6.03447
G1 X97.18 Y100.035 E6.06807
G1 X98.201 Y98.913 E6.12357
G1 X98.339 Y98.775 E6.13071
G0 F810 X98.853 Y98.261
M204 S5000
M205 X30 Y30
G0 F7200 X99.149 Y98.586
M204 S500
M205 X20 Y20
G1 F6000 E6.15731
G1 F900 X100.34 Y97.5 E6.21628
G1 X101.022 Y96.934 E6.24871
G1 X102.271 Y95.993 E6.30592
G1 X102.991 Y95.501 E6.33782
G1 X104.323 Y94.678 E6.39511
G1 X105.113 Y94.241 E6.42814
G1 X106.59 Y93.513 E6.48838
G1 X107.432 Y93.147 E6.52197
G1 X108.974 Y92.565 E6.58227
G1 X110.098 Y92.219 E6.6253
G1 X112.597 Y91.617 E6.71935
G1 X113.796 Y91.409 E6.76387
G1 X115.534 Y91.221 E6.82783
G1 X116.536 Y91.166 E6.86454
G1 X118.372 Y91.163 E6.93171
G1 X119.614 Y91.243 E6.97725
G1 X122.22 Y91.584 E7.0734
G1 X123.077 Y91.736 E7.10525
G1 X123.636 Y91.881 E7.12637
G1 X126.059 Y92.586 E7.2187
G1 X127.171 Y92.986 E7.26194
G1 X128.725 Y93.658 E7.32388
G1 X129.544 Y94.06 E7.35726
G1 X130.929 Y94.825 E7.41514
G1 X131.694 Y95.296 E7.44801
G1 X133.031 Y96.21 E7.50727
G1 X133.742 Y96.747 E7.53986
G1 X134.937 Y97.741 E7.59673
G1 X135.57 Y98.319 E7.62809
G1 X136.673 Y99.42 E7.68511
G1 X137.272 Y100.077 E7.71764
G1 X138.282 Y101.295 E7.77553
G1 X138.812 Y101.998 E7.80774
G1 X139.693 Y103.288 E7.86489
G1 X140.163 Y104.051 E7.89768
G1 X140.954 Y105.484 E7.95756
G1 X141.444 Y106.513 E7.99926
G1 X142.356 Y108.771 E8.08836
G1 X142.644 Y109.592 E8.12019
G1 X142.781 Y110.099 E8.1394
G1 X143.382 Y112.594 E8.2333
G1 X143.59 Y113.787 E8.2776
G1 X143.779 Y115.527 E8.34164
G1 X143.834 Y116.523 E8.37813
G1 X143.839 Y118.31 E8.44351
G1 X143.76 Y119.555 E8.48915
G1 X143.412 Y122.233 E8.58795
G1 X143.261 Y123.089 E8.61976
G1 X143.113 Y123.66 E8.64134
G1 X142.414 Y126.059 E8.73276
G1 X142.016 Y127.166 E8.7758
G1 X141.343 Y128.723 E8.83785
G1 X140.94 Y129.544 E8.87131
G1 X140.175 Y130.929 E8.9292
G1 X139.704 Y131.693 E8.96204
G1 X138.791 Y133.029 E9.02124
G1 X138.253 Y133.741 E9.05389
G1 X137.258 Y134.937 E9.11081
G1 X136.681 Y135.57 E9.14215
G1 X135.581 Y136.672 E9.19911
G1 X134.925 Y137.271 E9.23162
G1 X133.706 Y138.282 E9.28956
G1 X133.002 Y138.812 E9.3218
G1 X131.712 Y139.693 E9.37895
G1 X130.949 Y140.163 E9.41173
G1 X129.516 Y140.954 E9.47162
G1 X128.702 Y141.354 E9.5048
G1 X127.228 Y141.992 E9.56357
G1 X126.144 Y142.384 E9.60574
G1 X123.728 Y143.096 E9.69789
G1 X122.884 Y143.303 E9.72968
G1 X122.321 Y143.397 E9.75057
G1 X119.716 Y143.749 E9.84674
G1 X118.464 Y143.834 E9.89265
G1 X116.633 Y143.837 E9.95964
G1 X115.392 Y143.757 E10.00514
G1 X112.782 Y143.416 E10.10144
G1 X111.926 Y143.264 E10.13325
G1 X111.365 Y143.119 E10.15445
G1 X108.942 Y142.414 E10.24677
G1 X107.828 Y142.013 E10.29009
G1 X106.273 Y141.34 E10.35208
G1 X105.459 Y140.94 E10.38526
G1 X104.073 Y140.175 E10.44318
G1 X103.305 Y139.703 E10.47616
G1 X101.968 Y138.789 E10.53541
G1 X101.258 Y138.252 E10.56798
G1 X100.064 Y137.259 E10.6248
G1 X99.43 Y136.681 E10.65619
G1 X98.327 Y135.58 E10.71321
G1 X97.726 Y134.921 E10.74584
G1 X96.715 Y133.701 E10.80381
G1 X96.187 Y133 E10.83592
G1 X95.302 Y131.704 E10.89333
G1 X94.829 Y130.936 E10.92633
G1 X94.038 Y129.501 E10.98628
G1 X93.55 Y128.472 E11.02795
G1 X92.643 Y126.223 E11.11667
G1 X92.355 Y125.403 E11.14847
G1 X92.22 Y124.902 E11.16745
G1 X91.616 Y122.397 E11.26172
G1 X91.451 Y121.543 E11.29355
G1 X91.382 Y120.929 E11.31615
G1 X91.17 Y118.259 E11.41414
G1 X91.153 Y117.011 E11.45981
G1 X91.248 Y115.213 E11.52568
G1 X91.393 Y113.993 E11.57063
G1 X91.863 Y111.45 E11.66524
G1 X92.06 Y110.603 E11.69706
G1 X92.229 Y110.065 E11.71769
G1 X93.063 Y107.664 E11.81068
G1 X93.506 Y106.602 E11.85278
G1 X94.199 Y105.189 E11.91036
G1 X94.63 Y104.405 E11.94309
G1 X95.473 Y103.032 E12.00204
G1 X95.978 Y102.291 E12.03485
G1 X96.945 Y101.007 E12.09366
G1 X97.505 Y100.331 E12.12577
G1 X98.526 Y99.209 E12.18127
G1 X98.635 Y99.1 E12.18691
G0 F810 X99.149 Y98.586
M204 S5000
M205 X30 Y30
G0 F7200 X99.445 Y98.911
M204 S500
M205 X20 Y20
G1 F6000 E12.21351
G1 F900 X100.636 Y97.825 E12.27248
G1 X101.286 Y97.286 E12.30337
G1 X102.535 Y96.345 E12.36059
G1 X103.222 Y95.876 E12.39102
G1 X104.554 Y95.053 E12.44831
G1 X105.307 Y94.635 E12.47982
G1 X106.784 Y93.907 E12.54006
G1 X107.587 Y93.559 E12.57208
G1 X109.129 Y92.977 E12.63238
G1 X110.202 Y92.647 E12.67345
G1 X112.701 Y92.045 E12.7675
G1 X113.843 Y91.846 E12.80991
G1 X115.581 Y91.658 E12.87386
G1 X116.536 Y91.606 E12.90886
G1 X118.372 Y91.603 E12.97603
G1 X119.557 Y91.679 E13.01947
G1 X122.163 Y92.02 E13.11563
G1 X122.999 Y92.17 E13.1467
G1 X123.513 Y92.303 E13.16613
G1 X125.936 Y93.008 E13.25845
G1 X126.996 Y93.39 E13.29967
G1 X128.55 Y94.062 E13.36162
G1 X129.331 Y94.445 E13.39344
G1 X130.716 Y95.21 E13.45133
G1 X131.445 Y95.66 E13.48267
G1 X132.782 Y96.574 E13.54193
G1 X133.46 Y97.085 E13.57299
G1 X134.655 Y98.079 E13.62986
G1 X135.259 Y98.63 E13.65977
G1 X136.362 Y99.731 E13.71679
G1 X136.933 Y100.357 E13.74779
G1 X137.943 Y101.575 E13.80568
G1 X138.449 Y102.246 E13.83642
G1 X139.33 Y103.536 E13.89358
G1 X139.778 Y104.264 E13.92485
G1 X140.569 Y105.697 E13.98473
G1 X141.036 Y106.678 E14.02448
G1 X141.948 Y108.936 E14.11358
G1 X142.228 Y109.738 E14.14466
G1 X142.353 Y110.202 E14.16224
G1 X142.954 Y112.697 E14.25613
G1 X143.152 Y113.835 E14.29839
G1 X143.341 Y115.575 E14.36243
G1 X143.394 Y116.524 E14.3972
G1 X143.399 Y118.311 E14.46258
G1 X143.324 Y119.498 E14.5061
G1 X142.976 Y122.176 E14.6049
G1 X142.827 Y123.012 E14.63597
G1 X142.691 Y123.537 E14.65581
G1 X141.992 Y125.936 E14.74723
G1 X141.612 Y126.992 E14.78829
G1 X140.939 Y128.549 E14.85035
G1 X140.555 Y129.331 E14.88222
G1 X139.79 Y130.716 E14.94011
G1 X139.341 Y131.444 E14.9714
G1 X138.428 Y132.78 E15.0306
G1 X137.915 Y133.46 E15.06177
G1 X136.92 Y134.656 E15.11869
G1 X136.37 Y135.259 E15.14855
G1 X135.27 Y136.361 E15.20551
G1 X134.644 Y136.932 E15.23651
G1 X133.425 Y137.943 E15.29445
G1 X132.754 Y138.449 E15.3252
G1 X131.464 Y139.33 E15.38235
G1 X130.736 Y139.778 E15.41363
G1 X129.303 Y140.569 E15.47351
G1 X128.527 Y140.95 E15.50514
G1 X127.053 Y141.588 E15.5639
G1 X126.02 Y141.962 E15.6041
G1 X123.604 Y142.674 E15.69625
G1 X122.779 Y142.876 E15.72732
G1 X122.262 Y142.961 E15.74649
G1 X119.657 Y143.313 E15.84267
G1 X118.464 Y143.394 E15.88641
G1 X116.633 Y143.397 E15.9534
G1 X115.449 Y143.321 E15.99681
G1 X112.839 Y142.98 E16.09311
G1 X112.003 Y142.83 E16.12419
G1 X111.488 Y142.697 E16.14365
G1 X109.065 Y141.992 E16.23597
G1 X108.002 Y141.609 E16.27731
G1 X106.447 Y140.936 E16.3393
G1 X105.671 Y140.555 E16.37093
G1 X104.285 Y139.79 E16.42885
G1 X103.554 Y139.339 E16.46027
G1 X102.217 Y138.425 E16.51953
G1 X101.539 Y137.914 E16.55059
G1 X100.345 Y136.921 E16.6074
G1 X99.741 Y136.37 E16.63732
G1 X98.638 Y135.269 E16.69433
G1 X98.065 Y134.64 E16.72546
G1 X97.054 Y133.42 E16.78343
G1 X96.55 Y132.752 E16.81405
G1 X95.665 Y131.456 E16.87147
G1 X95.215 Y130.723 E16.90293
G1 X94.424 Y129.288 E16.96288
G1 X93.958 Y128.308 E17.00258
G1 X93.051 Y126.059 E17.09131
G1 X92.77 Y125.257 E17.1224
G1 X92.647 Y124.799 E17.13975
G1 X92.043 Y122.294 E17.23402
G1 X91.883 Y121.46 E17.26509
G1 X91.82 Y120.894 E17.28593
G1 X91.608 Y118.224 E17.38392
G1 X91.593 Y117.034 E17.42746
G1 X91.688 Y115.236 E17.49333
G1 X91.825 Y114.073 E17.53618
G1 X92.295 Y111.53 E17.63079
G1 X92.489 Y110.703 E17.66187
G1 X92.644 Y110.209 E17.68081
G1 X93.478 Y107.808 E17.7738
G1 X93.901 Y106.796 E17.81393
G1 X94.594 Y105.383 E17.87151
G1 X95.005 Y104.635 E17.90274
G1 X95.848 Y103.262 E17.96168
G1 X96.33 Y102.556 E17.99296
G1 X97.297 Y101.272 E18.05177
G1 X97.831 Y100.627 E18.0824
G1 X98.852 Y99.505 E18.13791
G1 X98.932 Y99.425 E18.14204
G0 F810 X99.445 Y98.911
M204 S5000
M205 X30 Y30
G0 F7200 X99.742 Y99.236
M204 S500
M205 X20 Y20
G1 F6000 E18.16864
G1 F900 X100.933 Y98.15 E18.22761
G1 X101.551 Y97.637 E18.257
G1 X102.8 Y96.696 E18.31421
G1 X103.453 Y96.25 E18.34314
G1 X104.785 Y95.427 E18.40043
G1 X105.502 Y95.03 E18.43041
G1 X106.979 Y94.302 E18.49066
G1 X107.742 Y93.971 E18.52109
G1 X109.284 Y93.389 E18.58139
G1 X110.305 Y93.075 E18.62047
G1 X112.804 Y92.473 E18.71451
G1 X113.89 Y92.284 E18.75484
G1 X115.628 Y92.096 E18.8188
G1 X116.537 Y92.046 E18.85211
G1 X118.373 Y92.043 E18.91928
G1 X119.5 Y92.116 E18.9606
G1 X122.106 Y92.457 E19.05675
G1 X122.921 Y92.603 E19.08705
G1 X123.39 Y92.726 E19.10479
G1 X125.813 Y93.431 E19.19711
G1 X126.821 Y93.794 E19.23631
G1 X128.375 Y94.466 E19.29825
G1 X129.118 Y94.831 E19.32854
G1 X130.503 Y95.596 E19.38642
G1 X131.197 Y96.023 E19.41624
G1 X132.534 Y96.937 E19.47549
G1 X133.179 Y97.424 E19.50506
G1 X134.374 Y98.418 E19.56193
G1 X134.948 Y98.942 E19.59036
G1 X136.051 Y100.043 E19.64738
G1 X136.595 Y100.638 E19.67688
G1 X137.605 Y101.856 E19.73477
G1 X138.085 Y102.494 E19.76398
G1 X138.966 Y103.784 E19.82113
G1 X139.393 Y104.477 E19.85091
G1 X140.184 Y105.91 E19.91079
G1 X140.628 Y106.843 E19.9486
G1 X141.54 Y109.101 E20.03769
G1 X141.812 Y109.883 E20.06798
G1 X141.925 Y110.305 E20.08397
G1 X142.526 Y112.8 E20.17786
G1 X142.715 Y113.882 E20.21805
G1 X142.904 Y115.622 E20.28208
G1 X142.954 Y116.525 E20.31517
G1 X142.959 Y118.312 E20.38055
G1 X142.887 Y119.442 E20.42197
G1 X142.539 Y122.12 E20.52078
G1 X142.393 Y122.935 E20.55107
G1 X142.268 Y123.414 E20.56918
G1 X141.569 Y125.813 E20.6606
G1 X141.208 Y126.817 E20.69963
G1 X140.535 Y128.374 E20.76169
G1 X140.169 Y129.118 E20.79203
G1 X139.404 Y130.503 E20.84992
G1 X138.978 Y131.196 E20.87968
G1 X138.065 Y132.532 E20.93888
G1 X137.577 Y133.178 E20.9685
G1 X136.582 Y134.374 E21.02542
G1 X136.058 Y134.948 E21.05386
G1 X134.958 Y136.05 E21.11082
G1 X134.363 Y136.593 E21.14029
G1 X133.144 Y137.604 E21.19823
G1 X132.506 Y138.085 E21.22747
G1 X131.216 Y138.966 E21.28462
G1 X130.523 Y139.393 E21.3144
G1 X129.09 Y140.184 E21.37428
G1 X128.352 Y140.546 E21.40436
G1 X126.878 Y141.184 E21.46312
G1 X125.895 Y141.54 E21.50137
G1 X123.479 Y142.252 E21.59352
G1 X122.675 Y142.448 E21.6238
G1 X122.203 Y142.525 E21.6413
G1 X119.598 Y142.877 E21.73747
G1 X118.463 Y142.954 E21.77909
G1 X116.632 Y142.957 E21.84608
G1 X115.506 Y142.885 E21.88736
G1 X112.896 Y142.544 E21.98366
G1 X112.081 Y142.397 E22.01396
G1 X111.611 Y142.274 E22.03173
G1 X109.188 Y141.569 E22.12406
G1 X108.177 Y141.205 E22.16337
G1 X106.622 Y140.532 E22.22536
G1 X105.884 Y140.17 E22.25544
G1 X104.498 Y139.405 E22.31336
G1 X103.802 Y138.976 E22.34327
G1 X102.465 Y138.062 E22.40252
G1 X101.821 Y137.576 E22.43204
G1 X100.627 Y136.583 E22.48886
G1 X100.052 Y136.058 E22.51734
G1 X98.949 Y134.957 E22.57436
G1 X98.404 Y134.36 E22.60394
G1 X97.393 Y133.14 E22.66191
G1 X96.913 Y132.504 E22.69106
G1 X96.028 Y131.208 E22.74847
G1 X95.6 Y130.511 E22.7784
G1 X94.809 Y129.076 E22.83835
G1 X94.366 Y128.143 E22.87613
G1 X93.459 Y125.894 E22.96486
G1 X93.186 Y125.112 E22.99516
G1 X93.075 Y124.696 E23.01091
G1 X92.471 Y122.191 E23.10519
G1 X92.316 Y121.378 E23.13547
G1 X92.259 Y120.859 E23.15457
G1 X92.047 Y118.189 E23.25256
G1 X92.032 Y117.057 E23.29398
G1 X92.127 Y115.259 E23.35985
G1 X92.258 Y114.153 E23.4006
G1 X92.728 Y111.61 E23.49522
G1 X92.918 Y110.803 E23.52555
G1 X93.06 Y110.354 E23.54278
G1 X93.894 Y107.953 E23.63577
G1 X94.296 Y106.99 E23.67395
G1 X94.989 Y105.577 E23.73153
G1 X95.38 Y104.866 E23.76121
G1 X96.223 Y103.493 E23.82016
G1 X96.681 Y102.82 E23.84994
G1 X97.648 Y101.536 E23.90875
G1 X98.156 Y100.923 E23.93788
G1 X99.177 Y99.801 E23.99338
G1 X99.228 Y99.75 E23.99602
G0 F810 X99.742 Y99.236
M204 S5000
M205 X30 Y30
G0 F7200 X100.038 Y99.561
M204 S500
M205 X20 Y20
G1 F6000 E24.02262
G1 F900 X101.229 Y98.475 E24.08159
G1 X101.816 Y97.989 E24.10947
G1 X103.065 Y97.048 E24.16668
G1 X103.684 Y96.624 E24.19413
G1 X105.016 Y95.801 E24.25142
G1 X105.696 Y95.425 E24.27985
G1 X107.173 Y94.697 E24.34009
G1 X107.898 Y94.382 E24.36901
G1 X109.44 Y93.8 E24.42931
G1 X110.408 Y93.502 E24.46637
G1 X112.907 Y92.9 E24.56041
G1 X113.938 Y92.721 E24.5987
G1 X115.676 Y92.533 E24.66265
G1 X116.538 Y92.486 E24.69424
G1 X118.374 Y92.483 E24.76141
