;FLAVOR:Marlin
;TIME:400
;Filament used: 0.275581m
;Layer height: 0.2
;Generated with Cura_SteamEngine 3.6.0
M140 S70
M105
M190 S70
M104 S215
M105
M109 S215
M82 ;absolute extrusion mode
G28 ; home all axes
M117 Purge extruder
G92 E0 ; reset extruder
G1 Z1.0 F3000 ; move z up little to prevent scratching of surface
G1 X0.1 Y20 Z0.3 F5000.0 ; move to start-line position G1 X0.1 Y200.0 Z0.3 F1500.0 E15 ; draw 1st line
G1 X0.4 Y200.0 Z0.3 F5000.0 ; move to side a little
G1 X0.4 Y20 Z0.3 F1500.0 E30 ; draw 2nd line
G92 E0 ; reset extruder
G1 Z1.0 F3000 ; move z up little to prevent scratching of surface
M117 All systems go!
G92 E0
G1 F6000 E-5
;LAYER_COUNT:26
;LAYER:0
M107
M204 S5000
M205 X30 Y30
G0 F7200 X104.749 Y110.561 Z0.2
M204 S500
M205 X20 Y20
;TYPE:SKIRT
G1 F6000 E0
G1 F900 X105.228 Y110.143 E0.02326
G1 X105.508 Y109.942 E0.03587
G1 X106.205 Y109.478 E0.0665
G1 X106.755 Y109.16 E0.08975
G1 X107.084 Y109.01 E0.10298
G1 X107.862 Y108.69 E0.13375
G1 X108.464 Y108.486 E0.15701
G1 X108.79 Y108.409 E0.16926
G1 X109.601 Y108.246 E0.19953
G1 X110.231 Y108.16 E0.22279
G1 X110.598 Y108.147 E0.23623
G1 X111.472 Y108.147 E0.2682
G1 X112.107 Y108.187 E0.29148
G1 X112.46 Y108.244 E0.30456
G1 X113.269 Y108.405 E0.33474
G1 X113.883 Y108.568 E0.35799
G1 X114.227 Y108.697 E0.37143
G1 X115.036 Y109.034 E0.40349
G1 X115.606 Y109.315 E0.42674
G1 X115.909 Y109.503 E0.43979
G1 X116.605 Y109.97 E0.47045
G1 X117.11 Y110.357 E0.49373
G1 X117.382 Y110.612 E0.50737
G1 X117.5 Y110.731 E0.5135
G1 X117.603 Y110.626 E0.51888
G1 X118.078 Y110.202 E0.54218
G1 X118.372 Y109.988 E0.55548
G1 X119.063 Y109.521 E0.58599
G1 X119.611 Y109.198 E0.60927
G1 X119.926 Y109.052 E0.62197
G1 X120.733 Y108.711 E0.65402
G1 X121.334 Y108.501 E0.67731
G1 X121.726 Y108.407 E0.69206
G1 X122.58 Y108.239 E0.72391
G1 X123.211 Y108.156 E0.74719
G1 X123.575 Y108.144 E0.76052
G1 X124.417 Y108.147 E0.79132
G1 X125.052 Y108.189 E0.8146
G1 X125.378 Y108.243 E0.82669
G1 X126.174 Y108.4 E0.85638
G1 X126.789 Y108.562 E0.87965
G1 X127.134 Y108.69 E0.89311
G1 X127.963 Y109.034 E0.92595
G1 X128.534 Y109.315 E0.94923
G1 X128.838 Y109.503 E0.96231
G1 X129.491 Y109.94 E0.99105
G1 X130.228 Y110.54 E1.02582
G1 X130.834 Y111.137 E1.05695
G1 X131.258 Y111.611 E1.08021
G1 X131.475 Y111.909 E1.0937
G1 X131.942 Y112.6 E1.12421
G1 X132.265 Y113.148 E1.14749
G1 X132.411 Y113.463 E1.16019
G1 X132.752 Y114.27 E1.19224
G1 X132.962 Y114.871 E1.21553
G1 X133.055 Y115.261 E1.2302
G1 X133.223 Y116.113 E1.26197
G1 X133.307 Y116.744 E1.28526
G1 X133.319 Y117.11 E1.29866
G1 X133.316 Y117.954 E1.32954
G1 X133.274 Y118.589 E1.35282
G1 X133.22 Y118.915 E1.36491
G1 X133.063 Y119.711 E1.3946
G1 X132.901 Y120.326 E1.41786
G1 X132.772 Y120.672 E1.43137
G1 X132.427 Y121.503 E1.46429
G1 X132.147 Y122.074 E1.48756
G1 X131.958 Y122.379 E1.50069
G1 X131.522 Y123.03 E1.52935
G1 X131.136 Y123.535 E1.55261
G1 X130.916 Y123.771 E1.56441
G1 X130.31 Y124.384 E1.59595
G1 X129.836 Y124.808 E1.61922
G1 X129.541 Y125.022 E1.63255
G1 X128.859 Y125.482 E1.66265
G1 X128.311 Y125.804 E1.6859
G1 X128 Y125.948 E1.69844
G1 X127.193 Y126.289 E1.73049
G1 X126.592 Y126.499 E1.75378
G1 X126.2 Y126.593 E1.76853
G1 X125.346 Y126.761 E1.80038
G1 X124.715 Y126.844 E1.82366
G1 X124.351 Y126.856 E1.83699
G1 X123.509 Y126.853 E1.86779
G1 X122.874 Y126.811 E1.89107
G1 X122.548 Y126.757 E1.90316
G1 X121.752 Y126.6 E1.93285
G1 X121.137 Y126.438 E1.95612
G1 X120.791 Y126.309 E1.96963
G1 X119.96 Y125.964 E2.00255
G1 X119.389 Y125.684 E2.02581
G1 X119.087 Y125.497 E2.03881
G1 X118.435 Y125.061 E2.0675
G1 X117.93 Y124.675 E2.09076
G1 X117.691 Y124.453 E2.10269
G1 X117.501 Y124.266 E2.11245
G1 X117.349 Y124.418 E2.12031
G1 X116.872 Y124.838 E2.14356
G1 X116.575 Y125.052 E2.15696
G1 X115.869 Y125.522 E2.18799
G1 X115.319 Y125.84 E2.21123
G1 X114.99 Y125.99 E2.22446
G1 X114.212 Y126.31 E2.25524
G1 X113.61 Y126.514 E2.27849
G1 X113.284 Y126.591 E2.29075
G1 X112.473 Y126.754 E2.32101
G1 X111.843 Y126.84 E2.34428
G1 X111.476 Y126.853 E2.35771
G1 X110.602 Y126.853 E2.38969
G1 X109.967 Y126.813 E2.41297
G1 X109.614 Y126.756 E2.42605
G1 X108.805 Y126.595 E2.45623
G1 X108.191 Y126.432 E2.47947
G1 X107.847 Y126.303 E2.49291
G1 X107.038 Y125.966 E2.52497
G1 X106.468 Y125.685 E2.54822
G1 X106.163 Y125.496 E2.56135
G1 X105.475 Y125.034 E2.59167
G1 X104.971 Y124.647 E2.61492
G1 X104.706 Y124.399 E2.6282
G1 X104.101 Y123.79 E2.65961
G1 X103.682 Y123.312 E2.68286
G1 X103.481 Y123.031 E2.6955
G1 X103.017 Y122.335 E2.7261
G1 X102.698 Y121.785 E2.74937
G1 X102.547 Y121.453 E2.76271
G1 X102.227 Y120.675 E2.79349
G1 X102.023 Y120.073 E2.81674
G1 X101.945 Y119.744 E2.82911
G1 X101.782 Y118.93 E2.85949
G1 X101.697 Y118.299 E2.88278
G1 X101.684 Y117.93 E2.89629
G1 X101.685 Y117.054 E2.92834
G1 X101.726 Y116.42 E2.95158
G1 X101.782 Y116.072 E2.96448
G1 X101.942 Y115.268 E2.99447
G1 X102.105 Y114.654 E3.01771
G1 X102.233 Y114.314 E3.031
G1 X102.568 Y113.508 E3.06294
G1 X102.848 Y112.937 E3.08621
G1 X103.041 Y112.627 E3.09957
G1 X103.511 Y111.928 E3.13038
G1 X103.898 Y111.423 E3.15366
G1 X104.147 Y111.158 E3.16696
G1 X104.233 Y111.073 E3.17139
G0 F810 X104.749 Y110.561
M204 S5000
M205 X30 Y30
G0 F7200 X105.059 Y110.874
M204 S500
M205 X20 Y20
G1 F6000 E3.19799
G1 F900 X105.752 Y110.308 E3.23072
G1 X106.449 Y109.844 E3.26136
G1 X107.252 Y109.417 E3.29463
G1 X108.03 Y109.097 E3.32541
G1 X108.877 Y108.841 E3.35778
G1 X109.688 Y108.678 E3.38805
G1 X110.29 Y108.597 E3.41027
G1 X110.598 Y108.587 E3.42154
G1 X111.472 Y108.587 E3.45352
G1 X112.374 Y108.676 E3.48668
G1 X113.183 Y108.837 E3.51686
G1 X113.77 Y108.994 E3.53909
G1 X114.058 Y109.103 E3.55036
G1 X114.867 Y109.44 E3.58242
G1 X115.664 Y109.869 E3.61554
G1 X116.36 Y110.336 E3.6462
G1 X116.841 Y110.707 E3.66843
G1 X117.069 Y110.922 E3.67989
G1 X117.5 Y111.357 E3.70229
G1 X117.917 Y110.935 E3.724
G1 X118.371 Y110.531 E3.74623
G1 X118.618 Y110.352 E3.75739
G1 X119.309 Y109.885 E3.78791
G1 X120.098 Y109.457 E3.82075
G1 X120.905 Y109.116 E3.8528
G1 X121.479 Y108.917 E3.87503
G1 X121.811 Y108.839 E3.8875
G1 X122.665 Y108.671 E3.91935
G1 X123.268 Y108.593 E3.94159
G1 X123.573 Y108.584 E3.95276
G1 X124.415 Y108.587 E3.98356
G1 X125.293 Y108.674 E4.01584
G1 X126.089 Y108.831 E4.04553
G1 X126.676 Y108.988 E4.06776
G1 X126.966 Y109.097 E4.07909
G1 X127.795 Y109.441 E4.11193
G1 X128.593 Y109.868 E4.14504
G1 X129.246 Y110.305 E4.17379
G1 X129.919 Y110.854 E4.20556
G1 X130.525 Y111.451 E4.23669
G1 X130.929 Y111.905 E4.25892
G1 X131.111 Y112.155 E4.27024
G1 X131.578 Y112.846 E4.30075
G1 X132.006 Y113.635 E4.33359
G1 X132.347 Y114.442 E4.36564
G1 X132.546 Y115.016 E4.38787
G1 X132.624 Y115.346 E4.40027
G1 X132.792 Y116.198 E4.43205
G1 X132.87 Y116.801 E4.45429
G1 X132.879 Y117.108 E4.46553
G1 X132.876 Y117.952 E4.49641
G1 X132.789 Y118.83 E4.52869
G1 X132.632 Y119.626 E4.55837
G1 X132.475 Y120.213 E4.5806
G1 X132.366 Y120.503 E4.59194
G1 X132.021 Y121.334 E4.62486
G1 X131.593 Y122.134 E4.65805
G1 X131.157 Y122.785 E4.68672
G1 X130.604 Y123.462 E4.7187
G1 X129.998 Y124.075 E4.75023
G1 X129.543 Y124.478 E4.77247
G1 X129.295 Y124.657 E4.78366
G1 X128.613 Y125.117 E4.81376
G1 X127.828 Y125.543 E4.84643
G1 X127.021 Y125.884 E4.87849
G1 X126.447 Y126.083 E4.90071
G1 X126.115 Y126.161 E4.91319
G1 X125.261 Y126.329 E4.94503
G1 X124.658 Y126.407 E4.96728
G1 X124.353 Y126.416 E4.97844
G1 X123.511 Y126.413 E5.00925
G1 X122.633 Y126.326 E5.04153
G1 X121.837 Y126.169 E5.07121
G1 X121.25 Y126.012 E5.09344
G1 X120.96 Y125.903 E5.10478
G1 X120.129 Y125.558 E5.1377
G1 X119.332 Y125.131 E5.17078
G1 X118.68 Y124.695 E5.19947
G1 X118 Y124.141 E5.23156
G1 X117.499 Y123.646 E5.25733
G1 X117.038 Y124.107 E5.28118
G1 X116.581 Y124.507 E5.3034
G1 X116.331 Y124.686 E5.31465
G1 X115.625 Y125.156 E5.34568
G1 X114.822 Y125.583 E5.37896
G1 X114.044 Y125.903 E5.40974
G1 X113.197 Y126.159 E5.44211
G1 X112.386 Y126.322 E5.47237
G1 X111.784 Y126.403 E5.4946
G1 X111.476 Y126.413 E5.50587
G1 X110.602 Y126.413 E5.53785
G1 X109.7 Y126.324 E5.57101
G1 X108.891 Y126.163 E5.60119
G1 X108.304 Y126.006 E5.62342
G1 X108.016 Y125.897 E5.63468
G1 X107.207 Y125.56 E5.66675
G1 X106.408 Y125.13 E5.69994
G1 X105.72 Y124.668 E5.73026
G1 X105.018 Y124.089 E5.76356
G1 X104.413 Y123.48 E5.79496
G1 X103.847 Y122.787 E5.8277
G1 X103.383 Y122.091 E5.8583
G1 X103.08 Y121.564 E5.88054
G1 X102.954 Y121.285 E5.89174
G1 X102.634 Y120.507 E5.92252
G1 X102.377 Y119.657 E5.95501
G1 X102.214 Y118.843 E5.98538
G1 X102.134 Y118.241 E6.0076
G1 X102.124 Y117.931 E6.01895
G1 X102.125 Y117.055 E6.051
G1 X102.214 Y116.158 E6.08398
G1 X102.374 Y115.354 E6.11397
G1 X102.531 Y114.767 E6.1362
G1 X102.639 Y114.483 E6.14732
G1 X102.974 Y113.677 E6.17925
G1 X103.243 Y113.132 E6.20149
G1 X103.406 Y112.872 E6.21271
G1 X103.876 Y112.173 E6.24353
G1 X104.248 Y111.692 E6.26578
G1 X104.457 Y111.471 E6.27691
G1 X104.543 Y111.386 E6.28133
G0 F810 X105.059 Y110.874
M204 S5000
M205 X30 Y30
G0 F7200 X105.369 Y111.186
M204 S500
M205 X20 Y20
G1 F6000 E6.30793
G1 F900 X105.996 Y110.674 E6.33754
G1 X106.693 Y110.21 E6.36818
G1 X107.419 Y109.824 E6.39826
G1 X108.197 Y109.504 E6.42904
G1 X108.963 Y109.272 E6.45832
G1 X109.774 Y109.109 E6.48859
G1 X110.598 Y109.027 E6.51888
G1 X111.472 Y109.027 E6.55086
G1 X112.288 Y109.107 E6.58086
G1 X113.097 Y109.268 E6.61103
G1 X113.888 Y109.509 E6.64129
G1 X114.697 Y109.846 E6.67335
G1 X115.419 Y110.234 E6.70334
G1 X116.115 Y110.701 E6.734
G1 X116.756 Y111.231 E6.76443
G1 X117.353 Y111.834 E6.79548
G1 X117.499 Y112.013 E6.80393
G1 X117.632 Y111.85 E6.81163
G1 X118.23 Y111.244 E6.84277
G1 X118.864 Y110.717 E6.87294
G1 X119.555 Y110.25 E6.90345
G1 X120.269 Y109.863 E6.93316
G1 X121.076 Y109.522 E6.96522
G1 X121.896 Y109.271 E6.99659
G1 X122.75 Y109.103 E7.02843
G1 X123.572 Y109.024 E7.05865
G1 X124.414 Y109.027 E7.08945
G1 X125.208 Y109.106 E7.11864
G1 X126.004 Y109.263 E7.14833
G1 X126.797 Y109.503 E7.17864
G1 X127.626 Y109.847 E7.21148
G1 X128.349 Y110.234 E7.24148
G1 X129.002 Y110.671 E7.27023
G1 X129.611 Y111.167 E7.29896
G1 X130.217 Y111.764 E7.33009
G1 X130.746 Y112.401 E7.36038
G1 X131.213 Y113.092 E7.39089
G1 X131.6 Y113.806 E7.42061
G1 X131.941 Y114.613 E7.45266
G1 X132.192 Y115.431 E7.48396
G1 X132.36 Y116.283 E7.51574
G1 X132.439 Y117.107 E7.54602
G1 X132.436 Y117.951 E7.5769
G1 X132.357 Y118.745 E7.60609
G1 X132.2 Y119.541 E7.63578
G1 X131.96 Y120.335 E7.66612
G1 X131.615 Y121.166 E7.69904
G1 X131.227 Y121.889 E7.72906
G1 X130.791 Y122.54 E7.75773
G1 X130.291 Y123.153 E7.78667
G1 X129.685 Y123.766 E7.81821
G1 X129.049 Y124.292 E7.8484
G1 X128.367 Y124.752 E7.8785
G1 X127.657 Y125.137 E7.90805
G1 X126.85 Y125.478 E7.9401
G1 X126.03 Y125.729 E7.97148
G1 X125.176 Y125.897 E8.00332
G1 X124.354 Y125.976 E8.03353
G1 X123.512 Y125.973 E8.06434
G1 X122.718 Y125.894 E8.09353
G1 X121.922 Y125.737 E8.12321
G1 X121.128 Y125.497 E8.15356
G1 X120.297 Y125.152 E8.18648
G1 X119.576 Y124.766 E8.2164
G1 X118.924 Y124.33 E8.2451
G1 X118.309 Y123.828 E8.27414
G1 X117.696 Y123.222 E8.30568
G1 X117.501 Y122.984 E8.31694
G1 X117.328 Y123.195 E8.32692
G1 X116.727 Y123.796 E8.35802
G1 X116.087 Y124.319 E8.38825
G1 X115.381 Y124.789 E8.41928
G1 X114.655 Y125.176 E8.44938
G1 X113.877 Y125.496 E8.48016
G1 X113.111 Y125.728 E8.50944
G1 X112.3 Y125.891 E8.53971
G1 X111.476 Y125.973 E8.57
G1 X110.602 Y125.973 E8.60198
G1 X109.786 Y125.893 E8.63198
G1 X108.977 Y125.732 E8.66216
G1 X108.186 Y125.491 E8.69241
G1 X107.377 Y125.154 E8.72447
G1 X106.654 Y124.765 E8.75451
G1 X105.966 Y124.303 E8.78483
G1 X105.331 Y123.779 E8.81495
G1 X104.726 Y123.17 E8.84636
G1 X104.213 Y122.543 E8.876
G1 X103.749 Y121.847 E8.9066
G1 X103.361 Y121.118 E8.93682
G1 X103.041 Y120.34 E8.96759
G1 X102.808 Y119.571 E8.99699
G1 X102.645 Y118.757 E9.02736
G1 X102.564 Y117.931 E9.05773
G1 X102.565 Y117.055 E9.08978
G1 X102.645 Y116.244 E9.11959
G1 X102.805 Y115.44 E9.14959
G1 X103.045 Y114.652 E9.17972
G1 X103.38 Y113.846 E9.21166
G1 X103.771 Y113.118 E9.24189
G1 X104.241 Y112.419 E9.27271
G1 X104.767 Y111.783 E9.3029
G1 X104.853 Y111.698 E9.30733
G0 F810 X105.369 Y111.186
M204 S5000
M205 X30 Y30
G0 F7200 X105.678 Y111.498
M204 S500
M205 X20 Y20
G1 F6000 E9.33392
G1 F900 X106.239 Y111.041 E9.3604
G1 X106.936 Y110.577 E9.39103
G1 X107.586 Y110.231 E9.41797
G1 X108.364 Y109.911 E9.44875
G1 X109.05 Y109.703 E9.47498
G1 X109.861 Y109.54 E9.50524
G1 X110.598 Y109.467 E9.53234
G1 X111.472 Y109.467 E9.56431
G1 X112.202 Y109.539 E9.59115
G1 X113.011 Y109.7 E9.62133
G1 X113.719 Y109.916 E9.64841
G1 X114.528 Y110.253 E9.68047
G1 X115.174 Y110.599 E9.70729
G1 X115.87 Y111.066 E9.73795
G1 X116.444 Y111.541 E9.76521
G1 X117.041 Y112.144 E9.79625
G1 X117.495 Y112.7 E9.82252
G1 X117.499 Y112.706 E9.82278
G1 X117.945 Y112.159 E9.8486
G1 X118.543 Y111.553 E9.87975
G1 X119.111 Y111.081 E9.90677
G1 X119.802 Y110.614 E9.93728
G1 X120.44 Y110.268 E9.96384
G1 X121.247 Y109.927 E9.99589
G1 X121.981 Y109.702 E10.02398
G1 X122.835 Y109.534 E10.05582
G1 X123.57 Y109.464 E10.08283
G1 X124.412 Y109.467 E10.11364
G1 X125.123 Y109.538 E10.13978
G1 X125.919 Y109.695 E10.16946
G1 X126.628 Y109.91 E10.19657
G1 X127.457 Y110.254 E10.22941
G1 X128.104 Y110.6 E10.25625
G1 X128.757 Y111.037 E10.285
G1 X129.302 Y111.481 E10.31072
G1 X129.908 Y112.078 E10.34184
G1 X130.382 Y112.648 E10.36896
G1 X130.849 Y113.339 E10.39948
G1 X131.195 Y113.977 E10.42603
G1 X131.536 Y114.784 E10.45808
G1 X131.76 Y115.516 E10.48609
G1 X131.928 Y116.368 E10.51786
G1 X131.999 Y117.105 E10.54495
G1 X131.996 Y117.949 E10.57583
G1 X131.925 Y118.66 E10.60197
G1 X131.768 Y119.456 E10.63165
G1 X131.553 Y120.166 E10.65879
G1 X131.208 Y120.997 E10.69171
G1 X130.861 Y121.644 E10.71857
G1 X130.425 Y122.295 E10.74724
G1 X129.978 Y122.843 E10.77311
G1 X129.372 Y123.456 E10.80465
G1 X128.803 Y123.928 E10.8317
G1 X128.121 Y124.388 E10.86179
G1 X127.486 Y124.732 E10.88822
G1 X126.679 Y125.073 E10.92027
G1 X125.945 Y125.298 E10.94836
G1 X125.091 Y125.466 E10.9802
G1 X124.356 Y125.536 E11.00721
G1 X123.514 Y125.533 E11.03802
G1 X122.803 Y125.462 E11.06416
G1 X122.007 Y125.305 E11.09384
G1 X121.297 Y125.09 E11.12099
G1 X120.466 Y124.745 E11.1539
G1 X119.821 Y124.4 E11.18067
G1 X119.169 Y123.964 E11.20936
G1 X118.619 Y123.515 E11.23534
G1 X118.006 Y122.909 E11.26688
G1 X117.516 Y122.313 E11.2951
G1 X117.5 Y122.289 E11.29616
G1 X117.479 Y122.321 E11.29756
G1 X117.017 Y122.884 E11.32421
G1 X116.416 Y123.485 E11.3553
G1 X115.844 Y123.953 E11.38234
G1 X115.138 Y124.423 E11.41337
G1 X114.488 Y124.769 E11.44031
G1 X113.71 Y125.089 E11.47109
G1 X113.024 Y125.297 E11.49732
G1 X112.213 Y125.46 E11.52758
G1 X111.476 Y125.533 E11.55468
G1 X110.602 Y125.533 E11.58665
G1 X109.872 Y125.461 E11.61349
G1 X109.063 Y125.3 E11.64367
G1 X108.355 Y125.084 E11.67075
G1 X107.546 Y124.747 E11.70281
G1 X106.899 Y124.4 E11.72967
G1 X106.211 Y123.938 E11.75999
G1 X105.643 Y123.469 E11.78694
G1 X105.038 Y122.86 E11.81835
G1 X104.579 Y122.299 E11.84487
G1 X104.115 Y121.603 E11.87547
G1 X103.768 Y120.951 E11.9025
G1 X103.448 Y120.173 E11.93327
G1 X103.24 Y119.484 E11.95961
G1 X103.077 Y118.67 E11.98998
G1 X103.004 Y117.932 E12.01711
G1 X103.005 Y117.056 E12.04916
G1 X103.077 Y116.33 E12.07585
G1 X103.237 Y115.526 E12.10584
G1 X103.451 Y114.821 E12.1328
G1 X103.786 Y114.015 E12.16473
G1 X104.136 Y113.363 E12.19181
G1 X104.606 Y112.664 E12.22262
G1 X105.076 Y112.095 E12.24962
G1 X105.162 Y112.01 E12.25405
G0 F810 X105.678 Y111.498
M204 S5000
M205 X30 Y30
G0 F7200 X105.988 Y111.811
M204 S500
M205 X20 Y20
G1 F6000 E12.28065
G1 F900 X106.483 Y111.407 E12.30402
G1 X107.18 Y110.943 E12.33466
G1 X107.754 Y110.638 E12.35844
G1 X108.532 Y110.318 E12.38922
G1 X109.137 Y110.135 E12.41234
G1 X109.948 Y109.972 E12.44261
G1 X110.598 Y109.907 E12.46651
G1 X111.472 Y109.907 E12.49848
G1 X112.116 Y109.97 E12.52216
G1 X112.925 Y110.131 E12.55233
G1 X113.55 Y110.322 E12.57624
G1 X114.359 Y110.659 E12.60831
G1 X114.929 Y110.965 E12.63198
G1 X115.625 Y111.432 E12.66264
G1 X116.131 Y111.85 E12.68665
G1 X116.728 Y112.453 E12.7177
G1 X117.129 Y112.944 E12.74089
G1 X117.499 Y113.498 E12.76527
G1 X117.863 Y112.953 E12.78924
G1 X118.258 Y112.468 E12.81213
