;FLAVOR:Marlin
;TIME:1276
;Filament used: 0.668685m
;Layer height: 0.2
;Generated with Cura_SteamEngine 3.6.0
M140 S70
M105
M190 S70
M104 S215
M105
M109 S215
M82 ;absolute extrusion mode
G28 ; home all axes
M117 Purge extruder
G92 E0 ; reset extruder
G1 Z1.0 F3000 ; move z up little to prevent scratching of surface
G1 X0.1 Y20 Z0.3 F5000.0 ; move to start-line position G1 X0.1 Y200.0 Z0.3 F1500.0 E15 ; draw 1st line
G1 X0.4 Y200.0 Z0.3 F5000.0 ; move to side a little
G1 X0.4 Y20 Z0.3 F1500.0 E30 ; draw 2nd line
G92 E0 ; reset extruder
G1 Z1.0 F3000 ; move z up little to prevent scratching of surface
M117 All systems go!
G92 E0
G1 F6000 E-5
;LAYER_COUNT:163
;LAYER:0
M107
M204 S5000
M205 X30 Y30
G0 F7200 X111.869 Y113.194 Z0.2
M204 S500
M205 X20 Y20
;TYPE:SKIRT
G1 F6000 E0
G1 F900 X112.405 Y112.664 E0.02758
G1 X112.885 Y112.246 E0.05087
G1 X113.413 Y111.892 E0.07412
G1 X113.981 Y111.606 E0.09739
G1 X114.581 Y111.395 E0.12066
G1 X115.202 Y111.26 E0.14391
G1 X115.939 Y111.202 E0.17096
G1 X117.201 Y111.196 E0.21713
G1 X117.836 Y111.233 E0.2404
G1 X118.364 Y111.331 E0.26005
G1 X118.365 Y111.331 E0.26008
G1 X118.994 Y111.43 E0.28338
G1 X119.604 Y111.608 E0.30663
G1 X120.188 Y111.861 E0.32991
G1 X120.484 Y112.025 E0.34229
G1 X120.658 Y112.129 E0.34971
G1 X121.182 Y112.489 E0.37297
G1 X121.657 Y112.911 E0.39622
G1 X121.99 Y113.283 E0.41448
G1 X122.318 Y113.687 E0.43352
G1 X122.687 Y114.205 E0.45679
G1 X122.988 Y114.765 E0.48005
G1 X123.217 Y115.358 E0.50331
G1 X123.369 Y115.976 E0.52659
G1 X123.443 Y116.607 E0.54984
G1 X123.437 Y117.243 E0.57311
G1 X123.351 Y117.873 E0.59637
G1 X123.16 Y118.563 E0.62256
G1 X123.004 Y119.004 E0.63968
G1 X122.755 Y119.589 E0.66294
G1 X122.434 Y120.139 E0.68624
G1 X122.047 Y120.643 E0.70949
G1 X121.6 Y121.095 E0.73274
G1 X121.099 Y121.487 E0.75602
G1 X120.554 Y121.814 E0.77927
G1 X119.971 Y122.069 E0.80255
G1 X119.329 Y122.257 E0.82703
G1 X118.612 Y122.416 E0.85389
G1 X117.984 Y122.514 E0.87715
G1 X117.527 Y122.536 E0.89389
G1 X116.076 Y122.539 E0.94697
G1 X115.442 Y122.5 E0.97021
G1 X114.817 Y122.382 E0.99348
G1 X113.965 Y122.082 E1.02653
G1 X113.404 Y121.826 E1.04909
G1 X112.844 Y121.527 E1.07232
G1 X112.325 Y121.159 E1.0956
G1 X111.856 Y120.729 E1.11887
G1 X111.445 Y120.243 E1.14216
G1 X111.099 Y119.71 E1.16541
G1 X110.821 Y119.138 E1.18868
G1 X110.618 Y118.535 E1.21196
G1 X110.526 Y118.124 E1.22737
G1 X110.448 Y117.693 E1.24339
G1 X110.374 Y117.061 E1.26667
G1 X110.38 Y116.426 E1.2899
G1 X110.466 Y115.795 E1.3132
G1 X110.63 Y115.181 E1.33645
G1 X110.87 Y114.592 E1.35972
G1 X111.182 Y114.038 E1.38299
G1 X111.398 Y113.747 E1.39625
G0 F810 X111.561 Y113.527
G0 X111.869 Y113.194
M204 S5000
M205 X30 Y30
G0 F7200 X112.179 Y113.507
M204 S500
M205 X20 Y20
G1 F6000 E1.42284
G1 F900 X112.715 Y112.977 E1.45042
G1 X113.174 Y112.579 E1.47265
G1 X113.681 Y112.245 E1.49486
G1 X114.228 Y111.98 E1.5171
G1 X114.805 Y111.789 E1.53933
G1 X115.402 Y111.676 E1.56156
G1 X115.941 Y111.642 E1.58132
G1 X117.203 Y111.636 E1.6275
G1 X117.81 Y111.673 E1.64975
G1 X118.326 Y111.773 E1.66897
G1 X118.405 Y111.777 E1.67187
G1 X119.003 Y111.884 E1.69409
G1 X119.581 Y112.07 E1.71631
G1 X120.258 Y112.402 E1.7439
G1 X120.432 Y112.506 E1.75131
G1 X120.932 Y112.852 E1.77356
G1 X121.382 Y113.26 E1.79578
G1 X121.649 Y113.56 E1.81048
G1 X121.977 Y113.964 E1.82951
G1 X122.328 Y114.46 E1.85175
G1 X122.611 Y114.998 E1.87399
G1 X122.821 Y115.568 E1.89621
G1 X122.954 Y116.161 E1.91844
G1 X123.009 Y116.766 E1.94067
G1 X122.983 Y117.373 E1.9629
G1 X122.878 Y117.971 E1.98511
G1 X122.746 Y118.417 E2.00213
G1 X122.59 Y118.858 E2.01924
G1 X122.35 Y119.416 E2.04147
G1 X122.039 Y119.938 E2.0637
G1 X121.662 Y120.415 E2.08594
G1 X121.226 Y120.838 E2.10817
G1 X120.738 Y121.2 E2.1304
G1 X120.206 Y121.495 E2.15265
G1 X119.641 Y121.717 E2.17486
G1 X119.234 Y121.827 E2.19029
G1 X118.517 Y121.986 E2.21716
G1 X117.917 Y122.079 E2.23937
G1 X117.527 Y122.096 E2.25365
G1 X116.076 Y122.099 E2.30674
G1 X115.469 Y122.06 E2.32899
G1 X114.873 Y121.942 E2.35122
G1 X114.148 Y121.682 E2.3794
G1 X113.587 Y121.426 E2.40196
G1 X113.052 Y121.138 E2.42419
G1 X112.559 Y120.782 E2.44644
G1 X112.118 Y120.365 E2.46864
G1 X111.735 Y119.893 E2.49088
G1 X111.417 Y119.375 E2.51312
G1 X111.17 Y118.82 E2.53535
G1 X110.959 Y118.046 E2.5647
G1 X110.881 Y117.615 E2.58072
G1 X110.812 Y117.011 E2.60296
G1 X110.823 Y116.403 E2.62521
G1 X110.914 Y115.803 E2.64741
G1 X111.083 Y115.219 E2.66966
G1 X111.327 Y114.663 E2.69187
G1 X111.642 Y114.143 E2.71411
G1 X111.71 Y114.062 E2.71798
G0 F810 X112.179 Y113.507
M204 S5000
M205 X30 Y30
G0 F7200 X112.488 Y113.82
M204 S500
M205 X20 Y20
G1 F6000 E2.74458
G1 F900 X113.024 Y113.29 E2.77216
G1 X113.462 Y112.913 E2.7933
G1 X113.948 Y112.6 E2.81445
G1 X114.472 Y112.357 E2.83559
G1 X115.025 Y112.189 E2.85673
G1 X115.596 Y112.098 E2.87788
G1 X115.943 Y112.082 E2.89059
G1 X117.205 Y112.076 E2.93677
G1 X117.782 Y112.113 E2.95792
G1 X118.272 Y112.214 E2.97622
G1 X118.44 Y112.225 E2.98238
G1 X119.006 Y112.34 E3.00351
G1 X119.551 Y112.533 E3.02467
G1 X120.033 Y112.78 E3.04448
G1 X120.207 Y112.884 E3.0519
G1 X120.681 Y113.214 E3.07303
G1 X121.105 Y113.606 E3.09416
G1 X121.307 Y113.837 E3.10538
G1 X121.635 Y114.241 E3.12442
G1 X121.968 Y114.714 E3.14559
G1 X122.232 Y115.228 E3.16673
G1 X122.422 Y115.774 E3.18788
G1 X122.536 Y116.341 E3.20904
G1 X122.57 Y116.917 E3.23015
G1 X122.524 Y117.494 E3.25132
G1 X122.331 Y118.27 E3.28058
G1 X122.175 Y118.711 E3.29769
G1 X121.945 Y119.241 E3.31883
G1 X121.644 Y119.735 E3.34
G1 X121.278 Y120.182 E3.36113
G1 X120.854 Y120.574 E3.38226
G1 X120.379 Y120.904 E3.40342
G1 X119.864 Y121.166 E3.42456
G1 X119.139 Y121.398 E3.45241
G1 X118.422 Y121.557 E3.47928
G1 X117.85 Y121.643 E3.50044
G1 X117.526 Y121.656 E3.51231
G1 X116.075 Y121.659 E3.56539
G1 X115.498 Y121.62 E3.58655
G1 X114.932 Y121.502 E3.6077
G1 X114.331 Y121.282 E3.63112
G1 X113.77 Y121.026 E3.65368
G1 X113.262 Y120.75 E3.67483
G1 X112.797 Y120.407 E3.69597
G1 X112.383 Y120.003 E3.71713
G1 X112.03 Y119.546 E3.73826
G1 X111.743 Y119.044 E3.75942
G1 X111.527 Y118.508 E3.78056
G1 X111.392 Y117.967 E3.80096
G1 X111.314 Y117.536 E3.81698
G1 X111.25 Y116.962 E3.83812
G1 X111.267 Y116.384 E3.85927
G1 X111.363 Y115.814 E3.88042
G1 X111.537 Y115.263 E3.90156
G1 X111.785 Y114.741 E3.9227
G1 X112.023 Y114.378 E3.93858
G0 F810 X112.102 Y114.258
G0 X112.488 Y113.82
M204 S5000
M205 X30 Y30
G0 F7200 X112.797 Y114.133
M204 S500
M205 X20 Y20
G1 F6000 E3.96518
G1 F900 X113.333 Y113.603 E3.99276
G1 X113.749 Y113.248 E4.01277
G1 X114.212 Y112.957 E4.03278
G1 X114.713 Y112.737 E4.05279
G1 X115.24 Y112.593 E4.07278
G1 X115.945 Y112.522 E4.09871
G1 X117.207 Y112.516 E4.14488
G1 X117.753 Y112.553 E4.1649
G1 X118.199 Y112.651 E4.18161
G1 X118.469 Y112.673 E4.19152
G1 X119.002 Y112.798 E4.21155
G1 X119.51 Y112.998 E4.23152
G1 X119.807 Y113.158 E4.24386
G1 X119.981 Y113.262 E4.25128
G1 X120.428 Y113.576 E4.27127
G1 X120.966 Y114.115 E4.29913
G1 X121.294 Y114.519 E4.31817
G1 X121.606 Y114.967 E4.33814
G1 X121.85 Y115.456 E4.35814
G1 X122.02 Y115.976 E4.37815
G1 X122.112 Y116.515 E4.39816
G1 X122.125 Y117.061 E4.41814
G1 X122.059 Y117.604 E4.43815
G1 X121.916 Y118.123 E4.45785
G1 X121.76 Y118.564 E4.47496
G1 X121.54 Y119.065 E4.49498
G1 X121.25 Y119.528 E4.51497
G1 X120.896 Y119.944 E4.53495
G1 X120.484 Y120.304 E4.55497
G1 X120.025 Y120.6 E4.57495
G1 X119.527 Y120.826 E4.59496
G1 X119.044 Y120.968 E4.61338
G1 X118.327 Y121.127 E4.64025
G1 X117.525 Y121.216 E4.66977
G1 X116.074 Y121.219 E4.72286
G1 X115.528 Y121.18 E4.74288
G1 X114.995 Y121.062 E4.76286
G1 X114.513 Y120.881 E4.78169
G1 X113.952 Y120.625 E4.80425
G1 X113.473 Y120.363 E4.82423
G1 X113.037 Y120.033 E4.84423
G1 X112.654 Y119.643 E4.86423
G1 X112.331 Y119.202 E4.88423
G1 X112.077 Y118.718 E4.90423
G1 X111.896 Y118.202 E4.92424
G1 X111.825 Y117.889 E4.93598
G1 X111.747 Y117.458 E4.952
G1 X111.689 Y116.914 E4.97202
G1 X111.711 Y116.368 E4.99201
G1 X111.813 Y115.831 E5.01201
G1 X111.991 Y115.315 E5.03198
G1 X112.243 Y114.83 E5.05198
G1 X112.339 Y114.696 E5.05801
G0 F810 X112.563 Y114.386
G0 X112.797 Y114.133
M204 S5000
M205 X30 Y30
G0 F7200 X113.107 Y114.445
M204 S500
M205 X20 Y20
G1 F6000 E5.08461
G1 F900 X113.643 Y113.915 E5.11218
G1 X114.035 Y113.584 E5.13095
G1 X114.474 Y113.317 E5.14975
G1 X114.948 Y113.122 E5.16851
G1 X115.448 Y113.002 E5.18732
G1 X115.947 Y112.962 E5.20563
G1 X117.209 Y112.956 E5.25181
G1 X117.721 Y112.994 E5.27059
G1 X118.098 Y113.081 E5.28474
G1 X118.493 Y113.124 E5.29928
G1 X118.989 Y113.257 E5.31807
G1 X119.581 Y113.535 E5.342
G1 X119.755 Y113.639 E5.34941
G1 X120.174 Y113.936 E5.3682
G1 X120.624 Y114.392 E5.39164
G1 X120.952 Y114.796 E5.41068
G1 X121.244 Y115.219 E5.42949
G1 X121.466 Y115.681 E5.44824
G1 X121.614 Y116.173 E5.46704
G1 X121.684 Y116.681 E5.4858
G1 X121.675 Y117.195 E5.50461
G1 X121.585 Y117.7 E5.52337
G1 X121.501 Y117.977 E5.53396
G1 X121.345 Y118.418 E5.55108
G1 X121.137 Y118.887 E5.56985
G1 X120.858 Y119.318 E5.58863
G1 X120.516 Y119.701 E5.60742
G1 X120.119 Y120.026 E5.62619
G1 X119.676 Y120.285 E5.64496
G1 X119.198 Y120.473 E5.66376
G1 X118.948 Y120.539 E5.67322
G1 X118.231 Y120.698 E5.70009
G1 X117.524 Y120.776 E5.72611
G1 X116.073 Y120.779 E5.7792
G1 X115.561 Y120.74 E5.79798
G1 X115.061 Y120.622 E5.81678
G1 X114.696 Y120.481 E5.83109
G1 X114.135 Y120.225 E5.85365
G1 X113.686 Y119.976 E5.87244
G1 X113.281 Y119.661 E5.89121
G1 X112.93 Y119.286 E5.91
G1 X112.641 Y118.862 E5.92878
G1 X112.421 Y118.398 E5.94756
G1 X112.258 Y117.811 E5.96985
G1 X112.18 Y117.38 E5.98588
G1 X112.128 Y116.869 E6.00467
G1 X112.156 Y116.356 E6.02346
G1 X112.263 Y115.854 E6.04224
G1 X112.447 Y115.375 E6.06102
G1 X112.656 Y115.013 E6.07631
G0 F810 X112.703 Y114.93
G0 X113.107 Y114.445
M204 S5000
M205 X30 Y30
G0 F7200 X113.416 Y114.758
M204 S500
M205 X20 Y20
G1 F6000 E6.10291
G1 F900 X113.952 Y114.228 E6.13049
G1 X114.319 Y113.922 E6.14797
G1 X114.731 Y113.681 E6.16543
G1 X115.178 Y113.512 E6.18292
G1 X115.647 Y113.419 E6.20041
G1 X115.949 Y113.402 E6.21147
G1 X117.211 Y113.396 E6.25765
G1 X117.688 Y113.434 E6.27515
G1 X118.003 Y113.513 E6.28704
G1 X118.036 Y113.512 E6.28824
G1 X118.51 Y113.576 E6.30574
G1 X118.966 Y113.719 E6.32323
G1 X119.355 Y113.913 E6.33913
G1 X119.529 Y114.017 E6.34655
G1 X119.918 Y114.296 E6.36406
G1 X120.282 Y114.669 E6.38313
G1 X120.61 Y115.073 E6.40217
G1 X120.88 Y115.468 E6.41967
G1 X121.079 Y115.902 E6.43714
G1 X121.204 Y116.364 E6.45465
G1 X121.25 Y116.84 E6.47215
G1 X121.216 Y117.316 E6.48961
G1 X121.086 Y117.83 E6.509
G1 X120.93 Y118.271 E6.52612
G1 X120.734 Y118.706 E6.54357
G1 X120.468 Y119.103 E6.56106
G1 X120.139 Y119.45 E6.57855
G1 X119.757 Y119.738 E6.59606
G1 X119.333 Y119.958 E6.61353
G1 X118.853 Y120.109 E6.63194
G1 X118.136 Y120.268 E6.65881
G1 X117.523 Y120.336 E6.68138
G1 X116.072 Y120.339 E6.73446
G1 X115.596 Y120.3 E6.75194
G1 X115.132 Y120.182 E6.76945
G1 X114.879 Y120.081 E6.77942
G1 X114.318 Y119.825 E6.80198
G1 X113.901 Y119.591 E6.81947
G1 X113.529 Y119.291 E6.83696
G1 X113.212 Y118.933 E6.85445
G1 X112.96 Y118.527 E6.87194
G1 X112.778 Y118.085 E6.88942
G1 X112.691 Y117.732 E6.90273
G1 X112.613 Y117.301 E6.91875
G1 X112.567 Y116.826 E6.93621
G1 X112.602 Y116.349 E6.95371
G1 X112.715 Y115.885 E6.97118
G1 X112.904 Y115.446 E6.98867
G1 X112.976 Y115.334 E6.99354
G0 F810 X113.163 Y115.044
G0 X113.416 Y114.758
M204 S5000
M205 X30 Y30
G0 F7200 X113.725 Y115.071
M204 S500
M205 X20 Y20
G1 F6000 E7.02014
G1 F900 X114.261 Y114.541 E7.04771
G1 X114.601 Y114.262 E7.06381
G1 X114.985 Y114.048 E7.07989
G1 X115.402 Y113.908 E7.09598
G1 X115.951 Y113.842 E7.11621
G1 X117.213 Y113.836 E7.16239
G1 X117.651 Y113.874 E7.17847
G1 X117.912 Y113.958 E7.1885
G1 X118.084 Y113.956 E7.1948
G1 X118.517 Y114.031 E7.21087
G1 X118.929 Y114.183 E7.22694
G1 X119.13 Y114.291 E7.23529
G1 X119.304 Y114.395 E7.2427
G1 X119.659 Y114.654 E7.25878
G1 X119.941 Y114.947 E7.27366
G1 X120.269 Y115.351 E7.2927
G1 X120.514 Y115.716 E7.30878
G1 X120.689 Y116.119 E7.32486
G1 X120.788 Y116.547 E7.34093
G1 X120.807 Y116.986 E7.357
G1 X120.748 Y117.422 E7.3731
G1 X120.671 Y117.683 E7.38306
G1 X120.515 Y118.124 E7.40017
G1 X120.332 Y118.523 E7.41623
G1 X120.079 Y118.883 E7.43233
G1 X119.765 Y119.191 E7.44842
G1 X119.401 Y119.437 E7.4645
G1 X118.998 Y119.613 E7.48058
G1 X118.758 Y119.68 E7.4897
G1 X118.041 Y119.839 E7.51657
G1 X117.522 Y119.896 E7.53567
G1 X116.071 Y119.899 E7.58876
G1 X115.633 Y119.86 E7.60485
G1 X115.061 Y119.681 E7.62678
G1 X114.5 Y119.425 E7.64934
G1 X114.119 Y119.207 E7.6654
G1 X113.783 Y118.923 E7.68149
G1 X113.504 Y118.584 E7.69756
G1 X113.291 Y118.199 E7.71365
G1 X113.124 Y117.654 E7.73451
G1 X113.046 Y117.223 E7.75053
G1 X113.007 Y116.785 E7.76662
G1 X113.048 Y116.348 E7.78268
G1 X113.168 Y115.925 E7.79877
G1 X113.3 Y115.657 E7.8097
G0 F810 X113.362 Y115.53
G0 X113.725 Y115.071
M204 S5000
M205 X30 Y30
G0 F7200 X114.035 Y115.384
M204 S500
M205 X20 Y20
G1 F6000 E7.83629
G1 F900 X114.571 Y114.854 E7.86387
G1 X114.88 Y114.604 E7.87841
G1 X115.233 Y114.421 E7.89296
G1 X115.615 Y114.313 E7.90748
G1 X115.954 Y114.282 E7.91994
G1 X117.216 Y114.276 E7.96611
G1 X117.611 Y114.314 E7.98063
G1 X117.863 Y114.397 E7.99034
G1 X118.124 Y114.402 E7.99989
G1 X118.512 Y114.489 E8.01443
G1 X118.904 Y114.668 E8.0302
G1 X119.078 Y114.772 E8.03762
G1 X119.397 Y115.01 E8.05218
G1 X119.599 Y115.224 E8.06295
G1 X119.927 Y115.628 E8.08198
G1 X120.145 Y115.96 E8.09652
G1 X120.293 Y116.329 E8.11106
G1 X120.364 Y116.72 E8.1256
G1 X120.355 Y117.118 E8.14017
G1 X120.257 Y117.536 E8.15587
G1 X120.101 Y117.977 E8.17299
G1 X119.931 Y118.337 E8.18755
G1 X119.693 Y118.655 E8.20208
G1 X119.397 Y118.92 E8.21662
G1 X119.053 Y119.12 E8.23118
G1 X118.663 Y119.25 E8.24622
G1 X117.946 Y119.409 E8.27309
G1 X117.521 Y119.456 E8.28873
G1 X116.07 Y119.459 E8.34182
G1 X115.675 Y119.42 E8.35634
G1 X115.244 Y119.28 E8.37292
G1 X114.683 Y119.024 E8.39548
G1 X114.34 Y118.824 E8.41001
G1 X114.044 Y118.559 E8.42454
G1 X113.806 Y118.24 E8.4391
G1 X113.637 Y117.88 E8.45365
G1 X113.557 Y117.576 E8.46516
G1 X113.479 Y117.145 E8.48118
G1 X113.447 Y116.748 E8.49575
G1 X113.496 Y116.354 E8.51028
G1 X113.623 Y115.979 E8.52476
G0 F810 X113.623 Y115.977
G0 X113.822 Y115.633
G0 X114.035 Y115.384
M204 S5000
M205 X30 Y30
G0 F7200 X114.344 Y115.697
M204 S500
M205 X20 Y20
G1 F6000 E8.55136
G1 F900 X114.88 Y115.167 E8.57894
G1 X115.156 Y114.951 E8.59176
G1 X115.473 Y114.802 E8.60458
G1 X115.956 Y114.722 E8.62249
G1 X117.218 Y114.716 E8.66866
G1 X117.566 Y114.754 E8.68147
G1 X117.791 Y114.832 E8.69018
G1 X117.804 Y114.83 E8.69066
G1 X118.154 Y114.851 E8.70349
G1 X118.49 Y114.95 E8.71631
G1 X118.678 Y115.046 E8.72403
G1 X118.852 Y115.15 E8.73145
G1 X119.13 Y115.363 E8.74426
G1 X119.258 Y115.501 E8.75115
G1 X119.586 Y115.905 E8.77018
G1 X119.774 Y116.201 E8.78301
G1 X119.891 Y116.531 E8.79582
G1 X119.93 Y116.879 E8.80863
G1 X119.842 Y117.39 E8.82761
G1 X119.686 Y117.831 E8.84472
G1 X119.532 Y118.146 E8.85755
G1 X119.311 Y118.418 E8.87037
G1 X119.035 Y118.633 E8.88317
G1 X118.567 Y118.82 E8.90161
G1 X117.85 Y118.979 E8.92848
G1 X117.52 Y119.016 E8.94063
G1 X116.069 Y119.019 E8.99371
G1 X115.721 Y118.98 E9.00653
G1 X115.427 Y118.88 E9.01789
G1 X114.866 Y118.624 E9.04045
G1 X114.565 Y118.443 E9.0533
G1 X114.314 Y118.199 E9.06611
G1 X114.124 Y117.905 E9.07891
G1 X113.99 Y117.497 E9.09462
G1 X113.912 Y117.066 E9.11065
G1 X113.889 Y116.717 E9.12344
G1 X113.946 Y116.371 E9.13627
G1 X113.97 Y116.313 E9.13857
G0 F810 X114.079 Y116.047
G0 X114.344 Y115.697
M204 S5000
M205 X30 Y30
G0 F7200 X114.654 Y116.01
M204 S500
M205 X20 Y20
G1 F6000 E9.16517
G1 F900 X115.19 Y115.48 E9.19275
G1 X115.426 Y115.302 E9.20356
G1 X115.702 Y115.194 E9.21441
G1 X115.958 Y115.162 E9.22384
G1 X117.22 Y115.156 E9.27002
G1 X117.513 Y115.194 E9.28083
G1 X117.697 Y115.262 E9.288
G1 X117.749 Y115.287 E9.29011
G1 X117.874 Y115.268 E9.29474
G1 X118.168 Y115.304 E9.30558
G1 X118.452 Y115.424 E9.31686
G1 X118.626 Y115.528 E9.32427
G1 X118.916 Y115.779 E9.3383
G1 X119.244 Y116.183 E9.35734
G1 X119.398 Y116.435 E9.36815
G1 X119.479 Y116.72 E9.37899
G1 X119.481 Y117.016 E9.38982
