;FLAVOR:Marlin
;TIME:475
;Filament used: 0.316962m
;Layer height: 0.2
;Generated with Cura_SteamEngine 3.6.0
M140 S70
M105
M190 S70
M104 S210
M105
M109 S210
M82 ;absolute extrusion mode
G28 ; home all axes
M117 Purge extruder
G92 E0 ; reset extruder
G1 Z1.0 F3000 ; move z up little to prevent scratching of surface
G1 X0.1 Y20 Z0.3 F5000.0 ; move to start-line position G1 X0.1 Y200.0 Z0.3 F1500.0 E15 ; draw 1st line
G1 X0.4 Y200.0 Z0.3 F5000.0 ; move to side a little
G1 X0.4 Y20 Z0.3 F1500.0 E30 ; draw 2nd line
G92 E0 ; reset extruder
G1 Z1.0 F3000 ; move z up little to prevent scratching of surface
M117 All systems go!
G92 E0
G1 F6000 E-5
;LAYER_COUNT:26
;LAYER:0
M107
M204 S5000
M205 X30 Y30
G0 F7200 X101.341 Y107.125 Z0.2
M204 S500
M205 X20 Y20
;TYPE:SKIRT
G1 F6000 E0
G1 F900 X102 Y106.527 E0.03256
G1 X102.826 Y105.913 E0.07021
G1 X103.523 Y105.449 E0.10085
G1 X104.285 Y104.99 E0.13339
G1 X105.243 Y104.534 E0.17221
G1 X106.021 Y104.214 E0.20299
G1 X106.858 Y103.913 E0.23553
G1 X107.836 Y103.664 E0.27245
G1 X108.647 Y103.501 E0.30272
G1 X109.527 Y103.365 E0.3353
G1 X110.598 Y103.307 E0.37454
G1 X111.472 Y103.307 E0.40651
G1 X112.361 Y103.347 E0.43907
G1 X113.404 Y103.497 E0.47762
G1 X114.213 Y103.658 E0.5078
G1 X115.077 Y103.871 E0.54036
G1 X116.088 Y104.229 E0.5796
G1 X116.897 Y104.566 E0.61166
G1 X117.508 Y104.854 E0.63637
G1 X118.043 Y104.594 E0.65814
G1 X118.85 Y104.253 E0.69019
G1 X119.684 Y103.944 E0.72273
G1 X120.792 Y103.658 E0.7646
G1 X121.646 Y103.49 E0.79644
G1 X122.526 Y103.358 E0.82899
G1 X123.592 Y103.304 E0.86805
G1 X124.434 Y103.307 E0.89885
G1 X125.323 Y103.35 E0.93141
G1 X126.315 Y103.494 E0.96809
G1 X127.111 Y103.651 E0.99777
G1 X127.975 Y103.862 E1.03031
G1 X128.989 Y104.22 E1.06965
G1 X129.818 Y104.564 E1.10249
G1 X130.624 Y104.942 E1.13506
G1 X131.53 Y105.48 E1.17361
G1 X132.183 Y105.917 E1.20236
G1 X132.899 Y106.445 E1.23491
G1 X133.625 Y107.092 E1.27049
G1 X134.231 Y107.689 E1.30161
G1 X134.836 Y108.342 E1.33418
G1 X135.485 Y109.199 E1.37351
G1 X135.952 Y109.89 E1.40402
G1 X136.417 Y110.648 E1.43656
G1 X136.869 Y111.58 E1.47445
G1 X137.21 Y112.387 E1.50651
G1 X137.519 Y113.221 E1.53905
G1 X137.804 Y114.325 E1.58076
G1 X137.972 Y115.177 E1.61253
G1 X138.105 Y116.057 E1.64509
G1 X138.159 Y117.127 E1.68429
G1 X138.156 Y117.971 E1.71517
G1 X138.113 Y118.86 E1.74773
G1 X137.969 Y119.852 E1.78441
G1 X137.812 Y120.648 E1.81409
G1 X137.601 Y121.512 E1.84663
G1 X137.242 Y122.528 E1.88605
G1 X136.897 Y123.359 E1.91897
G1 X136.52 Y124.165 E1.95153
G1 X135.98 Y125.072 E1.99015
G1 X135.544 Y125.723 E2.01881
G1 X135.016 Y126.439 E2.05136
G1 X134.358 Y127.174 E2.08745
G1 X133.752 Y127.787 E2.11899
G1 X133.099 Y128.391 E2.15153
G1 X132.248 Y129.035 E2.19058
G1 X131.566 Y129.495 E2.22068
G1 X130.807 Y129.958 E2.2532
G1 X129.883 Y130.406 E2.29077
G1 X129.076 Y130.747 E2.32283
G1 X128.242 Y131.056 E2.35536
G1 X127.134 Y131.342 E2.39723
G1 X126.28 Y131.51 E2.42907
G1 X125.4 Y131.642 E2.46163
G1 X124.334 Y131.696 E2.50068
G1 X123.492 Y131.693 E2.53149
G1 X122.603 Y131.65 E2.56405
G1 X121.611 Y131.506 E2.60072
G1 X120.815 Y131.349 E2.63041
G1 X119.951 Y131.138 E2.66295
G1 X118.935 Y130.779 E2.70237
G1 X118.104 Y130.434 E2.73529
G1 X117.496 Y130.15 E2.75984
G1 X116.831 Y130.466 E2.78678
G1 X116.053 Y130.786 E2.81756
G1 X115.216 Y131.087 E2.8501
G1 X114.238 Y131.336 E2.88702
G1 X113.427 Y131.499 E2.91729
G1 X112.547 Y131.635 E2.94986
G1 X111.476 Y131.693 E2.98911
G1 X110.602 Y131.693 E3.02108
G1 X109.713 Y131.653 E3.05364
G1 X108.67 Y131.503 E3.09219
G1 X107.861 Y131.342 E3.12237
G1 X106.997 Y131.129 E3.15493
G1 X105.986 Y130.771 E3.19417
G1 X105.177 Y130.434 E3.22623
G1 X104.372 Y130.055 E3.25878
G1 X103.465 Y129.514 E3.29742
G1 X102.777 Y129.052 E3.32774
G1 X102.061 Y128.523 E3.36031
G1 X101.273 Y127.81 E3.39919
G1 X100.668 Y127.201 E3.4306
G1 X100.07 Y126.543 E3.46313
G1 X99.454 Y125.716 E3.50086
G1 X98.99 Y125.02 E3.53146
G1 X98.53 Y124.258 E3.56402
G1 X98.071 Y123.294 E3.60309
G1 X97.751 Y122.516 E3.63386
G1 X97.45 Y121.679 E3.66641
G1 X97.2 Y120.694 E3.70359
G1 X97.037 Y119.88 E3.73396
G1 X96.901 Y119 E3.76654
G1 X96.844 Y117.925 E3.80592
G1 X96.845 Y117.049 E3.83797
G1 X96.886 Y116.16 E3.87053
G1 X97.035 Y115.128 E3.90868
G1 X97.195 Y114.324 E3.93867
G1 X97.408 Y113.46 E3.97123
G1 X97.763 Y112.456 E4.01019
G1 X98.098 Y111.65 E4.04212
G1 X98.476 Y110.845 E4.07466
G1 X99.024 Y109.926 E4.11381
G1 X99.494 Y109.227 E4.14463
G1 X100.024 Y108.512 E4.17719
G1 X100.739 Y107.722 E4.21617
G1 X100.825 Y107.637 E4.22059
G0 F810 X101.341 Y107.125
M204 S5000
M205 X30 Y30
G0 F7200 X101.651 Y107.437
M204 S500
M205 X20 Y20
G1 F6000 E4.24719
G1 F900 X102.296 Y106.854 E4.279
G1 X103.07 Y106.279 E4.31428
G1 X103.767 Y105.815 E4.34491
G1 X104.512 Y105.367 E4.37672
G1 X105.411 Y104.941 E4.41311
G1 X106.189 Y104.621 E4.44389
G1 X107.007 Y104.328 E4.47568
G1 X107.923 Y104.095 E4.51026
G1 X108.734 Y103.932 E4.54053
G1 X109.594 Y103.8 E4.57236
G1 X110.598 Y103.747 E4.60914
G1 X111.472 Y103.747 E4.64112
G1 X112.341 Y103.787 E4.67295
G1 X113.318 Y103.929 E4.70907
G1 X114.127 Y104.09 E4.73925
G1 X114.972 Y104.299 E4.77109
G1 X115.919 Y104.635 E4.80786
G1 X116.728 Y104.972 E4.83992
G1 X117.509 Y105.341 E4.87152
G1 X118.214 Y104.999 E4.90019
G1 X119.021 Y104.658 E4.93224
G1 X119.837 Y104.357 E4.96406
G1 X120.877 Y104.09 E5.00335
G1 X121.731 Y103.922 E5.03519
G1 X122.591 Y103.793 E5.06701
G1 X123.591 Y103.744 E5.10364
G1 X124.433 Y103.747 E5.13444
G1 X125.301 Y103.79 E5.16624
G1 X126.23 Y103.926 E5.20059
G1 X127.026 Y104.083 E5.23027
G1 X127.87 Y104.29 E5.26207
G1 X128.821 Y104.626 E5.29897
G1 X129.65 Y104.97 E5.3318
G1 X130.437 Y105.34 E5.36362
G1 X131.285 Y105.846 E5.39975
G1 X131.938 Y106.283 E5.4285
G1 X132.638 Y106.799 E5.46031
G1 X133.316 Y107.406 E5.49361
G1 X133.922 Y108.003 E5.52473
G1 X134.513 Y108.641 E5.55655
G1 X135.121 Y109.445 E5.59343
G1 X135.588 Y110.136 E5.62394
G1 X136.041 Y110.878 E5.65575
G1 X136.464 Y111.751 E5.69124
G1 X136.805 Y112.558 E5.72329
G1 X137.106 Y113.374 E5.75511
G1 X137.372 Y114.41 E5.79424
G1 X137.54 Y115.262 E5.82602
G1 X137.669 Y116.122 E5.85783
G1 X137.719 Y117.126 E5.89461
G1 X137.716 Y117.97 E5.92549
G1 X137.673 Y118.838 E5.95728
G1 X137.537 Y119.767 E5.99163
G1 X137.38 Y120.563 E6.02132
G1 X137.173 Y121.407 E6.05311
G1 X136.836 Y122.359 E6.09006
G1 X136.491 Y123.19 E6.12298
G1 X136.121 Y123.977 E6.1548
G1 X135.614 Y124.827 E6.19101
G1 X135.178 Y125.478 E6.21967
G1 X134.661 Y126.178 E6.25151
G1 X134.046 Y126.865 E6.28524
G1 X133.44 Y127.478 E6.31678
G1 X132.8 Y128.067 E6.3486
G1 X132.002 Y128.67 E6.3852
G1 X131.32 Y129.13 E6.41529
G1 X130.577 Y129.582 E6.44711
G1 X129.712 Y130.001 E6.48228
G1 X128.905 Y130.342 E6.51433
G1 X128.089 Y130.643 E6.54615
G1 X127.049 Y130.91 E6.58543
G1 X126.195 Y131.078 E6.61728
G1 X125.335 Y131.207 E6.64909
G1 X124.335 Y131.256 E6.68572
G1 X123.493 Y131.253 E6.71653
G1 X122.625 Y131.21 E6.74832
G1 X121.696 Y131.074 E6.78268
G1 X120.9 Y130.917 E6.81236
G1 X120.056 Y130.71 E6.84415
G1 X119.104 Y130.373 E6.8811
G1 X118.273 Y130.028 E6.91402
G1 X117.498 Y129.663 E6.94536
G1 X116.663 Y130.059 E6.97917
G1 X115.885 Y130.379 E7.00995
G1 X115.067 Y130.672 E7.04174
G1 X114.151 Y130.905 E7.07632
G1 X113.34 Y131.068 E7.10658
G1 X112.48 Y131.2 E7.13842
G1 X111.476 Y131.253 E7.1752
G1 X110.602 Y131.253 E7.20718
G1 X109.733 Y131.213 E7.239
G1 X108.756 Y131.071 E7.27512
G1 X107.947 Y130.91 E7.3053
G1 X107.102 Y130.701 E7.33715
G1 X106.155 Y130.365 E7.37391
G1 X105.346 Y130.028 E7.40598
G1 X104.56 Y129.657 E7.43778
G1 X103.71 Y129.149 E7.474
G1 X103.022 Y128.687 E7.50432
G1 X102.323 Y128.169 E7.53615
G1 X101.585 Y127.5 E7.5726
G1 X100.98 Y126.891 E7.604
G1 X100.396 Y126.247 E7.63581
G1 X99.82 Y125.471 E7.67117
G1 X99.356 Y124.775 E7.70177
G1 X98.907 Y124.03 E7.7336
G1 X98.478 Y123.126 E7.77021
G1 X98.158 Y122.348 E7.80098
G1 X97.865 Y121.53 E7.83277
G1 X97.631 Y120.607 E7.86761
G1 X97.468 Y119.793 E7.89798
G1 X97.337 Y118.934 E7.92977
G1 X97.284 Y117.925 E7.96674
G1 X97.285 Y117.049 E7.99879
G1 X97.326 Y116.18 E8.03062
G1 X97.467 Y115.214 E8.06633
G1 X97.627 Y114.41 E8.09633
G1 X97.836 Y113.565 E8.12817
G1 X98.169 Y112.625 E8.16466
G1 X98.504 Y111.819 E8.19659
G1 X98.875 Y111.032 E8.22843
G1 X99.39 Y110.171 E8.26513
G1 X99.86 Y109.472 E8.29595
G1 X100.378 Y108.774 E8.32775
G1 X101.049 Y108.034 E8.3643
G1 X101.135 Y107.949 E8.36872
G0 F810 X101.651 Y107.437
M204 S5000
M205 X30 Y30
G0 F7200 X101.961 Y107.749
M204 S500
M205 X20 Y20
G1 F6000 E8.39532
G1 F900 X102.591 Y107.18 E8.42638
G1 X103.314 Y106.646 E8.45926
G1 X104.011 Y106.182 E8.4899
G1 X104.739 Y105.745 E8.52096
G1 X105.578 Y105.348 E8.55492
G1 X106.356 Y105.028 E8.5857
G1 X107.156 Y104.742 E8.61678
G1 X108.01 Y104.527 E8.649
G1 X108.821 Y104.364 E8.67926
G1 X109.66 Y104.236 E8.71031
G1 X110.598 Y104.187 E8.74468
G1 X111.472 Y104.187 E8.77666
G1 X112.32 Y104.227 E8.80772
G1 X113.233 Y104.36 E8.84147
G1 X114.042 Y104.521 E8.87165
G1 X114.866 Y104.726 E8.90272
G1 X115.749 Y105.042 E8.93703
G1 X116.558 Y105.379 E8.96909
G1 X117.326 Y105.742 E9.00017
G1 X117.496 Y105.844 E9.00742
G1 X117.571 Y105.798 E9.01064
G1 X118.385 Y105.404 E9.04373
G1 X119.192 Y105.063 E9.07578
G1 X119.989 Y104.77 E9.10685
G1 X120.962 Y104.522 E9.14358
G1 X121.816 Y104.354 E9.17543
G1 X122.656 Y104.229 E9.2065
G1 X123.589 Y104.184 E9.24067
G1 X124.431 Y104.187 E9.27148
G1 X125.279 Y104.23 E9.30254
G1 X126.144 Y104.357 E9.33453
G1 X126.94 Y104.514 E9.36421
G1 X127.765 Y104.718 E9.39531
G1 X128.652 Y105.033 E9.42974
G1 X129.481 Y105.377 E9.46258
G1 X130.249 Y105.739 E9.49364
G1 X131.041 Y106.212 E9.5274
G1 X131.694 Y106.649 E9.55614
G1 X132.376 Y107.154 E9.58719
G1 X133.007 Y107.719 E9.61818
G1 X133.613 Y108.316 E9.6493
G1 X134.189 Y108.94 E9.68037
G1 X134.756 Y109.691 E9.7148
G1 X135.223 Y110.382 E9.74531
G1 X135.665 Y111.108 E9.77641
G1 X136.059 Y111.922 E9.80949
G1 X136.4 Y112.729 E9.84155
G1 X136.693 Y113.526 E9.87261
G1 X136.941 Y114.495 E9.90921
G1 X137.109 Y115.347 E9.94098
G1 X137.233 Y116.187 E9.97205
G1 X137.279 Y117.124 E10.00637
G1 X137.276 Y117.968 E10.03725
G1 X137.233 Y118.816 E10.06831
G1 X137.106 Y119.681 E10.1003
G1 X136.949 Y120.477 E10.12998
G1 X136.745 Y121.302 E10.16107
G1 X136.43 Y122.191 E10.19558
G1 X136.085 Y123.022 E10.2285
G1 X135.722 Y123.79 E10.25958
G1 X135.248 Y124.582 E10.29335
G1 X134.812 Y125.233 E10.32201
G1 X134.307 Y125.916 E10.35309
G1 X133.733 Y126.555 E10.38452
G1 X133.127 Y127.168 E10.41605
G1 X132.502 Y127.744 E10.44715
G1 X131.756 Y128.305 E10.4813
G1 X131.074 Y128.765 E10.5114
G1 X130.348 Y129.206 E10.54247
G1 X129.541 Y129.596 E10.57527
G1 X128.734 Y129.937 E10.60732
G1 X127.937 Y130.23 E10.63839
G1 X126.964 Y130.478 E10.67512
G1 X126.11 Y130.646 E10.70697
G1 X125.27 Y130.771 E10.73804
G1 X124.337 Y130.816 E10.77221
G1 X123.495 Y130.813 E10.80302
G1 X122.647 Y130.77 E10.83408
G1 X121.782 Y130.643 E10.86607
G1 X120.986 Y130.486 E10.89575
G1 X120.161 Y130.282 E10.92684
G1 X119.272 Y129.967 E10.96135
G1 X118.441 Y129.622 E10.99427
G1 X117.673 Y129.259 E11.02535
G1 X117.5 Y129.156 E11.03271
G1 X117.335 Y129.255 E11.03975
G1 X116.496 Y129.652 E11.07371
G1 X115.718 Y129.972 E11.10449
G1 X114.918 Y130.258 E11.13557
G1 X114.064 Y130.473 E11.16779
G1 X113.253 Y130.636 E11.19806
G1 X112.414 Y130.764 E11.22911
G1 X111.476 Y130.813 E11.26347
G1 X110.602 Y130.813 E11.29545
G1 X109.754 Y130.773 E11.32651
G1 X108.841 Y130.64 E11.36027
G1 X108.032 Y130.479 E11.39044
G1 X107.208 Y130.274 E11.42151
G1 X106.325 Y129.958 E11.45582
G1 X105.516 Y129.621 E11.48789
G1 X104.748 Y129.258 E11.51896
G1 X103.956 Y128.783 E11.55275
G1 X103.268 Y128.321 E11.58307
G1 X102.586 Y127.815 E11.61414
G1 X101.897 Y127.19 E11.64818
G1 X101.292 Y126.581 E11.67958
G1 X100.722 Y125.951 E11.71067
G1 X100.186 Y125.227 E11.74362
G1 X99.722 Y124.531 E11.77423
G1 X99.285 Y123.803 E11.80529
G1 X98.885 Y122.959 E11.83946
G1 X98.565 Y122.181 E11.87024
G1 X98.279 Y121.381 E11.90132
G1 X98.063 Y120.521 E11.93376
G1 X97.9 Y119.707 E11.96414
G1 X97.772 Y118.867 E11.99522
G1 X97.724 Y117.926 E12.0297
G1 X97.725 Y117.05 E12.06175
G1 X97.766 Y116.201 E12.09284
G1 X97.898 Y115.299 E12.1262
G1 X98.058 Y114.495 E12.15619
G1 X98.263 Y113.671 E12.18725
G1 X98.576 Y112.794 E12.22132
G1 X98.911 Y111.988 E12.25326
G1 X99.273 Y111.22 E12.28432
G1 X99.755 Y110.417 E12.31858
G1 X100.225 Y109.718 E12.3494
G1 X100.731 Y109.036 E12.38047
G1 X101.359 Y108.346 E12.41461
G1 X101.445 Y108.261 E12.41903
G0 F810 X101.961 Y107.749
M204 S5000
M205 X30 Y30
G0 F7200 X102.27 Y108.062
M204 S500
M205 X20 Y20
G1 F6000 E12.44563
G1 F900 X102.886 Y107.508 E12.47594
G1 X103.557 Y107.012 E12.50647
G1 X104.254 Y106.548 E12.5371
G1 X104.965 Y106.123 E12.56741
G1 X105.745 Y105.755 E12.59896
G1 X106.523 Y105.435 E12.62974
G1 X107.304 Y105.157 E12.66007
G1 X108.096 Y104.958 E12.68995
G1 X108.907 Y104.795 E12.72021
G1 X109.726 Y104.671 E12.75052
G1 X110.598 Y104.627 E12.78246
G1 X111.472 Y104.627 E12.81444
G1 X112.299 Y104.667 E12.84473
G1 X113.147 Y104.792 E12.87609
G1 X113.956 Y104.953 E12.90627
G1 X114.759 Y105.154 E12.93655
G1 X115.58 Y105.448 E12.96846
G1 X116.389 Y105.785 E13.00052
G1 X117.138 Y106.14 E13.03085
G1 X117.499 Y106.357 E13.04626
G1 X117.799 Y106.174 E13.05911
G1 X118.556 Y105.81 E13.08984
G1 X119.363 Y105.469 E13.1219
G1 X120.141 Y105.183 E13.15222
G1 X121.047 Y104.953 E13.18642
G1 X121.901 Y104.785 E13.21826
G1 X122.72 Y104.665 E13.24855
G1 X123.588 Y104.624 E13.28034
G1 X124.43 Y104.627 E13.31115
G1 X125.257 Y104.67 E13.34144
G1 X126.059 Y104.789 E13.37111
G1 X126.855 Y104.946 E13.40079
G1 X127.659 Y105.145 E13.43109
G1 X128.483 Y105.439 E13.4631
G1 X129.312 Y105.783 E13.49594
G1 X130.061 Y106.137 E13.52625
G1 X130.796 Y106.577 E13.55759
G1 X131.449 Y107.014 E13.58634
G1 X132.114 Y107.508 E13.61665
G1 X132.698 Y108.033 E13.64538
G1 X133.304 Y108.63 E13.6765
G1 X133.866 Y109.239 E13.70682
G1 X134.392 Y109.938 E13.73882
G1 X134.859 Y110.629 E13.76934
G1 X135.289 Y111.336 E13.79961
G1 X135.653 Y112.093 E13.83034
G1 X135.994 Y112.9 E13.8624
G1 X136.28 Y113.678 E13.89272
G1 X136.509 Y114.58 E13.92677
G1 X136.677 Y115.432 E13.95854
G1 X136.798 Y116.252 E13.98887
G1 X136.839 Y117.122 E14.02073
G1 X136.836 Y117.966 E14.05161
G1 X136.793 Y118.794 E14.08194
G1 X136.674 Y119.596 E14.11161
G1 X136.517 Y120.392 E14.14129
G1 X136.318 Y121.196 E14.17159
G1 X136.023 Y122.022 E14.20368
G1 X135.678 Y122.853 E14.2366
G1 X135.324 Y123.602 E14.26691
G1 X134.883 Y124.337 E14.29827
G1 X134.447 Y124.988 E14.32694
G1 X133.953 Y125.654 E14.35728
G1 X133.42 Y126.246 E14.38642
G1 X132.814 Y126.859 E14.41796
G1 X132.204 Y127.419 E14.44825
G1 X131.51 Y127.94 E14.48
G1 X130.828 Y128.4 E14.5101
G1 X130.12 Y128.83 E14.5404
G1 X129.37 Y129.19 E14.57084
G1 X128.563 Y129.531 E14.60289
G1 X127.785 Y129.817 E14.63322
G1 X126.879 Y130.047 E14.66742
G1 X126.025 Y130.215 E14.69926
G1 X125.206 Y130.335 E14.72955
G1 X124.338 Y130.376 E14.76134
G1 X123.496 Y130.373 E14.79214
G1 X122.669 Y130.33 E14.82244
G1 X121.867 Y130.211 E14.85211
G1 X121.071 Y130.054 E14.88179
G1 X120.267 Y129.855 E14.91209
G1 X119.441 Y129.56 E14.94418
G1 X118.61 Y129.215 E14.9771
G1 X117.861 Y128.861 E15.00741
G1 X117.499 Y128.644 E15.02285
G1 X117.109 Y128.877 E15.03947
G1 X116.329 Y129.245 E15.07103
G1 X115.551 Y129.565 E15.1018
G1 X114.77 Y129.843 E15.13213
G1 X113.978 Y130.042 E15.16201
G1 X113.167 Y130.205 E15.19228
G1 X112.348 Y130.329 E15.22258
G1 X111.476 Y130.373 E15.25453
G1 X110.602 Y130.373 E15.2865
G1 X109.775 Y130.333 E15.31679
G1 X108.927 Y130.208 E15.34815
G1 X108.118 Y130.047 E15.37833
G1 X107.315 Y129.846 E15.40862
G1 X106.494 Y129.552 E15.44052
G1 X105.685 Y129.215 E15.47259
G1 X104.936 Y128.86 E15.50291
G1 X104.201 Y128.418 E15.53429
G1 X103.513 Y127.956 E15.56461
G1 X102.848 Y127.462 E15.59492
G1 X102.209 Y126.88 E15.62654
G1 X101.604 Y126.271 E15.65795
G1 X101.049 Y125.656 E15.68826
G1 X100.552 Y124.983 E15.71886
G1 X100.088 Y124.287 E15.74947
G1 X99.662 Y123.577 E15.77976
G1 X99.292 Y122.792 E15.81151
G1 X98.972 Y122.014 E15.84229
G1 X98.694 Y121.233 E15.87262
G1 X98.494 Y120.435 E15.90272
