;FLAVOR:Marlin
;TIME:450
;Filament used: 0.302777m
;Layer height: 0.2
;Generated with Cura_SteamEngine 3.6.0
M140 S70
M105
M190 S70
M104 S215
M105
M109 S215
M82 ;absolute extrusion mode
G28 ; home all axes
M117 Purge extruder
G92 E0 ; reset extruder
G1 Z1.0 F3000 ; move z up little to prevent scratching of surface
G1 X0.1 Y20 Z0.3 F5000.0 ; move to start-line position G1 X0.1 Y200.0 Z0.3 F1500.0 E15 ; draw 1st line
G1 X0.4 Y200.0 Z0.3 F5000.0 ; move to side a little
G1 X0.4 Y20 Z0.3 F1500.0 E30 ; draw 2nd line
G92 E0 ; reset extruder
G1 Z1.0 F3000 ; move z up little to prevent scratching of surface
M117 All systems go!
G92 E0
G1 F6000 E-5
;LAYER_COUNT:11
;LAYER:0
M107
M204 S5000
M205 X30 Y30
G0 F7200 X108.027 Y105.851 Z0.2
M204 S500
M205 X20 Y20
;TYPE:SKIRT
G1 F6000 E0
G1 F900 X108.503 Y105.429 E0.02327
G1 X109.306 Y104.917 E0.05812
G1 X112.091 Y103.492 E0.17257
G1 X112.674 Y103.239 E0.19582
G1 X113.595 Y103.001 E0.23063
G1 X116.682 Y102.506 E0.34501
G1 X117.315 Y102.445 E0.36828
G1 X117.95 Y102.464 E0.39152
G1 X118.266 Y102.503 E0.40317
G1 X121.355 Y102.987 E0.51756
G1 X121.976 Y103.125 E0.54084
G1 X122.863 Y103.474 E0.57571
G1 X125.652 Y104.89 E0.69015
G1 X126.2 Y105.213 E0.71342
G1 X126.932 Y105.818 E0.74816
G1 X129.149 Y108.027 E0.86267
G1 X129.571 Y108.503 E0.88594
G1 X130.083 Y109.306 E0.92078
G1 X131.508 Y112.091 E1.03524
G1 X131.761 Y112.674 E1.05849
G1 X131.999 Y113.595 E1.09329
G1 X132.494 Y116.682 E1.20768
G1 X132.555 Y117.315 E1.23094
G1 X132.536 Y117.95 E1.25418
G1 X132.497 Y118.266 E1.26583
G1 X132.013 Y121.355 E1.38023
G1 X131.875 Y121.976 E1.4035
G1 X131.526 Y122.863 E1.43837
G1 X130.11 Y125.652 E1.55281
G1 X129.787 Y126.2 E1.57608
G1 X129.182 Y126.932 E1.61083
G1 X126.973 Y129.149 E1.72533
G1 X126.497 Y129.571 E1.7486
G1 X125.694 Y130.083 E1.78345
G1 X122.909 Y131.508 E1.8979
G1 X122.326 Y131.761 E1.92115
G1 X121.405 Y131.999 E1.95596
G1 X118.318 Y132.494 E2.07034
G1 X117.685 Y132.555 E2.09361
G1 X117.05 Y132.536 E2.11685
G1 X116.734 Y132.497 E2.1285
G1 X113.645 Y132.013 E2.24289
G1 X113.024 Y131.875 E2.26617
G1 X112.137 Y131.526 E2.30104
G1 X109.348 Y130.11 E2.41548
G1 X108.8 Y129.787 E2.43875
G1 X108.068 Y129.182 E2.47349
G1 X105.851 Y126.973 E2.588
G1 X105.429 Y126.497 E2.61127
G1 X104.917 Y125.694 E2.64611
G1 X103.492 Y122.909 E2.76057
G1 X103.239 Y122.326 E2.78382
G1 X103.001 Y121.405 E2.81862
G1 X102.506 Y118.318 E2.93301
G1 X102.445 Y117.685 E2.95627
G1 X102.464 Y117.05 E2.97952
G1 X102.503 Y116.734 E2.99116
G1 X102.987 Y113.645 E3.10556
G1 X103.125 Y113.024 E3.12883
G1 X103.474 Y112.137 E3.16371
G1 X104.89 Y109.348 E3.27814
G1 X105.213 Y108.8 E3.30142
G1 X105.818 Y108.068 E3.33616
G1 X107.514 Y106.366 E3.42407
G0 F810 X108.027 Y105.851
M204 S5000
M205 X30 Y30
G0 F7200 X108.338 Y106.161
M204 S500
M205 X20 Y20
G1 F6000 E3.45067
G1 F900 X108.795 Y105.76 E3.47291
G1 X109.507 Y105.309 E3.50374
G1 X112.292 Y103.884 E3.6182
G1 X112.85 Y103.644 E3.64042
G1 X113.665 Y103.435 E3.67121
G1 X116.752 Y102.94 E3.78559
G1 X117.357 Y102.884 E3.80782
G1 X118.198 Y102.938 E3.83865
G1 X121.287 Y103.422 E3.95305
G1 X121.88 Y103.555 E3.97528
G1 X122.663 Y103.867 E4.00612
G1 X125.452 Y105.283 E4.12055
G1 X125.975 Y105.593 E4.1428
G1 X126.622 Y106.129 E4.17354
G1 X128.839 Y108.338 E4.28804
G1 X129.24 Y108.795 E4.31028
G1 X129.691 Y109.507 E4.34112
G1 X131.116 Y112.292 E4.45557
G1 X131.356 Y112.85 E4.4778
G1 X131.565 Y113.665 E4.50858
G1 X132.06 Y116.752 E4.62296
G1 X132.116 Y117.357 E4.64519
G1 X132.062 Y118.198 E4.67603
G1 X131.578 Y121.287 E4.79042
G1 X131.445 Y121.88 E4.81265
G1 X131.133 Y122.663 E4.84349
G1 X129.717 Y125.452 E4.95793
G1 X129.407 Y125.975 E4.98017
G1 X128.871 Y126.622 E5.01091
G1 X126.662 Y128.839 E5.12541
G1 X126.205 Y129.24 E5.14766
G1 X125.493 Y129.691 E5.17849
G1 X122.708 Y131.116 E5.29295
G1 X122.15 Y131.356 E5.31517
G1 X121.335 Y131.565 E5.34595
G1 X118.248 Y132.06 E5.46034
G1 X117.643 Y132.116 E5.48257
G1 X116.802 Y132.062 E5.5134
G1 X113.713 Y131.578 E5.62779
G1 X113.12 Y131.445 E5.65003
G1 X112.337 Y131.133 E5.68087
G1 X109.548 Y129.717 E5.7953
G1 X109.025 Y129.407 E5.81755
G1 X108.378 Y128.871 E5.84828
G1 X106.161 Y126.662 E5.96279
G1 X105.76 Y126.205 E5.98503
G1 X105.309 Y125.493 E6.01587
G1 X103.884 Y122.708 E6.13032
G1 X103.644 Y122.15 E6.15255
G1 X103.435 Y121.335 E6.18333
G1 X102.94 Y118.248 E6.29771
G1 X102.884 Y117.643 E6.31994
G1 X102.938 Y116.802 E6.35077
G1 X103.422 Y113.713 E6.46517
G1 X103.555 Y113.12 E6.4874
G1 X103.867 Y112.337 E6.51824
G1 X105.283 Y109.548 E6.63268
G1 X105.593 Y109.025 E6.65492
G1 X106.129 Y108.378 E6.68566
G1 X107.825 Y106.676 E6.77357
G0 F810 X108.338 Y106.161
M204 S5000
M205 X30 Y30
G0 F7200 X108.65 Y106.472
M204 S500
M205 X20 Y20
G1 F6000 E6.80016
G1 F900 X109.085 Y106.091 E6.82132
G1 X109.707 Y105.701 E6.84818
G1 X112.492 Y104.276 E6.96264
G1 X113.023 Y104.049 E6.98376
G1 X113.734 Y103.87 E7.01059
G1 X116.821 Y103.375 E7.12497
G1 X117.397 Y103.323 E7.14613
G1 X118.13 Y103.372 E7.17301
G1 X121.219 Y103.856 E7.2874
G1 X121.782 Y103.985 E7.30853
G1 X122.464 Y104.259 E7.33542
G1 X125.253 Y105.675 E7.44986
G1 X125.749 Y105.971 E7.47099
G1 X126.311 Y106.441 E7.4978
G1 X128.528 Y108.65 E7.6123
G1 X128.909 Y109.085 E7.63346
G1 X129.299 Y109.707 E7.66032
G1 X130.724 Y112.492 E7.77477
G1 X130.951 Y113.023 E7.7959
G1 X131.13 Y113.734 E7.82272
G1 X131.625 Y116.821 E7.93711
G1 X131.677 Y117.397 E7.95827
G1 X131.628 Y118.13 E7.98515
G1 X131.144 Y121.219 E8.09954
G1 X131.015 Y121.782 E8.12067
G1 X130.741 Y122.464 E8.14756
G1 X129.325 Y125.253 E8.262
G1 X129.029 Y125.749 E8.28313
G1 X128.559 Y126.311 E8.30993
G1 X126.35 Y128.528 E8.42444
G1 X125.915 Y128.909 E8.44559
G1 X125.293 Y129.299 E8.47245
G1 X122.508 Y130.724 E8.58691
G1 X121.977 Y130.951 E8.60804
G1 X121.266 Y131.13 E8.63486
G1 X118.179 Y131.625 E8.74925
G1 X117.603 Y131.677 E8.7704
G1 X116.87 Y131.628 E8.79728
G1 X113.781 Y131.144 E8.91168
G1 X113.218 Y131.015 E8.93281
G1 X112.536 Y130.741 E8.9597
G1 X109.747 Y129.325 E9.07413
G1 X109.251 Y129.029 E9.09527
G1 X108.689 Y128.559 E9.12207
G1 X106.472 Y126.35 E9.23657
G1 X106.091 Y125.915 E9.25773
G1 X105.701 Y125.293 E9.28459
G1 X104.276 Y122.508 E9.39905
G1 X104.049 Y121.977 E9.42017
G1 X103.87 Y121.266 E9.447
G1 X103.375 Y118.179 E9.56138
G1 X103.323 Y117.603 E9.58254
G1 X103.372 Y116.87 E9.60942
G1 X103.856 Y113.781 E9.72381
G1 X103.985 Y113.218 E9.74494
G1 X104.259 Y112.536 E9.77183
G1 X105.675 Y109.747 E9.88627
G1 X105.971 Y109.251 E9.9074
G1 X106.441 Y108.689 E9.93421
G1 X108.137 Y106.987 E10.02212
G0 F810 X108.65 Y106.472
M204 S5000
M205 X30 Y30
G0 F7200 X108.962 Y106.782
M204 S500
M205 X20 Y20
G1 F6000 E10.04871
G1 F900 X109.375 Y106.424 E10.06871
G1 X109.907 Y106.093 E10.09163
G1 X112.692 Y104.668 E10.20609
G1 X113.196 Y104.455 E10.22611
G1 X113.804 Y104.304 E10.24903
G1 X116.891 Y103.809 E10.36341
G1 X117.435 Y103.762 E10.38339
G1 X118.062 Y103.807 E10.40639
G1 X121.151 Y104.291 E10.52078
G1 X121.683 Y104.415 E10.54077
G1 X122.265 Y104.651 E10.56374
G1 X125.054 Y106.067 E10.67818
G1 X125.522 Y106.35 E10.69819
G1 X126.001 Y106.753 E10.72109
G1 X128.218 Y108.962 E10.83559
G1 X128.576 Y109.375 E10.85559
G1 X128.907 Y109.907 E10.87851
G1 X130.332 Y112.692 E10.99297
G1 X130.545 Y113.196 E11.01299
G1 X130.696 Y113.804 E11.03591
G1 X131.191 Y116.891 E11.15029
G1 X131.238 Y117.435 E11.17027
G1 X131.193 Y118.062 E11.19327
G1 X130.709 Y121.151 E11.30766
G1 X130.585 Y121.683 E11.32765
G1 X130.349 Y122.265 E11.35063
G1 X128.933 Y125.054 E11.46506
G1 X128.65 Y125.522 E11.48507
G1 X128.247 Y126.001 E11.50797
G1 X126.038 Y128.218 E11.62248
G1 X125.625 Y128.576 E11.64247
G1 X125.093 Y128.907 E11.6654
G1 X122.308 Y130.332 E11.77985
G1 X121.804 Y130.545 E11.79987
G1 X121.196 Y130.696 E11.82279
G1 X118.109 Y131.191 E11.93717
G1 X117.565 Y131.238 E11.95715
G1 X116.938 Y131.193 E11.98015
G1 X113.849 Y130.709 E12.09454
G1 X113.317 Y130.585 E12.11453
G1 X112.735 Y130.349 E12.13751
G1 X109.946 Y128.933 E12.25194
G1 X109.478 Y128.65 E12.27195
G1 X108.999 Y128.247 E12.29485
G1 X106.782 Y126.038 E12.40936
G1 X106.424 Y125.625 E12.42935
G1 X106.093 Y125.093 E12.45228
G1 X104.668 Y122.308 E12.56673
G1 X104.455 Y121.804 E12.58675
G1 X104.304 Y121.196 E12.60967
G1 X103.809 Y118.109 E12.72406
G1 X103.762 Y117.565 E12.74403
G1 X103.807 Y116.938 E12.76703
G1 X104.291 Y113.849 E12.88143
G1 X104.415 Y113.317 E12.90141
G1 X104.651 Y112.735 E12.92439
G1 X106.067 Y109.946 E13.03882
G1 X106.35 Y109.478 E13.05883
G1 X106.753 Y108.999 E13.08174
G1 X108.449 Y107.297 E13.16964
G0 F810 X108.962 Y106.782
M204 S5000
M205 X30 Y30
G0 F7200 X109.273 Y107.093
M204 S500
M205 X20 Y20
G1 F6000 E13.19624
G1 F900 X109.663 Y106.758 E13.21505
G1 X110.108 Y106.484 E13.23417
G1 X112.893 Y105.059 E13.34863
G1 X113.367 Y104.862 E13.36741
G1 X113.874 Y104.739 E13.38649
G1 X116.961 Y104.244 E13.50088
G1 X117.472 Y104.202 E13.51964
G1 X117.994 Y104.242 E13.53879
G1 X121.083 Y104.726 E13.65318
G1 X121.582 Y104.844 E13.67194
G1 X122.066 Y105.044 E13.6911
G1 X124.855 Y106.46 E13.80554
G1 X125.293 Y106.727 E13.82431
G1 X125.69 Y107.064 E13.84336
G1 X127.907 Y109.273 E13.95786
G1 X128.242 Y109.663 E13.97667
G1 X128.516 Y110.108 E13.99579
G1 X129.941 Y112.893 E14.11025
G1 X130.138 Y113.367 E14.12903
G1 X130.261 Y113.874 E14.14812
G1 X130.756 Y116.961 E14.2625
G1 X130.798 Y117.472 E14.28126
G1 X130.758 Y117.994 E14.30041
G1 X130.274 Y121.083 E14.41481
G1 X130.156 Y121.582 E14.43357
G1 X129.956 Y122.066 E14.45273
G1 X128.54 Y124.855 E14.56716
G1 X128.273 Y125.293 E14.58593
G1 X127.936 Y125.69 E14.60498
G1 X125.727 Y127.907 E14.71948
G1 X125.337 Y128.242 E14.73829
G1 X124.892 Y128.516 E14.75741
G1 X122.107 Y129.941 E14.87187
G1 X121.633 Y130.138 E14.89065
G1 X121.126 Y130.261 E14.90974
G1 X118.039 Y130.756 E15.02412
G1 X117.528 Y130.798 E15.04288
G1 X117.006 Y130.758 E15.06203
G1 X113.917 Y130.274 E15.17643
G1 X113.418 Y130.156 E15.19519
G1 X112.934 Y129.956 E15.21435
G1 X110.145 Y128.54 E15.32878
G1 X109.707 Y128.273 E15.34755
G1 X109.31 Y127.936 E15.3666
G1 X107.093 Y125.727 E15.48111
G1 X106.758 Y125.337 E15.49992
G1 X106.484 Y124.892 E15.51903
G1 X105.059 Y122.107 E15.63349
G1 X104.862 Y121.633 E15.65227
G1 X104.739 Y121.126 E15.67136
G1 X104.244 Y118.039 E15.78574
G1 X104.202 Y117.528 E15.8045
G1 X104.242 Y117.006 E15.82365
G1 X104.726 Y113.917 E15.93805
G1 X104.844 Y113.418 E15.95681
G1 X105.044 Y112.934 E15.97597
G1 X106.46 Y110.145 E16.0904
G1 X106.727 Y109.707 E16.10917
G1 X107.064 Y109.31 E16.12822
G1 X108.76 Y107.608 E16.21613
G0 F810 X109.273 Y107.093
M204 S5000
M205 X30 Y30
G0 F7200 X109.585 Y107.403
M204 S500
M205 X20 Y20
G1 F6000 E16.24273
G1 F900 X109.949 Y107.094 E16.2602
G1 X110.308 Y106.876 E16.27557
G1 X113.093 Y105.451 E16.39002
G1 X113.535 Y105.27 E16.4075
G1 X113.943 Y105.173 E16.42284
G1 X117.03 Y104.678 E16.53722
G1 X117.507 Y104.642 E16.55472
G1 X117.926 Y104.676 E16.5701
G1 X121.015 Y105.16 E16.6845
G1 X121.479 Y105.274 E16.70198
G1 X121.867 Y105.436 E16.71736
G1 X124.656 Y106.852 E16.8318
G1 X125.062 Y107.103 E16.84926
G1 X125.38 Y107.376 E16.8646
G1 X127.597 Y109.585 E16.9791
G1 X127.906 Y109.949 E16.99657
G1 X128.124 Y110.308 E17.01193
G1 X129.549 Y113.093 E17.12639
G1 X129.73 Y113.535 E17.14386
G1 X129.827 Y113.943 E17.15921
G1 X130.322 Y117.03 E17.27359
G1 X130.358 Y117.507 E17.29109
G1 X130.324 Y117.926 E17.30647
G1 X129.84 Y121.015 E17.42087
G1 X129.726 Y121.479 E17.43835
G1 X129.564 Y121.867 E17.45373
G1 X128.148 Y124.656 E17.56817
G1 X127.897 Y125.062 E17.58563
G1 X127.624 Y125.38 E17.60096
G1 X125.415 Y127.597 E17.71546
G1 X125.051 Y127.906 E17.73293
G1 X124.692 Y128.124 E17.7483
G1 X121.907 Y129.549 E17.86276
G1 X121.465 Y129.73 E17.88023
G1 X121.057 Y129.827 E17.89557
G1 X117.97 Y130.322 E18.00996
G1 X117.493 Y130.358 E18.02746
G1 X117.074 Y130.324 E18.04284
G1 X113.985 Y129.84 E18.15723
G1 X113.521 Y129.726 E18.17471
G1 X113.133 Y129.564 E18.1901
G1 X110.344 Y128.148 E18.30453
G1 X109.938 Y127.897 E18.322
G1 X109.62 Y127.624 E18.33733
G1 X107.403 Y125.415 E18.45183
G1 X107.094 Y125.051 E18.4693
G1 X106.876 Y124.692 E18.48467
G1 X105.451 Y121.907 E18.59912
G1 X105.27 Y121.465 E18.6166
G1 X105.173 Y121.057 E18.63194
G1 X104.678 Y117.97 E18.74633
G1 X104.642 Y117.493 E18.76383
G1 X104.676 Y117.074 E18.77921
G1 X105.16 Y113.985 E18.8936
G1 X105.274 Y113.521 E18.91108
G1 X105.436 Y113.133 E18.92646
G1 X106.852 Y110.344 E19.0409
G1 X107.103 Y109.938 E19.05836
G1 X107.376 Y109.62 E19.0737
G1 X109.072 Y107.918 E19.16161
G0 F810 X109.585 Y107.403
M204 S5000
M205 X30 Y30
G0 F7200 X109.897 Y107.714
M204 S500
M205 X20 Y20
G1 F6000 E19.1882
G1 F900 X110.234 Y107.432 E19.20428
G1 X110.509 Y107.268 E19.21599
G1 X113.294 Y105.843 E19.33045
G1 X113.702 Y105.679 E19.34654
G1 X114.013 Y105.608 E19.35821
G1 X117.1 Y105.113 E19.47259
G1 X117.538 Y105.083 E19.48866
G1 X117.858 Y105.111 E19.50041
G1 X120.947 Y105.595 E19.6148
G1 X121.373 Y105.702 E19.63087
G1 X121.668 Y105.828 E19.64261
G1 X124.457 Y107.244 E19.75704
G1 X124.829 Y107.478 E19.77312
G1 X125.069 Y107.688 E19.78479
G1 X127.286 Y109.897 E19.89929
G1 X127.568 Y110.234 E19.91537
G1 X127.732 Y110.509 E19.92708
G1 X129.157 Y113.294 E20.04154
G1 X129.321 Y113.702 E20.05763
G1 X129.392 Y114.013 E20.0693
G1 X129.887 Y117.1 E20.18368
G1 X129.917 Y117.538 E20.19975
G1 X129.889 Y117.858 E20.2115
G1 X129.405 Y120.947 E20.32589
G1 X129.298 Y121.373 E20.34196
G1 X129.172 Y121.668 E20.3537
G1 X127.756 Y124.457 E20.46813
G1 X127.522 Y124.829 E20.48421
G1 X127.312 Y125.069 E20.49588
G1 X125.103 Y127.286 E20.61038
G1 X124.766 Y127.568 E20.62646
G1 X124.491 Y127.732 E20.63817
G1 X121.706 Y129.157 E20.75263
G1 X121.298 Y129.321 E20.76872
G1 X120.987 Y129.392 E20.78039
G1 X117.9 Y129.887 E20.89477
G1 X117.462 Y129.917 E20.91084
G1 X117.142 Y129.889 E20.92259
G1 X114.053 Y129.405 E21.03698
G1 X113.627 Y129.298 E21.05305
G1 X113.332 Y129.172 E21.06479
G1 X110.543 Y127.756 E21.17922
G1 X110.171 Y127.522 E21.1953
G1 X109.931 Y127.312 E21.20697
G1 X107.714 Y125.103 E21.32147
G1 X107.432 Y124.766 E21.33755
G1 X107.268 Y124.491 E21.34926
G1 X105.843 Y121.706 E21.46372
G1 X105.679 Y121.298 E21.47981
G1 X105.608 Y120.987 E21.49148
G1 X105.113 Y117.9 E21.60586
G1 X105.083 Y117.462 E21.62192
G1 X105.111 Y117.142 E21.63368
G1 X105.595 Y114.053 E21.74807
G1 X105.702 Y113.627 E21.76414
G1 X105.828 Y113.332 E21.77588
G1 X107.244 Y110.543 E21.89031
G1 X107.478 Y110.171 E21.90639
G1 X107.688 Y109.931 E21.91806
G1 X109.384 Y108.229 E22.00597
G0 F810 X109.897 Y107.714
M204 S5000
M205 X30 Y30
G0 F7200 X110.208 Y108.024
M204 S500
M205 X20 Y20
G1 F6000 E22.03257
G1 F900 X110.516 Y107.772 E22.04712
G1 X110.709 Y107.659 E22.05531
G1 X113.494 Y106.234 E22.16976
G1 X113.864 Y106.09 E22.18429
G1 X114.083 Y106.042 E22.19249
G1 X117.17 Y105.547 E22.30688
G1 X117.566 Y105.524 E22.32139
G1 X117.789 Y105.546 E22.32959
G1 X120.878 Y106.03 E22.44398
G1 X121.263 Y106.131 E22.45854
G1 X121.468 Y106.221 E22.46673
G1 X124.257 Y107.637 E22.58117
G1 X124.592 Y107.851 E22.59571
G1 X124.759 Y107.999 E22.60388
G1 X126.976 Y110.208 E22.71838
G1 X127.228 Y110.516 E22.73294
G1 X127.341 Y110.709 E22.74112
G1 X128.766 Y113.494 E22.85558
G1 X128.91 Y113.864 E22.8701
G1 X128.958 Y114.083 E22.87831
G1 X129.453 Y117.17 E22.99269
G1 X129.476 Y117.566 E23.0072
G1 X129.454 Y117.789 E23.0154
G1 X128.97 Y120.878 E23.12979
G1 X128.869 Y121.263 E23.14436
G1 X128.779 Y121.468 E23.15255
G1 X127.363 Y124.257 E23.26699
G1 X127.149 Y124.592 E23.28153
G1 X127.001 Y124.759 E23.28969
G1 X124.792 Y126.976 E23.40419
G1 X124.484 Y127.228 E23.41875
G1 X124.291 Y127.341 E23.42694
G1 X121.506 Y128.766 E23.54139
G1 X121.136 Y128.91 E23.55592
G1 X120.917 Y128.958 E23.56412
G1 X117.83 Y129.453 E23.67851
G1 X117.434 Y129.476 E23.69302
G1 X117.211 Y129.454 E23.70122
G1 X114.122 Y128.97 E23.81561
G1 X113.737 Y128.869 E23.83017
G1 X113.532 Y128.779 E23.83836
G1 X110.743 Y127.363 E23.9528
G1 X110.408 Y127.149 E23.96734
G1 X110.241 Y127.001 E23.97551
G1 X108.024 Y124.792 E24.09001
G1 X107.772 Y124.484 E24.10457
G1 X107.659 Y124.291 E24.11275
G1 X106.234 Y121.506 E24.22721
G1 X106.09 Y121.136 E24.24173
