;FLAVOR:Marlin
;TIME:10362
;Filament used: 8.41233m
;Layer height: 0.2
;Generated with Cura_SteamEngine 3.6.0
M140 S70
M105
M190 S70
M104 S215
M105
M109 S215
M82 ;absolute extrusion mode
G28 ; home all axes
M117 Purge extruder
G92 E0 ; reset extruder
G1 Z1.0 F3000 ; move z up little to prevent scratching of surface
G1 X0.1 Y20 Z0.3 F5000.0 ; move to start-line position G1 X0.1 Y200.0 Z0.3 F1500.0 E15 ; draw 1st line
G1 X0.4 Y200.0 Z0.3 F5000.0 ; move to side a little
G1 X0.4 Y20 Z0.3 F1500.0 E30 ; draw 2nd line
G92 E0 ; reset extruder
G1 Z1.0 F3000 ; move z up little to prevent scratching of surface
M117 All systems go!
G92 E0
G1 F6000 E-5
;LAYER_COUNT:16
;LAYER:0
M107
M204 S5000
M205 X30 Y30
G0 F7200 X36.35 Y58.144 Z0.2
M204 S500
M205 X20 Y20
;TYPE:SKIRT
G1 F6000 E0
G1 F900 X36.917 Y57.856 E0.02327
G1 X37.515 Y57.64 E0.04653
G1 X38.136 Y57.502 E0.0698
G1 X38.925 Y57.44 E0.09876
G1 X75.911 Y57.44 E1.45193
G1 X76.546 Y57.48 E1.47521
G1 X77.17 Y57.599 E1.49845
G1 X77.775 Y57.796 E1.52173
G1 X78.35 Y58.067 E1.54499
G1 X78.887 Y58.408 E1.56826
G1 X79.377 Y58.813 E1.59152
G1 X79.812 Y59.277 E1.61479
G1 X80.185 Y59.792 E1.63805
G1 X80.491 Y60.35 E1.66134
G1 X80.802 Y61.203 E1.69455
G1 X80.889 Y61.531 E1.70697
G1 X81.013 Y62.154 E1.73021
G1 X81.058 Y62.789 E1.7535
G1 X81.023 Y63.424 E1.77677
G1 X80.908 Y64.049 E1.80002
G1 X80.716 Y64.656 E1.82331
G1 X80.45 Y65.233 E1.84656
G1 X80.113 Y65.772 E1.86981
G1 X79.711 Y66.265 E1.89309
G1 X79.251 Y66.704 E1.91635
G1 X78.497 Y67.228 E1.94994
G1 X62.745 Y76.176 E2.61274
G1 X62.745 Y120.489 E4.23398
G1 X99.32 Y120.489 E5.57212
G1 X101.004 Y118.373 E5.67106
G1 X101.431 Y117.901 E5.69435
G1 X101.913 Y117.487 E5.71759
G1 X102.443 Y117.136 E5.74085
G1 X103.014 Y116.855 E5.76414
G1 X103.615 Y116.647 E5.7874
G1 X104.237 Y116.516 E5.81066
G1 X104.972 Y116.464 E5.83762
G1 X130.137 Y116.508 E6.75831
G1 X130.771 Y116.549 E6.78155
G1 X131.396 Y116.669 E6.80484
G1 X132 Y116.867 E6.82809
G1 X132.575 Y117.139 E6.85136
G1 X133.111 Y117.481 E6.87463
G1 X133.6 Y117.887 E6.89788
G1 X134.114 Y118.451 E6.9258
G1 X135.708 Y120.489 E7.02046
G1 X172.255 Y120.489 E8.35757
G1 X172.255 Y76.176 E9.97881
G1 X156.503 Y67.228 E10.64161
G1 X155.971 Y66.879 E10.66489
G1 X155.486 Y66.467 E10.68817
G1 X155.058 Y65.998 E10.7114
G1 X154.691 Y65.478 E10.73469
G1 X154.393 Y64.916 E10.75796
G1 X154.167 Y64.322 E10.78121
G1 X154.018 Y63.703 E10.80451
G1 X153.948 Y63.071 E10.82777
G1 X153.957 Y62.435 E10.85104
G1 X154.111 Y61.531 E10.88459
G1 X154.198 Y61.203 E10.89701
G1 X154.399 Y60.6 E10.92026
G1 X154.675 Y60.026 E10.94356
G1 X155.02 Y59.492 E10.96682
G1 X155.429 Y59.006 E10.99006
G1 X155.897 Y58.574 E11.01337
G1 X156.414 Y58.205 E11.0366
G1 X156.974 Y57.903 E11.05988
G1 X157.567 Y57.674 E11.08314
G1 X158.185 Y57.521 E11.10643
G1 X159.089 Y57.44 E11.13964
G1 X196.075 Y57.44 E12.49281
G1 X196.71 Y57.48 E12.51609
G1 X197.334 Y57.599 E12.53933
G1 X197.939 Y57.796 E12.56261
G1 X198.514 Y58.067 E12.58587
G1 X199.051 Y58.408 E12.60914
G1 X199.653 Y58.922 E12.6381
G1 X199.782 Y59.051 E12.64478
G1 X200.202 Y59.528 E12.66803
G1 X200.56 Y60.054 E12.69131
G1 X200.848 Y60.621 E12.71457
G1 X201.064 Y61.219 E12.73784
G1 X201.202 Y61.84 E12.76111
G1 X201.264 Y62.629 E12.79007
G1 X201.264 Y145.977 E15.83945
G1 X202.371 Y145.977 E15.87995
G1 X203.006 Y146.017 E15.90323
G1 X203.63 Y146.136 E15.92647
G1 X204.235 Y146.333 E15.94975
G1 X204.81 Y146.604 E15.973
G1 X205.347 Y146.945 E15.99628
G1 X205.949 Y147.459 E16.02524
G1 X206.078 Y147.588 E16.03191
G1 X206.498 Y148.065 E16.05516
G1 X206.856 Y148.591 E16.07844
G1 X207.144 Y149.158 E16.10171
G1 X207.36 Y149.756 E16.12497
G1 X207.498 Y150.377 E16.14825
G1 X207.56 Y151.166 E16.1772
G1 X207.56 Y153.591 E16.26592
G1 X207.52 Y154.226 E16.2892
G1 X207.401 Y154.85 E16.31244
G1 X207.204 Y155.455 E16.33572
G1 X206.933 Y156.03 E16.35898
G1 X206.592 Y156.567 E16.38225
G1 X206.078 Y157.169 E16.41121
G1 X205.949 Y157.298 E16.41789
G1 X205.472 Y157.718 E16.44114
G1 X204.946 Y158.076 E16.46442
G1 X204.379 Y158.364 E16.48768
G1 X203.781 Y158.58 E16.51095
G1 X203.16 Y158.718 E16.53422
G1 X202.371 Y158.78 E16.56318
G1 X162.604 Y158.78 E18.0181
G1 X127.065 Y173.916 E19.43135
G1 X127.002 Y174.032 E19.43618
G1 X126.632 Y174.548 E19.45941
G1 X126.199 Y175.015 E19.48271
G1 X125.613 Y175.494 E19.5104
G1 X123.964 Y176.647 E19.58401
G1 X123.42 Y176.978 E19.60731
G1 X122.84 Y177.238 E19.63056
G1 X122.232 Y177.423 E19.65382
G1 X121.605 Y177.531 E19.67709
G1 X121.049 Y177.56 E19.69746
G1 X113.853 Y177.539 E19.96074
G1 X113.219 Y177.497 E19.98398
G1 X112.594 Y177.376 E20.00727
G1 X111.99 Y177.178 E20.03053
G1 X111.416 Y176.905 E20.05378
G1 X110.925 Y176.595 E20.07503
G1 X109.342 Y175.463 E20.14623
G1 X108.849 Y175.061 E20.1695
G1 X108.41 Y174.601 E20.19277
G1 X108.032 Y174.089 E20.21605
G1 X107.942 Y173.928 E20.2228
G1 X72.394 Y158.78 E21.63652
G1 X32.629 Y158.78 E23.09137
G1 X31.994 Y158.74 E23.11465
G1 X31.37 Y158.621 E23.13789
G1 X30.765 Y158.424 E23.16117
G1 X30.19 Y158.153 E23.18442
G1 X29.653 Y157.812 E23.2077
G1 X29.051 Y157.298 E23.23666
G1 X28.922 Y157.169 E23.24333
G1 X28.502 Y156.692 E23.26659
G1 X28.144 Y156.166 E23.28986
G1 X27.856 Y155.599 E23.31313
G1 X27.64 Y155.001 E23.33639
G1 X27.502 Y154.38 E23.35967
G1 X27.44 Y153.591 E23.38862
G1 X27.44 Y151.166 E23.47734
G1 X27.48 Y150.531 E23.50062
G1 X27.599 Y149.907 E23.52386
G1 X27.796 Y149.302 E23.54714
G1 X28.067 Y148.727 E23.5704
G1 X28.408 Y148.19 E23.59367
G1 X28.922 Y147.588 E23.62263
G1 X29.051 Y147.459 E23.62931
G1 X29.528 Y147.039 E23.65256
G1 X30.054 Y146.681 E23.67584
G1 X30.621 Y146.393 E23.69911
G1 X31.219 Y146.177 E23.72237
G1 X31.84 Y146.039 E23.74564
G1 X32.629 Y145.977 E23.7746
G1 X33.736 Y145.977 E23.8151
G1 X33.736 Y62.629 E26.86448
G1 X33.776 Y61.994 E26.88776
G1 X33.895 Y61.37 E26.911
G1 X34.092 Y60.765 E26.93428
G1 X34.363 Y60.19 E26.95753
G1 X34.704 Y59.653 E26.98081
G1 X35.218 Y59.051 E27.00977
G1 X35.347 Y58.922 E27.01644
G1 X35.756 Y58.562 E27.03638
G0 F810 X35.824 Y58.502
G0 X36.35 Y58.144
M204 S5000
M205 X30 Y30
G0 F7200 X36.621 Y58.496
M204 S500
M205 X20 Y20
G1 F6000 E27.06298
G1 F900 X37.166 Y58.228 E27.0852
G1 X37.742 Y58.034 E27.10743
G1 X38.338 Y57.917 E27.12965
G1 X38.925 Y57.88 E27.15117
G1 X75.911 Y57.88 E28.50435
G1 X76.517 Y57.92 E28.52657
G1 X77.113 Y58.039 E28.5488
G1 X77.688 Y58.235 E28.57103
G1 X78.232 Y58.506 E28.59326
G1 X78.737 Y58.845 E28.61552
G1 X79.192 Y59.247 E28.63773
G1 X79.59 Y59.706 E28.65996
G1 X79.925 Y60.213 E28.68219
G1 X80.191 Y60.759 E28.70441
G1 X80.377 Y61.316 E28.7259
G1 X80.464 Y61.644 E28.73831
G1 X80.58 Y62.24 E28.76053
G1 X80.618 Y62.846 E28.78274
G1 X80.576 Y63.452 E28.80496
G1 X80.454 Y64.048 E28.82722
G1 X80.255 Y64.622 E28.84945
G1 X79.983 Y65.165 E28.87167
G1 X79.642 Y65.668 E28.8939
G1 X79.238 Y66.122 E28.91614
G1 X78.778 Y66.518 E28.93834
G1 X78.28 Y66.845 E28.96014
G1 X62.305 Y75.92 E29.63233
G1 X62.305 Y120.929 E31.27903
G1 X99.531 Y120.929 E32.64099
G1 X101.348 Y118.647 E32.74771
G1 X101.757 Y118.197 E32.76996
G1 X102.222 Y117.805 E32.79221
G1 X102.733 Y117.478 E32.8144
G1 X103.284 Y117.22 E32.83666
G1 X103.863 Y117.037 E32.85888
G1 X104.461 Y116.931 E32.8811
G1 X104.971 Y116.904 E32.89979
G1 X130.136 Y116.948 E33.82048
G1 X130.742 Y116.989 E33.8427
G1 X131.338 Y117.109 E33.86494
G1 X131.913 Y117.307 E33.88719
G1 X132.456 Y117.578 E33.90939
G1 X132.96 Y117.918 E33.93164
G1 X133.414 Y118.321 E33.95385
G1 X133.767 Y118.722 E33.97339
G1 X135.493 Y120.929 E34.0759
G1 X172.695 Y120.929 E35.43698
G1 X172.695 Y75.92 E37.08368
G1 X156.72 Y66.845 E37.75587
G1 X156.213 Y66.511 E37.77808
G1 X155.753 Y66.113 E37.80034
G1 X155.35 Y65.658 E37.82257
G1 X155.011 Y65.155 E37.84477
G1 X154.74 Y64.611 E37.867
G1 X154.543 Y64.036 E37.88924
G1 X154.423 Y63.44 E37.91148
G1 X154.382 Y62.834 E37.9337
G1 X154.421 Y62.228 E37.95592
G1 X154.536 Y61.644 E37.9777
G1 X154.623 Y61.316 E37.99011
G1 X154.817 Y60.74 E38.01235
G1 X155.085 Y60.194 E38.0346
G1 X155.423 Y59.689 E38.05683
G1 X155.823 Y59.232 E38.07905
G1 X156.28 Y58.832 E38.10127
G1 X156.786 Y58.495 E38.12352
G1 X157.332 Y58.227 E38.14577
G1 X157.907 Y58.034 E38.16796
G1 X158.504 Y57.917 E38.19022
G1 X159.089 Y57.88 E38.21166
G1 X196.075 Y57.88 E39.56484
G1 X196.681 Y57.92 E39.58706
G1 X197.277 Y58.039 E39.60929
G1 X197.852 Y58.235 E39.63152
G1 X198.396 Y58.506 E39.65376
G1 X198.901 Y58.845 E39.67601
G1 X199.342 Y59.233 E39.6975
G1 X199.471 Y59.362 E39.70417
G1 X199.871 Y59.819 E39.72639
G1 X200.208 Y60.325 E39.74864
G1 X200.476 Y60.87 E39.77086
G1 X200.67 Y61.446 E39.79309
G1 X200.787 Y62.042 E39.81531
G1 X200.824 Y62.629 E39.83683
G1 X200.824 Y146.417 E42.90231
G1 X202.371 Y146.417 E42.95891
G1 X202.977 Y146.457 E42.98113
G1 X203.573 Y146.576 E43.00337
G1 X204.148 Y146.772 E43.02559
G1 X204.692 Y147.043 E43.04783
G1 X205.197 Y147.382 E43.07008
G1 X205.638 Y147.77 E43.09157
G1 X205.767 Y147.899 E43.09825
G1 X206.167 Y148.356 E43.12047
G1 X206.504 Y148.862 E43.14271
G1 X206.772 Y149.407 E43.16493
G1 X206.966 Y149.983 E43.18716
G1 X207.083 Y150.579 E43.20939
G1 X207.12 Y151.166 E43.2309
G1 X207.12 Y153.591 E43.31963
G1 X207.08 Y154.197 E43.34185
G1 X206.961 Y154.793 E43.36408
G1 X206.765 Y155.368 E43.38631
G1 X206.494 Y155.912 E43.40854
G1 X206.155 Y156.417 E43.4308
G1 X205.767 Y156.858 E43.45229
G1 X205.638 Y156.987 E43.45896
G1 X205.181 Y157.387 E43.48118
G1 X204.675 Y157.724 E43.50342
G1 X204.13 Y157.992 E43.52564
G1 X203.554 Y158.186 E43.54788
G1 X202.958 Y158.303 E43.5701
G1 X202.371 Y158.34 E43.59162
G1 X162.516 Y158.34 E45.04976
G1 X126.752 Y173.571 E46.47194
G1 X126.541 Y173.934 E46.48731
G1 X126.168 Y174.414 E46.50955
G1 X125.736 Y174.841 E46.53177
G1 X125.36 Y175.133 E46.54919
G1 X123.711 Y176.286 E46.6228
G1 X123.192 Y176.601 E46.64501
G1 X122.635 Y176.845 E46.66726
G1 X122.051 Y177.013 E46.68949
G1 X121.45 Y177.104 E46.71173
G1 X121.051 Y177.12 E46.72634
G1 X113.855 Y177.099 E46.98962
G1 X113.248 Y177.057 E47.01188
G1 X112.653 Y176.936 E47.03409
G1 X112.078 Y176.738 E47.05634
G1 X111.535 Y176.467 E47.07855
G1 X111.181 Y176.237 E47.09399
G1 X109.598 Y175.105 E47.16519
G1 X109.128 Y174.72 E47.18742
G1 X108.712 Y174.276 E47.20968
G1 X108.359 Y173.782 E47.23189
G1 X108.252 Y173.581 E47.24022
G1 X72.485 Y158.34 E48.66265
G1 X32.629 Y158.34 E50.12083
G1 X32.023 Y158.3 E50.14305
G1 X31.427 Y158.181 E50.16529
G1 X30.852 Y157.985 E50.18751
G1 X30.308 Y157.714 E50.20975
G1 X29.803 Y157.375 E50.232
G1 X29.362 Y156.987 E50.25349
G1 X29.233 Y156.858 E50.26016
G1 X28.833 Y156.401 E50.28238
G1 X28.496 Y155.895 E50.30463
G1 X28.228 Y155.35 E50.32685
G1 X28.034 Y154.774 E50.34908
G1 X27.917 Y154.178 E50.3713
G1 X27.88 Y153.591 E50.39282
G1 X27.88 Y151.166 E50.48154
G1 X27.92 Y150.56 E50.50376
G1 X28.039 Y149.964 E50.526
G1 X28.235 Y149.389 E50.54823
G1 X28.506 Y148.845 E50.57046
G1 X28.845 Y148.34 E50.59271
G1 X29.233 Y147.899 E50.6142
G1 X29.362 Y147.77 E50.62088
G1 X29.819 Y147.37 E50.6431
G1 X30.325 Y147.033 E50.66534
G1 X30.87 Y146.765 E50.68756
G1 X31.446 Y146.571 E50.7098
G1 X32.042 Y146.454 E50.73202
G1 X32.629 Y146.417 E50.75354
G1 X34.176 Y146.417 E50.81014
G1 X34.176 Y62.629 E53.87562
G1 X34.216 Y62.023 E53.89784
G1 X34.335 Y61.427 E53.92007
G1 X34.531 Y60.852 E53.9423
G1 X34.802 Y60.308 E53.96453
G1 X35.141 Y59.803 E53.98679
G1 X35.529 Y59.362 E54.00828
G1 X35.658 Y59.233 E54.01495
G1 X36.025 Y58.912 E54.03279
G0 F810 X36.115 Y58.833
G0 X36.621 Y58.496
M204 S5000
M205 X30 Y30
G0 F7200 X36.889 Y58.849
M204 S500
M205 X20 Y20
G1 F6000 E54.05939
G1 F900 X37.412 Y58.603 E54.08053
G1 X37.964 Y58.432 E54.10168
G1 X38.535 Y58.338 E54.12285
G1 X38.925 Y58.32 E54.13713
G1 X75.911 Y58.32 E55.49031
G1 X76.488 Y58.36 E55.51147
G1 X77.053 Y58.479 E55.53259
G1 X77.597 Y58.675 E55.55375
G1 X78.108 Y58.944 E55.57488
G1 X78.578 Y59.281 E55.59603
G1 X78.996 Y59.68 E55.61718
G1 X79.356 Y60.132 E55.63832
G1 X79.649 Y60.63 E55.65946
G1 X79.951 Y61.428 E55.69067
G1 X80.038 Y61.756 E55.70309
G1 X80.147 Y62.324 E55.72425
G1 X80.177 Y62.901 E55.74539
G1 X80.127 Y63.477 E55.76654
G1 X79.998 Y64.04 E55.78767
G1 X79.793 Y64.58 E55.8088
G1 X79.515 Y65.087 E55.82996
G1 X79.17 Y65.551 E55.85111
G1 X78.764 Y65.962 E55.87225
G1 X78.063 Y66.463 E55.90377
G1 X61.865 Y75.665 E56.58535
G1 X61.865 Y121.369 E58.25748
G1 X99.744 Y121.369 E59.64333
G1 X101.693 Y118.921 E59.75781
G1 X102.083 Y118.495 E59.77894
G1 X102.528 Y118.126 E59.80009
G1 X103.02 Y117.823 E59.82123
G1 X103.549 Y117.59 E59.84238
G1 X104.105 Y117.433 E59.86352
G1 X104.678 Y117.354 E59.88468
G1 X104.97 Y117.344 E59.89537
G1 X130.135 Y117.388 E60.81606
G1 X130.712 Y117.429 E60.83722
G1 X131.277 Y117.549 E60.85836
G1 X131.82 Y117.746 E60.87949
G1 X132.331 Y118.016 E60.90063
G1 X132.8 Y118.354 E60.92179
G1 X133.218 Y118.753 E60.94293
G1 X133.421 Y118.993 E60.95443
G1 X135.279 Y121.369 E61.06478
G1 X173.135 Y121.369 E62.44978
G1 X173.135 Y75.665 E64.12192
G1 X156.937 Y66.463 E64.80349
G1 X156.456 Y66.143 E64.82463
G1 X156.023 Y65.76 E64.84578
G1 X155.647 Y65.321 E64.86693
G1 X155.335 Y64.835 E64.88806
G1 X155.093 Y64.31 E64.90921
G1 X154.926 Y63.756 E64.93038
G1 X154.837 Y63.185 E64.95152
G1 X154.828 Y62.608 E64.97263
G1 X154.962 Y61.756 E65.00419
G1 X155.049 Y61.428 E65.0166
G1 X155.235 Y60.881 E65.03774
G1 X155.495 Y60.365 E65.05888
G1 X155.824 Y59.89 E65.08002
G1 X156.215 Y59.465 E65.10115
G1 X156.661 Y59.097 E65.1223
G1 X157.154 Y58.795 E65.14345
G1 X157.683 Y58.563 E65.16459
G1 X158.24 Y58.407 E65.18575
G1 X159.089 Y58.32 E65.21698
G1 X196.075 Y58.32 E66.57015
G1 X196.652 Y58.36 E66.59131
G1 X197.217 Y58.479 E66.61244
G1 X197.761 Y58.675 E66.63359
G1 X198.272 Y58.944 E66.65472
G1 X198.742 Y59.281 E66.67588
G1 X199.031 Y59.544 E66.69017
G1 X199.16 Y59.673 E66.69685
G1 X199.539 Y60.109 E66.71798
G1 X199.855 Y60.593 E66.73913
G1 X200.101 Y61.116 E66.76028
G1 X200.272 Y61.668 E66.78142
G1 X200.366 Y62.239 E66.80259
G1 X200.384 Y62.629 E66.81688
G1 X200.384 Y146.857 E69.89845
G1 X202.371 Y146.857 E69.97115
G1 X202.948 Y146.897 E69.99231
G1 X203.513 Y147.016 E70.01344
G1 X204.057 Y147.212 E70.03459
G1 X204.568 Y147.481 E70.05572
G1 X205.038 Y147.818 E70.07688
G1 X205.327 Y148.081 E70.09117
G1 X205.456 Y148.21 E70.09785
G1 X205.835 Y148.646 E70.11898
G1 X206.151 Y149.13 E70.14013
G1 X206.397 Y149.653 E70.16128
G1 X206.568 Y150.205 E70.18242
G1 X206.662 Y150.776 E70.20359
G1 X206.68 Y151.166 E70.21788
G1 X206.68 Y153.591 E70.3066
G1 X206.64 Y154.168 E70.32776
G1 X206.521 Y154.733 E70.34888
G1 X206.325 Y155.277 E70.37004
G1 X206.056 Y155.788 E70.39117
G1 X205.719 Y156.258 E70.41233
G1 X205.456 Y156.547 E70.42662
G1 X205.327 Y156.676 E70.4333
G1 X204.891 Y157.055 E70.45443
G1 X204.407 Y157.371 E70.47558
G1 X203.884 Y157.617 E70.49672
G1 X203.332 Y157.788 E70.51787
G1 X202.761 Y157.882 E70.53904
G1 X202.371 Y157.9 E70.55332
G1 X162.426 Y157.9 E72.01476
G1 X126.439 Y173.226 E73.44581
G1 X126.388 Y173.338 E73.45031
G1 X126.078 Y173.826 E73.47146
G1 X125.704 Y174.267 E73.49262
G1 X125.108 Y174.773 E73.52122
G1 X123.459 Y175.926 E73.59484
G1 X122.964 Y176.223 E73.61596
G1 X122.432 Y176.45 E73.63712
G1 X121.874 Y176.601 E73.65827
G1 X121.052 Y176.68 E73.68848
G1 X113.856 Y176.659 E73.95176
G1 X113.279 Y176.617 E73.97292
G1 X112.714 Y176.497 E73.99405
G1 X112.171 Y176.299 E74.0152
G1 X111.437 Y175.879 E74.04614
G1 X109.854 Y174.747 E74.11734
G1 X109.408 Y174.379 E74.1385
G1 X109.017 Y173.953 E74.15965
G1 X108.689 Y173.478 E74.18077
G1 X108.568 Y173.238 E74.1906
G1 X72.575 Y157.9 E75.62203
G1 X32.629 Y157.9 E77.0835
G1 X32.052 Y157.86 E77.10466
G1 X31.487 Y157.741 E77.12579
G1 X30.943 Y157.545 E77.14694
G1 X30.432 Y157.276 E77.16807
G1 X29.962 Y156.939 E77.18923
G1 X29.673 Y156.676 E77.20352
G1 X29.544 Y156.547 E77.2102
G1 X29.165 Y156.111 E77.23133
G1 X28.849 Y155.627 E77.25248
G1 X28.603 Y155.104 E77.27363
G1 X28.432 Y154.552 E77.29477
G1 X28.338 Y153.981 E77.31594
G1 X28.32 Y153.591 E77.33022
G1 X28.32 Y151.166 E77.41895
G1 X28.36 Y150.589 E77.44011
G1 X28.479 Y150.024 E77.46123
G1 X28.675 Y149.48 E77.48239
G1 X28.944 Y148.969 E77.50351
G1 X29.281 Y148.499 E77.52467
G1 X29.544 Y148.21 E77.53897
