;FLAVOR:Marlin
;TIME:9026
;Filament used: 6.76911m
;Layer height: 0.16
;Generated with Cura_SteamEngine 3.6.0
M140 S70
M105
M190 S70
M104 S215
M105
M109 S215
M82 ;absolute extrusion mode
G28 ; home all axes
M117 Purge extruder
G92 E0 ; reset extruder
G1 Z1.0 F3000 ; move z up little to prevent scratching of surface
G1 X0.1 Y20 Z0.3 F5000.0 ; move to start-line position G1 X0.1 Y200.0 Z0.3 F1500.0 E15 ; draw 1st line
G1 X0.4 Y200.0 Z0.3 F5000.0 ; move to side a little
G1 X0.4 Y20 Z0.3 F1500.0 E30 ; draw 2nd line
G92 E0 ; reset extruder
G1 Z1.0 F3000 ; move z up little to prevent scratching of surface
M117 All systems go!
G92 E0
G1 F6000 E-5
;LAYER_COUNT:219
;LAYER:0
M107
M204 S5000
M205 X30 Y30
G0 F7200 X108.06 Y113.56 Z0.2
M204 S500
M205 X20 Y20
;TYPE:SKIRT
G1 F6000 E0
G1 F900 X108.06 Y119.643 E0.22255
G1 X108.023 Y120.235 E0.24425
G1 X108.442 Y120.531 E0.26302
G1 X108.911 Y120.961 E0.2863
G1 X109.322 Y121.446 E0.30956
G1 X109.669 Y121.979 E0.33283
G1 X109.946 Y122.552 E0.35612
G1 X110.074 Y122.901 E0.36972
G1 X110.159 Y123.162 E0.37976
G1 X110.318 Y123.778 E0.40303
G1 X110.38 Y124.271 E0.42121
G1 X110.484 Y123.697 E0.44256
G1 X110.674 Y123.091 E0.46579
G1 X110.939 Y122.512 E0.48909
G1 X111.274 Y121.972 E0.51234
G1 X111.674 Y121.478 E0.53559
G1 X111.763 Y121.393 E0.5401
G1 X111.64 Y121.054 E0.55329
G1 X111.502 Y120.433 E0.57656
G1 X111.44 Y119.644 E0.60552
G1 X111.44 Y113.56 E0.82811
G1 X108.787 Y113.56 E0.92517
G0 F810 X108.06 Y113.56
M204 S5000
M205 X30 Y30
G0 F7200 X107.62 Y113.12
M204 S500
M205 X20 Y20
G1 F6000 E0.95177
G1 F900 X107.62 Y119.643 E1.19042
G1 X107.58 Y120.249 E1.21264
G1 X107.538 Y120.458 E1.22044
G1 X107.851 Y120.641 E1.23371
G1 X108.331 Y121.014 E1.25595
G1 X108.758 Y121.446 E1.27817
G1 X109.124 Y121.931 E1.3004
G1 X109.423 Y122.459 E1.3226
G1 X109.656 Y123.037 E1.3454
G1 X109.741 Y123.298 E1.35544
G1 X109.891 Y123.887 E1.37768
G1 X109.962 Y124.491 E1.39993
G1 X109.953 Y125.098 E1.42214
G1 X109.865 Y125.699 E1.44436
G1 X109.741 Y126.16 E1.46183
G1 X109.542 Y126.771 E1.48534
G1 X109.316 Y127.335 E1.50757
G1 X109.018 Y127.864 E1.52978
G1 X108.654 Y128.35 E1.552
G1 X108.228 Y128.784 E1.57425
G1 X107.867 Y129.076 E1.59123
G1 X107.346 Y129.455 E1.6148
G1 X106.832 Y129.779 E1.63703
G1 X106.28 Y130.034 E1.65928
G1 X105.7 Y130.213 E1.68149
G1 X105.101 Y130.315 E1.70372
G1 X104.628 Y130.339 E1.72105
G1 X103.986 Y130.339 E1.74453
G1 X103.569 Y130.311 E1.75982
G1 X103.495 Y130.345 E1.7628
G1 X102.914 Y130.519 E1.78499
G1 X102.314 Y130.616 E1.80723
G1 X101.878 Y130.637 E1.8232
G1 X101.227 Y130.637 E1.84702
G1 X100.621 Y130.597 E1.86924
G1 X100.025 Y130.478 E1.89147
G1 X99.45 Y130.282 E1.9137
G1 X98.906 Y130.011 E1.93593
G1 X98.505 Y129.75 E1.95344
G1 X97.977 Y129.365 E1.97735
G1 X97.511 Y128.975 E1.99958
G1 X97.099 Y128.528 E2.02182
G1 X96.751 Y128.031 E2.04402
G1 X96.47 Y127.492 E2.06626
G1 X96.306 Y127.061 E2.08313
G1 X96.105 Y126.443 E2.1069
G1 X95.955 Y125.854 E2.12914
G1 X95.884 Y125.251 E2.15135
G1 X95.893 Y124.643 E2.1736
G1 X95.981 Y124.042 E2.19582
G1 X96.148 Y123.458 E2.21805
G1 X96.39 Y122.9 E2.2403
G1 X96.703 Y122.379 E2.26254
G1 X97.019 Y121.982 E2.2811
G1 X96.996 Y121.948 E2.2826
G1 X96.728 Y121.403 E2.30482
G1 X96.534 Y120.827 E2.32706
G1 X96.417 Y120.231 E2.34928
G1 X96.38 Y119.644 E2.3708
G1 X96.38 Y113.12 E2.60949
G1 X92.12 Y113.12 E2.76534
G1 X92.12 Y119.643 E3.004
G1 X92.08 Y120.249 E3.02622
G1 X91.994 Y120.677 E3.04219
G1 X92.238 Y120.829 E3.0527
G1 X92.708 Y121.215 E3.07496
G1 X93.122 Y121.659 E3.09717
G1 X93.475 Y122.154 E3.11941
G1 X93.759 Y122.691 E3.14163
G1 X93.938 Y123.155 E3.15983
G1 X94.078 Y123.586 E3.17641
G1 X94.227 Y124.175 E3.19864
G1 X94.298 Y124.778 E3.22085
G1 X94.289 Y125.386 E3.2431
G1 X94.2 Y125.987 E3.26533
G1 X94.079 Y126.438 E3.28241
G1 X93.878 Y127.058 E3.30626
G1 X93.653 Y127.622 E3.32847
G1 X93.356 Y128.152 E3.3507
G1 X92.992 Y128.639 E3.37294
G1 X92.567 Y129.073 E3.39517
G1 X92.205 Y129.366 E3.41221
G1 X91.677 Y129.751 E3.43611
G1 X91.164 Y130.076 E3.45833
G1 X90.612 Y130.331 E3.48058
G1 X90.032 Y130.511 E3.5028
G1 X89.433 Y130.613 E3.52503
G1 X88.955 Y130.638 E3.54254
G1 X88.303 Y130.638 E3.56639
G1 X87.697 Y130.598 E3.58861
G1 X87.101 Y130.479 E3.61085
G1 X86.728 Y130.352 E3.62527
G1 X86.633 Y130.361 E3.62876
G1 X86.025 Y130.379 E3.65101
G1 X85.421 Y130.317 E3.67322
G1 X84.83 Y130.177 E3.69545
G1 X84.262 Y129.96 E3.71769
G1 X83.728 Y129.67 E3.73992
G1 X83.474 Y129.498 E3.75115
G1 X82.953 Y129.119 E3.77472
G1 X82.486 Y128.73 E3.79695
G1 X82.075 Y128.283 E3.81917
G1 X81.725 Y127.786 E3.84141
G1 X81.444 Y127.248 E3.86362
G1 X81.279 Y126.816 E3.88054
G1 X81.17 Y126.482 E3.89339
G1 X81.02 Y125.894 E3.91559
G1 X80.948 Y125.29 E3.93785
G1 X80.957 Y124.683 E3.96006
G1 X81.044 Y124.081 E3.98231
G1 X81.211 Y123.497 E4.00453
G1 X81.452 Y122.939 E4.02677
G1 X81.764 Y122.418 E4.04899
G1 X81.788 Y122.387 E4.05042
G1 X81.496 Y121.948 E4.06971
G1 X81.228 Y121.403 E4.09193
G1 X81.034 Y120.827 E4.11417
G1 X80.917 Y120.231 E4.13639
G1 X80.88 Y119.644 E4.15791
G1 X80.88 Y113.12 E4.3966
G1 X76.62 Y113.12 E4.55245
G1 X76.62 Y119.643 E4.79111
G1 X76.58 Y120.249 E4.81333
G1 X76.54 Y120.448 E4.82075
G1 X76.859 Y120.634 E4.83426
G1 X77.339 Y121.006 E4.85648
G1 X77.766 Y121.438 E4.8787
G1 X78.133 Y121.923 E4.90095
G1 X78.433 Y122.451 E4.92317
G1 X78.669 Y123.039 E4.94635
G1 X78.739 Y123.255 E4.95466
G1 X78.888 Y123.844 E4.97689
G1 X78.958 Y124.447 E4.9991
G1 X78.949 Y125.055 E5.02134
G1 X78.86 Y125.656 E5.04357
G1 X78.737 Y126.11 E5.06078
G1 X78.538 Y126.721 E5.08429
G1 X78.312 Y127.285 E5.10652
G1 X78.014 Y127.814 E5.12873
G1 X77.65 Y128.3 E5.15095
G1 X77.224 Y128.734 E5.1732
G1 X76.863 Y129.026 E5.19019
G1 X76.342 Y129.405 E5.21376
G1 X75.828 Y129.729 E5.23599
G1 X75.276 Y129.984 E5.25823
G1 X74.696 Y130.163 E5.28044
G1 X74.097 Y130.265 E5.30267
G1 X73.624 Y130.289 E5.32
G1 X73.109 Y130.289 E5.33884
G1 X73.003 Y130.318 E5.34286
G1 X72.401 Y130.401 E5.3651
G1 X72.073 Y130.413 E5.3771
G1 X71.421 Y130.413 E5.40096
G1 X70.815 Y130.373 E5.42318
G1 X70.219 Y130.254 E5.44541
G1 X69.644 Y130.058 E5.46764
G1 X69.1 Y129.787 E5.48987
G1 X68.699 Y129.526 E5.50738
G1 X68.171 Y129.141 E5.53129
G1 X67.705 Y128.751 E5.55352
G1 X67.293 Y128.304 E5.57576
G1 X66.945 Y127.807 E5.59796
G1 X66.664 Y127.268 E5.6202
G1 X66.498 Y126.832 E5.63726
G1 X66.383 Y126.477 E5.65092
G1 X66.234 Y125.888 E5.67315
G1 X66.164 Y125.284 E5.69539
G1 X66.173 Y124.677 E5.7176
G1 X66.263 Y124.076 E5.73984
G1 X66.43 Y123.491 E5.76209
G1 X66.672 Y122.934 E5.78431
G1 X66.705 Y122.879 E5.78666
G1 X66.333 Y122.454 E5.80732
G1 X65.996 Y121.948 E5.82957
G1 X65.728 Y121.403 E5.85179
G1 X65.534 Y120.827 E5.87402
G1 X65.417 Y120.231 E5.89624
G1 X65.38 Y119.644 E5.91776
G1 X65.38 Y113.12 E6.15645
G1 X61.12 Y113.12 E6.31231
G1 X61.12 Y119.643 E6.55096
G1 X61.08 Y120.249 E6.57318
G1 X61.044 Y120.431 E6.57997
G1 X61.369 Y120.62 E6.59372
G1 X61.85 Y120.991 E6.61595
G1 X62.278 Y121.423 E6.63819
G1 X62.645 Y121.907 E6.66042
G1 X62.946 Y122.434 E6.68262
G1 X63.186 Y123.028 E6.70606
G1 X63.331 Y123.475 E6.72325
G1 X63.48 Y124.065 E6.74552
G1 X63.55 Y124.668 E6.76773
G1 X63.541 Y125.276 E6.78997
G1 X63.452 Y125.877 E6.8122
G1 X63.33 Y126.328 E6.82929
G1 X63.129 Y126.947 E6.85311
G1 X62.904 Y127.511 E6.87532
G1 X62.607 Y128.041 E6.89755
G1 X62.242 Y128.527 E6.91979
G1 X61.817 Y128.962 E6.94204
G1 X61.457 Y129.253 E6.95897
G1 X60.929 Y129.638 E6.98288
G1 X60.416 Y129.963 E7.0051
G1 X59.864 Y130.218 E7.02734
G1 X59.284 Y130.398 E7.04956
G1 X58.685 Y130.5 E7.07179
G1 X58.207 Y130.525 E7.0893
G1 X57.557 Y130.525 E7.11309
G1 X56.951 Y130.485 E7.13531
G1 X56.355 Y130.366 E7.15754
G1 X55.818 Y130.185 E7.17827
G1 X55.279 Y129.966 E7.19956
G1 X54.732 Y129.701 E7.2218
G1 X54.024 Y129.204 E7.25344
G1 X53.279 Y128.57 E7.28924
G1 X52.843 Y128.147 E7.31146
G1 X52.466 Y127.67 E7.3337
G1 X52.156 Y127.148 E7.35592
G1 X51.916 Y126.589 E7.37817
G1 X51.752 Y126.004 E7.4004
G1 X51.666 Y125.403 E7.42261
G1 X51.66 Y124.795 E7.44486
G1 X51.734 Y124.192 E7.46709
G1 X51.886 Y123.604 E7.48931
G1 X51.924 Y123.51 E7.49302
G1 X51.806 Y123.43 E7.49823
G1 X51.362 Y123.04 E7.51985
G1 X51.233 Y122.911 E7.52653
G1 X50.833 Y122.454 E7.54875
G1 X50.496 Y121.948 E7.57099
G1 X50.228 Y121.403 E7.59321
G1 X50.034 Y120.827 E7.61545
G1 X49.917 Y120.231 E7.63767
G1 X49.88 Y119.644 E7.65919
G1 X49.88 Y106.629 E8.13535
G1 X49.92 Y106.023 E8.15757
G1 X50.039 Y105.427 E8.17981
G1 X50.235 Y104.852 E8.20204
G1 X50.506 Y104.308 E8.22427
G1 X50.845 Y103.803 E8.24652
G1 X51.233 Y103.362 E8.26801
G1 X51.362 Y103.233 E8.27469
G1 X51.819 Y102.833 E8.29691
G1 X52.325 Y102.496 E8.31915
G1 X52.87 Y102.228 E8.34137
G1 X53.446 Y102.034 E8.36361
G1 X54.042 Y101.917 E8.38583
G1 X54.629 Y101.88 E8.40735
G1 X180.371 Y101.88 E13.00776
G1 X180.977 Y101.92 E13.02998
G1 X181.573 Y102.039 E13.05222
G1 X182.148 Y102.235 E13.07444
G1 X182.692 Y102.506 E13.09668
G1 X183.197 Y102.845 E13.11893
G1 X183.638 Y103.233 E13.14042
G1 X183.767 Y103.362 E13.1471
G1 X184.167 Y103.819 E13.16932
G1 X184.504 Y104.325 E13.19156
G1 X184.772 Y104.87 E13.21378
G1 X184.966 Y105.446 E13.23602
G1 X185.083 Y106.042 E13.25824
G1 X185.12 Y106.629 E13.27976
G1 X185.12 Y119.643 E13.75589
G1 X185.08 Y120.249 E13.77811
G1 X184.961 Y120.845 E13.80034
G1 X184.765 Y121.42 E13.82257
G1 X184.494 Y121.964 E13.84481
G1 X184.155 Y122.469 E13.86706
G1 X183.767 Y122.91 E13.88855
G1 X183.638 Y123.039 E13.89522
G1 X183.181 Y123.439 E13.91744
G1 X183.1 Y123.493 E13.92101
G1 X183.119 Y123.537 E13.92276
G1 X183.28 Y124.123 E13.94499
G1 X183.363 Y124.725 E13.96723
G1 X183.367 Y125.333 E13.98947
G1 X183.29 Y125.935 E14.01168
G1 X183.135 Y126.523 E14.03392
G1 X182.904 Y127.085 E14.05615
G1 X182.602 Y127.612 E14.07838
G1 X182.233 Y128.095 E14.10061
G1 X181.803 Y128.525 E14.12286
G1 X181.518 Y128.756 E14.13628
G1 X180.301 Y129.664 E14.19184
G1 X179.791 Y129.994 E14.21406
G1 X179.242 Y130.255 E14.2363
G1 X178.664 Y130.442 E14.25853
G1 X178.066 Y130.551 E14.28077
G1 X177.538 Y130.581 E14.30011
G1 X176.886 Y130.581 E14.32397
G1 X176.28 Y130.541 E14.34619
G1 X175.684 Y130.422 E14.36842
G1 X175.109 Y130.226 E14.39065
G1 X174.565 Y129.955 E14.41289
G1 X174.164 Y129.694 E14.43039
G1 X173.636 Y129.309 E14.4543
G1 X173.17 Y128.919 E14.47653
G1 X172.758 Y128.472 E14.49877
G1 X172.41 Y127.975 E14.52097
G1 X172.129 Y127.436 E14.54321
G1 X171.964 Y127.003 E14.56016
G1 X171.763 Y126.384 E14.58397
G1 X171.614 Y125.795 E14.6062
G1 X171.543 Y125.191 E14.62845
G1 X171.552 Y124.584 E14.65066
G1 X171.641 Y123.983 E14.67289
G1 X171.762 Y123.534 E14.6899
G1 X171.909 Y123.08 E14.70736
G1 X172.133 Y122.515 E14.7296
G1 X172.43 Y121.985 E14.75182
G1 X172.794 Y121.499 E14.77404
G1 X173.219 Y121.064 E14.79629
G1 X173.697 Y120.689 E14.81852
G1 X173.975 Y120.525 E14.83033
G1 X173.917 Y120.231 E14.84129
G1 X173.88 Y119.644 E14.86281
G1 X173.88 Y113.12 E15.1015
G1 X169.62 Y113.12 E15.25735
G1 X169.62 Y119.643 E15.496
G1 X169.58 Y120.249 E15.51822
G1 X169.461 Y120.845 E15.54046
G1 X169.265 Y121.42 E15.56269
G1 X168.994 Y121.964 E15.58492
G1 X168.736 Y122.348 E15.60185
G1 X169.029 Y122.802 E15.62162
G1 X169.288 Y123.351 E15.64382
G1 X169.473 Y123.93 E15.66606
G1 X169.58 Y124.528 E15.68829
G1 X169.608 Y125.135 E15.71052
G1 X169.556 Y125.74 E15.73274
G1 X169.384 Y126.466 E15.76003
G1 X169.349 Y126.574 E15.76419
G1 X169.124 Y127.139 E15.78644
G1 X168.827 Y127.669 E15.80866
G1 X168.463 Y128.155 E15.83088
G1 X168.038 Y128.59 E15.85313
G1 X167.672 Y128.886 E15.87035
G1 X167.158 Y129.26 E15.89361
G1 X166.644 Y129.584 E15.91584
G1 X166.093 Y129.838 E15.93804
G1 X165.512 Y130.018 E15.96029
G1 X164.913 Y130.12 E15.98252
G1 X164.44 Y130.144 E15.99985
G1 X163.806 Y130.144 E16.02304
G1 X163.567 Y130.128 E16.03181
G1 X163.388 Y130.186 E16.03869
G1 X162.791 Y130.295 E16.06089
G1 X162.259 Y130.326 E16.08039
G1 X161.617 Y130.326 E16.10388
G1 X161.011 Y130.286 E16.1261
G1 X160.415 Y130.167 E16.14833
G1 X159.84 Y129.971 E16.17056
G1 X159.296 Y129.7 E16.19279
G1 X158.899 Y129.442 E16.21012
G1 X158.378 Y129.063 E16.23369
G1 X157.911 Y128.674 E16.25593
G1 X157.5 Y128.227 E16.27814
G1 X157.15 Y127.73 E16.30038
G1 X156.869 Y127.192 E16.32259
G1 X156.703 Y126.758 E16.33959
G1 X156.504 Y126.147 E16.3631
G1 X156.354 Y125.558 E16.38534
G1 X156.283 Y124.954 E16.40759
G1 X156.292 Y124.347 E16.4298
G1 X156.38 Y123.746 E16.45202
G1 X156.502 Y123.291 E16.46925
G1 X156.55 Y123.143 E16.47495
G1 X156.775 Y122.578 E16.4972
G1 X157.073 Y122.048 E16.51944
G1 X157.437 Y121.562 E16.54166
G1 X157.862 Y121.128 E16.56388
G1 X158.34 Y120.753 E16.58611
G1 X158.501 Y120.658 E16.59295
G1 X158.417 Y120.231 E16.60887
G1 X158.38 Y119.644 E16.63039
G1 X158.38 Y113.12 E16.86908
G1 X154.12 Y113.12 E17.02493
G1 X154.12 Y119.643 E17.26358
G1 X154.08 Y120.249 E17.2858
G1 X153.961 Y120.845 E17.30804
G1 X153.765 Y121.42 E17.33026
G1 X153.494 Y121.964 E17.3525
G1 X153.155 Y122.469 E17.37475
G1 X153.029 Y122.612 E17.38173
G1 X153.173 Y122.839 E17.39156
G1 X153.429 Y123.39 E17.41379
G1 X153.61 Y123.97 E17.43602
G1 X153.713 Y124.569 E17.45826
G1 X153.736 Y125.176 E17.48048
G1 X153.68 Y125.781 E17.50271
G1 X153.51 Y126.486 E17.52924
G1 X153.364 Y126.933 E17.54645
G1 X153.137 Y127.497 E17.56869
G1 X152.839 Y128.027 E17.59093
G1 X152.474 Y128.512 E17.61314
G1 X152.048 Y128.946 E17.63539
G1 X151.694 Y129.232 E17.65204
G1 X151.166 Y129.617 E17.67595
G1 X150.653 Y129.942 E17.69817
G1 X150.101 Y130.197 E17.72041
G1 X149.521 Y130.377 E17.74263
G1 X148.922 Y130.479 E17.76486
G1 X148.444 Y130.504 E17.78237
G1 X147.792 Y130.504 E17.80623
G1 X147.186 Y130.464 E17.82845
G1 X146.59 Y130.345 E17.85068
G1 X146.446 Y130.291 E17.85631
G1 X146.1 Y130.313 E17.869
G1 X145.494 Y130.271 E17.89122
G1 X144.898 Y130.149 E17.91348
G1 X144.324 Y129.951 E17.93569
G1 X143.781 Y129.679 E17.95791
G1 X143.399 Y129.429 E17.97461
G1 X142.878 Y129.05 E17.99819
G1 X142.411 Y128.661 E18.02042
G1 X142 Y128.214 E18.04264
G1 X141.65 Y127.717 E18.06488
G1 X141.369 Y127.179 E18.08708
G1 X141.203 Y126.745 E18.10408
G1 X141.004 Y126.134 E18.12759
G1 X140.854 Y125.545 E18.14983
G1 X140.783 Y124.941 E18.17208
G1 X140.792 Y124.334 E18.19429
G1 X140.88 Y123.733 E18.21651
G1 X140.998 Y123.29 E18.23329
G1 X141.042 Y123.153 E18.23855
G1 X141.266 Y122.588 E18.26079
G1 X141.561 Y122.057 E18.28301
G1 X141.924 Y121.57 E18.30524
G1 X142.348 Y121.134 E18.32749
G1 X142.825 Y120.758 E18.34971
G1 X143 Y120.654 E18.35716
G1 X142.917 Y120.231 E18.37293
G1 X142.88 Y119.644 E18.39444
G1 X142.88 Y113.12 E18.63313
G1 X138.62 Y113.12 E18.78899
G1 X138.62 Y119.643 E19.02764
G1 X138.58 Y120.249 E19.04986
G1 X138.461 Y120.845 E19.0721
G1 X138.265 Y121.42 E19.09432
G1 X137.994 Y121.964 E19.11656
G1 X137.655 Y122.469 E19.13881
G1 X137.561 Y122.576 E19.14402
G1 X137.726 Y122.837 E19.15532
G1 X137.982 Y123.388 E19.17755
G1 X138.163 Y123.968 E19.19978
G1 X138.266 Y124.567 E19.22201
G1 X138.29 Y125.174 E19.24424
G1 X138.234 Y125.779 E19.26647
G1 X138.063 Y126.489 E19.29319
G1 X137.917 Y126.935 E19.31036
G1 X137.69 Y127.499 E19.3326
G1 X137.392 Y128.028 E19.35481
G1 X137.026 Y128.514 E19.37707
G1 X136.6 Y128.947 E19.3993
G1 X136.248 Y129.231 E19.41584
G1 X135.72 Y129.616 E19.43975
G1 X135.207 Y129.941 E19.46197
G1 X134.655 Y130.196 E19.48421
G1 X134.075 Y130.376 E19.50643
G1 X133.476 Y130.478 E19.52866
G1 X132.998 Y130.503 E19.54618
G1 X132.346 Y130.503 E19.57003
G1 X131.74 Y130.463 E19.59225
G1 X131.164 Y130.348 E19.61374
G1 X131.103 Y130.351 E19.61597
G1 X130.461 Y130.351 E19.63946
G1 X129.855 Y130.311 E19.66168
G1 X129.259 Y130.192 E19.68392
G1 X128.684 Y129.996 E19.70614
G1 X128.14 Y129.725 E19.72838
G1 X127.743 Y129.467 E19.7457
G1 X127.222 Y129.088 E19.76927
G1 X126.755 Y128.699 E19.79151
G1 X126.344 Y128.252 E19.81372
G1 X125.994 Y127.755 E19.83596
G1 X125.713 Y127.217 E19.85817
G1 X125.547 Y126.783 E19.87517
G1 X125.348 Y126.172 E19.89868
G1 X125.198 Y125.583 E19.92092
G1 X125.127 Y124.979 E19.94317
G1 X125.136 Y124.372 E19.96538
G1 X125.224 Y123.771 E19.9876
G1 X125.345 Y123.32 E20.00469
G1 X125.42 Y123.088 E20.01361
G1 X125.645 Y122.523 E20.03586
G1 X125.941 Y121.993 E20.05807
