;FLAVOR:Marlin
;TIME:1377
;Filament used: 0.697764m
;Layer height: 0.16
;Generated with Cura_SteamEngine 3.6.0
M140 S70
M105
M190 S70
M104 S215
M105
M109 S215
M82 ;absolute extrusion mode
G28 ; home all axes
M117 Purge extruder
G92 E0 ; reset extruder
G1 Z1.0 F3000 ; move z up little to prevent scratching of surface
G1 X0.1 Y20 Z0.3 F5000.0 ; move to start-line position G1 X0.1 Y200.0 Z0.3 F1500.0 E15 ; draw 1st line
G1 X0.4 Y200.0 Z0.3 F5000.0 ; move to side a little
G1 X0.4 Y20 Z0.3 F1500.0 E30 ; draw 2nd line
G92 E0 ; reset extruder
G1 Z1.0 F3000 ; move z up little to prevent scratching of surface
M117 All systems go!
G92 E0
G1 F6000 E-5
;LAYER_COUNT:157
;LAYER:0
M107
M204 S5000
M205 X30 Y30
G0 F7200 X112.127 Y111.529 Z0.2
M204 S500
M205 X20 Y20
;TYPE:SKIRT
G1 F6000 E0
G1 F900 X112.601 Y111.105 E0.02327
G1 X113.401 Y110.591 E0.05806
G1 X114.234 Y110.16 E0.09237
G1 X114.816 Y109.904 E0.11563
G1 X115.425 Y109.723 E0.13888
G1 X115.738 Y109.661 E0.15055
G1 X116.662 Y109.509 E0.18481
G1 X117.294 Y109.446 E0.20805
G1 X117.93 Y109.462 E0.23132
G1 X118.25 Y109.5 E0.24311
G1 X119.176 Y109.642 E0.27739
G1 X119.797 Y109.778 E0.30065
G1 X120.397 Y109.991 E0.32394
G1 X120.687 Y110.126 E0.33564
G1 X121.528 Y110.55 E0.3701
G1 X122.077 Y110.871 E0.39337
G1 X122.809 Y111.471 E0.428
G1 X123.474 Y112.129 E0.46222
G1 X123.897 Y112.604 E0.4855
G1 X124.409 Y113.401 E0.52015
G1 X124.84 Y114.234 E0.55447
G1 X125.096 Y114.816 E0.57773
G1 X125.277 Y115.425 E0.60097
G1 X125.339 Y115.738 E0.61265
G1 X125.491 Y116.662 E0.64691
G1 X125.554 Y117.294 E0.67014
G1 X125.538 Y117.93 E0.69342
G1 X125.5 Y118.25 E0.70521
G1 X125.358 Y119.176 E0.73949
G1 X125.222 Y119.797 E0.76274
G1 X124.876 Y120.683 E0.79754
G1 X124.455 Y121.52 E0.83182
G1 X124.135 Y122.069 E0.85507
G1 X123.534 Y122.802 E0.88975
G1 X122.904 Y123.44 E0.92255
G1 X125.371 Y123.44 E1.01281
G1 X126.006 Y123.48 E1.03609
G1 X126.63 Y123.599 E1.05933
G1 X127.235 Y123.796 E1.08261
G1 X127.81 Y124.067 E1.10587
G1 X128.347 Y124.408 E1.12914
G1 X128.949 Y124.922 E1.1581
G1 X129.078 Y125.051 E1.16477
G1 X129.498 Y125.528 E1.18803
G1 X129.856 Y126.054 E1.21131
G1 X130.144 Y126.621 E1.23457
G1 X130.36 Y127.219 E1.25783
G1 X130.498 Y127.84 E1.28111
G1 X130.56 Y128.629 E1.31006
G1 X130.56 Y138.371 E1.66649
G1 X130.52 Y139.006 E1.68976
G1 X130.401 Y139.63 E1.71301
G1 X130.204 Y140.235 E1.73628
G1 X129.933 Y140.81 E1.75954
G1 X129.592 Y141.347 E1.78281
G1 X129.078 Y141.949 E1.81178
G1 X128.949 Y142.078 E1.81845
G1 X128.472 Y142.498 E1.8417
G1 X127.946 Y142.856 E1.86498
G1 X127.379 Y143.144 E1.88825
G1 X126.781 Y143.36 E1.91151
G1 X126.16 Y143.498 E1.93478
G1 X125.371 Y143.56 E1.96374
G1 X105.629 Y143.56 E2.68602
G1 X104.994 Y143.52 E2.7093
G1 X104.37 Y143.401 E2.73254
G1 X103.765 Y143.204 E2.75582
G1 X103.19 Y142.933 E2.77908
G1 X102.653 Y142.592 E2.80235
G1 X102.051 Y142.078 E2.83131
G1 X101.922 Y141.949 E2.83799
G1 X101.502 Y141.472 E2.86124
G1 X101.144 Y140.946 E2.88452
G1 X100.856 Y140.379 E2.90778
G1 X100.64 Y139.781 E2.93105
G1 X100.502 Y139.16 E2.95432
G1 X100.44 Y138.371 E2.98328
G1 X100.44 Y128.629 E3.3397
G1 X100.48 Y127.994 E3.36298
G1 X100.599 Y127.37 E3.38622
G1 X100.796 Y126.765 E3.4095
G1 X101.067 Y126.19 E3.43275
G1 X101.408 Y125.653 E3.45603
G1 X101.922 Y125.051 E3.48499
G1 X102.051 Y124.922 E3.49166
G1 X102.528 Y124.502 E3.51491
G1 X103.054 Y124.144 E3.53819
G1 X103.621 Y123.856 E3.56146
G1 X104.219 Y123.64 E3.58472
G1 X104.84 Y123.502 E3.608
G1 X105.629 Y123.44 E3.63695
G1 X112.103 Y123.44 E3.87381
G1 X111.529 Y122.873 E3.90333
G1 X111.105 Y122.399 E3.9266
G1 X110.591 Y121.599 E3.96139
G1 X110.16 Y120.766 E3.9957
G1 X109.904 Y120.184 E4.01896
G1 X109.723 Y119.575 E4.04221
G1 X109.661 Y119.262 E4.05388
G1 X109.509 Y118.338 E4.08814
G1 X109.446 Y117.706 E4.11138
G1 X109.462 Y117.07 E4.13465
G1 X109.5 Y116.75 E4.14644
G1 X109.642 Y115.824 E4.18072
G1 X109.778 Y115.203 E4.20398
G1 X110.124 Y114.317 E4.23878
G1 X110.545 Y113.48 E4.27305
G1 X110.865 Y112.931 E4.2963
G1 X111.466 Y112.198 E4.33098
G1 X111.616 Y112.046 E4.33879
G0 F810 X112.127 Y111.529
M204 S5000
M205 X30 Y30
G0 F7200 X112.44 Y111.838
M204 S500
M205 X20 Y20
G1 F6000 E4.36539
G1 F900 X112.894 Y111.435 E4.3876
G1 X113.603 Y110.982 E4.41839
G1 X114.436 Y110.551 E4.4527
G1 X114.993 Y110.308 E4.47493
G1 X115.809 Y110.095 E4.50579
G1 X116.733 Y109.943 E4.54005
G1 X117.338 Y109.884 E4.56229
G1 X118.183 Y109.935 E4.59326
G1 X119.109 Y110.077 E4.62753
G1 X119.703 Y110.209 E4.6498
G1 X120.489 Y110.519 E4.68071
G1 X121.33 Y110.943 E4.71517
G1 X121.853 Y111.251 E4.73737
G1 X122.5 Y111.784 E4.76804
G1 X123.165 Y112.442 E4.80227
G1 X123.567 Y112.897 E4.82448
G1 X124.018 Y113.603 E4.85513
G1 X124.449 Y114.436 E4.88945
G1 X124.692 Y114.993 E4.91168
G1 X124.905 Y115.809 E4.94253
G1 X125.057 Y116.733 E4.97679
G1 X125.116 Y117.338 E4.99903
G1 X125.065 Y118.183 E5.03
G1 X124.923 Y119.109 E5.06428
G1 X124.791 Y119.703 E5.08654
G1 X124.483 Y120.485 E5.11729
G1 X124.062 Y121.322 E5.15157
G1 X123.754 Y121.846 E5.17381
G1 X123.221 Y122.493 E5.20448
G1 X122.56 Y123.162 E5.23888
G1 X122.106 Y123.565 E5.26109
G1 X121.613 Y123.88 E5.2825
G1 X125.371 Y123.88 E5.41999
G1 X125.977 Y123.92 E5.44221
G1 X126.573 Y124.039 E5.46445
G1 X127.148 Y124.235 E5.48667
G1 X127.692 Y124.506 E5.50891
G1 X128.197 Y124.845 E5.53116
G1 X128.638 Y125.233 E5.55265
G1 X128.767 Y125.362 E5.55932
G1 X129.167 Y125.819 E5.58154
G1 X129.504 Y126.325 E5.60379
G1 X129.772 Y126.87 E5.62601
G1 X129.966 Y127.446 E5.64824
G1 X130.083 Y128.042 E5.67046
G1 X130.12 Y128.629 E5.69198
G1 X130.12 Y138.371 E6.04841
G1 X130.08 Y138.977 E6.07063
G1 X129.961 Y139.573 E6.09286
G1 X129.765 Y140.148 E6.11509
G1 X129.494 Y140.692 E6.13732
G1 X129.155 Y141.197 E6.15958
G1 X128.767 Y141.638 E6.18107
G1 X128.638 Y141.767 E6.18774
G1 X128.181 Y142.167 E6.20996
G1 X127.675 Y142.504 E6.2322
G1 X127.13 Y142.772 E6.25442
G1 X126.554 Y142.966 E6.27666
G1 X125.958 Y143.083 E6.29888
G1 X125.371 Y143.12 E6.3204
G1 X105.629 Y143.12 E7.04268
G1 X105.023 Y143.08 E7.0649
G1 X104.427 Y142.961 E7.08714
G1 X103.852 Y142.765 E7.10936
G1 X103.308 Y142.494 E7.1316
G1 X102.803 Y142.155 E7.15385
G1 X102.362 Y141.767 E7.17534
G1 X102.233 Y141.638 E7.18202
G1 X101.833 Y141.181 E7.20424
G1 X101.496 Y140.675 E7.22648
G1 X101.228 Y140.13 E7.2487
G1 X101.034 Y139.554 E7.27094
G1 X100.917 Y138.958 E7.29316
G1 X100.88 Y138.371 E7.31468
G1 X100.88 Y128.629 E7.6711
G1 X100.92 Y128.023 E7.69332
G1 X101.039 Y127.427 E7.71555
G1 X101.235 Y126.852 E7.73778
G1 X101.506 Y126.308 E7.76002
G1 X101.845 Y125.803 E7.78227
G1 X102.233 Y125.362 E7.80376
G1 X102.362 Y125.233 E7.81043
G1 X102.819 Y124.833 E7.83265
G1 X103.325 Y124.496 E7.8549
G1 X103.87 Y124.228 E7.87712
G1 X104.446 Y124.034 E7.89935
G1 X105.042 Y123.917 E7.92157
G1 X105.629 Y123.88 E7.94309
G1 X113.368 Y123.88 E8.22623
G1 X113.154 Y123.754 E8.23532
G1 X112.507 Y123.221 E8.26599
G1 X111.838 Y122.56 E8.3004
G1 X111.435 Y122.106 E8.32261
G1 X110.982 Y121.397 E8.35339
G1 X110.551 Y120.564 E8.3877
G1 X110.308 Y120.007 E8.40994
G1 X110.095 Y119.191 E8.44079
G1 X109.943 Y118.267 E8.47505
G1 X109.884 Y117.662 E8.49729
G1 X109.935 Y116.817 E8.52826
G1 X110.077 Y115.891 E8.56254
G1 X110.209 Y115.297 E8.5848
G1 X110.517 Y114.515 E8.61555
G1 X110.938 Y113.678 E8.64983
G1 X111.246 Y113.154 E8.67206
G1 X111.779 Y112.507 E8.70273
G1 X111.929 Y112.355 E8.71055
G0 F810 X112.44 Y111.838
M204 S5000
M205 X30 Y30
G0 F7200 X112.753 Y112.147
M204 S500
M205 X20 Y20
G1 F6000 E8.73714
G1 F900 X113.186 Y111.765 E8.75827
G1 X113.805 Y111.373 E8.78508
G1 X114.638 Y110.942 E8.81939
G1 X115.169 Y110.712 E8.84056
G1 X115.881 Y110.529 E8.86746
G1 X116.805 Y110.377 E8.90172
G1 X117.38 Y110.323 E8.92285
G1 X118.117 Y110.37 E8.94986
G1 X119.043 Y110.512 E8.98414
G1 X119.606 Y110.639 E9.00526
G1 X120.291 Y110.912 E9.03223
G1 X121.132 Y111.336 E9.06669
G1 X121.629 Y111.631 E9.08784
G1 X122.19 Y112.097 E9.11452
G1 X122.855 Y112.755 E9.14875
G1 X123.237 Y113.189 E9.1699
G1 X123.627 Y113.805 E9.19657
G1 X124.058 Y114.638 E9.23089
G1 X124.288 Y115.169 E9.25206
G1 X124.471 Y115.881 E9.27895
G1 X124.623 Y116.805 E9.31321
G1 X124.677 Y117.38 E9.33434
G1 X124.63 Y118.117 E9.36136
G1 X124.488 Y119.043 E9.39564
G1 X124.361 Y119.606 E9.41675
G1 X124.09 Y120.287 E9.44357
G1 X123.669 Y121.124 E9.47785
G1 X123.374 Y121.621 E9.49899
G1 X122.908 Y122.184 E9.52573
G1 X122.247 Y122.853 E9.56014
G1 X121.814 Y123.235 E9.58126
G1 X121.195 Y123.627 E9.60807
G1 X120.362 Y124.058 E9.64238
G1 X119.831 Y124.288 E9.66356
G1 X119.706 Y124.32 E9.66828
G1 X125.371 Y124.32 E9.87554
G1 X125.948 Y124.36 E9.8967
G1 X126.513 Y124.479 E9.91782
G1 X127.057 Y124.675 E9.93898
G1 X127.568 Y124.944 E9.96011
G1 X128.038 Y125.281 E9.98126
G1 X128.327 Y125.544 E9.99556
G1 X128.456 Y125.673 E10.00224
G1 X128.835 Y126.109 E10.02337
G1 X129.151 Y126.593 E10.04452
G1 X129.397 Y127.116 E10.06566
G1 X129.568 Y127.668 E10.08681
G1 X129.662 Y128.239 E10.10798
G1 X129.68 Y128.629 E10.12226
G1 X129.68 Y138.371 E10.47868
G1 X129.64 Y138.948 E10.49985
G1 X129.521 Y139.513 E10.52097
G1 X129.325 Y140.057 E10.54213
G1 X129.056 Y140.568 E10.56325
G1 X128.719 Y141.038 E10.58441
G1 X128.456 Y141.327 E10.59871
G1 X128.327 Y141.456 E10.60538
G1 X127.891 Y141.835 E10.62652
G1 X127.407 Y142.151 E10.64767
G1 X126.884 Y142.397 E10.66881
G1 X126.332 Y142.568 E10.68995
G1 X125.761 Y142.662 E10.71113
G1 X125.371 Y142.68 E10.72541
G1 X105.629 Y142.68 E11.44769
G1 X105.052 Y142.64 E11.46886
G1 X104.487 Y142.521 E11.48998
G1 X103.943 Y142.325 E11.51113
G1 X103.432 Y142.056 E11.53226
G1 X102.962 Y141.719 E11.55342
G1 X102.673 Y141.456 E11.56772
G1 X102.544 Y141.327 E11.57439
G1 X102.165 Y140.891 E11.59553
G1 X101.849 Y140.407 E11.61668
G1 X101.603 Y139.884 E11.63782
G1 X101.432 Y139.332 E11.65896
G1 X101.338 Y138.761 E11.68014
G1 X101.32 Y138.371 E11.69442
G1 X101.32 Y128.629 E12.05084
G1 X101.36 Y128.052 E12.072
G1 X101.479 Y127.487 E12.09313
G1 X101.675 Y126.943 E12.11428
G1 X101.944 Y126.432 E12.13541
G1 X102.281 Y125.962 E12.15657
G1 X102.544 Y125.673 E12.17087
G1 X102.673 Y125.544 E12.17754
G1 X103.109 Y125.165 E12.19868
G1 X103.593 Y124.849 E12.21982
G1 X104.116 Y124.603 E12.24097
G1 X104.668 Y124.432 E12.26211
G1 X105.239 Y124.338 E12.28328
G1 X105.629 Y124.32 E12.29757
G1 X115.291 Y124.32 E12.65106
G1 X114.713 Y124.09 E12.67382
G1 X113.876 Y123.669 E12.7081
G1 X113.379 Y123.374 E12.72925
G1 X112.816 Y122.908 E12.75598
G1 X112.147 Y122.247 E12.79039
G1 X111.765 Y121.814 E12.81152
G1 X111.373 Y121.195 E12.83832
G1 X110.942 Y120.362 E12.87264
G1 X110.712 Y119.831 E12.89381
G1 X110.529 Y119.119 E12.92071
G1 X110.377 Y118.195 E12.95497
G1 X110.323 Y117.62 E12.97609
G1 X110.37 Y116.883 E13.00311
G1 X110.512 Y115.957 E13.03739
G1 X110.639 Y115.394 E13.0585
G1 X110.91 Y114.713 E13.08532
G1 X111.331 Y113.876 E13.1196
G1 X111.626 Y113.379 E13.14074
G1 X112.092 Y112.816 E13.16748
G1 X112.242 Y112.664 E13.17529
G0 F810 X112.753 Y112.147
M204 S5000
M205 X30 Y30
G0 F7200 X113.066 Y112.456
M204 S500
M205 X20 Y20
G1 F6000 E13.20189
G1 F900 X113.477 Y112.097 E13.22186
G1 X114.007 Y111.763 E13.24478
G1 X114.84 Y111.332 E13.27909
G1 X115.343 Y111.117 E13.29911
G1 X115.952 Y110.964 E13.32208
G1 X116.876 Y110.812 E13.35634
G1 X117.42 Y110.763 E13.37632
G1 X118.05 Y110.805 E13.39942
G1 X118.976 Y110.947 E13.4337
G1 X119.509 Y111.069 E13.4537
G1 X120.093 Y111.304 E13.47673
G1 X120.934 Y111.728 E13.51119
G1 X121.403 Y112.01 E13.53121
G1 X121.881 Y112.409 E13.55399
G1 X122.546 Y113.067 E13.58822
G1 X122.905 Y113.479 E13.60821
G1 X123.237 Y114.007 E13.63103
G1 X123.668 Y114.84 E13.66535
G1 X123.883 Y115.343 E13.68536
G1 X124.036 Y115.952 E13.70833
G1 X124.188 Y116.876 E13.74259
G1 X124.237 Y117.42 E13.76258
G1 X124.195 Y118.05 E13.78568
G1 X124.053 Y118.976 E13.81995
G1 X123.931 Y119.509 E13.83996
G1 X123.697 Y120.09 E13.86287
G1 X123.276 Y120.927 E13.89715
G1 X122.996 Y121.396 E13.91713
G1 X122.595 Y121.875 E13.93999
G1 X121.934 Y122.544 E13.9744
G1 X121.523 Y122.903 E13.99436
G1 X120.993 Y123.237 E14.01728
G1 X120.16 Y123.668 E14.0516
G1 X119.657 Y123.883 E14.07161
G1 X119.048 Y124.036 E14.09458
G1 X118.124 Y124.188 E14.12884
G1 X117.58 Y124.237 E14.14883
G1 X116.95 Y124.195 E14.17193
G1 X116.024 Y124.053 E14.2062
G1 X115.491 Y123.931 E14.22621
G1 X114.91 Y123.697 E14.24912
G1 X114.073 Y123.276 E14.2834
G1 X113.604 Y122.996 E14.30339
G1 X113.125 Y122.595 E14.32624
G1 X112.456 Y121.934 E14.36065
G1 X112.097 Y121.523 E14.38061
G1 X111.763 Y120.993 E14.40353
G1 X111.332 Y120.16 E14.43785
G1 X111.117 Y119.657 E14.45786
G1 X110.964 Y119.048 E14.48084
G1 X110.812 Y118.124 E14.5151
G1 X110.763 Y117.58 E14.53508
G1 X110.805 Y116.95 E14.55818
G1 X110.947 Y116.024 E14.59245
G1 X111.069 Y115.491 E14.61246
G1 X111.303 Y114.91 E14.63537
G1 X111.724 Y114.073 E14.66965
G1 X112.004 Y113.604 E14.68964
G1 X112.405 Y113.125 E14.71249
G1 X112.555 Y112.973 E14.7203
G0 F810 X113.066 Y112.456
M204 S5000
M205 X30 Y30
G0 F7200 X113.379 Y112.766
M204 S500
M205 X20 Y20
G1 F6000 E14.7469
G1 F900 X113.767 Y112.43 E14.76568
G1 X114.21 Y112.154 E14.78478
G1 X115.043 Y111.723 E14.81909
G1 X115.515 Y111.523 E14.83785
G1 X116.023 Y111.398 E14.85699
G1 X116.947 Y111.246 E14.89125
G1 X117.459 Y111.202 E14.91005
G1 X117.983 Y111.24 E14.92927
G1 X118.909 Y111.382 E14.96354
G1 X119.409 Y111.499 E14.98233
G1 X119.895 Y111.697 E15.00153
G1 X120.736 Y112.121 E15.03599
G1 X121.175 Y112.387 E15.05477
G1 X121.571 Y112.722 E15.07375
G1 X122.236 Y113.38 E15.10797
G1 X122.572 Y113.769 E15.12678
G1 X122.846 Y114.21 E15.14577
G1 X123.277 Y115.043 E15.18009
G1 X123.477 Y115.515 E15.19884
G1 X123.602 Y116.023 E15.21798
G1 X123.754 Y116.947 E15.25224
G1 X123.798 Y117.459 E15.27104
G1 X123.76 Y117.983 E15.29027
G1 X123.618 Y118.909 E15.32454
G1 X123.501 Y119.409 E15.34333
G1 X123.304 Y119.892 E15.36241
G1 X122.883 Y120.729 E15.39669
G1 X122.617 Y121.168 E15.41547
G1 X122.282 Y121.565 E15.43447
G1 X121.621 Y122.234 E15.46888
G1 X121.233 Y122.57 E15.48766
G1 X120.79 Y122.846 E15.50676
G1 X119.957 Y123.277 E15.54107
G1 X119.485 Y123.477 E15.55983
G1 X118.977 Y123.602 E15.57897
G1 X118.053 Y123.754 E15.61323
G1 X117.541 Y123.798 E15.63203
G1 X117.017 Y123.76 E15.65125
G1 X116.091 Y123.618 E15.68552
G1 X115.591 Y123.501 E15.70431
G1 X115.108 Y123.304 E15.7234
G1 X114.271 Y122.883 E15.75767
G1 X113.832 Y122.617 E15.77645
G1 X113.435 Y122.282 E15.79546
G1 X112.766 Y121.621 E15.82987
G1 X112.43 Y121.233 E15.84864
G1 X112.154 Y120.79 E15.86774
G1 X111.723 Y119.957 E15.90205
G1 X111.523 Y119.485 E15.92081
G1 X111.398 Y118.977 E15.93995
G1 X111.246 Y118.053 E15.97421
G1 X111.202 Y117.541 E15.99301
G1 X111.24 Y117.017 E16.01223
G1 X111.382 Y116.091 E16.04651
G1 X111.499 Y115.591 E16.06529
G1 X111.696 Y115.108 E16.08438
G1 X112.117 Y114.271 E16.11866
G1 X112.383 Y113.832 E16.13744
G1 X112.718 Y113.435 E16.15644
G1 X112.868 Y113.283 E16.16425
G0 F810 X113.379 Y112.766
M204 S5000
M205 X30 Y30
G0 F7200 X113.692 Y113.075
M204 S500
M205 X20 Y20
G1 F6000 E16.19085
G1 F900 X114.055 Y112.764 E16.20834
G1 X114.412 Y112.545 E16.22366
G1 X115.245 Y112.114 E16.25798
G1 X115.686 Y111.93 E16.27546
G1 X116.095 Y111.832 E16.29085
G1 X117.019 Y111.68 E16.32511
G1 X117.495 Y111.642 E16.34258
G1 X117.917 Y111.675 E16.35806
G1 X118.843 Y111.817 E16.39234
G1 X119.307 Y111.929 E16.4098
G1 X119.697 Y112.09 E16.42524
G1 X120.538 Y112.514 E16.4597
G1 X120.945 Y112.764 E16.47717
G1 X121.262 Y113.035 E16.49243
G1 X121.927 Y113.693 E16.52666
G1 X122.237 Y114.056 E16.54412
G1 X122.455 Y114.412 E16.5594
G1 X122.886 Y115.245 E16.59371
G1 X123.07 Y115.686 E16.61119
G1 X123.168 Y116.095 E16.62658
G1 X123.32 Y117.019 E16.66084
G1 X123.358 Y117.495 E16.67831
G1 X123.325 Y117.917 E16.6938
G1 X123.183 Y118.843 E16.72807
G1 X123.071 Y119.307 E16.74553
G1 X122.911 Y119.694 E16.76086
G1 X122.49 Y120.531 E16.79513
G1 X122.24 Y120.939 E16.81264
G1 X121.969 Y121.256 E16.8279
G1 X121.308 Y121.925 E16.86231
G1 X120.945 Y122.236 E16.8798
G1 X120.588 Y122.455 E16.89512
G1 X119.755 Y122.886 E16.92943
G1 X119.314 Y123.07 E16.94691
G1 X118.905 Y123.168 E16.9623
G1 X117.981 Y123.32 E16.99656
