;FLAVOR:Marlin
;TIME:11567
;Filament used: 12.415m
;Layer height: 0.2
;Generated with Cura_SteamEngine 3.6.0
M140 S70
M105
M190 S70
M104 S215
M105
M109 S215
M82 ;absolute extrusion mode
G28 ; home all axes
M117 Purge extruder
G92 E0 ; reset extruder
G1 Z1.0 F3000 ; move z up little to prevent scratching of surface
G1 X0.1 Y20 Z0.3 F5000.0 ; move to start-line position G1 X0.1 Y200.0 Z0.3 F1500.0 E15 ; draw 1st line
G1 X0.4 Y200.0 Z0.3 F5000.0 ; move to side a little
G1 X0.4 Y20 Z0.3 F1500.0 E30 ; draw 2nd line
G92 E0 ; reset extruder
G1 Z1.0 F3000 ; move z up little to prevent scratching of surface
M117 All systems go!
G92 E0
G1 F6000 E-5
;LAYER_COUNT:272
;LAYER:0
M107
M204 S5000
M205 X30 Y30
G0 F7200 X58.685 Y79.269 Z0.2
M204 S500
M205 X20 Y20
;TYPE:SKIRT
G1 F6000 E0
G1 F900 X59.14 Y78.952 E0.02029
G1 X60.347 Y78.207 E0.07218
G1 X60.908 Y77.908 E0.09544
G1 X61.397 Y77.715 E0.11467
G1 X62.274 Y77.421 E0.14852
G1 X63.049 Y77.228 E0.17774
G1 X63.702 Y77.119 E0.20196
G1 X64.42 Y77.051 E0.22834
G1 X131.616 Y75.522 E2.68742
G1 X131.604 Y74.976 E2.7074
G1 X131.671 Y74.343 E2.73069
G1 X131.848 Y73.622 E2.75785
G1 X131.967 Y73.256 E2.77193
G1 X132.201 Y72.665 E2.79519
G1 X132.508 Y72.108 E2.81846
G1 X132.882 Y71.594 E2.84171
G1 X133.317 Y71.13 E2.86498
G1 X133.8 Y70.731 E2.88791
G1 X134.82 Y69.988 E2.93407
G1 X135.356 Y69.647 E2.95732
G1 X135.931 Y69.375 E2.98059
G1 X136.536 Y69.178 E3.00387
G1 X137.161 Y69.058 E3.02715
G1 X137.795 Y69.018 E3.05039
G1 X138.15 Y69.04 E3.06341
G1 X138.254 Y68.695 E3.07659
G1 X138.512 Y68.114 E3.09985
G1 X138.841 Y67.57 E3.12311
G1 X139.325 Y66.974 E3.1512
G1 X139.45 Y66.842 E3.15785
G1 X139.915 Y66.408 E3.18112
G1 X140.431 Y66.037 E3.20437
G1 X140.99 Y65.733 E3.22765
G1 X141.582 Y65.502 E3.2509
G1 X142.199 Y65.346 E3.27418
G1 X143.009 Y65.262 E3.30398
G1 X146.045 Y65.193 E3.41508
G1 X146.68 Y65.219 E3.43833
G1 X147.308 Y65.324 E3.46163
G1 X147.917 Y65.507 E3.48489
G1 X148.498 Y65.765 E3.50815
G1 X149.042 Y66.093 E3.53139
G1 X149.639 Y66.578 E3.55953
G1 X149.771 Y66.703 E3.56619
G1 X150.143 Y67.101 E3.58612
G1 X150.56 Y66.985 E3.60195
G1 X151.189 Y66.892 E3.62522
G1 X151.825 Y66.88 E3.64849
G1 X152.457 Y66.947 E3.67174
G1 X153.076 Y67.092 E3.695
G1 X153.672 Y67.315 E3.71828
G1 X154.235 Y67.61 E3.74154
G1 X154.757 Y67.973 E3.7648
G1 X155.229 Y68.4 E3.78808
G1 X155.644 Y68.882 E3.81135
G1 X155.995 Y69.412 E3.83461
G1 X156.277 Y69.982 E3.85788
G1 X156.42 Y70.368 E3.87294
G1 X156.477 Y70.543 E3.87967
G1 X156.636 Y71.159 E3.90295
G1 X156.716 Y71.79 E3.92622
G1 X156.716 Y72.426 E3.94949
G1 X156.637 Y73.056 E3.97272
G1 X156.473 Y73.691 E3.99671
G1 X156.423 Y73.843 E4.00257
G1 X156.186 Y74.434 E4.02586
G1 X155.887 Y74.973 E4.04841
G1 X170.823 Y74.638 E4.595
G1 X171.459 Y74.664 E4.61829
G1 X172.086 Y74.769 E4.64155
G1 X172.695 Y74.952 E4.66481
G1 X173.276 Y75.21 E4.68807
G1 X173.821 Y75.539 E4.71136
G1 X174.416 Y76.023 E4.73942
G1 X174.548 Y76.148 E4.74608
G1 X174.982 Y76.613 E4.76935
G1 X175.353 Y77.129 E4.7926
G1 X175.657 Y77.688 E4.81588
G1 X175.888 Y78.28 E4.83913
G1 X176.044 Y78.897 E4.86241
G1 X176.128 Y79.71 E4.89232
G1 X176.2 Y82.952 E5.01096
G1 X176.174 Y83.587 E5.03421
G1 X176.069 Y84.214 E5.05747
G1 X175.885 Y84.823 E5.08074
G1 X175.627 Y85.404 E5.104
G1 X175.298 Y85.949 E5.12729
G1 X174.815 Y86.543 E5.1553
G1 X174.69 Y86.675 E5.16195
G1 X174.225 Y87.109 E5.18522
G1 X173.709 Y87.48 E5.20848
G1 X173.15 Y87.784 E5.23176
G1 X172.558 Y88.015 E5.25501
G1 X171.941 Y88.171 E5.27829
G1 X171.13 Y88.255 E5.30812
G1 X68.348 Y90.58 E9.06948
G1 X68.372 Y144.389 E11.03814
G1 X171.132 Y146.746 E14.79873
G1 X171.766 Y146.801 E14.82201
G1 X172.387 Y146.934 E14.84524
G1 X172.987 Y147.145 E14.86851
G1 X173.556 Y147.429 E14.89178
G1 X174.085 Y147.782 E14.91505
G1 X174.677 Y148.312 E14.94412
G1 X174.802 Y148.443 E14.95074
G1 X175.211 Y148.93 E14.97401
G1 X175.556 Y149.464 E14.99727
G1 X175.831 Y150.037 E15.02052
G1 X176.032 Y150.64 E15.04378
G1 X176.156 Y151.264 E15.06705
G1 X176.2 Y152.048 E15.09578
G1 X176.128 Y155.29 E15.21442
G1 X176.074 Y155.924 E15.2377
G1 X175.941 Y156.546 E15.26097
G1 X175.731 Y157.146 E15.28423
G1 X175.447 Y157.715 E15.3075
G1 X175.094 Y158.244 E15.33077
G1 X174.548 Y158.852 E15.36066
G1 X174.416 Y158.977 E15.36731
G1 X173.928 Y159.384 E15.39056
G1 X173.392 Y159.727 E15.41384
G1 X172.818 Y160 E15.4371
G1 X172.214 Y160.199 E15.46037
G1 X171.59 Y160.321 E15.48363
G1 X170.823 Y160.362 E15.51173
G1 X156.673 Y160.044 E16.02955
G1 X156.76 Y160.384 E16.04239
G1 X156.839 Y161.015 E16.06566
G1 X156.837 Y161.651 E16.08893
G1 X156.757 Y162.282 E16.1122
G1 X156.601 Y162.888 E16.13509
G1 X156.451 Y163.35 E16.15287
G1 X156.217 Y163.941 E16.17612
G1 X155.91 Y164.498 E16.19939
G1 X155.537 Y165.013 E16.22265
G1 X155.101 Y165.476 E16.24592
G1 X154.611 Y165.881 E16.26918
G1 X154.074 Y166.222 E16.29245
G1 X153.499 Y166.493 E16.31571
G1 X152.894 Y166.689 E16.33898
G1 X152.269 Y166.808 E16.36225
G1 X151.634 Y166.847 E16.38553
G1 X151 Y166.807 E16.40877
G1 X150.86 Y166.78 E16.41399
G1 X150.669 Y167.162 E16.42961
G1 X150.316 Y167.691 E16.45288
G1 X149.771 Y168.297 E16.4827
G1 X149.639 Y168.422 E16.48935
G1 X149.151 Y168.829 E16.5126
G1 X148.615 Y169.172 E16.53588
G1 X148.041 Y169.445 E16.55914
G1 X147.437 Y169.644 E16.5824
G1 X146.813 Y169.766 E16.60566
G1 X146.047 Y169.807 E16.63373
G1 X143.011 Y169.739 E16.74483
G1 X142.377 Y169.685 E16.76811
G1 X141.755 Y169.551 E16.79139
G1 X141.155 Y169.341 E16.81465
G1 X140.586 Y169.057 E16.83792
G1 X140.057 Y168.705 E16.86116
G1 X139.45 Y168.159 E16.89103
G1 X139.325 Y168.027 E16.89768
G1 X138.918 Y167.539 E16.92093
G1 X138.575 Y167.003 E16.94421
G1 X138.302 Y166.429 E16.96747
G1 X138.192 Y166.094 E16.98037
G1 X137.996 Y166.114 E16.98758
G1 X137.36 Y166.099 E17.01085
G1 X136.731 Y166.005 E17.03412
G1 X136.119 Y165.832 E17.05739
G1 X135.534 Y165.584 E17.08064
G1 X134.818 Y165.149 E17.11129
G1 X133.546 Y164.223 E17.16885
G1 X133.056 Y163.817 E17.19213
G1 X132.622 Y163.353 E17.21538
G1 X132.248 Y162.838 E17.23866
G1 X131.943 Y162.28 E17.26193
G1 X131.713 Y161.701 E17.28472
G1 X131.607 Y161.376 E17.29723
G1 X131.449 Y160.76 E17.32049
G1 X131.368 Y160.129 E17.34377
G1 X131.368 Y159.493 E17.36704
G1 X131.371 Y159.471 E17.36785
G1 X64.409 Y157.947 E19.81837
G1 X63.569 Y157.857 E19.84928
G1 X62.705 Y157.691 E19.88146
G1 X62.09 Y157.532 E19.9047
G1 X61.631 Y157.357 E19.92268
G1 X60.352 Y156.797 E19.97376
G1 X59.786 Y156.506 E19.99704
G1 X59.331 Y156.199 E20.01712
G1 X58.554 Y155.612 E20.05275
G1 X58.072 Y155.198 E20.076
G1 X57.839 Y154.956 E20.08829
G1 X57.197 Y154.241 E20.12345
G1 X56.803 Y153.742 E20.14671
G1 X56.626 Y153.468 E20.15864
G1 X56.134 Y152.65 E20.19357
G1 X55.722 Y151.792 E20.22839
G1 X55.411 Y150.948 E20.2613
G1 X55.17 Y150.046 E20.29546
G1 X55.013 Y149.122 E20.32975
G1 X54.942 Y148.275 E20.36084
G1 X54.928 Y87.089 E22.5994
G1 X54.958 Y86.536 E22.61966
G1 X55.076 Y85.46 E22.65927
G1 X55.185 Y84.834 E22.68251
G1 X55.364 Y84.248 E22.70493
G1 X55.838 Y82.974 E22.75466
G1 X56.096 Y82.393 E22.77792
G1 X56.382 Y81.913 E22.79836
G1 X56.913 Y81.124 E22.83316
G1 X57.301 Y80.62 E22.85643
G1 X57.523 Y80.381 E22.86836
G1 X58.145 Y79.755 E22.90065
G0 F810 X58.21 Y79.69
G0 X58.685 Y79.269
M204 S5000
M205 X30 Y30
G0 F7200 X58.978 Y79.599
M204 S500
M205 X20 Y20
G1 F6000 E22.92725
G1 F900 X59.371 Y79.327 E22.94474
G1 X60.578 Y78.582 E22.99663
G1 X61.115 Y78.297 E23.01887
G1 X61.537 Y78.133 E23.03544
G1 X62.414 Y77.839 E23.06928
G1 X63.121 Y77.662 E23.09594
G1 X63.774 Y77.553 E23.12016
G1 X64.43 Y77.491 E23.14427
G1 X132.109 Y75.951 E25.62103
G1 X132.089 Y75.856 E25.62458
G1 X132.04 Y75.251 E25.64678
G1 X132.072 Y74.644 E25.66902
G1 X132.266 Y73.758 E25.70221
G1 X132.385 Y73.392 E25.71629
G1 X132.611 Y72.828 E25.73852
G1 X132.908 Y72.298 E25.76074
G1 X133.273 Y71.812 E25.78298
G1 X133.698 Y71.378 E25.8052
G1 X134.059 Y71.087 E25.82217
G1 X135.079 Y70.344 E25.86834
G1 X135.592 Y70.019 E25.89056
G1 X136.144 Y69.765 E25.91279
G1 X136.725 Y69.585 E25.93504
G1 X137.324 Y69.483 E25.95727
G1 X137.931 Y69.46 E25.97949
G1 X138.484 Y69.512 E25.99982
G1 X138.512 Y69.352 E26.00576
G1 X138.696 Y68.772 E26.02802
G1 X138.953 Y68.222 E26.05023
G1 X139.281 Y67.71 E26.07248
G1 X139.644 Y67.276 E26.09318
G1 X139.769 Y67.144 E26.09983
G1 X140.215 Y66.732 E26.12204
G1 X140.712 Y66.381 E26.1443
G1 X141.249 Y66.098 E26.16651
G1 X141.82 Y65.889 E26.18876
G1 X142.413 Y65.756 E26.21099
G1 X143.019 Y65.702 E26.23325
G1 X146.055 Y65.633 E26.34436
G1 X146.662 Y65.659 E26.36658
G1 X147.26 Y65.765 E26.3888
G1 X147.84 Y65.948 E26.41106
G1 X148.39 Y66.206 E26.43328
G1 X148.902 Y66.534 E26.45553
G1 X149.337 Y66.897 E26.47626
G1 X149.469 Y67.022 E26.48291
G1 X149.881 Y67.468 E26.50512
G1 X149.988 Y67.619 E26.51189
G1 X150.35 Y67.49 E26.52595
G1 X150.944 Y67.363 E26.54818
G1 X151.55 Y67.315 E26.57042
G1 X152.156 Y67.348 E26.59262
G1 X152.754 Y67.459 E26.61487
G1 X153.331 Y67.648 E26.63709
G1 X153.879 Y67.911 E26.65933
G1 X154.387 Y68.244 E26.68155
G1 X154.848 Y68.64 E26.70378
G1 X155.252 Y69.094 E26.72602
G1 X155.593 Y69.597 E26.74825
G1 X155.866 Y70.14 E26.77049
G1 X156.002 Y70.504 E26.7847
G1 X156.059 Y70.679 E26.79144
G1 X156.209 Y71.268 E26.81367
G1 X156.28 Y71.871 E26.83589
G1 X156.271 Y72.479 E26.85813
G1 X156.183 Y73.08 E26.88036
G1 X156.055 Y73.554 E26.89832
G1 X156.005 Y73.706 E26.90417
G1 X155.777 Y74.269 E26.9264
G1 X155.478 Y74.798 E26.94863
G1 X155.112 Y75.283 E26.97086
G1 X154.963 Y75.434 E26.97862
G1 X170.833 Y75.078 E27.55939
G1 X171.44 Y75.105 E27.58162
G1 X172.039 Y75.21 E27.60387
G1 X172.618 Y75.394 E27.62609
G1 X173.168 Y75.652 E27.64832
G1 X173.68 Y75.979 E27.67055
G1 X174.114 Y76.342 E27.69125
G1 X174.246 Y76.467 E27.6979
G1 X174.658 Y76.913 E27.72011
G1 X175.009 Y77.41 E27.74237
G1 X175.292 Y77.947 E27.76458
G1 X175.501 Y78.518 E27.78683
G1 X175.634 Y79.111 E27.80906
G1 X175.688 Y79.719 E27.83139
G1 X175.76 Y82.961 E27.95004
G1 X175.733 Y83.568 E27.97227
G1 X175.627 Y84.167 E27.99452
G1 X175.444 Y84.746 E28.01674
G1 X175.186 Y85.296 E28.03896
G1 X174.858 Y85.808 E28.06121
G1 X174.496 Y86.241 E28.08186
G1 X174.371 Y86.373 E28.08851
G1 X173.925 Y86.785 E28.11072
G1 X173.428 Y87.136 E28.13299
G1 X172.891 Y87.419 E28.15519
G1 X172.32 Y87.628 E28.17744
G1 X171.727 Y87.761 E28.19967
G1 X171.12 Y87.815 E28.22197
G1 X67.908 Y90.149 E31.99906
G1 X67.932 Y144.819 E33.99923
G1 X171.122 Y147.186 E37.77555
G1 X171.727 Y147.24 E37.79777
G1 X172.32 Y147.373 E37.82
G1 X172.89 Y147.582 E37.84222
G1 X173.428 Y147.865 E37.86446
G1 X173.925 Y148.216 E37.88672
G1 X174.358 Y148.616 E37.90828
G1 X174.483 Y148.747 E37.91491
G1 X174.873 Y149.213 E37.93714
G1 X175.198 Y149.726 E37.95936
G1 X175.453 Y150.278 E37.98161
G1 X175.633 Y150.858 E38.00382
G1 X175.736 Y151.457 E38.02606
G1 X175.76 Y152.039 E38.04737
G1 X175.688 Y155.281 E38.16601
G1 X175.634 Y155.886 E38.18824
G1 X175.502 Y156.479 E38.21046
G1 X175.293 Y157.049 E38.23267
G1 X175.011 Y157.588 E38.25493
G1 X174.661 Y158.084 E38.27714
G1 X174.246 Y158.533 E38.29951
G1 X174.114 Y158.658 E38.30616
G1 X173.646 Y159.045 E38.32838
G1 X173.131 Y159.369 E38.35064
G1 X172.579 Y159.621 E38.37284
G1 X171.998 Y159.8 E38.39508
G1 X171.399 Y159.9 E38.4173
G1 X170.833 Y159.922 E38.43802
G1 X156.083 Y159.591 E38.97781
G1 X156.184 Y159.903 E38.9898
G1 X156.332 Y160.493 E39.01206
G1 X156.402 Y161.096 E39.03427
G1 X156.392 Y161.704 E39.05651
G1 X156.303 Y162.305 E39.07874
G1 X156.182 Y162.752 E39.09569
G1 X156.032 Y163.214 E39.11346
G1 X155.807 Y163.778 E39.13567
G1 X155.51 Y164.308 E39.1579
G1 X155.145 Y164.794 E39.18014
G1 X154.72 Y165.228 E39.20236
G1 X154.242 Y165.603 E39.22459
G1 X153.719 Y165.912 E39.24681
G1 X153.159 Y166.149 E39.26906
G1 X152.574 Y166.311 E39.29127
G1 X151.972 Y166.395 E39.31351
G1 X151.364 Y166.399 E39.33575
G1 X150.761 Y166.323 E39.35799
G1 X150.594 Y166.279 E39.36431
G1 X150.515 Y166.496 E39.37276
G1 X150.233 Y167.034 E39.39498
G1 X149.882 Y167.531 E39.41724
G1 X149.469 Y167.978 E39.43951
G1 X149.337 Y168.103 E39.44616
G1 X148.869 Y168.49 E39.46838
G1 X148.354 Y168.814 E39.49064
G1 X147.802 Y169.066 E39.51284
G1 X147.221 Y169.245 E39.53508
G1 X146.622 Y169.345 E39.5573
G1 X146.057 Y169.367 E39.57798
G1 X143.021 Y169.299 E39.68909
G1 X142.415 Y169.245 E39.71135
G1 X141.822 Y169.113 E39.73357
G1 X141.252 Y168.904 E39.75579
G1 X140.714 Y168.621 E39.77803
G1 X140.217 Y168.271 E39.80027
G1 X139.769 Y167.857 E39.82258
G1 X139.644 Y167.725 E39.82923
G1 X139.257 Y167.257 E39.85145
G1 X138.933 Y166.742 E39.87371
G1 X138.681 Y166.19 E39.89591
G1 X138.504 Y165.614 E39.91796
G1 X138.261 Y165.655 E39.92698
G1 X137.654 Y165.676 E39.9492
G1 X137.049 Y165.617 E39.97144
G1 X136.457 Y165.48 E39.99367
G1 X135.889 Y165.266 E40.01587
G1 X135.353 Y164.979 E40.03812
G1 X135.077 Y164.793 E40.0503
G1 X133.805 Y163.867 E40.10786
G1 X133.338 Y163.478 E40.1301
G1 X132.927 Y163.031 E40.15231
G1 X132.577 Y162.534 E40.17455
G1 X132.296 Y161.995 E40.19679
G1 X132.132 Y161.565 E40.21363
G1 X132.026 Y161.24 E40.22613
G1 X131.876 Y160.651 E40.24837
G1 X131.804 Y160.047 E40.27063
G1 X131.813 Y159.44 E40.29284
G1 X131.871 Y159.042 E40.30755
G1 X64.419 Y157.507 E42.776
G1 X63.652 Y157.425 E42.80422
G1 X62.788 Y157.259 E42.83641
G1 X62.2 Y157.105 E42.85865
G1 X61.807 Y156.954 E42.87405
G1 X60.528 Y156.394 E42.92513
G1 X59.989 Y156.114 E42.94736
G1 X59.596 Y155.848 E42.96472
G1 X58.819 Y155.261 E43.00035
G1 X58.166 Y154.662 E43.03277
G1 X57.524 Y153.947 E43.06792
G1 X57.003 Y153.241 E43.10002
G1 X56.511 Y152.423 E43.13495
G1 X56.135 Y151.639 E43.16676
G1 X55.824 Y150.795 E43.19967
G1 X55.604 Y149.972 E43.23084
G1 X55.447 Y149.048 E43.26513
G1 X55.382 Y148.275 E43.29351
G1 X55.368 Y87.089 E45.53207
G1 X55.396 Y86.584 E45.55057
G1 X55.514 Y85.508 E45.59017
G1 X55.619 Y84.91 E45.61239
G1 X55.776 Y84.401 E45.63187
G1 X56.25 Y83.127 E45.68161
G1 X56.499 Y82.573 E45.70383
G1 X56.747 Y82.158 E45.72152
G1 X57.278 Y81.369 E45.75631
G1 X57.835 Y80.692 E45.78839
G1 X58.438 Y80.086 E45.81966
G0 F810 X58.522 Y80.001
G0 X58.978 Y79.599
M204 S5000
M205 X30 Y30
G0 F7200 X59.269 Y79.93
M204 S500
M205 X20 Y20
G1 F6000 E45.84626
G1 F900 X59.603 Y79.701 E45.86108
G1 X60.81 Y78.956 E45.91297
G1 X61.321 Y78.687 E45.9341
G1 X61.676 Y78.55 E45.94802
G1 X62.553 Y78.256 E45.98186
G1 X63.194 Y78.096 E46.00603
G1 X63.847 Y77.987 E46.03025
G1 X64.44 Y77.931 E46.05205
G1 X132.663 Y76.379 E48.54871
G1 X132.571 Y76.056 E48.561
G1 X132.491 Y75.484 E48.58213
G1 X132.489 Y74.906 E48.60327
G1 X132.568 Y74.333 E48.62444
G1 X132.685 Y73.895 E48.64102
G1 X132.804 Y73.529 E48.6551
G1 X133.02 Y72.993 E48.67625
G1 X133.308 Y72.492 E48.69739
G1 X133.663 Y72.035 E48.71856
G1 X134.077 Y71.632 E48.7397
G1 X134.318 Y71.442 E48.75093
G1 X135.338 Y70.699 E48.7971
G1 X135.827 Y70.392 E48.81822
G1 X136.355 Y70.155 E48.83939
G1 X136.909 Y69.994 E48.8605
G1 X137.481 Y69.91 E48.88165
G1 X138.059 Y69.906 E48.9028
G1 X138.632 Y69.982 E48.92395
G1 X138.844 Y70.041 E48.932
G1 X138.847 Y69.97 E48.9346
G1 X138.953 Y69.402 E48.95574
G1 X139.137 Y68.854 E48.97689
G1 X139.395 Y68.336 E48.99806
G1 X139.721 Y67.859 E49.0192
G1 X139.964 Y67.579 E49.03276
G1 X140.089 Y67.447 E49.03941
G1 X140.514 Y67.056 E49.06054
G1 X140.99 Y66.727 E49.08171
G1 X141.506 Y66.467 E49.10285
G1 X142.053 Y66.281 E49.12399
G1 X142.62 Y66.171 E49.14512
G1 X143.029 Y66.142 E49.16012
G1 X146.065 Y66.073 E49.27123
G1 X146.642 Y66.1 E49.29236
G1 X147.21 Y66.206 E49.3135
G1 X147.758 Y66.39 E49.33465
G1 X148.276 Y66.647 E49.3558
G1 X148.753 Y66.973 E49.37694
G1 X149.034 Y67.217 E49.39056
G1 X149.166 Y67.342 E49.39721
G1 X149.557 Y67.767 E49.41834
G1 X149.83 Y68.162 E49.4359
G1 X150.188 Y68.004 E49.45022
G1 X150.744 Y67.846 E49.47137
G1 X151.316 Y67.765 E49.4925
G1 X151.894 Y67.765 E49.51365
G1 X152.467 Y67.844 E49.53481
G1 X153.023 Y68.001 E49.55595
G1 X153.552 Y68.234 E49.5771
G1 X154.044 Y68.537 E49.59824
G1 X154.489 Y68.905 E49.61937
G1 X154.879 Y69.332 E49.64052
G1 X155.207 Y69.808 E49.66167
G1 X155.466 Y70.324 E49.6828
G1 X155.583 Y70.64 E49.69512
G1 X155.64 Y70.815 E49.70186
G1 X155.781 Y71.376 E49.72302
G1 X155.843 Y71.951 E49.74418
