;FLAVOR:RepRap
;TIME:85
;Generated with Cura_SteamEngine 2.3.1
M190 S70
M104 S210
M109 S210
G28 ; home all axes
M117 Purge extruder
G92 E0 ; reset extruder
G1 Z1.0 F3000 ; move z up little to prevent scratching of surface
G1 X0.1 Y20 Z0.3 F5000.0 ; move to start-line position G1 X0.1 Y200.0 Z0.3 F1500.0 E15 ; draw 1st line
G1 X0.4 Y200.0 Z0.3 F5000.0 ; move to side a little
G1 X0.4 Y20 Z0.3 F1500.0 E30 ; draw 2nd line
G92 E0 ; reset extruder
G1 Z1.0 F3000 ; move z up little to prevent scratching of surface

M117 All systems go!
;LAYER_COUNT:13
;LAYER:0
M107
G1 F4200 E-5
G0 F1800 X105.734 Y106.007 Z.16
G0 X105.353 Y106.405
;TYPE:SKIRT
G1 F4200 E0
G1 F1200 X105.734 Y106.007 E0.01466
G1 X106.169 Y105.668 E0.02933
G1 X106.648 Y105.396 E0.04399
G1 X106.95 Y105.268 E0.05272
G1 X107.148 Y105.194 E0.05834
G1 X107.676 Y105.04 E0.07298
G1 X108.468 Y104.954 E0.09418
G1 X111.398 Y104.946 E0.17214
G1 X111.947 Y104.984 E0.18678
G1 X112.373 Y105.071 E0.19835
G1 X112.689 Y105.154 E0.20704
G1 X113.211 Y105.332 E0.22172
G1 X113.701 Y105.584 E0.23638
G1 X114.316 Y106.051 E0.25693
G1 X114.54 Y106.26 E0.26508
G1 X114.915 Y106.664 E0.27974
G1 X115.227 Y107.118 E0.2944
G1 X115.418 Y107.49 E0.30553
G1 X115.546 Y107.777 E0.31389
G1 X115.734 Y108.295 E0.32855
G1 X115.844 Y108.835 E0.34322
G1 X115.875 Y109.236 E0.35392
G1 X115.903 Y110.437 E0.38588
G1 X115.876 Y110.988 E0.40056
G1 X115.769 Y111.528 E0.41521
G1 X115.609 Y111.993 E0.42829
G1 X115.582 Y112.056 E0.43012
G1 X115.734 Y112.474 E0.44195
G1 X115.844 Y113.014 E0.45662
G1 X115.875 Y113.416 E0.46734
G1 X115.903 Y114.618 E0.49934
G1 X115.876 Y115.168 E0.51399
G1 X115.769 Y115.708 E0.52864
G1 X115.609 Y116.173 E0.54172
G1 X115.393 Y116.689 E0.5566
G1 X115.144 Y117.181 E0.57128
G1 X114.827 Y117.631 E0.58592
G1 X114.447 Y118.031 E0.6006
G1 X114.089 Y118.32 E0.61285
G1 X113.868 Y118.477 E0.62006
G1 X113.397 Y118.763 E0.63472
G1 X112.889 Y118.977 E0.64939
G1 X112.456 Y119.096 E0.66134
G1 X112.197 Y119.151 E0.66838
G1 X111.398 Y119.234 E0.68976
G1 X108.475 Y119.226 E0.76753
G1 X107.925 Y119.185 E0.78221
G1 X107.387 Y119.064 E0.79688
G1 X106.936 Y118.896 E0.80969
G1 X106.647 Y118.767 E0.81811
G1 X106.162 Y118.507 E0.83275
G1 X105.719 Y118.179 E0.84742
G1 X105.328 Y117.79 E0.86209
G1 X105.146 Y117.563 E0.86983
G1 X104.912 Y117.248 E0.88027
G1 X104.616 Y116.783 E0.89494
G1 X104.391 Y116.28 E0.9096
G1 X104.24 Y115.75 E0.92427
G1 X104.17 Y115.235 E0.9381
G1 X104.094 Y114.097 E0.96844
G1 X104.129 Y113.274 E0.99036
G1 X104.196 Y112.832 E1.00226
G1 X104.318 Y112.295 E1.01691
G1 X104.392 Y112.103 E1.02238
G1 X104.391 Y112.1 E1.02247
G1 X104.24 Y111.57 E1.03713
G1 X104.17 Y111.055 E1.05096
G1 X104.094 Y109.918 E1.08128
G1 X104.129 Y109.095 E1.1032
G1 X104.196 Y108.653 E1.11509
G1 X104.318 Y108.116 E1.12975
G1 X104.516 Y107.602 E1.1444
G1 X104.787 Y107.122 E1.15907
G1 X105.026 Y106.8 E1.16974
G1 X105.353 Y106.405 E1.18338
G0 F1800 X105.334 Y107.055
G1 F1200 X105.661 Y106.66 E1.19703
G1 X106.023 Y106.285 E1.2109
G1 X106.438 Y105.97 E1.22476
G1 X107.09 Y105.643 E1.24417
G1 X107.288 Y105.569 E1.24979
G1 X107.788 Y105.425 E1.26364
G1 X108.469 Y105.354 E1.28186
G1 X111.399 Y105.346 E1.35982
G1 X111.918 Y105.385 E1.37367
G1 X112.272 Y105.458 E1.38328
G1 X112.588 Y105.541 E1.39198
G1 X113.08 Y105.711 E1.40583
G1 X113.541 Y105.955 E1.41971
G1 X114.043 Y106.343 E1.43659
G1 X114.267 Y106.552 E1.44474
G1 X114.62 Y106.936 E1.45862
G1 X114.91 Y107.369 E1.47249
G1 X115.053 Y107.653 E1.48095
G1 X115.181 Y107.94 E1.48931
G1 X115.356 Y108.431 E1.50318
G1 X115.454 Y108.943 E1.51705
G1 X115.475 Y109.246 E1.52513
G1 X115.503 Y110.447 E1.5571
G1 X115.475 Y110.967 E1.57095
G1 X115.368 Y111.477 E1.58482
G1 X115.24 Y111.839 E1.59503
G1 X115.151 Y112.052 E1.60118
G1 X115.181 Y112.119 E1.60313
G1 X115.356 Y112.61 E1.617
G1 X115.454 Y113.122 E1.63087
G1 X115.475 Y113.425 E1.63895
G1 X115.503 Y114.627 E1.67094
G1 X115.475 Y115.147 E1.6848
G1 X115.368 Y115.657 E1.69866
G1 X115.24 Y116.019 E1.70888
G1 X115.024 Y116.535 E1.72377
G1 X114.787 Y116.999 E1.73763
G1 X114.481 Y117.421 E1.7515
G1 X114.115 Y117.791 E1.76535
G1 X113.857 Y117.994 E1.77408
G1 X113.636 Y118.151 E1.78129
G1 X113.189 Y118.419 E1.79516
G1 X112.707 Y118.616 E1.80902
G1 X112.373 Y118.705 E1.81821
G1 X112.114 Y118.76 E1.82526
G1 X111.399 Y118.834 E1.84439
G1 X108.476 Y118.826 E1.92216
G1 X107.956 Y118.785 E1.93604
G1 X107.449 Y118.664 E1.94991
G1 X107.099 Y118.531 E1.95987
G1 X106.81 Y118.402 E1.96829
G1 X106.352 Y118.153 E1.98217
G1 X105.937 Y117.838 E1.99603
G1 X105.467 Y117.325 E2.01454
G1 X105.233 Y117.01 E2.02498
G1 X104.955 Y116.569 E2.03885
G1 X104.748 Y116.09 E2.05274
G1 X104.616 Y115.586 E2.0666
G1 X104.57 Y115.209 E2.07671
G1 X104.494 Y114.071 E2.10705
G1 X104.524 Y113.334 E2.12668
G1 X104.591 Y112.892 E2.13858
G1 X104.709 Y112.385 E2.15243
G1 X104.826 Y112.091 E2.16085
G1 X104.748 Y111.91 E2.16609
G1 X104.616 Y111.406 E2.17995
G1 X104.57 Y111.029 E2.19006
G1 X104.494 Y109.892 E2.22038
G1 X104.524 Y109.155 E2.24001
G1 X104.591 Y108.713 E2.2519
G1 X104.709 Y108.206 E2.26575
G1 X104.902 Y107.722 E2.27962
G1 X105.168 Y107.273 E2.2935
G1 X105.334 Y107.055 E2.30079
G0 F1800 X105.642 Y107.31
G1 F1200 X105.969 Y106.915 E2.31444
G1 X106.311 Y106.565 E2.32746
G1 X106.705 Y106.275 E2.34048
G1 X107.23 Y106.018 E2.35603
G1 X107.428 Y105.944 E2.36165
G1 X107.899 Y105.81 E2.37468
G1 X108.47 Y105.754 E2.38995
G1 X111.4 Y105.746 E2.46791
G1 X111.888 Y105.785 E2.48094
G1 X112.17 Y105.844 E2.4886
G1 X112.486 Y105.927 E2.4973
G1 X112.948 Y106.09 E2.51033
G1 X113.377 Y106.325 E2.52335
G1 X113.771 Y106.636 E2.5367
G1 X113.995 Y106.845 E2.54485
G1 X114.324 Y107.207 E2.55787
G1 X114.688 Y107.816 E2.57675
G1 X114.816 Y108.103 E2.58511
G1 X114.978 Y108.565 E2.59814
G1 X115.075 Y109.255 E2.61668
G1 X115.103 Y110.456 E2.64864
G1 X115.075 Y110.945 E2.66167
G1 X114.967 Y111.422 E2.67469
G1 X114.871 Y111.684 E2.68211
G1 X114.715 Y112.056 E2.69285
G1 X114.816 Y112.282 E2.69943
G1 X114.978 Y112.744 E2.71246
G1 X115.075 Y113.434 E2.731
G1 X115.103 Y114.636 E2.76299
G1 X115.075 Y115.125 E2.77602
G1 X114.967 Y115.602 E2.78904
G1 X114.871 Y115.864 E2.79646
G1 X114.655 Y116.38 E2.81135
G1 X114.43 Y116.815 E2.82438
G1 X114.137 Y117.207 E2.8374
G1 X113.625 Y117.668 E2.85573
G1 X113.404 Y117.825 E2.86294
G1 X112.984 Y118.075 E2.87595
G1 X112.528 Y118.253 E2.88897
G1 X112.29 Y118.314 E2.89551
G1 X112.031 Y118.369 E2.90256
G1 X111.4 Y118.434 E2.91944
G1 X108.477 Y118.426 E2.99721
G1 X107.989 Y118.385 E3.01024
G1 X107.514 Y118.265 E3.02328
G1 X107.262 Y118.165 E3.03049
G1 X106.973 Y118.036 E3.03891
G1 X106.544 Y117.801 E3.05193
G1 X106.159 Y117.499 E3.06495
G1 X105.788 Y117.086 E3.07972
G1 X105.554 Y116.771 E3.09016
G1 X105.295 Y116.356 E3.10318
G1 X105.107 Y115.904 E3.1162
G1 X104.995 Y115.427 E3.12924
G1 X104.969 Y115.182 E3.1358
G1 X104.893 Y114.044 E3.16614
G1 X104.92 Y113.394 E3.18345
G1 X104.987 Y112.952 E3.19535
G1 X105.099 Y112.476 E3.20836
G1 X105.26 Y112.091 E3.21946
G1 X105.107 Y111.724 E3.23004
G1 X104.995 Y111.247 E3.24308
G1 X104.969 Y111.002 E3.24964
G1 X104.893 Y109.865 E3.27996
G1 X104.92 Y109.215 E3.29727
G1 X104.987 Y108.773 E3.30916
G1 X105.099 Y108.297 E3.32217
G1 X105.288 Y107.845 E3.33521
G1 X105.642 Y107.31 E3.35228
G0 F1800 X105.95 Y107.565
G1 F1200 X106.277 Y107.17 E3.36592
G1 X106.597 Y106.846 E3.37804
G1 X106.969 Y106.583 E3.39016
G1 X107.37 Y106.393 E3.40197
G1 X107.568 Y106.319 E3.40759
G1 X108.007 Y106.197 E3.41972
G1 X108.471 Y106.154 E3.43212
G1 X111.401 Y106.146 E3.51008
G1 X112.069 Y106.231 E3.528
G1 X112.385 Y106.314 E3.53669
G1 X112.813 Y106.468 E3.54879
G1 X113.209 Y106.695 E3.56094
G1 X113.498 Y106.928 E3.57082
G1 X113.722 Y107.137 E3.57897
G1 X114.026 Y107.476 E3.59108
G1 X114.323 Y107.979 E3.60663
G1 X114.451 Y108.266 E3.61499
G1 X114.599 Y108.697 E3.62711
G1 X114.675 Y109.264 E3.64233
G1 X114.703 Y110.465 E3.6743
G1 X114.674 Y110.92 E3.68643
G1 X114.502 Y111.53 E3.7033
G1 X114.286 Y112.046 E3.71818
G1 X114.272 Y112.072 E3.71896
G1 X114.323 Y112.158 E3.72163
G1 X114.451 Y112.445 E3.72999
G1 X114.599 Y112.876 E3.74211
G1 X114.675 Y113.443 E3.75733
G1 X114.703 Y114.645 E3.78933
G1 X114.674 Y115.1 E3.80146
G1 X114.502 Y115.71 E3.81832
G1 X114.286 Y116.226 E3.8332
G1 X114.074 Y116.629 E3.84532
G1 X113.795 Y116.989 E3.85744
G1 X113.394 Y117.342 E3.87166
G1 X113.173 Y117.499 E3.87887
G1 X112.78 Y117.729 E3.89098
G1 X112.207 Y117.922 E3.90707
G1 X111.948 Y117.977 E3.91412
G1 X111.401 Y118.034 E3.92875
G1 X108.478 Y118.026 E4.00653
G1 X108.024 Y117.985 E4.01866
G1 X107.425 Y117.8 E4.03534
G1 X107.136 Y117.671 E4.04376
G1 X106.738 Y117.45 E4.05587
G1 X106.385 Y117.162 E4.06799
G1 X106.109 Y116.847 E4.07914
G1 X105.875 Y116.532 E4.08958
G1 X105.636 Y116.144 E4.1017
G1 X105.469 Y115.72 E4.11383
G1 X105.368 Y115.155 E4.1291
G1 X105.292 Y114.017 E4.15945
G1 X105.315 Y113.454 E4.17444
G1 X105.382 Y113.012 E4.18634
G1 X105.49 Y112.57 E4.19844
G1 X105.673 Y112.152 E4.21058
G1 X105.714 Y112.091 E4.21254
G1 X105.636 Y111.964 E4.21651
G1 X105.469 Y111.54 E4.22863
G1 X105.368 Y110.975 E4.2439
G1 X105.292 Y109.838 E4.27422
G1 X105.315 Y109.275 E4.28922
G1 X105.382 Y108.833 E4.30111
G1 X105.49 Y108.391 E4.31322
G1 X105.673 Y107.973 E4.32536
G1 X105.95 Y107.565 E4.33848
G0 F1800 X106.258 Y107.82
G1 F1200 X106.585 Y107.425 E4.35213
G1 X106.882 Y107.129 E4.36328
G1 X107.23 Y106.895 E4.37444
G1 X107.51 Y106.767 E4.38263
G1 X107.708 Y106.693 E4.38826
G1 X108.113 Y106.585 E4.39941
G1 X108.472 Y106.554 E4.409
G1 X111.402 Y106.546 E4.48696
G1 X111.967 Y106.618 E4.50212
G1 X112.283 Y106.701 E4.51081
G1 X112.676 Y106.846 E4.52196
G1 X113.035 Y107.062 E4.5331
G1 X113.225 Y107.22 E4.53968
G1 X113.449 Y107.429 E4.54783
G1 X113.727 Y107.743 E4.55899
G1 X113.957 Y108.142 E4.57124
G1 X114.085 Y108.429 E4.57961
G1 X114.219 Y108.826 E4.59075
G1 X114.275 Y109.274 E4.60277
G1 X114.303 Y110.475 E4.63473
G1 X114.273 Y110.893 E4.64588
G1 X114.133 Y111.376 E4.65926
G1 X113.917 Y111.892 E4.67415
G1 X113.817 Y112.078 E4.67977
G1 X113.957 Y112.321 E4.68723
G1 X114.085 Y112.608 E4.69559
G1 X114.219 Y113.005 E4.70674
G1 X114.275 Y113.453 E4.71875
G1 X114.303 Y114.655 E4.75074
G1 X114.273 Y115.073 E4.7619
G1 X114.133 Y115.556 E4.77528
G1 X113.917 Y116.072 E4.79016
G1 X113.719 Y116.441 E4.8013
G1 X113.455 Y116.766 E4.81244
G1 X113.162 Y117.015 E4.82267
G1 X112.941 Y117.172 E4.82989
G1 X112.578 Y117.382 E4.84105
G1 X112.124 Y117.531 E4.85376
G1 X111.865 Y117.586 E4.86081
G1 X111.402 Y117.634 E4.87319
G1 X108.479 Y117.626 E4.95097
G1 X108.062 Y117.585 E4.96212
G1 X107.588 Y117.435 E4.97535
G1 X107.299 Y117.306 E4.98377
G1 X106.935 Y117.099 E4.99491
G1 X106.616 Y116.828 E5.00605
G1 X106.43 Y116.609 E5.01369
G1 X106.196 Y116.294 E5.02413
G1 X105.979 Y115.935 E5.03529
G1 X105.834 Y115.542 E5.04644
G1 X105.767 Y115.129 E5.05757
G1 X105.691 Y113.991 E5.08792
G1 X105.711 Y113.514 E5.10062
G1 X105.778 Y113.072 E5.11252
G1 X105.88 Y112.666 E5.12366
G1 X106.057 Y112.286 E5.13481
G1 X106.187 Y112.1 E5.14085
G1 X105.979 Y111.755 E5.15157
G1 X105.834 Y111.362 E5.16271
G1 X105.767 Y110.949 E5.17385
G1 X105.691 Y109.812 E5.20417
G1 X105.711 Y109.335 E5.21687
G1 X105.778 Y108.893 E5.22877
G1 X105.88 Y108.487 E5.2399
G1 X106.057 Y108.107 E5.25106
G1 X106.258 Y107.82 E5.26038
G0 F1800 X106.566 Y108.075
G1 F1200 X106.893 Y107.68 E5.27403
G1 X107.165 Y107.415 E5.28413
G1 X107.65 Y107.142 E5.29894
G1 X107.848 Y107.068 E5.30456
G1 X108.215 Y106.973 E5.31465
G1 X108.473 Y106.954 E5.32153
G1 X111.403 Y106.946 E5.3995
G1 X111.865 Y107.005 E5.41189
G1 X112.181 Y107.088 E5.42058
G1 X112.536 Y107.222 E5.43068
G1 X112.952 Y107.513 E5.44419
G1 X113.176 Y107.722 E5.45234
G1 X113.424 Y108.008 E5.46241
G1 X113.592 Y108.305 E5.47149
G1 X113.72 Y108.592 E5.47985
G1 X113.837 Y108.952 E5.48992
G1 X113.876 Y109.283 E5.49879
G1 X113.904 Y110.484 E5.53076
G1 X113.872 Y110.862 E5.54085
G1 X113.764 Y111.221 E5.55083
G1 X113.548 Y111.737 E5.56571
G1 X113.366 Y112.069 E5.57579
G1 X113.344 Y112.095 E5.57669
G1 X113.424 Y112.187 E5.57994
G1 X113.592 Y112.484 E5.58901
G1 X113.72 Y112.771 E5.59738
G1 X113.837 Y113.131 E5.60745
G1 X113.876 Y113.462 E5.61632
G1 X113.904 Y114.664 E5.64831
G1 X113.872 Y115.042 E5.6584
G1 X113.764 Y115.401 E5.66838
G1 X113.548 Y115.917 E5.68326
G1 X113.366 Y116.249 E5.69334
G1 X113.118 Y116.536 E5.70343
G1 X112.93 Y116.689 E5.70988
G1 X112.709 Y116.846 E5.71709
G1 X112.379 Y117.032 E5.72717
G1 X112.041 Y117.14 E5.73661
G1 X111.782 Y117.195 E5.74366
G1 X111.403 Y117.234 E5.7538
G1 X108.48 Y117.226 E5.83157
G1 X108.103 Y117.185 E5.84166
G1 X107.751 Y117.07 E5.85151
G1 X107.462 Y116.941 E5.85994
G1 X107.134 Y116.751 E5.87002
G1 X106.751 Y116.37 E5.8844
G1 X106.517 Y116.055 E5.89484
G1 X106.324 Y115.729 E5.90492
G1 X106.204 Y115.37 E5.91499
G1 X106.166 Y115.102 E5.92219
G1 X106.09 Y113.964 E5.95254
G1 X106.106 Y113.574 E5.96293
G1 X106.173 Y113.132 E5.97482
G1 X106.269 Y112.766 E5.98489
G1 X106.44 Y112.427 E5.99499
G1 X106.566 Y112.254 E6.00069
G1 X106.689 Y112.106 E6.00581
G1 X106.517 Y111.875 E6.01347
G1 X106.324 Y111.549 E6.02355
G1 X106.204 Y111.19 E6.03362
G1 X106.166 Y110.922 E6.04082
G1 X106.09 Y109.785 E6.07114
G1 X106.106 Y109.395 E6.08153
G1 X106.173 Y108.953 E6.09343
G1 X106.269 Y108.587 E6.10349
G1 X106.44 Y108.248 E6.1136
G1 X106.566 Y108.075 E6.11929
G0 F1800 X106.875 Y108.33
G1 F1200 X107.202 Y107.935 E6.13294
G1 X107.444 Y107.705 E6.14182
G1 X107.79 Y107.517 E6.1523
G1 X107.988 Y107.443 E6.15792
G1 X108.474 Y107.354 E6.17107
G1 X111.404 Y107.346 E6.24903
G1 X111.764 Y107.392 E6.25869
G1 X112.08 Y107.475 E6.26738
G1 X112.39 Y107.598 E6.27625
G1 X112.679 Y107.805 E6.28571
G1 X112.903 Y108.014 E6.29386
G1 X113.118 Y108.27 E6.30276
G1 X113.227 Y108.468 E6.30877
G1 X113.355 Y108.755 E6.31714
G1 X113.453 Y109.074 E6.32601
G1 X113.476 Y109.292 E6.33185
G1 X113.504 Y110.493 E6.36381
G1 X113.472 Y110.826 E6.37271
G1 X113.395 Y111.067 E6.37945
G1 X113.179 Y111.583 E6.39433
G1 X113.015 Y111.873 E6.40319
G1 X112.793 Y112.091 E6.41147
G1 X112.903 Y112.193 E6.41547
G1 X113.118 Y112.449 E6.42436
G1 X113.227 Y112.647 E6.43037
G1 X113.355 Y112.934 E6.43874
G1 X113.453 Y113.253 E6.44762
G1 X113.476 Y113.471 E6.45345
G1 X113.504 Y114.673 E6.48544
G1 X113.471 Y115.006 E6.49434
G1 X113.395 Y115.247 E6.50107
G1 X113.179 Y115.763 E6.51595
G1 X113.015 Y116.053 E6.52482
G1 X112.699 Y116.363 E6.5366
G1 X112.478 Y116.52 E6.54381
G1 X112.184 Y116.68 E6.55271
G1 X111.958 Y116.748 E6.55899
G1 X111.699 Y116.803 E6.56604
G1 X111.404 Y116.834 E6.57393
G1 X108.481 Y116.826 E6.65171
G1 X108.15 Y116.785 E6.66058
G1 X107.914 Y116.704 E6.66722
G1 X107.625 Y116.575 E6.67564
G1 X107.339 Y116.404 E6.68451
G1 X107.072 Y116.132 E6.69465
G1 X106.838 Y115.817 E6.70509
G1 X106.672 Y115.527 E6.71398
G1 X106.565 Y115.075 E6.72634
G1 X106.489 Y113.937 E6.75669
G1 X106.502 Y113.634 E6.76476
G1 X106.569 Y113.192 E6.77665
G1 X106.658 Y112.87 E6.78554
G1 X106.875 Y112.509 E6.79675
G1 X107.202 Y112.114 E6.8104
G1 X107.217 Y112.1 E6.81094
G1 X107.072 Y111.952 E6.81645
G1 X106.838 Y111.637 E6.8269
G1 X106.672 Y111.347 E6.83579
G1 X106.565 Y110.895 E6.84815
G1 X106.489 Y109.758 E6.87847
G1 X106.502 Y109.455 E6.88654
G1 X106.569 Y109.013 E6.89843
G1 X106.658 Y108.691 E6.90732
G1 X106.875 Y108.33 E6.91853
G1 F4200 E1.91853
G0 F1800 X107.339 Y111.042
G0 X107.906 Y112.083
G1 F4200 E6.91853
G1 F1200 X107.788 Y112.03 E6.92197
G1 X107.55 Y111.88 E6.92946
G1 X107.393 Y111.713 E6.93555
G1 X107.159 Y111.398 E6.946
G1 X107.025 Y111.15 E6.9535
G1 X106.964 Y110.869 E6.96115
G1 X106.888 Y109.732 E6.99147
G1 X106.897 Y109.515 E6.99725
G1 X106.964 Y109.073 E7.00914
G1 X107.046 Y108.803 E7.01665
G1 X107.183 Y108.585 E7.0235
G1 X107.51 Y108.19 E7.03715
G1 X107.718 Y108.001 E7.04462
G1 X107.93 Y107.891 E7.05098
G1 X108.128 Y107.817 E7.0566
G1 X108.475 Y107.754 E7.06599
G1 X111.405 Y107.746 E7.14395
G1 X111.662 Y107.779 E7.15084
G1 X111.978 Y107.862 E7.15954
G1 X112.238 Y107.971 E7.16704
G1 X112.406 Y108.098 E7.17264
G1 X112.63 Y108.307 E7.18079
G1 X112.861 Y108.631 E7.19138
G1 X112.989 Y108.918 E7.19974
G1 X113.076 Y109.302 E7.21022
G1 X113.104 Y110.503 E7.24218
