;FLAVOR:Marlin
;TIME:4406
;Filament used: 5.02303m
;Layer height: 0.2
;Generated with Cura_SteamEngine 3.6.0
M140 S70
M105
M190 S70
M104 S215
M105
M109 S215
M82 ;absolute extrusion mode
G28 ; home all axes
M117 Purge extruder
G92 E0 ; reset extruder
G1 Z1.0 F3000 ; move z up little to prevent scratching of surface
G1 X0.1 Y20 Z0.3 F5000.0 ; move to start-line position G1 X0.1 Y200.0 Z0.3 F1500.0 E15 ; draw 1st line
G1 X0.4 Y200.0 Z0.3 F5000.0 ; move to side a little
G1 X0.4 Y20 Z0.3 F1500.0 E30 ; draw 2nd line
G92 E0 ; reset extruder
G1 Z1.0 F3000 ; move z up little to prevent scratching of surface
M117 All systems go!
G92 E0
G1 F6000 E-5
;LAYER_COUNT:123
;LAYER:0
M107
M204 S5000
M205 X30 Y30
G0 F7200 X103.4 Y81.59 Z0.2
M204 S500
M205 X20 Y20
;TYPE:SKIRT
G1 F6000 E0
G1 F900 X103.531 Y81.448 E0.00707
G1 X103.991 Y81.009 E0.03033
G1 X104.502 Y80.63 E0.05361
G1 X105.056 Y80.319 E0.07685
G1 X105.646 Y80.08 E0.10014
G1 X106.26 Y79.917 E0.12338
G1 X106.89 Y79.832 E0.14664
G1 X107.248 Y79.819 E0.15975
G1 X125.533 Y79.81 E0.82873
G1 X126.167 Y79.85 E0.85197
G1 X126.792 Y79.969 E0.87525
G1 X127.397 Y80.165 E0.89851
G1 X127.972 Y80.436 E0.92177
G1 X128.509 Y80.776 E0.94502
G1 X129.113 Y81.292 E0.97409
G1 X129.242 Y81.421 E0.98076
G1 X129.662 Y81.898 E1.00401
G1 X130.02 Y82.424 E1.02729
G1 X130.308 Y82.991 E1.05056
G1 X130.524 Y83.589 E1.07382
G1 X130.662 Y84.21 E1.0971
G1 X130.724 Y84.997 E1.12598
G1 X130.725 Y87.819 E1.22922
G1 X138.167 Y149.226 E3.49231
G1 X138.204 Y149.835 E3.51463
G1 X138.204 Y153.004 E3.63057
G1 X138.164 Y153.639 E3.65385
G1 X138.045 Y154.263 E3.67709
G1 X137.848 Y154.868 E3.70037
G1 X137.577 Y155.443 E3.72363
G1 X137.236 Y155.98 E3.7469
G1 X136.722 Y156.582 E3.77586
G1 X136.593 Y156.711 E3.78254
G1 X136.116 Y157.131 E3.80579
G1 X135.59 Y157.489 E3.82907
G1 X135.023 Y157.777 E3.85233
G1 X134.425 Y157.993 E3.8756
G1 X133.804 Y158.131 E3.89887
G1 X133.018 Y158.193 E3.92772
G1 X109.149 Y158.206 E4.80099
G1 X108.514 Y158.166 E4.82427
G1 X107.889 Y158.047 E4.84755
G1 X107.284 Y157.851 E4.87081
G1 X106.709 Y157.581 E4.89405
G1 X106.172 Y157.24 E4.91733
G1 X105.568 Y156.724 E4.94639
G1 X105.439 Y156.595 E4.95307
G1 X105.019 Y156.118 E4.97632
G1 X104.661 Y155.592 E4.9996
G1 X104.373 Y155.025 E5.02286
G1 X104.157 Y154.427 E5.04613
G1 X104.019 Y153.806 E5.0694
G1 X103.957 Y153.017 E5.09836
G1 X103.957 Y149.945 E5.21075
G1 X103.997 Y149.31 E5.23403
G1 X104.116 Y148.686 E5.25727
G1 X104.313 Y148.081 E5.28055
G1 X104.584 Y147.506 E5.3038
G1 X104.925 Y146.969 E5.32708
G1 X105.439 Y146.367 E5.35604
G1 X105.568 Y146.238 E5.36271
G1 X106.045 Y145.818 E5.38596
G1 X106.571 Y145.46 E5.40924
G1 X107.138 Y145.172 E5.43251
G1 X107.736 Y144.956 E5.45577
G1 X108.357 Y144.818 E5.47905
G1 X109.143 Y144.756 E5.50789
G1 X110.569 Y144.755 E5.56006
G1 X104.17 Y91.949 E7.50616
G1 X103.85 Y91.676 E7.52155
G1 X103.721 Y91.547 E7.52823
G1 X103.301 Y91.07 E7.55148
G1 X102.943 Y90.544 E7.57476
G1 X102.655 Y89.977 E7.59803
G1 X102.439 Y89.379 E7.62129
G1 X102.301 Y88.758 E7.64456
G1 X102.248 Y88.277 E7.66227
G1 X102.068 Y85.329 E7.77032
G1 X102.07 Y84.693 E7.79359
G1 X102.151 Y84.063 E7.81683
G1 X102.31 Y83.447 E7.84011
G1 X102.545 Y82.856 E7.86338
G1 X102.853 Y82.3 E7.88663
G1 X102.957 Y82.166 E7.89284
G0 F810 X103.4 Y81.59
M204 S5000
M205 X30 Y30
G0 F7200 X103.723 Y81.888
M204 S500
M205 X20 Y20
G1 F6000 E7.91944
G1 F900 X103.854 Y81.746 E7.9265
G1 X104.295 Y81.328 E7.94873
G1 X104.786 Y80.971 E7.97094
G1 X105.321 Y80.681 E7.99321
G1 X105.888 Y80.464 E8.01542
G1 X106.479 Y80.324 E8.03764
G1 X107.248 Y80.259 E8.06588
G1 X125.533 Y80.25 E8.73485
G1 X126.139 Y80.29 E8.75707
G1 X126.735 Y80.409 E8.77931
G1 X127.31 Y80.605 E8.80153
G1 X127.854 Y80.874 E8.82374
G1 X128.359 Y81.213 E8.84599
G1 X128.802 Y81.603 E8.86758
G1 X128.931 Y81.732 E8.87426
G1 X129.331 Y82.189 E8.89648
G1 X129.668 Y82.695 E8.91872
G1 X129.936 Y83.24 E8.94094
G1 X130.13 Y83.816 E8.96318
G1 X130.247 Y84.412 E8.9854
G1 X130.284 Y84.998 E9.00688
G1 X130.285 Y87.847 E9.11112
G1 X137.73 Y149.279 E11.37512
G1 X137.764 Y149.835 E11.3955
G1 X137.764 Y153.004 E11.51144
G1 X137.724 Y153.61 E11.53366
G1 X137.605 Y154.206 E11.5559
G1 X137.409 Y154.781 E11.57812
G1 X137.138 Y155.325 E11.60036
G1 X136.799 Y155.83 E11.62261
G1 X136.411 Y156.271 E11.6441
G1 X136.282 Y156.4 E11.65078
G1 X135.825 Y156.8 E11.673
G1 X135.319 Y157.137 E11.69524
G1 X134.774 Y157.405 E11.71746
G1 X134.198 Y157.599 E11.7397
G1 X133.602 Y157.716 E11.76192
G1 X133.018 Y157.753 E11.78333
G1 X109.149 Y157.766 E12.6566
G1 X108.542 Y157.726 E12.67886
G1 X107.946 Y157.608 E12.70109
G1 X107.371 Y157.411 E12.72332
G1 X106.827 Y157.142 E12.74553
G1 X106.322 Y156.803 E12.76778
G1 X105.879 Y156.413 E12.78937
G1 X105.75 Y156.284 E12.79605
G1 X105.35 Y155.827 E12.81827
G1 X105.013 Y155.321 E12.84051
G1 X104.745 Y154.776 E12.86273
G1 X104.551 Y154.2 E12.88497
G1 X104.434 Y153.604 E12.90719
G1 X104.397 Y153.017 E12.92871
G1 X104.397 Y149.945 E13.0411
G1 X104.437 Y149.339 E13.06332
G1 X104.556 Y148.743 E13.08555
G1 X104.752 Y148.168 E13.10778
G1 X105.023 Y147.624 E13.13002
G1 X105.362 Y147.119 E13.15227
G1 X105.75 Y146.678 E13.17376
G1 X105.879 Y146.549 E13.18043
G1 X106.336 Y146.149 E13.20265
G1 X106.842 Y145.812 E13.2249
G1 X107.387 Y145.544 E13.24712
G1 X107.963 Y145.35 E13.26935
G1 X108.559 Y145.233 E13.29157
G1 X109.143 Y145.196 E13.31298
G1 X111.066 Y145.195 E13.38334
G1 X104.588 Y91.74 E15.35336
G1 X104.161 Y91.365 E15.37415
G1 X104.032 Y91.236 E15.38083
G1 X103.632 Y90.779 E15.40305
G1 X103.295 Y90.273 E15.42529
G1 X103.027 Y89.728 E15.44751
G1 X102.833 Y89.152 E15.46975
G1 X102.716 Y88.556 E15.49197
G1 X102.688 Y88.251 E15.50317
G1 X102.508 Y85.303 E15.61123
G1 X102.511 Y84.695 E15.63347
G1 X102.593 Y84.093 E15.6557
G1 X102.754 Y83.507 E15.67794
G1 X102.991 Y82.947 E15.70018
G1 X103.276 Y82.46 E15.72083
G0 F810 X103.298 Y82.423
G0 X103.723 Y81.888
M204 S5000
M205 X30 Y30
G0 F7200 X104.047 Y82.187
M204 S500
M205 X20 Y20
G1 F6000 E15.74743
G1 F900 X104.178 Y82.045 E15.75449
G1 X104.598 Y81.648 E15.77564
G1 X105.069 Y81.313 E15.79678
G1 X105.582 Y81.046 E15.81794
G1 X106.126 Y80.853 E15.83906
G1 X106.692 Y80.736 E15.86021
G1 X107.248 Y80.699 E15.88059
G1 X125.533 Y80.69 E16.54957
G1 X126.11 Y80.73 E16.57073
G1 X126.675 Y80.848 E16.59185
G1 X127.219 Y81.044 E16.61301
G1 X127.73 Y81.313 E16.63413
G1 X128.2 Y81.65 E16.65529
G1 X128.491 Y81.914 E16.66967
G1 X128.62 Y82.043 E16.67634
G1 X128.999 Y82.479 E16.69748
G1 X129.315 Y82.963 E16.71863
G1 X129.561 Y83.486 E16.73977
G1 X129.732 Y84.038 E16.76091
G1 X129.826 Y84.609 E16.78208
G1 X129.844 Y84.998 E16.79633
G1 X129.845 Y87.867 E16.9013
G1 X137.294 Y149.332 E19.16652
G1 X137.324 Y149.835 E19.18495
G1 X137.324 Y153.004 E19.3009
G1 X137.284 Y153.581 E19.32206
G1 X137.165 Y154.146 E19.34318
G1 X136.969 Y154.69 E19.36434
G1 X136.7 Y155.201 E19.38546
G1 X136.363 Y155.671 E19.40662
G1 X136.1 Y155.96 E19.42092
G1 X135.971 Y156.089 E19.42759
G1 X135.535 Y156.468 E19.44873
G1 X135.051 Y156.784 E19.46988
G1 X134.528 Y157.03 E19.49102
G1 X133.976 Y157.201 E19.51217
G1 X133.405 Y157.295 E19.53334
G1 X133.017 Y157.313 E19.54755
G1 X109.148 Y157.326 E20.42082
G1 X108.572 Y157.286 E20.44195
G1 X108.006 Y157.168 E20.4631
G1 X107.462 Y156.972 E20.48426
G1 X106.951 Y156.703 E20.50538
G1 X106.481 Y156.366 E20.52654
G1 X106.19 Y156.102 E20.54092
G1 X106.061 Y155.973 E20.54759
G1 X105.682 Y155.537 E20.56873
G1 X105.366 Y155.053 E20.58988
G1 X105.12 Y154.53 E20.61102
G1 X104.949 Y153.978 E20.63216
G1 X104.855 Y153.407 E20.65334
G1 X104.837 Y153.017 E20.66762
G1 X104.837 Y149.945 E20.78001
G1 X104.877 Y149.368 E20.80117
G1 X104.996 Y148.803 E20.8223
G1 X105.192 Y148.259 E20.84345
G1 X105.461 Y147.748 E20.86458
G1 X105.798 Y147.278 E20.88574
G1 X106.061 Y146.989 E20.90004
G1 X106.19 Y146.86 E20.90671
G1 X106.626 Y146.481 E20.92785
G1 X107.11 Y146.165 E20.94899
G1 X107.633 Y145.919 E20.97014
G1 X108.185 Y145.748 E20.99128
G1 X108.756 Y145.654 E21.01245
G1 X109.144 Y145.636 E21.02666
G1 X111.562 Y145.635 E21.11513
G1 X105 Y91.489 E23.11062
G1 X104.764 Y91.319 E23.12126
G1 X104.472 Y91.054 E23.13569
G1 X104.343 Y90.925 E23.14236
G1 X103.964 Y90.489 E23.1635
G1 X103.648 Y90.005 E23.18464
G1 X103.402 Y89.482 E23.20579
G1 X103.231 Y88.93 E23.22693
G1 X103.127 Y88.224 E23.25304
G1 X102.947 Y85.276 E23.3611
G1 X102.952 Y84.698 E23.38225
G1 X103.036 Y84.126 E23.4034
G1 X103.198 Y83.571 E23.42455
G1 X103.436 Y83.045 E23.44567
G1 X103.611 Y82.767 E23.45769
G0 F810 X103.744 Y82.555
G0 X104.047 Y82.187
M204 S5000
M205 X30 Y30
G0 F7200 X104.37 Y82.485
M204 S500
M205 X20 Y20
G1 F6000 E23.48429
G1 F900 X104.501 Y82.343 E23.49136
G1 X104.9 Y81.969 E23.51137
G1 X105.349 Y81.658 E23.53135
G1 X105.839 Y81.415 E23.55136
G1 X106.359 Y81.247 E23.57135
G1 X106.898 Y81.156 E23.59135
G1 X107.248 Y81.139 E23.60417
G1 X125.533 Y81.13 E24.27315
G1 X126.078 Y81.17 E24.29314
G1 X126.612 Y81.288 E24.31315
G1 X127.122 Y81.484 E24.33314
G1 X127.599 Y81.751 E24.35314
G1 X128.18 Y82.225 E24.38057
G1 X128.309 Y82.354 E24.38725
G1 X128.666 Y82.768 E24.40725
G1 X128.959 Y83.23 E24.42726
G1 X129.182 Y83.729 E24.44726
G1 X129.329 Y84.255 E24.46724
G1 X129.404 Y84.998 E24.49456
G1 X129.405 Y87.895 E24.60055
G1 X136.857 Y149.385 E26.8667
G1 X136.884 Y149.835 E26.88319
G1 X136.884 Y153.004 E26.99913
G1 X136.844 Y153.549 E27.01912
G1 X136.725 Y154.083 E27.03914
G1 X136.53 Y154.593 E27.05912
G1 X136.262 Y155.07 E27.07913
G1 X135.789 Y155.649 E27.10649
G1 X135.66 Y155.778 E27.11316
G1 X135.246 Y156.135 E27.13316
G1 X134.784 Y156.428 E27.15318
G1 X134.285 Y156.651 E27.17317
G1 X133.759 Y156.798 E27.19316
G1 X133.017 Y156.873 E27.22044
G1 X109.148 Y156.886 E28.09372
G1 X108.603 Y156.846 E28.11371
G1 X108.069 Y156.728 E28.13372
G1 X107.559 Y156.532 E28.15371
G1 X107.082 Y156.265 E28.17371
G1 X106.501 Y155.791 E28.20114
G1 X106.372 Y155.662 E28.20781
G1 X106.015 Y155.248 E28.22781
G1 X105.722 Y154.786 E28.24783
G1 X105.499 Y154.287 E28.26783
G1 X105.352 Y153.761 E28.28781
G1 X105.277 Y153.017 E28.31517
G1 X105.277 Y149.945 E28.42756
G1 X105.317 Y149.4 E28.44755
G1 X105.436 Y148.866 E28.46757
G1 X105.631 Y148.356 E28.48754
G1 X105.899 Y147.879 E28.50756
G1 X106.372 Y147.3 E28.53492
G1 X106.501 Y147.171 E28.54159
G1 X106.915 Y146.814 E28.56159
G1 X107.377 Y146.521 E28.58161
G1 X107.876 Y146.298 E28.6016
G1 X108.402 Y146.151 E28.62158
G1 X109.144 Y146.076 E28.64887
G1 X112.059 Y146.074 E28.75552
G1 X105.414 Y91.245 E30.77618
G1 X105.365 Y91.217 E30.77824
G1 X104.783 Y90.743 E30.8057
G1 X104.654 Y90.614 E30.81238
G1 X104.297 Y90.2 E30.83238
G1 X104.004 Y89.738 E30.85239
G1 X103.781 Y89.239 E30.87239
G1 X103.634 Y88.713 E30.89237
G1 X103.566 Y88.197 E30.91141
G1 X103.386 Y85.249 E31.01947
G1 X103.393 Y84.702 E31.03949
G1 X103.479 Y84.163 E31.05946
G1 X103.643 Y83.641 E31.07947
G1 X103.881 Y83.149 E31.09947
G1 X103.936 Y83.068 E31.10305
G0 F810 X104.189 Y82.697
G0 X104.37 Y82.485
M204 S5000
M205 X30 Y30
G0 F7200 X104.693 Y82.783
M204 S500
M205 X20 Y20
G1 F6000 E31.12965
G1 F900 X104.824 Y82.641 E31.13672
G1 X105.201 Y82.292 E31.15551
G1 X105.627 Y82.006 E31.17429
G1 X106.092 Y81.789 E31.19306
G1 X106.586 Y81.647 E31.21187
G1 X107.248 Y81.579 E31.23621
G1 X125.533 Y81.57 E31.90519
G1 X126.045 Y81.61 E31.92398
G1 X126.545 Y81.728 E31.94278
G1 X127.02 Y81.923 E31.96156
G1 X127.459 Y82.189 E31.98034
G1 X127.868 Y82.537 E31.99999
G1 X127.997 Y82.666 E32.00666
G1 X128.331 Y83.056 E32.02545
G1 X128.6 Y83.493 E32.04422
G1 X128.798 Y83.967 E32.06302
G1 X128.921 Y84.465 E32.08178
G1 X128.964 Y84.998 E32.10135
G1 X128.965 Y87.924 E32.2084
G1 X136.42 Y149.438 E34.47543
G1 X136.444 Y149.835 E34.48998
G1 X136.444 Y153.004 E34.60592
G1 X136.404 Y153.516 E34.62471
G1 X136.285 Y154.015 E34.64348
G1 X136.09 Y154.49 E34.66226
G1 X135.824 Y154.929 E34.68104
G1 X135.477 Y155.337 E34.70064
G1 X135.348 Y155.466 E34.70731
G1 X134.958 Y155.8 E34.7261
G1 X134.521 Y156.069 E34.74487
G1 X134.047 Y156.267 E34.76367
G1 X133.549 Y156.39 E34.78244
G1 X133.017 Y156.433 E34.80196
G1 X109.148 Y156.446 E35.67524
G1 X108.636 Y156.406 E35.69403
G1 X108.136 Y156.288 E35.71282
G1 X107.661 Y156.093 E35.73161
G1 X107.222 Y155.827 E35.75039
G1 X106.813 Y155.479 E35.77004
G1 X106.684 Y155.35 E35.77671
G1 X106.35 Y154.96 E35.7955
G1 X106.081 Y154.523 E35.81427
G1 X105.883 Y154.049 E35.83306
G1 X105.76 Y153.551 E35.85183
G1 X105.717 Y153.017 E35.87143
G1 X105.717 Y149.945 E35.98382
G1 X105.757 Y149.433 E36.00261
G1 X105.876 Y148.934 E36.02138
G1 X106.071 Y148.459 E36.04017
G1 X106.337 Y148.02 E36.05895
G1 X106.684 Y147.612 E36.07854
G1 X106.813 Y147.483 E36.08522
G1 X107.203 Y147.149 E36.104
G1 X107.64 Y146.88 E36.12278
G1 X108.114 Y146.682 E36.14157
G1 X108.612 Y146.559 E36.16034
G1 X109.144 Y146.516 E36.17987
G1 X112.555 Y146.514 E36.30466
G1 X105.824 Y90.973 E38.35156
G1 X105.505 Y90.78 E38.3652
G1 X105.095 Y90.431 E38.3849
G1 X104.966 Y90.302 E38.39158
G1 X104.632 Y89.912 E38.41036
G1 X104.363 Y89.475 E38.42914
G1 X104.165 Y89.001 E38.44793
G1 X104.042 Y88.503 E38.4667
G1 X104.005 Y88.17 E38.47896
G1 X103.825 Y85.222 E38.58701
G1 X103.834 Y84.709 E38.60578
G1 X103.922 Y84.203 E38.62457
G1 X104.088 Y83.717 E38.64336
G1 X104.27 Y83.372 E38.65764
G0 F810 X104.327 Y83.263
G0 X104.693 Y82.783
M204 S5000
M205 X30 Y30
G0 F7200 X105.017 Y83.082
M204 S500
M205 X20 Y20
G1 F6000 E38.68423
G1 F900 X105.148 Y82.94 E38.6913
G1 X105.5 Y82.617 E38.70878
G1 X105.901 Y82.357 E38.72627
G1 X106.34 Y82.168 E38.74375
G1 X106.804 Y82.054 E38.76123
G1 X107.249 Y82.019 E38.77756
G1 X125.534 Y82.01 E39.44654
G1 X126.01 Y82.05 E39.46402
G1 X126.473 Y82.168 E39.4815
G1 X126.91 Y82.362 E39.49899
G1 X127.308 Y82.626 E39.51647
G1 X127.557 Y82.848 E39.52867
G1 X127.686 Y82.977 E39.53534
G1 X127.995 Y83.342 E39.55284
G1 X128.238 Y83.753 E39.57031
G1 X128.41 Y84.199 E39.5878
G1 X128.505 Y84.667 E39.60527
G1 X128.524 Y84.998 E39.6174
G1 X128.525 Y87.952 E39.72548
G1 X135.983 Y149.491 E41.99342
G1 X136.004 Y149.835 E42.00603
G1 X136.004 Y153.004 E42.12197
G1 X135.964 Y153.48 E42.13945
G1 X135.845 Y153.943 E42.15694
G1 X135.651 Y154.38 E42.17443
G1 X135.387 Y154.778 E42.19191
G1 X135.166 Y155.026 E42.20406
G1 X135.037 Y155.155 E42.21074
G1 X134.672 Y155.464 E42.22823
G1 X134.261 Y155.707 E42.2457
G1 X133.815 Y155.879 E42.26319
G1 X133.347 Y155.974 E42.28066
G1 X133.017 Y155.993 E42.29275
G1 X109.148 Y156.006 E43.16603
G1 X108.671 Y155.966 E43.18354
G1 X108.208 Y155.848 E43.20102
G1 X107.771 Y155.654 E43.21852
G1 X107.373 Y155.39 E43.23599
G1 X107.124 Y155.168 E43.24819
G1 X106.995 Y155.039 E43.25487
G1 X106.686 Y154.674 E43.27237
G1 X106.443 Y154.263 E43.28983
G1 X106.271 Y153.817 E43.30732
G1 X106.176 Y153.349 E43.32479
G1 X106.157 Y153.017 E43.33696
G1 X106.157 Y149.945 E43.44935
G1 X106.197 Y149.469 E43.46683
G1 X106.316 Y149.006 E43.48432
G1 X106.51 Y148.569 E43.50181
G1 X106.774 Y148.171 E43.51929
G1 X106.995 Y147.923 E43.53144
G1 X107.124 Y147.794 E43.53811
G1 X107.489 Y147.485 E43.55561
G1 X107.9 Y147.242 E43.57308
G1 X108.346 Y147.07 E43.59057
G1 X108.814 Y146.975 E43.60804
G1 X109.144 Y146.956 E43.62013
G1 X113.052 Y146.954 E43.76311
G1 X106.233 Y90.685 E45.83684
G1 X106.054 Y90.606 E45.844
G1 X105.655 Y90.342 E45.8615
G1 X105.406 Y90.12 E45.87371
G1 X105.277 Y89.991 E45.88038
G1 X104.968 Y89.626 E45.89788
G1 X104.725 Y89.215 E45.91535
G1 X104.553 Y88.769 E45.93283
G1 X104.444 Y88.143 E45.95608
G1 X104.264 Y85.195 E46.06414
G1 X104.275 Y84.718 E46.0816
G1 X104.365 Y84.248 E46.0991
G1 X104.533 Y83.8 E46.11661
G1 X104.604 Y83.677 E46.1218
G0 F810 X104.772 Y83.387
G0 X105.017 Y83.082
M204 S5000
M205 X30 Y30
G0 F7200 X105.34 Y83.38
M204 S500
M205 X20 Y20
G1 F6000 E46.1484
G1 F900 X105.471 Y83.238 E46.15547
G1 X105.797 Y82.943 E46.17156
G1 X106.172 Y82.713 E46.18765
G1 X106.581 Y82.553 E46.20372
G1 X107.013 Y82.471 E46.21981
G1 X107.249 Y82.459 E46.22845
G1 X125.534 Y82.45 E46.89743
G1 X125.972 Y82.49 E46.91352
G1 X126.395 Y82.608 E46.92959
G1 X126.79 Y82.801 E46.94567
G1 X127.246 Y83.159 E46.96688
G1 X127.375 Y83.288 E46.97356
G1 X127.656 Y83.626 E46.98964
G1 X127.872 Y84.009 E47.00573
