;FLAVOR:Marlin
;TIME:1891
;Filament used: 1.26322m
;Layer height: 0.16
;Generated with Cura_SteamEngine 3.6.0
M140 S70
M105
M190 S70
M104 S215
M105
M109 S215
M82 ;absolute extrusion mode
G28 ; home all axes
M117 Purge extruder
G92 E0 ; reset extruder
G1 Z1.0 F3000 ; move z up little to prevent scratching of surface
G1 X0.1 Y20 Z0.3 F5000.0 ; move to start-line position G1 X0.1 Y200.0 Z0.3 F1500.0 E15 ; draw 1st line
G1 X0.4 Y200.0 Z0.3 F5000.0 ; move to side a little
G1 X0.4 Y20 Z0.3 F1500.0 E30 ; draw 2nd line
G92 E0 ; reset extruder
G1 Z1.0 F3000 ; move z up little to prevent scratching of surface
M117 All systems go!
G92 E0
G1 F6000 E-5
;LAYER_COUNT:45
;LAYER:0
M107
M204 S5000
M205 X30 Y30
G0 F7200 X99.358 Y101.527 Z0.2
M204 S500
M205 X20 Y20
;TYPE:SKIRT
G1 F6000 E0
G1 F900 X99.776 Y101.117 E0.02142
G1 X100.143 Y100.797 E0.03924
G1 X100.647 Y100.41 E0.06248
G1 X101.196 Y100.09 E0.08573
G1 X101.781 Y99.84 E0.10901
G1 X102.298 Y99.688 E0.12872
G1 X102.765 Y99.577 E0.14629
G1 X103.392 Y99.469 E0.16956
G1 X103.936 Y99.44 E0.18949
G1 X131.173 Y99.445 E1.18599
G1 X131.808 Y99.485 E1.20927
G1 X132.432 Y99.604 E1.23251
G1 X132.868 Y99.738 E1.2492
G1 X133.329 Y99.902 E1.2671
G1 X133.914 Y100.152 E1.29038
G1 X134.462 Y100.474 E1.31363
G1 X134.966 Y100.862 E1.3369
G1 X135.399 Y101.29 E1.35918
G1 X135.722 Y101.65 E1.37687
G1 X136.116 Y102.149 E1.40013
G1 X136.445 Y102.693 E1.42339
G1 X136.702 Y103.275 E1.44667
G1 X136.862 Y103.79 E1.4664
G1 X136.981 Y104.261 E1.48417
G1 X137.098 Y104.886 E1.50744
G1 X137.135 Y105.501 E1.52998
G1 X137.128 Y129.621 E2.41243
G1 X137.088 Y130.256 E2.43571
G1 X136.968 Y130.881 E2.459
G1 X136.8 Y131.413 E2.47941
G1 X136.631 Y131.859 E2.49686
G1 X136.368 Y132.438 E2.52012
G1 X136.036 Y132.98 E2.54338
G1 X135.637 Y133.476 E2.56667
G1 X135.279 Y133.832 E2.58514
G1 X134.928 Y134.147 E2.60239
G1 X134.429 Y134.541 E2.62566
G1 X133.884 Y134.869 E2.64893
G1 X133.303 Y135.127 E2.67219
G1 X132.77 Y135.291 E2.69259
G1 X132.292 Y135.41 E2.71061
G1 X131.667 Y135.525 E2.73386
G1 X131.07 Y135.56 E2.75574
G1 X130.404 Y135.56 E2.78011
G1 X129.769 Y135.52 E2.80338
G1 X129.145 Y135.401 E2.82663
G1 X128.54 Y135.204 E2.8499
G1 X127.965 Y134.933 E2.87316
G1 X127.428 Y134.592 E2.89643
G1 X126.826 Y134.078 E2.92539
G1 X126.697 Y133.949 E2.93207
G1 X126.277 Y133.472 E2.95532
G1 X125.981 Y133.037 E2.97457
G1 X125.672 Y133.279 E2.98893
G1 X125.309 Y133.506 E3.0046
G1 X124.341 Y134.056 E3.04533
G1 X123.769 Y134.335 E3.06861
G1 X122.859 Y134.614 E3.10343
G1 X121.135 Y134.968 E3.16783
G1 X120.505 Y135.056 E3.1911
G1 X119.983 Y135.069 E3.2102
G1 X117.718 Y135.009 E3.2931
G1 X117.085 Y134.952 E3.31635
G1 X116.463 Y134.817 E3.33964
G1 X115.864 Y134.604 E3.3629
G1 X115.296 Y134.318 E3.38616
G1 X114.872 Y134.041 E3.40469
G1 X114.205 Y133.555 E3.43489
G1 X113.757 Y133.183 E3.45619
G1 X113.246 Y133.286 E3.47526
G1 X112.616 Y133.372 E3.49853
G1 X111.98 Y133.379 E3.5218
G1 X111.348 Y133.306 E3.54507
G1 X110.731 Y133.155 E3.56831
G1 X110.137 Y132.927 E3.59159
G1 X109.577 Y132.626 E3.61485
G1 X109.325 Y132.457 E3.62595
G1 X109.158 Y132.811 E3.64027
G1 X108.817 Y133.348 E3.66355
G1 X108.289 Y133.964 E3.69323
G1 X108.159 Y134.093 E3.69993
G1 X107.68 Y134.511 E3.72319
G1 X107.153 Y134.867 E3.74646
G1 X106.585 Y135.153 E3.76972
G1 X105.986 Y135.366 E3.79298
G1 X105.365 Y135.502 E3.81624
G1 X104.731 Y135.559 E3.83953
G1 X104.274 Y135.551 E3.85625
G1 X103.25 Y135.486 E3.89379
G1 X102.62 Y135.406 E3.91703
G1 X102.004 Y135.247 E3.9403
G1 X101.413 Y135.013 E3.96356
G1 X100.676 Y134.586 E3.99472
G1 X100.279 Y134.309 E4.01243
G1 X99.781 Y133.913 E4.03571
G1 X99.337 Y133.458 E4.05897
G1 X98.954 Y132.95 E4.08224
G1 X98.685 Y132.494 E4.10161
G1 X98.465 Y132.071 E4.11906
G1 X98.207 Y131.489 E4.14235
G1 X98.025 Y130.88 E4.1656
G1 X97.92 Y130.253 E4.18886
G1 X97.894 Y129.741 E4.20762
G1 X97.872 Y105.384 E5.09875
G1 X97.911 Y104.749 E5.12203
G1 X98.03 Y104.124 E5.1453
G1 X98.198 Y103.593 E5.16568
G1 X98.367 Y103.145 E5.1832
G1 X98.628 Y102.565 E5.20647
G1 X98.912 Y102.101 E5.22637
G0 F810 X98.96 Y102.023
G0 X99.358 Y101.527
M204 S5000
M205 X30 Y30
G0 F7200 X99.738 Y101.763
M204 S500
M205 X20 Y20
G1 F6000 E5.25297
G1 F900 X100.065 Y101.449 E5.26955
G1 X100.432 Y101.129 E5.28737
G1 X100.915 Y100.76 E5.30961
G1 X101.442 Y100.459 E5.33181
G1 X102.005 Y100.229 E5.35406
G1 X102.4 Y100.116 E5.36909
G1 X102.867 Y100.005 E5.38665
G1 X103.466 Y99.904 E5.40888
G1 X103.936 Y99.88 E5.4261
G1 X131.173 Y99.885 E6.42259
G1 X131.779 Y99.925 E6.44481
G1 X132.375 Y100.044 E6.46705
G1 X132.72 Y100.152 E6.48027
G1 X133.181 Y100.316 E6.49818
G1 X133.739 Y100.557 E6.52041
G1 X134.261 Y100.869 E6.54266
G1 X134.737 Y101.247 E6.5649
G1 X135.072 Y101.584 E6.58229
G1 X135.395 Y101.944 E6.59998
G1 X135.77 Y102.422 E6.62221
G1 X136.079 Y102.945 E6.64443
G1 X136.317 Y103.504 E6.66666
G1 X136.435 Y103.897 E6.68168
G1 X136.554 Y104.368 E6.69945
G1 X136.664 Y104.966 E6.72169
G1 X136.695 Y105.501 E6.7413
G1 X136.688 Y129.621 E7.62376
G1 X136.648 Y130.228 E7.64601
G1 X136.529 Y130.823 E7.66821
G1 X136.388 Y131.257 E7.68491
G1 X136.219 Y131.703 E7.70236
G1 X135.967 Y132.256 E7.72459
G1 X135.644 Y132.771 E7.74683
G1 X135.257 Y133.239 E7.76905
G1 X134.985 Y133.504 E7.78295
G1 X134.634 Y133.819 E7.8002
G1 X134.156 Y134.195 E7.82245
G1 X133.633 Y134.504 E7.84468
G1 X133.074 Y134.742 E7.8669
G1 X132.664 Y134.864 E7.88255
G1 X132.186 Y134.983 E7.90058
G1 X131.588 Y135.091 E7.92281
G1 X131.07 Y135.12 E7.94179
G1 X130.404 Y135.12 E7.96616
G1 X129.798 Y135.08 E7.98838
G1 X129.202 Y134.961 E8.01061
G1 X128.627 Y134.765 E8.03284
G1 X128.083 Y134.494 E8.05507
G1 X127.578 Y134.155 E8.07733
G1 X127.137 Y133.767 E8.09882
G1 X127.008 Y133.638 E8.10549
G1 X126.608 Y133.181 E8.12771
G1 X126.271 Y132.675 E8.14995
G1 X126.103 Y132.333 E8.16389
G1 X125.86 Y132.576 E8.17647
G1 X125.378 Y132.947 E8.19872
G1 X125.091 Y133.124 E8.21106
G1 X124.123 Y133.674 E8.25179
G1 X123.576 Y133.939 E8.27403
G1 X122.77 Y134.183 E8.30484
G1 X121.046 Y134.537 E8.36923
G1 X120.444 Y134.619 E8.39146
G1 X119.995 Y134.629 E8.40789
G1 X117.73 Y134.569 E8.49078
G1 X117.125 Y134.513 E8.51301
G1 X116.532 Y134.378 E8.53526
G1 X115.963 Y134.167 E8.55747
G1 X115.426 Y133.883 E8.57969
G1 X115.131 Y133.685 E8.59269
G1 X114.464 Y133.199 E8.62288
G1 X113.998 Y132.81 E8.64509
G1 X113.901 Y132.704 E8.65035
G1 X113.159 Y132.854 E8.67805
G1 X112.557 Y132.935 E8.70027
G1 X111.949 Y132.937 E8.72251
G1 X111.346 Y132.858 E8.74476
G1 X110.759 Y132.701 E8.76699
G1 X110.198 Y132.469 E8.7892
G1 X109.523 Y132.061 E8.81806
G1 X109.12 Y131.768 E8.83629
G1 X108.99 Y132.149 E8.85102
G1 X108.719 Y132.693 E8.87325
G1 X108.38 Y133.198 E8.89551
G1 X107.979 Y133.651 E8.91764
G1 X107.849 Y133.78 E8.92434
G1 X107.391 Y134.179 E8.94657
G1 X106.884 Y134.514 E8.9688
G1 X106.337 Y134.78 E8.99105
G1 X105.761 Y134.972 E9.01327
G1 X105.164 Y135.086 E9.0355
G1 X104.302 Y135.112 E9.06705
G1 X103.278 Y135.047 E9.10459
G1 X102.676 Y134.968 E9.12681
G1 X102.089 Y134.812 E9.14903
G1 X101.527 Y134.579 E9.17129
G1 X100.927 Y134.225 E9.19677
G1 X100.53 Y133.948 E9.21449
G1 X100.056 Y133.568 E9.23671
G1 X99.636 Y133.13 E9.25891
G1 X99.276 Y132.639 E9.28119
G1 X99.075 Y132.291 E9.29589
G1 X98.855 Y131.868 E9.31334
G1 X98.611 Y131.311 E9.33558
G1 X98.442 Y130.728 E9.35779
G1 X98.351 Y130.127 E9.38003
G1 X98.334 Y129.74 E9.3942
G1 X98.312 Y105.383 E10.28533
G1 X98.351 Y104.777 E10.30755
G1 X98.47 Y104.181 E10.32978
G1 X98.609 Y103.748 E10.34642
G1 X98.778 Y103.3 E10.36394
G1 X99.03 Y102.747 E10.38617
G1 X99.289 Y102.333 E10.40404
G0 F810 X99.352 Y102.232
G0 X99.738 Y101.763
M204 S5000
M205 X30 Y30
G0 F7200 X100.117 Y102.004
M204 S500
M205 X20 Y20
G1 F6000 E10.43064
G1 F900 X100.354 Y101.78 E10.44257
G1 X100.721 Y101.46 E10.46038
G1 X101.182 Y101.112 E10.48152
G1 X101.686 Y100.83 E10.50265
G1 X102.501 Y100.544 E10.53425
G1 X102.968 Y100.433 E10.55181
G1 X103.539 Y100.339 E10.57298
G1 X103.936 Y100.32 E10.58752
G1 X131.173 Y100.325 E11.58402
G1 X131.749 Y100.365 E11.60514
G1 X132.573 Y100.567 E11.63618
G1 X133.034 Y100.731 E11.65408
G1 X133.564 Y100.962 E11.67524
G1 X134.057 Y101.263 E11.69637
G1 X134.503 Y101.63 E11.7175
G1 X134.744 Y101.878 E11.73015
G1 X135.067 Y102.238 E11.74785
G1 X135.423 Y102.693 E11.76899
G1 X135.712 Y103.194 E11.79015
G1 X136.009 Y104.005 E11.82174
G1 X136.128 Y104.476 E11.83952
G1 X136.23 Y105.045 E11.86067
G1 X136.255 Y105.501 E11.87738
G1 X136.248 Y129.621 E12.75983
G1 X136.208 Y130.198 E12.78099
G1 X136.089 Y130.763 E12.80212
G1 X135.977 Y131.101 E12.81515
G1 X135.808 Y131.547 E12.8326
G1 X135.566 Y132.072 E12.85375
G1 X135.254 Y132.559 E12.87491
G1 X134.691 Y133.177 E12.90549
G1 X134.34 Y133.492 E12.92275
G1 X133.884 Y133.847 E12.94389
G1 X133.384 Y134.136 E12.96502
G1 X132.848 Y134.354 E12.98619
G1 X132.558 Y134.437 E12.99723
G1 X132.08 Y134.556 E13.01525
G1 X131.511 Y134.657 E13.03639
G1 X131.07 Y134.68 E13.05255
G1 X130.404 Y134.68 E13.07691
G1 X129.827 Y134.64 E13.09807
G1 X129.262 Y134.521 E13.1192
G1 X128.718 Y134.325 E13.14035
G1 X128.207 Y134.056 E13.16148
G1 X127.737 Y133.719 E13.18264
G1 X127.448 Y133.456 E13.19694
G1 X127.319 Y133.327 E13.20361
G1 X126.94 Y132.891 E13.22475
G1 X126.624 Y132.407 E13.24589
G1 X126.378 Y131.884 E13.26704
G1 X126.261 Y131.507 E13.28148
G1 X125.957 Y131.856 E13.29842
G1 X125.548 Y132.264 E13.31955
G1 X124.874 Y132.741 E13.34976
G1 X123.906 Y133.291 E13.39049
G1 X123.385 Y133.541 E13.41164
G1 X122.682 Y133.752 E13.43849
G1 X120.958 Y134.106 E13.50288
G1 X120.385 Y134.182 E13.52403
G1 X120.006 Y134.19 E13.5379
G1 X117.741 Y134.13 E13.62079
G1 X117.166 Y134.074 E13.64193
G1 X116.604 Y133.94 E13.66307
G1 X116.066 Y133.73 E13.6842
G1 X115.39 Y133.329 E13.71295
G1 X114.723 Y132.843 E13.74315
G1 X114.281 Y132.472 E13.76426
G1 X114.058 Y132.224 E13.77646
G1 X113.072 Y132.423 E13.81326
G1 X112.498 Y132.498 E13.83444
G1 X111.921 Y132.494 E13.85555
G1 X111.349 Y132.409 E13.87671
G1 X110.794 Y132.247 E13.89786
G1 X110.267 Y132.01 E13.919
G1 X109.782 Y131.705 E13.93997
G1 X109.116 Y131.22 E13.97011
G1 X108.854 Y131 E13.98263
G1 X108.746 Y131.514 E14.00184
G1 X108.55 Y132.058 E14.023
G1 X108.281 Y132.569 E14.04412
G1 X107.944 Y133.039 E14.06528
G1 X107.669 Y133.339 E14.08017
G1 X107.539 Y133.468 E14.08687
G1 X107.102 Y133.846 E14.10801
G1 X106.617 Y134.16 E14.12915
G1 X106.093 Y134.404 E14.1503
G1 X105.54 Y134.573 E14.17145
G1 X104.969 Y134.664 E14.19261
G1 X104.33 Y134.673 E14.21599
G1 X103.306 Y134.608 E14.25353
G1 X102.733 Y134.531 E14.27468
G1 X102.177 Y134.377 E14.29579
G1 X101.646 Y134.147 E14.31696
G1 X101.179 Y133.864 E14.33694
G1 X100.782 Y133.587 E14.35465
G1 X100.332 Y133.224 E14.3758
G1 X99.937 Y132.803 E14.39692
G1 X99.466 Y132.088 E14.42825
G1 X99.246 Y131.665 E14.44569
G1 X99.015 Y131.135 E14.46684
G1 X98.86 Y130.578 E14.488
G1 X98.774 Y129.74 E14.51882
G1 X98.752 Y105.383 E15.40995
G1 X98.791 Y104.806 E15.4311
G1 X98.91 Y104.241 E15.45223
G1 X99.021 Y103.904 E15.46521
G1 X99.19 Y103.456 E15.48273
G1 X99.431 Y102.93 E15.5039
G1 X99.662 Y102.569 E15.51958
G0 F810 X99.742 Y102.443
G0 X100.117 Y102.004
M204 S5000
M205 X30 Y30
G0 F7200 X100.131 Y102.658
M204 S500
M205 X20 Y20
G1 F6000 E15.54618
G1 F900 X100.643 Y102.112 E15.57356
G1 X101.01 Y101.792 E15.59137
G1 X101.447 Y101.464 E15.61137
G1 X101.928 Y101.203 E15.63139
G1 X102.603 Y100.972 E15.65749
G1 X103.07 Y100.861 E15.67505
G1 X103.61 Y100.774 E15.69506
G1 X103.936 Y100.76 E15.707
G1 X131.173 Y100.765 E16.7035
G1 X131.718 Y100.805 E16.72349
G1 X132.426 Y100.981 E16.75018
G1 X132.887 Y101.145 E16.76808
G1 X133.387 Y101.366 E16.78808
G1 X133.85 Y101.657 E16.80809
G1 X134.417 Y102.171 E16.83609
G1 X134.74 Y102.531 E16.85379
G1 X135.074 Y102.964 E16.87379
G1 X135.342 Y103.44 E16.89378
G1 X135.582 Y104.113 E16.91992
G1 X135.701 Y104.584 E16.93769
G1 X135.796 Y105.122 E16.95768
G1 X135.815 Y105.501 E16.97156
G1 X135.808 Y129.621 E17.85402
G1 X135.768 Y130.166 E17.87402
G1 X135.565 Y130.945 E17.90347
G1 X135.396 Y131.391 E17.92092
G1 X135.166 Y131.887 E17.94092
G1 X134.865 Y132.344 E17.96094
G1 X134.397 Y132.849 E17.98613
G1 X134.046 Y133.164 E18.00339
G1 X133.614 Y133.499 E18.02339
G1 X133.137 Y133.767 E18.0434
G1 X132.452 Y134.01 E18.07
G1 X131.974 Y134.129 E18.08802
G1 X131.435 Y134.222 E18.10803
G1 X131.07 Y134.24 E18.1214
G1 X130.404 Y134.24 E18.14576
G1 X129.859 Y134.2 E18.16576
G1 X129.325 Y134.081 E18.18577
G1 X128.815 Y133.886 E18.20575
G1 X128.338 Y133.618 E18.22577
G1 X127.759 Y133.145 E18.25312
G1 X127.63 Y133.016 E18.2598
G1 X127.273 Y132.602 E18.2798
G1 X126.98 Y132.14 E18.29981
G1 X126.757 Y131.641 E18.31981
G1 X126.61 Y131.115 E18.33979
G1 X126.535 Y130.371 E18.36715
G1 X126.535 Y130.336 E18.36843
G1 X126.519 Y130.374 E18.36994
G1 X126.235 Y130.841 E18.38993
G1 X126.005 Y131.133 E18.40353
G1 X125.626 Y131.567 E18.42461
G1 X125.237 Y131.951 E18.44461
G1 X124.657 Y132.359 E18.47056
G1 X123.689 Y132.909 E18.51129
G1 X123.195 Y133.143 E18.53129
G1 X122.593 Y133.321 E18.55426
G1 X120.869 Y133.675 E18.61865
G1 X120.327 Y133.745 E18.63864
G1 X120.018 Y133.75 E18.64995
G1 X117.753 Y133.69 E18.73284
G1 X117.209 Y133.635 E18.75285
G1 X116.679 Y133.502 E18.77284
G1 X116.174 Y133.293 E18.79284
G1 X115.65 Y132.974 E18.81528
G1 X114.983 Y132.488 E18.84547
G1 X114.565 Y132.134 E18.86551
G1 X114.22 Y131.742 E18.88462
G1 X112.984 Y131.992 E18.93076
G1 X112.442 Y132.061 E18.95075
G1 X111.896 Y132.05 E18.97073
G1 X111.356 Y131.959 E18.99076
G1 X110.836 Y131.791 E19.01075
G1 X110.346 Y131.549 E19.03075
G1 X110.041 Y131.349 E19.04409
G1 X109.375 Y130.864 E19.07423
G1 X108.958 Y130.511 E19.09422
G1 X108.597 Y130.101 E19.11421
G1 X108.465 Y129.898 E19.12307
G1 X108.465 Y130.372 E19.14041
G1 X108.425 Y130.917 E19.1604
G1 X108.306 Y131.451 E19.18042
G1 X108.111 Y131.961 E19.2004
G1 X107.843 Y132.438 E19.22041
G1 X107.359 Y133.027 E19.2483
G1 X107.229 Y133.156 E19.25501
G1 X106.814 Y133.511 E19.27499
G1 X106.352 Y133.803 E19.29498
G1 X105.852 Y134.024 E19.31498
G1 X105.325 Y134.169 E19.33498
G1 X104.782 Y134.236 E19.355
G1 X104.358 Y134.233 E19.37051
G1 X103.334 Y134.168 E19.40805
G1 X102.793 Y134.094 E19.42803
G1 X102.268 Y133.942 E19.44802
G1 X101.771 Y133.714 E19.46803
G1 X101.431 Y133.503 E19.48267
G1 X101.034 Y133.226 E19.50038
G1 X100.61 Y132.881 E19.52038
G1 X100.24 Y132.479 E19.54037
G1 X99.856 Y131.885 E19.56625
G1 X99.636 Y131.462 E19.58369
G1 X99.42 Y130.96 E19.60368
G1 X99.279 Y130.431 E19.62371
G1 X99.214 Y129.739 E19.64914
G1 X99.192 Y105.382 E20.54027
G1 X99.231 Y104.837 E20.56026
G1 X99.433 Y104.059 E20.58967
G1 X99.602 Y103.611 E20.60719
G1 X99.756 Y103.279 E20.62058
G0 F810 X99.831 Y103.115
G0 X100.131 Y102.658
M204 S5000
M205 X30 Y30
G0 F7200 X100.519 Y102.876
M204 S500
M205 X20 Y20
G1 F6000 E20.64718
G1 F900 X100.932 Y102.444 E20.66904
G1 X101.299 Y102.124 E20.68686
G1 X101.711 Y101.817 E20.70565
G1 X102.166 Y101.579 E20.72444
G1 X102.705 Y101.4 E20.74522
G1 X103.172 Y101.289 E20.76278
G1 X103.936 Y101.2 E20.79092
G1 X131.173 Y101.205 E21.78742
G1 X131.684 Y101.245 E21.80617
G1 X132.278 Y101.396 E21.82859
G1 X132.739 Y101.56 E21.8465
G1 X133.208 Y101.769 E21.86528
G1 X133.639 Y102.048 E21.88407
G1 X134.089 Y102.465 E21.90651
G1 X134.412 Y102.825 E21.92421
G1 X134.724 Y103.233 E21.943
G1 X134.969 Y103.684 E21.96178
G1 X135.155 Y104.221 E21.98257
G1 X135.274 Y104.692 E22.00034
G1 X135.361 Y105.198 E22.01913
G1 X135.375 Y105.501 E22.03022
G1 X135.368 Y129.621 E22.91268
G1 X135.328 Y130.133 E22.93147
G1 X135.154 Y130.789 E22.9563
G1 X134.985 Y131.235 E22.97375
G1 X134.766 Y131.7 E22.99256
G1 X134.478 Y132.125 E23.01134
G1 X134.103 Y132.522 E23.03132
G1 X133.752 Y132.837 E23.04857
G1 X133.344 Y133.149 E23.06737
G1 X132.893 Y133.394 E23.08614
G1 X132.345 Y133.583 E23.10735
G1 X131.867 Y133.702 E23.12537
G1 X131.361 Y133.787 E23.14415
G1 X131.07 Y133.8 E23.1548
G1 X130.404 Y133.8 E23.17917
G1 X129.892 Y133.76 E23.19796
G1 X129.393 Y133.641 E23.21673
G1 X128.918 Y133.446 E23.23551
G1 X128.479 Y133.18 E23.25429
G1 X128.071 Y132.833 E23.27389
G1 X127.942 Y132.704 E23.28056
G1 X127.608 Y132.314 E23.29935
G1 X127.339 Y131.877 E23.31812
