;FLAVOR:Marlin
;TIME:2571
;Filament used: 1.17005m
;Layer height: 0.1
;Generated with Cura_SteamEngine 3.6.0
M140 S70
M105
M190 S70
M104 S215
M105
M109 S215
M82 ;absolute extrusion mode
G28 ; home all axes
M117 Purge extruder
G92 E0 ; reset extruder
G1 Z1.0 F3000 ; move z up little to prevent scratching of surface
G1 X0.1 Y20 Z0.3 F5000.0 ; move to start-line position G1 X0.1 Y200.0 Z0.3 F1500.0 E15 ; draw 1st line
G1 X0.4 Y200.0 Z0.3 F5000.0 ; move to side a little
G1 X0.4 Y20 Z0.3 F1500.0 E30 ; draw 2nd line
G92 E0 ; reset extruder
G1 Z1.0 F3000 ; move z up little to prevent scratching of surface
M117 All systems go!
G92 E0
G1 F6000 E-5
;LAYER_COUNT:72
;LAYER:0
M107
M204 S5000
M205 X30 Y30
G0 F7200 X99.358 Y101.527 Z0.2
M204 S500
M205 X20 Y20
;TYPE:SKIRT
G1 F6000 E0
G1 F900 X99.776 Y101.117 E0.02142
G1 X100.143 Y100.797 E0.03924
G1 X100.647 Y100.41 E0.06248
G1 X101.196 Y100.09 E0.08573
G1 X101.781 Y99.84 E0.10901
G1 X102.298 Y99.688 E0.12872
G1 X102.765 Y99.577 E0.14629
G1 X103.392 Y99.469 E0.16956
G1 X103.936 Y99.44 E0.18949
G1 X131.173 Y99.445 E1.18599
G1 X131.808 Y99.485 E1.20927
G1 X132.432 Y99.604 E1.23251
G1 X132.868 Y99.738 E1.2492
G1 X133.329 Y99.902 E1.2671
G1 X133.914 Y100.152 E1.29038
G1 X134.462 Y100.474 E1.31363
G1 X134.966 Y100.862 E1.3369
G1 X135.399 Y101.29 E1.35918
G1 X135.722 Y101.65 E1.37687
G1 X136.116 Y102.149 E1.40013
G1 X136.445 Y102.693 E1.42339
G1 X136.702 Y103.275 E1.44667
G1 X136.862 Y103.79 E1.4664
G1 X136.981 Y104.261 E1.48417
G1 X137.098 Y104.886 E1.50744
G1 X137.135 Y105.501 E1.52998
G1 X137.128 Y129.621 E2.41243
G1 X137.088 Y130.256 E2.43571
G1 X136.968 Y130.881 E2.459
G1 X136.8 Y131.413 E2.47941
G1 X136.631 Y131.859 E2.49686
G1 X136.368 Y132.438 E2.52012
G1 X136.036 Y132.98 E2.54338
G1 X135.637 Y133.476 E2.56667
G1 X135.279 Y133.832 E2.58514
G1 X134.928 Y134.147 E2.60239
G1 X134.429 Y134.541 E2.62566
G1 X133.884 Y134.869 E2.64893
G1 X133.303 Y135.127 E2.67219
G1 X132.77 Y135.291 E2.69259
G1 X132.292 Y135.41 E2.71061
G1 X131.667 Y135.525 E2.73386
G1 X131.07 Y135.56 E2.75574
G1 X130.404 Y135.56 E2.78011
G1 X129.769 Y135.52 E2.80338
G1 X129.145 Y135.401 E2.82663
G1 X128.54 Y135.204 E2.8499
G1 X127.965 Y134.933 E2.87316
G1 X127.428 Y134.592 E2.89643
G1 X126.826 Y134.078 E2.92539
G1 X126.697 Y133.949 E2.93207
G1 X126.277 Y133.472 E2.95532
G1 X126.251 Y133.434 E2.95701
G1 X125.71 Y133.897 E2.98306
G1 X125.202 Y134.279 E3.00631
G1 X124.65 Y134.595 E3.02958
G1 X124.062 Y134.838 E3.05286
G1 X123.449 Y135.007 E3.07612
G1 X122.819 Y135.096 E3.0994
G1 X122.421 Y135.112 E3.11398
G1 X121.599 Y135.112 E3.14405
G1 X120.964 Y135.072 E3.16733
G1 X120.34 Y134.953 E3.19057
G1 X119.735 Y134.756 E3.21385
G1 X119.16 Y134.485 E3.2371
G1 X118.621 Y134.143 E3.26046
G1 X117.956 Y133.659 E3.29055
G1 X117.643 Y133.399 E3.30544
G1 X117.135 Y133.625 E3.32578
G1 X116.526 Y133.808 E3.34904
G1 X115.899 Y133.914 E3.37231
G1 X115.58 Y133.938 E3.38401
G1 X114.708 Y133.974 E3.41594
G1 X114.072 Y133.96 E3.43922
G1 X113.443 Y133.867 E3.46248
G1 X112.831 Y133.695 E3.48574
G1 X112.245 Y133.448 E3.50901
G1 X111.524 Y133.011 E3.53985
G1 X111.145 Y132.736 E3.55698
G1 X111.12 Y132.731 E3.55792
G1 X110.515 Y132.534 E3.58119
G1 X109.94 Y132.263 E3.60445
G1 X109.509 Y131.99 E3.62312
G1 X109.429 Y132.236 E3.63258
G1 X109.158 Y132.811 E3.65584
G1 X108.817 Y133.348 E3.67911
G1 X108.289 Y133.964 E3.70879
G1 X108.159 Y134.093 E3.71549
G1 X107.68 Y134.511 E3.73875
G1 X107.153 Y134.867 E3.76202
G1 X106.585 Y135.153 E3.78529
G1 X105.986 Y135.366 E3.80855
G1 X105.365 Y135.502 E3.8318
G1 X104.731 Y135.559 E3.85509
G1 X104.274 Y135.551 E3.87182
G1 X103.25 Y135.486 E3.90936
G1 X102.62 Y135.406 E3.93259
G1 X102.004 Y135.247 E3.95587
G1 X101.413 Y135.013 E3.97912
G1 X100.676 Y134.586 E4.01028
G1 X100.279 Y134.309 E4.028
G1 X99.781 Y133.913 E4.05127
G1 X99.337 Y133.458 E4.07453
G1 X98.954 Y132.95 E4.09781
G1 X98.685 Y132.494 E4.11718
G1 X98.465 Y132.071 E4.13462
G1 X98.207 Y131.489 E4.15791
G1 X98.025 Y130.88 E4.18117
G1 X97.92 Y130.253 E4.20443
G1 X97.894 Y129.741 E4.22318
G1 X97.872 Y105.384 E5.11431
G1 X97.911 Y104.749 E5.13759
G1 X98.03 Y104.124 E5.16087
G1 X98.198 Y103.593 E5.18124
G1 X98.367 Y103.145 E5.19876
G1 X98.628 Y102.565 E5.22203
G1 X98.912 Y102.101 E5.24193
G0 F810 X98.96 Y102.023
G0 X99.358 Y101.527
M204 S5000
M205 X30 Y30
G0 F7200 X99.738 Y101.763
M204 S500
M205 X20 Y20
G1 F6000 E5.26853
G1 F900 X100.065 Y101.449 E5.28512
G1 X100.432 Y101.129 E5.30293
G1 X100.915 Y100.76 E5.32517
G1 X101.442 Y100.459 E5.34737
G1 X102.005 Y100.229 E5.36963
G1 X102.4 Y100.116 E5.38466
G1 X102.867 Y100.005 E5.40222
G1 X103.466 Y99.904 E5.42444
G1 X103.936 Y99.88 E5.44166
G1 X131.173 Y99.885 E6.43816
G1 X131.779 Y99.925 E6.46038
G1 X132.375 Y100.044 E6.48261
G1 X132.72 Y100.152 E6.49584
G1 X133.181 Y100.316 E6.51374
G1 X133.739 Y100.557 E6.53598
G1 X134.261 Y100.869 E6.55823
G1 X134.737 Y101.247 E6.58047
G1 X135.072 Y101.584 E6.59785
G1 X135.395 Y101.944 E6.61555
G1 X135.77 Y102.422 E6.63777
G1 X136.079 Y102.945 E6.66
G1 X136.317 Y103.504 E6.68223
G1 X136.435 Y103.897 E6.69724
G1 X136.554 Y104.368 E6.71501
G1 X136.664 Y104.966 E6.73726
G1 X136.695 Y105.501 E6.75686
G1 X136.688 Y129.621 E7.63932
G1 X136.648 Y130.228 E7.66158
G1 X136.529 Y130.823 E7.68378
G1 X136.388 Y131.257 E7.70047
G1 X136.219 Y131.703 E7.71792
G1 X135.967 Y132.256 E7.74016
G1 X135.644 Y132.771 E7.7624
G1 X135.257 Y133.239 E7.78462
G1 X134.985 Y133.504 E7.79851
G1 X134.634 Y133.819 E7.81576
G1 X134.156 Y134.195 E7.83802
G1 X133.633 Y134.504 E7.86024
G1 X133.074 Y134.742 E7.88247
G1 X132.664 Y134.864 E7.89812
G1 X132.186 Y134.983 E7.91614
G1 X131.588 Y135.091 E7.93837
G1 X131.07 Y135.12 E7.95735
G1 X130.404 Y135.12 E7.98172
G1 X129.798 Y135.08 E8.00394
G1 X129.202 Y134.961 E8.02618
G1 X128.627 Y134.765 E8.0484
G1 X128.083 Y134.494 E8.07064
G1 X127.578 Y134.155 E8.09289
G1 X127.137 Y133.767 E8.11438
G1 X127.008 Y133.638 E8.12105
G1 X126.608 Y133.181 E8.14327
G1 X126.335 Y132.772 E8.16127
G1 X126.143 Y132.948 E8.17079
G1 X125.424 Y133.563 E8.20541
G1 X124.937 Y133.927 E8.22765
G1 X124.407 Y134.223 E8.24986
G1 X123.842 Y134.448 E8.27211
G1 X123.253 Y134.596 E8.29433
G1 X122.421 Y134.672 E8.3249
G1 X121.599 Y134.672 E8.35497
G1 X120.993 Y134.632 E8.37719
G1 X120.397 Y134.513 E8.39943
G1 X119.822 Y134.317 E8.42165
G1 X119.278 Y134.046 E8.44389
G1 X118.88 Y133.787 E8.46126
G1 X118.215 Y133.303 E8.49136
G1 X117.749 Y132.914 E8.51356
G1 X117.7 Y132.861 E8.5162
G1 X117.488 Y132.988 E8.52525
G1 X116.931 Y133.231 E8.54748
G1 X116.347 Y133.398 E8.5697
G1 X115.562 Y133.498 E8.59865
G1 X114.69 Y133.534 E8.63058
G1 X114.082 Y133.519 E8.65284
G1 X113.482 Y133.425 E8.67506
G1 X112.899 Y133.252 E8.6973
G1 X112.344 Y133.005 E8.71953
G1 X111.783 Y132.655 E8.74372
G1 X111.322 Y132.32 E8.76457
G1 X111.177 Y132.291 E8.76998
G1 X110.602 Y132.095 E8.79221
G1 X110.058 Y131.824 E8.81444
G1 X109.66 Y131.565 E8.83182
G1 X109.248 Y131.265 E8.85046
G1 X109.186 Y131.574 E8.86199
G1 X108.99 Y132.149 E8.88422
G1 X108.719 Y132.693 E8.90645
G1 X108.38 Y133.198 E8.92871
G1 X107.979 Y133.651 E8.95084
G1 X107.849 Y133.78 E8.95754
G1 X107.391 Y134.179 E8.97976
G1 X106.884 Y134.514 E9.002
G1 X106.337 Y134.78 E9.02425
G1 X105.761 Y134.972 E9.04646
G1 X105.164 Y135.086 E9.0687
G1 X104.302 Y135.112 E9.10025
G1 X103.278 Y135.047 E9.13779
G1 X102.676 Y134.968 E9.16
G1 X102.089 Y134.812 E9.18223
G1 X101.527 Y134.579 E9.20448
G1 X100.927 Y134.225 E9.22997
G1 X100.53 Y133.948 E9.24768
G1 X100.056 Y133.568 E9.26991
G1 X99.636 Y133.13 E9.29211
G1 X99.276 Y132.639 E9.31439
G1 X99.075 Y132.291 E9.32909
G1 X98.855 Y131.868 E9.34653
G1 X98.611 Y131.311 E9.36878
G1 X98.442 Y130.728 E9.39099
G1 X98.351 Y130.127 E9.41323
G1 X98.334 Y129.74 E9.4274
G1 X98.312 Y105.383 E10.31853
G1 X98.351 Y104.777 E10.34075
G1 X98.47 Y104.181 E10.36298
G1 X98.609 Y103.748 E10.37962
G1 X98.778 Y103.3 E10.39714
G1 X99.03 Y102.747 E10.41937
G1 X99.289 Y102.333 E10.43724
G0 F810 X99.352 Y102.232
G0 X99.738 Y101.763
M204 S5000
M205 X30 Y30
G0 F7200 X100.117 Y102.004
M204 S500
M205 X20 Y20
G1 F6000 E10.46384
G1 F900 X100.354 Y101.78 E10.47577
G1 X100.721 Y101.46 E10.49358
G1 X101.182 Y101.112 E10.51472
G1 X101.686 Y100.83 E10.53584
G1 X102.501 Y100.544 E10.56745
G1 X102.968 Y100.433 E10.58501
G1 X103.539 Y100.339 E10.60618
G1 X103.936 Y100.32 E10.62072
G1 X131.173 Y100.325 E11.61722
G1 X131.749 Y100.365 E11.63834
G1 X132.573 Y100.567 E11.66938
G1 X133.034 Y100.731 E11.68728
G1 X133.564 Y100.962 E11.70844
G1 X134.057 Y101.263 E11.72957
G1 X134.503 Y101.63 E11.7507
G1 X134.744 Y101.878 E11.76335
G1 X135.067 Y102.238 E11.78105
G1 X135.423 Y102.693 E11.80218
G1 X135.712 Y103.194 E11.82334
G1 X136.009 Y104.005 E11.85494
G1 X136.128 Y104.476 E11.87272
G1 X136.23 Y105.045 E11.89387
G1 X136.255 Y105.501 E11.91057
G1 X136.248 Y129.621 E12.79303
G1 X136.208 Y130.198 E12.81419
G1 X136.089 Y130.763 E12.83532
G1 X135.977 Y131.101 E12.84834
G1 X135.808 Y131.547 E12.86579
G1 X135.566 Y132.072 E12.88694
G1 X135.254 Y132.559 E12.9081
G1 X134.691 Y133.177 E12.93869
G1 X134.34 Y133.492 E12.95595
G1 X133.884 Y133.847 E12.97709
G1 X133.384 Y134.136 E12.99822
G1 X132.848 Y134.354 E13.01939
G1 X132.558 Y134.437 E13.03042
G1 X132.08 Y134.556 E13.04845
G1 X131.511 Y134.657 E13.06959
G1 X131.07 Y134.68 E13.08574
G1 X130.404 Y134.68 E13.11011
G1 X129.827 Y134.64 E13.13127
G1 X129.262 Y134.521 E13.1524
G1 X128.718 Y134.325 E13.17355
G1 X128.207 Y134.056 E13.19468
G1 X127.737 Y133.719 E13.21584
G1 X127.448 Y133.456 E13.23013
G1 X127.319 Y133.327 E13.23681
G1 X126.94 Y132.891 E13.25795
G1 X126.624 Y132.407 E13.27909
G1 X126.435 Y132.004 E13.29538
G1 X126.403 Y132.05 E13.29743
G1 X125.857 Y132.613 E13.32612
G1 X125.138 Y133.228 E13.36074
G1 X124.674 Y133.573 E13.38189
G1 X124.167 Y133.85 E13.40303
G1 X123.626 Y134.054 E13.42418
G1 X123.063 Y134.182 E13.44531
G1 X122.421 Y134.232 E13.46887
G1 X121.599 Y134.232 E13.49894
G1 X121.022 Y134.192 E13.5201
G1 X120.457 Y134.073 E13.54122
G1 X119.913 Y133.877 E13.56238
G1 X119.402 Y133.608 E13.58351
G1 X119.139 Y133.432 E13.59509
G1 X118.474 Y132.948 E13.62518
G1 X118.032 Y132.576 E13.64631
G1 X117.78 Y132.298 E13.66004
G1 X117.757 Y132.314 E13.66107
G1 X117.261 Y132.61 E13.6822
G1 X116.729 Y132.835 E13.70333
G1 X116.171 Y132.985 E13.72447
G1 X115.543 Y133.058 E13.7476
G1 X114.671 Y133.094 E13.77953
G1 X114.094 Y133.078 E13.80065
G1 X113.524 Y132.983 E13.82179
G1 X112.972 Y132.809 E13.84297
G1 X112.45 Y132.562 E13.8641
G1 X112.042 Y132.299 E13.88186
G1 X111.502 Y131.907 E13.90627
G1 X111.237 Y131.851 E13.91618
G1 X110.693 Y131.655 E13.93733
G1 X110.182 Y131.386 E13.95846
G1 X109.919 Y131.21 E13.97004
G1 X109.254 Y130.726 E14.00013
G1 X108.901 Y130.429 E14.01701
G1 X108.865 Y130.949 E14.03608
G1 X108.746 Y131.514 E14.0572
G1 X108.55 Y132.058 E14.07836
G1 X108.281 Y132.569 E14.09949
G1 X107.944 Y133.039 E14.12065
G1 X107.669 Y133.339 E14.13554
G1 X107.539 Y133.468 E14.14224
G1 X107.102 Y133.846 E14.16338
G1 X106.617 Y134.16 E14.18451
G1 X106.093 Y134.404 E14.20566
G1 X105.54 Y134.573 E14.22682
G1 X104.969 Y134.664 E14.24797
G1 X104.33 Y134.673 E14.27135
G1 X103.306 Y134.608 E14.30889
G1 X102.733 Y134.531 E14.33004
G1 X102.177 Y134.377 E14.35115
G1 X101.646 Y134.147 E14.37232
G1 X101.179 Y133.864 E14.3923
G1 X100.782 Y133.587 E14.41001
G1 X100.332 Y133.224 E14.43117
G1 X99.937 Y132.803 E14.45229
G1 X99.466 Y132.088 E14.48361
G1 X99.246 Y131.665 E14.50105
G1 X99.015 Y131.135 E14.52221
G1 X98.86 Y130.578 E14.54336
G1 X98.774 Y129.74 E14.57418
G1 X98.752 Y105.383 E15.46531
G1 X98.791 Y104.806 E15.48647
G1 X98.91 Y104.241 E15.50759
G1 X99.021 Y103.904 E15.52057
G1 X99.19 Y103.456 E15.53809
G1 X99.431 Y102.93 E15.55926
G1 X99.662 Y102.569 E15.57494
G0 F810 X99.742 Y102.443
G0 X100.117 Y102.004
M204 S5000
M205 X30 Y30
G0 F7200 X100.131 Y102.658
M204 S500
M205 X20 Y20
G1 F6000 E15.60154
G1 F900 X100.643 Y102.112 E15.62892
G1 X101.01 Y101.792 E15.64674
G1 X101.447 Y101.464 E15.66673
G1 X101.928 Y101.203 E15.68675
G1 X102.603 Y100.972 E15.71285
G1 X103.07 Y100.861 E15.73041
G1 X103.61 Y100.774 E15.75042
G1 X103.936 Y100.76 E15.76236
G1 X131.173 Y100.765 E16.75886
G1 X131.718 Y100.805 E16.77885
G1 X132.426 Y100.981 E16.80554
G1 X132.887 Y101.145 E16.82345
G1 X133.387 Y101.366 E16.84345
G1 X133.85 Y101.657 E16.86345
G1 X134.417 Y102.171 E16.89145
G1 X134.74 Y102.531 E16.90915
G1 X135.074 Y102.964 E16.92916
G1 X135.342 Y103.44 E16.94914
G1 X135.582 Y104.113 E16.97528
G1 X135.701 Y104.584 E16.99306
G1 X135.796 Y105.122 E17.01304
G1 X135.815 Y105.501 E17.02693
G1 X135.808 Y129.621 E17.90938
G1 X135.768 Y130.166 E17.92938
G1 X135.565 Y130.945 E17.95883
G1 X135.396 Y131.391 E17.97628
G1 X135.166 Y131.887 E17.99628
G1 X134.865 Y132.344 E18.0163
G1 X134.397 Y132.849 E18.04149
G1 X134.046 Y133.164 E18.05875
G1 X133.614 Y133.499 E18.07875
G1 X133.137 Y133.767 E18.09877
G1 X132.452 Y134.01 E18.12536
G1 X131.974 Y134.129 E18.14338
G1 X131.435 Y134.222 E18.16339
G1 X131.07 Y134.24 E18.17676
G1 X130.404 Y134.24 E18.20113
G1 X129.859 Y134.2 E18.22112
G1 X129.325 Y134.081 E18.24114
G1 X128.815 Y133.886 E18.26111
G1 X128.338 Y133.618 E18.28113
G1 X127.759 Y133.145 E18.30848
G1 X127.63 Y133.016 E18.31516
G1 X127.273 Y132.602 E18.33516
G1 X126.98 Y132.14 E18.35517
G1 X126.757 Y131.641 E18.37517
G1 X126.61 Y131.115 E18.39515
G1 X126.587 Y130.888 E18.4035
G1 X126.339 Y131.375 E18.4235
G1 X126.022 Y131.821 E18.44351
G1 X125.571 Y132.279 E18.46703
G1 X124.852 Y132.894 E18.50165
G1 X124.412 Y133.218 E18.52164
G1 X123.929 Y133.475 E18.54166
G1 X123.414 Y133.658 E18.56165
G1 X122.878 Y133.764 E18.58164
G1 X122.421 Y133.792 E18.59839
G1 X121.599 Y133.792 E18.62847
G1 X121.054 Y133.752 E18.64846
G1 X120.52 Y133.633 E18.66848
G1 X120.01 Y133.438 E18.68845
G1 X119.398 Y133.076 E18.71447
G1 X118.733 Y132.592 E18.74456
G1 X118.316 Y132.239 E18.76455
G1 X117.955 Y131.829 E18.78453
G1 X117.929 Y131.789 E18.78628
G1 X117.746 Y131.786 E18.79297
G1 X117.506 Y131.953 E18.80367
G1 X117.036 Y132.231 E18.82365
G1 X116.53 Y132.438 E18.84365
G1 X115.999 Y132.569 E18.86366
G1 X115.525 Y132.619 E18.8811
G1 X114.653 Y132.655 E18.91303
G1 X114.107 Y132.637 E18.93302
G1 X113.569 Y132.541 E18.95301
G1 X113.051 Y132.366 E18.97302
G1 X112.564 Y132.118 E18.99301
G1 X112.3 Y131.943 E19.0046
G1 X111.686 Y131.497 E19.03236
G1 X111.3 Y131.411 E19.04683
G1 X110.79 Y131.216 E19.06681
G1 X110.178 Y130.854 E19.09282
G1 X109.513 Y130.37 E19.12291
G1 X109.096 Y130.017 E19.1429
G1 X108.735 Y129.607 E19.16289
G1 X108.465 Y129.191 E19.18103
G1 X108.465 Y130.372 E19.22424
G1 X108.425 Y130.917 E19.24423
G1 X108.306 Y131.451 E19.26425
G1 X108.111 Y131.961 E19.28423
G1 X107.843 Y132.438 E19.30424
G1 X107.359 Y133.027 E19.33214
G1 X107.229 Y133.156 E19.33884
G1 X106.814 Y133.511 E19.35882
G1 X106.352 Y133.803 E19.37881
G1 X105.852 Y134.024 E19.39881
G1 X105.325 Y134.169 E19.41881
G1 X104.782 Y134.236 E19.43883
G1 X104.358 Y134.233 E19.45434
G1 X103.334 Y134.168 E19.49188
G1 X102.793 Y134.094 E19.51186
G1 X102.268 Y133.942 E19.53185
G1 X101.771 Y133.714 E19.55186
G1 X101.431 Y133.503 E19.5665
G1 X101.034 Y133.226 E19.58421
G1 X100.61 Y132.881 E19.60421
G1 X100.24 Y132.479 E19.6242
G1 X99.856 Y131.885 E19.65008
G1 X99.636 Y131.462 E19.66752
G1 X99.42 Y130.96 E19.68751
G1 X99.279 Y130.431 E19.70754
G1 X99.214 Y129.739 E19.73297
G1 X99.192 Y105.382 E20.6241
G1 X99.231 Y104.837 E20.64409
G1 X99.433 Y104.059 E20.6735
G1 X99.602 Y103.611 E20.69102
G1 X99.756 Y103.279 E20.70441
G0 F810 X99.831 Y103.115
G0 X100.131 Y102.658
M204 S5000
M205 X30 Y30
G0 F7200 X100.519 Y102.876
M204 S500
M205 X20 Y20
G1 F6000 E20.73101
G1 F900 X100.932 Y102.444 E20.75287
G1 X101.299 Y102.124 E20.77069
G1 X101.711 Y101.817 E20.78949
G1 X102.166 Y101.579 E20.80827
G1 X102.705 Y101.4 E20.82905
G1 X103.172 Y101.289 E20.84661
G1 X103.936 Y101.2 E20.87475
G1 X131.173 Y101.205 E21.87125
G1 X131.684 Y101.245 E21.89
G1 X132.278 Y101.396 E21.91243
G1 X132.739 Y101.56 E21.93033
G1 X133.208 Y101.769 E21.94911
G1 X133.639 Y102.048 E21.9679
G1 X134.089 Y102.465 E21.99034
G1 X134.412 Y102.825 E22.00804
G1 X134.724 Y103.233 E22.02683
