;FLAVOR:Marlin
;TIME:1772
;Filament used: 1.32241m
;Layer height: 0.16
;Generated with Cura_SteamEngine 3.6.0
M140 S70
M105
M190 S70
M104 S215
M105
M109 S215
M82 ;absolute extrusion mode
G28 ; home all axes
M117 Purge extruder
G92 E0 ; reset extruder
G1 Z1.0 F3000 ; move z up little to prevent scratching of surface
G1 X0.1 Y20 Z0.3 F5000.0 ; move to start-line position G1 X0.1 Y200.0 Z0.3 F1500.0 E15 ; draw 1st line
G1 X0.4 Y200.0 Z0.3 F5000.0 ; move to side a little
G1 X0.4 Y20 Z0.3 F1500.0 E30 ; draw 2nd line
G92 E0 ; reset extruder
G1 Z1.0 F3000 ; move z up little to prevent scratching of surface
M117 All systems go!
G92 E0
G1 F6000 E-5
;LAYER_COUNT:45
;LAYER:0
M107
M204 S5000
M205 X30 Y30
G0 F7200 X99.358 Y101.527 Z0.2
M204 S500
M205 X20 Y20
;TYPE:SKIRT
G1 F6000 E0
G1 F900 X99.776 Y101.117 E0.02142
G1 X100.143 Y100.797 E0.03924
G1 X100.647 Y100.41 E0.06248
G1 X101.196 Y100.09 E0.08573
G1 X101.781 Y99.84 E0.10901
G1 X102.298 Y99.688 E0.12872
G1 X102.765 Y99.577 E0.14629
G1 X103.392 Y99.469 E0.16956
G1 X103.936 Y99.44 E0.18949
G1 X131.173 Y99.445 E1.18599
G1 X131.808 Y99.485 E1.20927
G1 X132.432 Y99.604 E1.23251
G1 X132.868 Y99.738 E1.2492
G1 X133.329 Y99.902 E1.2671
G1 X133.914 Y100.152 E1.29038
G1 X134.462 Y100.474 E1.31363
G1 X134.966 Y100.862 E1.3369
G1 X135.399 Y101.29 E1.35918
G1 X135.722 Y101.65 E1.37687
G1 X136.116 Y102.149 E1.40013
G1 X136.445 Y102.693 E1.42339
G1 X136.702 Y103.275 E1.44667
G1 X136.862 Y103.79 E1.4664
G1 X136.981 Y104.261 E1.48417
G1 X137.098 Y104.886 E1.50744
G1 X137.135 Y105.501 E1.52998
G1 X137.128 Y129.621 E2.41243
G1 X137.088 Y130.256 E2.43571
G1 X136.968 Y130.881 E2.459
G1 X136.8 Y131.413 E2.47941
G1 X136.631 Y131.859 E2.49686
G1 X136.368 Y132.438 E2.52012
G1 X136.036 Y132.98 E2.54338
G1 X135.637 Y133.476 E2.56667
G1 X135.279 Y133.832 E2.58514
G1 X134.928 Y134.147 E2.60239
G1 X134.429 Y134.541 E2.62566
G1 X133.884 Y134.869 E2.64893
G1 X133.303 Y135.127 E2.67219
G1 X132.77 Y135.291 E2.69259
G1 X132.292 Y135.41 E2.71061
G1 X131.667 Y135.525 E2.73386
G1 X131.07 Y135.56 E2.75574
G1 X130.404 Y135.56 E2.78011
G1 X129.769 Y135.52 E2.80338
G1 X129.145 Y135.401 E2.82663
G1 X128.54 Y135.204 E2.8499
G1 X127.965 Y134.933 E2.87316
G1 X127.87 Y134.872 E2.87729
G1 X127.737 Y134.969 E2.88331
G1 X127.18 Y135.276 E2.90658
G1 X126.589 Y135.511 E2.92985
G1 X125.973 Y135.669 E2.95312
G1 X125.342 Y135.749 E2.97639
G1 X125.023 Y135.759 E2.98807
G1 X109.985 Y135.76 E3.53825
G1 X109.351 Y135.72 E3.56149
G1 X108.726 Y135.601 E3.58477
G1 X108.121 Y135.404 E3.60805
G1 X107.546 Y135.133 E3.6313
G1 X107.139 Y134.874 E3.64895
G1 X106.585 Y135.153 E3.67165
G1 X105.986 Y135.366 E3.69491
G1 X105.365 Y135.502 E3.71816
G1 X104.731 Y135.559 E3.74145
G1 X104.274 Y135.551 E3.75818
G1 X103.25 Y135.486 E3.79571
G1 X102.62 Y135.406 E3.81895
G1 X102.004 Y135.247 E3.84223
G1 X101.413 Y135.013 E3.86548
G1 X100.676 Y134.586 E3.89664
G1 X100.279 Y134.309 E3.91435
G1 X99.781 Y133.913 E3.93763
G1 X99.337 Y133.458 E3.96089
G1 X98.954 Y132.95 E3.98417
G1 X98.685 Y132.494 E4.00354
G1 X98.465 Y132.071 E4.02098
G1 X98.207 Y131.489 E4.04427
G1 X98.025 Y130.88 E4.06753
G1 X97.92 Y130.253 E4.09079
G1 X97.894 Y129.741 E4.10954
G1 X97.872 Y105.384 E5.00067
G1 X97.911 Y104.749 E5.02395
G1 X98.03 Y104.124 E5.04723
G1 X98.198 Y103.593 E5.0676
G1 X98.367 Y103.145 E5.08512
G1 X98.628 Y102.565 E5.10839
G1 X98.912 Y102.101 E5.12829
G0 F810 X98.96 Y102.023
G0 X99.358 Y101.527
M204 S5000
M205 X30 Y30
G0 F7200 X99.738 Y101.763
M204 S500
M205 X20 Y20
G1 F6000 E5.15489
G1 F900 X100.065 Y101.449 E5.17148
G1 X100.432 Y101.129 E5.18929
G1 X100.915 Y100.76 E5.21153
G1 X101.442 Y100.459 E5.23373
G1 X102.005 Y100.229 E5.25598
G1 X102.4 Y100.116 E5.27102
G1 X102.867 Y100.005 E5.28858
G1 X103.466 Y99.904 E5.3108
G1 X103.936 Y99.88 E5.32802
G1 X131.173 Y99.885 E6.32452
G1 X131.779 Y99.925 E6.34674
G1 X132.375 Y100.044 E6.36897
G1 X132.72 Y100.152 E6.3822
G1 X133.181 Y100.316 E6.4001
G1 X133.739 Y100.557 E6.42234
G1 X134.261 Y100.869 E6.44459
G1 X134.737 Y101.247 E6.46682
G1 X135.072 Y101.584 E6.48421
G1 X135.395 Y101.944 E6.5019
G1 X135.77 Y102.422 E6.52413
G1 X136.079 Y102.945 E6.54636
G1 X136.317 Y103.504 E6.56859
G1 X136.435 Y103.897 E6.5836
G1 X136.554 Y104.368 E6.60137
G1 X136.664 Y104.966 E6.62362
G1 X136.695 Y105.501 E6.64322
G1 X136.688 Y129.621 E7.52568
G1 X136.648 Y130.228 E7.54794
G1 X136.529 Y130.823 E7.57014
G1 X136.388 Y131.257 E7.58683
G1 X136.219 Y131.703 E7.60428
G1 X135.967 Y132.256 E7.62652
G1 X135.644 Y132.771 E7.64876
G1 X135.257 Y133.239 E7.67098
G1 X134.985 Y133.504 E7.68487
G1 X134.634 Y133.819 E7.70212
G1 X134.156 Y134.195 E7.72437
G1 X133.633 Y134.504 E7.7466
G1 X133.074 Y134.742 E7.76883
G1 X132.664 Y134.864 E7.78448
G1 X132.186 Y134.983 E7.8025
G1 X131.588 Y135.091 E7.82473
G1 X131.07 Y135.12 E7.84371
G1 X130.404 Y135.12 E7.86808
G1 X129.798 Y135.08 E7.8903
G1 X129.202 Y134.961 E7.91253
G1 X128.627 Y134.765 E7.93476
G1 X128.083 Y134.494 E7.957
G1 X127.858 Y134.343 E7.96691
G1 X127.822 Y134.374 E7.96865
G1 X127.316 Y134.71 E7.99087
G1 X126.77 Y134.976 E8.01309
G1 X126.193 Y135.168 E8.03534
G1 X125.597 Y135.283 E8.05755
G1 X125.023 Y135.319 E8.07859
G1 X109.985 Y135.32 E8.62877
G1 X109.379 Y135.28 E8.65099
G1 X108.783 Y135.161 E8.67323
G1 X108.208 Y134.965 E8.69545
G1 X107.664 Y134.695 E8.71767
G1 X107.16 Y134.355 E8.73991
G1 X107.145 Y134.342 E8.74064
G1 X106.884 Y134.514 E8.75208
G1 X106.337 Y134.78 E8.77433
G1 X105.761 Y134.972 E8.79654
G1 X105.164 Y135.086 E8.81878
G1 X104.302 Y135.112 E8.85033
G1 X103.278 Y135.047 E8.88787
G1 X102.676 Y134.968 E8.91008
G1 X102.089 Y134.812 E8.93231
G1 X101.527 Y134.579 E8.95456
G1 X100.927 Y134.225 E8.98005
G1 X100.53 Y133.948 E8.99776
G1 X100.056 Y133.568 E9.01999
G1 X99.636 Y133.13 E9.04219
G1 X99.276 Y132.639 E9.06447
G1 X99.075 Y132.291 E9.07917
G1 X98.855 Y131.868 E9.09661
G1 X98.611 Y131.311 E9.11886
G1 X98.442 Y130.728 E9.14107
G1 X98.351 Y130.127 E9.16331
G1 X98.334 Y129.74 E9.17748
G1 X98.312 Y105.383 E10.06861
G1 X98.351 Y104.777 E10.09083
G1 X98.47 Y104.181 E10.11306
G1 X98.609 Y103.748 E10.1297
G1 X98.778 Y103.3 E10.14722
G1 X99.03 Y102.747 E10.16945
G1 X99.289 Y102.333 E10.18732
G0 F810 X99.352 Y102.232
G0 X99.738 Y101.763
M204 S5000
M205 X30 Y30
G0 F7200 X100.117 Y102.004
M204 S500
M205 X20 Y20
G1 F6000 E10.21392
G1 F900 X100.354 Y101.78 E10.22585
G1 X100.721 Y101.46 E10.24366
G1 X101.182 Y101.112 E10.26479
G1 X101.686 Y100.83 E10.28592
G1 X102.501 Y100.544 E10.31752
G1 X102.968 Y100.433 E10.33509
G1 X103.539 Y100.339 E10.35626
G1 X103.936 Y100.32 E10.3708
G1 X131.173 Y100.325 E11.3673
G1 X131.749 Y100.365 E11.38842
G1 X132.573 Y100.567 E11.41946
G1 X133.034 Y100.731 E11.43736
G1 X133.564 Y100.962 E11.45851
G1 X134.057 Y101.263 E11.47965
G1 X134.503 Y101.63 E11.50078
G1 X134.744 Y101.878 E11.51343
G1 X135.067 Y102.238 E11.53113
G1 X135.423 Y102.693 E11.55226
G1 X135.712 Y103.194 E11.57342
G1 X136.009 Y104.005 E11.60502
G1 X136.128 Y104.476 E11.6228
G1 X136.23 Y105.045 E11.64395
G1 X136.255 Y105.501 E11.66065
G1 X136.248 Y129.621 E12.54311
G1 X136.208 Y130.198 E12.56427
G1 X136.089 Y130.763 E12.5854
G1 X135.977 Y131.101 E12.59842
G1 X135.808 Y131.547 E12.61587
G1 X135.566 Y132.072 E12.63702
G1 X135.254 Y132.559 E12.65818
G1 X134.691 Y133.177 E12.68877
G1 X134.34 Y133.492 E12.70603
G1 X133.884 Y133.847 E12.72717
G1 X133.384 Y134.136 E12.7483
G1 X132.848 Y134.354 E12.76947
G1 X132.558 Y134.437 E12.7805
G1 X132.08 Y134.556 E12.79852
G1 X131.511 Y134.657 E12.81967
G1 X131.07 Y134.68 E12.83582
G1 X130.404 Y134.68 E12.86019
G1 X129.827 Y134.64 E12.88135
G1 X129.262 Y134.521 E12.90248
G1 X128.718 Y134.325 E12.92363
G1 X128.207 Y134.056 E12.94476
G1 X127.836 Y133.79 E12.96146
G1 X127.396 Y134.14 E12.98203
G1 X126.899 Y134.435 E13.00318
G1 X126.365 Y134.658 E13.02435
G1 X125.807 Y134.805 E13.04546
G1 X125.023 Y134.879 E13.07427
G1 X109.985 Y134.88 E13.62445
G1 X109.409 Y134.84 E13.64558
G1 X108.843 Y134.721 E13.66674
G1 X108.299 Y134.525 E13.68789
G1 X107.788 Y134.256 E13.70902
G1 X107.319 Y133.919 E13.73015
G1 X107.176 Y133.782 E13.7374
G1 X107.102 Y133.846 E13.74098
G1 X106.617 Y134.16 E13.76211
G1 X106.093 Y134.404 E13.78326
G1 X105.54 Y134.573 E13.80442
G1 X104.969 Y134.664 E13.82557
G1 X104.33 Y134.673 E13.84895
G1 X103.306 Y134.608 E13.88649
G1 X102.733 Y134.531 E13.90764
G1 X102.177 Y134.377 E13.92875
G1 X101.646 Y134.147 E13.94992
G1 X101.179 Y133.864 E13.9699
G1 X100.782 Y133.587 E13.98761
G1 X100.332 Y133.224 E14.00876
G1 X99.937 Y132.803 E14.02989
G1 X99.466 Y132.088 E14.06121
G1 X99.246 Y131.665 E14.07865
G1 X99.015 Y131.135 E14.09981
G1 X98.86 Y130.578 E14.12096
G1 X98.774 Y129.74 E14.15178
G1 X98.752 Y105.383 E15.04291
G1 X98.791 Y104.806 E15.06407
G1 X98.91 Y104.241 E15.08519
G1 X99.021 Y103.904 E15.09817
G1 X99.19 Y103.456 E15.11569
G1 X99.431 Y102.93 E15.13686
G1 X99.662 Y102.569 E15.15254
G0 F810 X99.742 Y102.443
G0 X100.117 Y102.004
M204 S5000
M205 X30 Y30
G0 F7200 X100.131 Y102.658
M204 S500
M205 X20 Y20
G1 F6000 E15.17914
G1 F900 X100.643 Y102.112 E15.20652
G1 X101.01 Y101.792 E15.22434
G1 X101.447 Y101.464 E15.24433
G1 X101.928 Y101.203 E15.26435
G1 X102.603 Y100.972 E15.29045
G1 X103.07 Y100.861 E15.30801
G1 X103.61 Y100.774 E15.32802
G1 X103.936 Y100.76 E15.33996
G1 X131.173 Y100.765 E16.33646
G1 X131.718 Y100.805 E16.35645
G1 X132.426 Y100.981 E16.38314
G1 X132.887 Y101.145 E16.40105
G1 X133.387 Y101.366 E16.42105
G1 X133.85 Y101.657 E16.44105
G1 X134.417 Y102.171 E16.46905
G1 X134.74 Y102.531 E16.48675
G1 X135.074 Y102.964 E16.50675
G1 X135.342 Y103.44 E16.52674
G1 X135.582 Y104.113 E16.55288
G1 X135.701 Y104.584 E16.57066
G1 X135.796 Y105.122 E16.59064
G1 X135.815 Y105.501 E16.60453
G1 X135.808 Y129.621 E17.48698
G1 X135.768 Y130.166 E17.50698
G1 X135.565 Y130.945 E17.53643
G1 X135.396 Y131.391 E17.55388
G1 X135.166 Y131.887 E17.57388
G1 X134.865 Y132.344 E17.5939
G1 X134.397 Y132.849 E17.61909
G1 X134.046 Y133.164 E17.63635
G1 X133.614 Y133.499 E17.65635
G1 X133.137 Y133.767 E17.67637
G1 X132.452 Y134.01 E17.70296
G1 X131.974 Y134.129 E17.72098
G1 X131.435 Y134.222 E17.74099
G1 X131.07 Y134.24 E17.75436
G1 X130.404 Y134.24 E17.77873
G1 X129.859 Y134.2 E17.79872
G1 X129.325 Y134.081 E17.81874
G1 X128.815 Y133.886 E17.83871
G1 X128.338 Y133.618 E17.85873
G1 X127.813 Y133.189 E17.88354
G1 X127.81 Y133.193 E17.88372
G1 X127.417 Y133.573 E17.90372
G1 X126.972 Y133.891 E17.92373
G1 X126.486 Y134.141 E17.94373
G1 X125.969 Y134.317 E17.96371
G1 X125.431 Y134.417 E17.98373
G1 X125.023 Y134.439 E17.99868
G1 X109.985 Y134.44 E18.54886
G1 X109.44 Y134.4 E18.56885
G1 X108.907 Y134.281 E18.58883
G1 X108.396 Y134.086 E18.60884
G1 X107.92 Y133.818 E18.62883
G1 X107.487 Y133.484 E18.64883
G1 X107.197 Y133.183 E18.66413
G1 X106.814 Y133.511 E18.68258
G1 X106.352 Y133.803 E18.70257
G1 X105.852 Y134.024 E18.72257
G1 X105.325 Y134.169 E18.74257
G1 X104.782 Y134.236 E18.76259
G1 X104.358 Y134.233 E18.7781
G1 X103.334 Y134.168 E18.81564
G1 X102.793 Y134.094 E18.83562
G1 X102.268 Y133.942 E18.85561
G1 X101.771 Y133.714 E18.87562
G1 X101.431 Y133.503 E18.89026
G1 X101.034 Y133.226 E18.90797
G1 X100.61 Y132.881 E18.92797
G1 X100.24 Y132.479 E18.94796
G1 X99.856 Y131.885 E18.97383
G1 X99.636 Y131.462 E18.99128
G1 X99.42 Y130.96 E19.01127
G1 X99.279 Y130.431 E19.0313
G1 X99.214 Y129.739 E19.05673
G1 X99.192 Y105.382 E19.94786
G1 X99.231 Y104.837 E19.96785
G1 X99.433 Y104.059 E19.99726
G1 X99.602 Y103.611 E20.01478
G1 X99.756 Y103.279 E20.02817
G0 F810 X99.831 Y103.115
G0 X100.131 Y102.658
M204 S5000
M205 X30 Y30
G0 F7200 X100.519 Y102.876
M204 S500
M205 X20 Y20
G1 F6000 E20.05477
G1 F900 X100.932 Y102.444 E20.07663
G1 X101.299 Y102.124 E20.09445
G1 X101.711 Y101.817 E20.11324
G1 X102.166 Y101.579 E20.13203
G1 X102.705 Y101.4 E20.15281
G1 X103.172 Y101.289 E20.17037
G1 X103.936 Y101.2 E20.19851
G1 X131.173 Y101.205 E21.19501
G1 X131.684 Y101.245 E21.21376
G1 X132.278 Y101.396 E21.23618
G1 X132.739 Y101.56 E21.25409
G1 X133.208 Y101.769 E21.27287
G1 X133.639 Y102.048 E21.29166
G1 X134.089 Y102.465 E21.3141
G1 X134.412 Y102.825 E21.3318
G1 X134.724 Y103.233 E21.35059
G1 X134.969 Y103.684 E21.36937
G1 X135.155 Y104.221 E21.39016
G1 X135.274 Y104.692 E21.40793
G1 X135.361 Y105.198 E21.42672
G1 X135.375 Y105.501 E21.43781
G1 X135.368 Y129.621 E22.32027
G1 X135.328 Y130.133 E22.33906
G1 X135.154 Y130.789 E22.36389
G1 X134.985 Y131.235 E22.38134
G1 X134.766 Y131.7 E22.40015
G1 X134.478 Y132.125 E22.41893
G1 X134.103 Y132.522 E22.43891
G1 X133.752 Y132.837 E22.45616
G1 X133.344 Y133.149 E22.47495
G1 X132.893 Y133.394 E22.49373
G1 X132.345 Y133.583 E22.51494
G1 X131.867 Y133.702 E22.53296
G1 X131.361 Y133.787 E22.55173
G1 X131.07 Y133.8 E22.56239
G1 X130.404 Y133.8 E22.58676
G1 X129.892 Y133.76 E22.60555
G1 X129.393 Y133.641 E22.62432
G1 X128.918 Y133.446 E22.6431
G1 X128.479 Y133.18 E22.66188
G1 X128.071 Y132.833 E22.68148
G1 X127.942 Y132.704 E22.68815
G1 X127.774 Y132.508 E22.6976
G1 X127.706 Y132.62 E22.70239
G1 X127.375 Y133.013 E22.72119
G1 X126.988 Y133.35 E22.73996
G1 X126.553 Y133.623 E22.75875
G1 X126.081 Y133.825 E22.77754
G1 X125.583 Y133.951 E22.79633
G1 X125.023 Y133.999 E22.81689
G1 X109.985 Y134 E23.36708
G1 X109.473 Y133.96 E23.38587
G1 X108.974 Y133.841 E23.40463
G1 X108.499 Y133.646 E23.42342
G1 X108.06 Y133.38 E23.4422
G1 X107.667 Y133.049 E23.461
G1 X107.331 Y132.661 E23.47978
G1 X107.231 Y132.501 E23.48668
G1 X107.049 Y132.714 E23.49693
G1 X106.919 Y132.843 E23.50363
G1 X106.528 Y133.176 E23.52242
G1 X106.09 Y133.443 E23.54119
G1 X105.615 Y133.639 E23.55999
G1 X105.116 Y133.76 E23.57877
G1 X104.386 Y133.794 E23.60551
G1 X103.362 Y133.729 E23.64305
G1 X102.854 Y133.657 E23.66182
G1 X102.363 Y133.507 E23.6806
G1 X101.901 Y133.282 E23.69941
G1 X101.683 Y133.142 E23.70888
G1 X101.286 Y132.865 E23.7266
G1 X100.889 Y132.54 E23.74537
G1 X100.547 Y132.156 E23.76418
G1 X100.246 Y131.682 E23.78472
G1 X100.026 Y131.259 E23.80217
G1 X99.826 Y130.786 E23.82095
G1 X99.701 Y130.288 E23.83974
G1 X99.654 Y129.739 E23.8599
G1 X99.632 Y105.382 E24.75103
G1 X99.671 Y104.87 E24.76981
G1 X99.844 Y104.214 E24.79464
G1 X100.013 Y103.766 E24.81215
G1 X100.141 Y103.494 E24.82315
G0 F810 X100.231 Y103.301
G0 X100.519 Y102.876
M204 S5000
M205 X30 Y30
G0 F7200 X100.905 Y103.099
M204 S500
M205 X20 Y20
G1 F6000 E24.84975
G1 F900 X101.221 Y102.775 E24.86631
G1 X101.588 Y102.455 E24.88412
G1 X101.974 Y102.172 E24.90163
G1 X102.401 Y101.958 E24.91911
G1 X102.807 Y101.829 E24.93469
G1 X103.274 Y101.718 E24.95226
G1 X103.936 Y101.64 E24.97664
G1 X131.173 Y101.645 E25.97314
G1 X131.649 Y101.685 E25.99062
G1 X132.131 Y101.81 E26.00883
G1 X132.592 Y101.974 E26.02674
G1 X133.027 Y102.172 E26.04422
G1 X133.423 Y102.439 E26.0617
G1 X133.762 Y102.759 E26.07875
G1 X134.085 Y103.119 E26.09645
G1 X134.373 Y103.5 E26.11392
G1 X134.594 Y103.924 E26.13141
G1 X134.729 Y104.328 E26.147
G1 X134.848 Y104.799 E26.16477
G1 X134.935 Y105.501 E26.19065
G1 X134.928 Y129.621 E27.07311
G1 X134.888 Y130.097 E27.09059
G1 X134.742 Y130.633 E27.11091
G1 X134.573 Y131.079 E27.12836
G1 X134.367 Y131.511 E27.14587
G1 X134.092 Y131.901 E27.16333
G1 X133.809 Y132.195 E27.17826
G1 X133.458 Y132.51 E27.19551
G1 X133.077 Y132.798 E27.21299
G1 X132.653 Y133.019 E27.23048
G1 X132.239 Y133.156 E27.24644
G1 X131.761 Y133.275 E27.26446
G1 X131.07 Y133.36 E27.28993
G1 X130.404 Y133.36 E27.3143
G1 X129.928 Y133.32 E27.33177
G1 X129.465 Y133.201 E27.34926
G1 X129.028 Y133.007 E27.36675
G1 X128.63 Y132.743 E27.38423
G1 X128.382 Y132.522 E27.39638
G1 X128.253 Y132.393 E27.40306
G1 X127.944 Y132.028 E27.42055
G1 X127.72 Y131.648 E27.43669
G1 X127.532 Y132.071 E27.45363
G1 X127.269 Y132.47 E27.47111
G1 X126.943 Y132.819 E27.48858
G1 X126.563 Y133.109 E27.50607
G1 X126.14 Y133.332 E27.52357
G1 X125.686 Y133.481 E27.54105
G1 X125.023 Y133.559 E27.56547
G1 X109.985 Y133.56 E28.11566
G1 X109.509 Y133.52 E28.13313
G1 X109.046 Y133.401 E28.15062
G1 X108.609 Y133.207 E28.16811
G1 X108.211 Y132.943 E28.18559
G1 X107.862 Y132.617 E28.20306
G1 X107.573 Y132.236 E28.22056
G1 X107.351 Y131.813 E28.23803
G1 X107.288 Y131.622 E28.24539
