;FLAVOR:Marlin
;TIME:3262
;Filament used: 1.87747m
;Layer height: 0.2
;Generated with Cura_SteamEngine 3.6.0
M140 S70
M105
M190 S70
M104 S215
M105
M109 S215
M82 ;absolute extrusion mode
G28 ; home all axes
M117 Purge extruder
G92 E0 ; reset extruder
G1 Z1.0 F3000 ; move z up little to prevent scratching of surface
G1 X0.1 Y20 Z0.3 F5000.0 ; move to start-line position G1 X0.1 Y200.0 Z0.3 F1500.0 E15 ; draw 1st line
G1 X0.4 Y200.0 Z0.3 F5000.0 ; move to side a little
G1 X0.4 Y20 Z0.3 F1500.0 E30 ; draw 2nd line
G92 E0 ; reset extruder
G1 Z1.0 F3000 ; move z up little to prevent scratching of surface
M117 All systems go!
G92 E0
G1 F6000 E-5
;LAYER_COUNT:17
;LAYER:0
M107
M204 S5000
M205 X30 Y30
G0 F7200 X142.077 Y33.11 Z0.2
M204 S500
M205 X20 Y20
;TYPE:SKIRT
G1 F6000 E0
G1 F900 X142.352 Y32.269 E0.02943
G1 X142.702 Y31.456 E0.05887
G1 X143.124 Y30.677 E0.08834
G1 X143.615 Y29.941 E0.11776
G1 X144.17 Y29.251 E0.14722
G1 X144.589 Y28.804 E0.16759
G1 X144.706 Y28.687 E0.1731
G1 X145.36 Y28.09 E0.20255
G1 X146.065 Y27.555 E0.23198
G1 X146.815 Y27.085 E0.26142
G1 X147.605 Y26.685 E0.29087
G1 X148.427 Y26.357 E0.32031
G1 X149.276 Y26.106 E0.34976
G1 X150.144 Y25.931 E0.37921
G1 X151.024 Y25.836 E0.40865
G1 X151.636 Y25.817 E0.42901
G1 X162.854 Y25.817 E0.80212
G1 X163.738 Y25.857 E0.83156
G1 X164.615 Y25.977 E0.861
G1 X165.478 Y26.175 E0.89045
G1 X166.319 Y26.45 E0.91987
G1 X166.522 Y26.537 E0.92722
G1 X167.045 Y26.333 E0.94589
G1 X167.895 Y26.088 E0.97531
G1 X168.764 Y25.92 E1.00475
G1 X169.645 Y25.832 E1.0342
G1 X170.184 Y25.817 E1.05213
G1 X184.402 Y25.817 E1.52503
G1 X185.286 Y25.857 E1.55446
G1 X186.163 Y25.977 E1.5839
G1 X187.026 Y26.175 E1.61335
G1 X187.867 Y26.45 E1.64278
G1 X188.68 Y26.8 E1.67222
G1 X189.459 Y27.222 E1.70169
G1 X190.195 Y27.713 E1.73111
G1 X190.885 Y28.268 E1.76056
G1 X191.332 Y28.687 E1.78094
G1 X191.449 Y28.804 E1.78645
G1 X192.046 Y29.458 E1.8159
G1 X192.581 Y30.163 E1.84533
G1 X193.051 Y30.913 E1.87477
G1 X193.451 Y31.703 E1.90422
G1 X193.779 Y32.525 E1.93366
G1 X194.03 Y33.374 E1.96311
G1 X194.205 Y34.242 E1.99256
G1 X194.3 Y35.122 E2.02199
G1 X194.319 Y35.749 E2.04286
G1 X194.271 Y66.172 E3.05473
G1 X194.23 Y67.057 E3.0842
G1 X194.109 Y67.934 E3.11365
G1 X193.909 Y68.796 E3.14308
G1 X193.642 Y69.611 E3.1716
G1 X193.268 Y70.604 E3.20689
G1 X192.919 Y71.418 E3.23635
G1 X192.498 Y72.196 E3.26577
G1 X191.766 Y73.252 E3.30851
G1 X191.256 Y73.893 E3.33575
G1 X190.674 Y74.56 E3.3652
G1 X190.034 Y75.172 E3.39465
G1 X189.342 Y75.723 E3.42407
G1 X188.961 Y75.986 E3.43947
G1 X188.069 Y76.571 E3.47495
G1 X187.308 Y77.022 E3.50437
G1 X186.509 Y77.403 E3.53381
G1 X185.679 Y77.711 E3.56326
G1 X184.871 Y77.931 E3.59111
G1 X183.826 Y78.169 E3.62675
G1 X182.955 Y78.327 E3.6562
G1 X181.651 Y78.414 E3.69966
G1 X151.637 Y78.417 E4.69793
G1 X150.753 Y78.377 E4.72737
G1 X149.876 Y78.258 E4.7568
G1 X149.013 Y78.059 E4.78626
G1 X148.171 Y77.784 E4.81572
G1 X147.358 Y77.434 E4.84516
G1 X146.58 Y77.012 E4.8746
G1 X145.843 Y76.522 E4.90403
G1 X145.154 Y75.967 E4.93346
G1 X144.706 Y75.547 E4.95389
G1 X144.589 Y75.43 E4.95939
G1 X143.992 Y74.776 E4.98884
G1 X143.457 Y74.071 E5.01828
G1 X142.987 Y73.321 E5.04771
G1 X142.587 Y72.531 E5.07717
G1 X142.259 Y71.709 E5.1066
G1 X142.008 Y70.86 E5.13605
G1 X141.833 Y69.992 E5.1655
G1 X141.738 Y69.112 E5.19494
G1 X141.719 Y68.5 E5.2153
G1 X141.719 Y54.282 E5.6882
G1 X141.759 Y53.398 E5.71763
G1 X141.879 Y52.521 E5.74707
G1 X142.077 Y51.658 E5.77652
G1 X142.352 Y50.817 E5.80595
G1 X142.439 Y50.614 E5.81329
G1 X142.235 Y50.09 E5.832
G1 X141.99 Y49.24 E5.86142
G1 X141.822 Y48.371 E5.89086
G1 X141.734 Y47.49 E5.9203
G1 X141.719 Y46.951 E5.93824
G1 X141.719 Y35.734 E6.31132
G1 X141.759 Y34.85 E6.34075
G1 X141.879 Y33.973 E6.37019
G1 X141.899 Y33.89 E6.37303
G0 F810 X142.077 Y33.11
M204 S5000
M205 X30 Y30
G0 F7200 X142.477 Y33.165
M204 S500
M205 X20 Y20
G1 F6000 E6.39964
G1 F900 X142.752 Y32.343 E6.42847
G1 X143.102 Y31.55 E6.4573
G1 X143.523 Y30.792 E6.48614
G1 X144.012 Y30.077 E6.51495
G1 X144.565 Y29.409 E6.54379
G1 X144.872 Y29.087 E6.55859
G1 X144.989 Y28.97 E6.56409
G1 X145.63 Y28.386 E6.59293
G1 X146.322 Y27.863 E6.62178
G1 X147.059 Y27.407 E6.65061
G1 X147.834 Y27.02 E6.67942
G1 X148.643 Y26.706 E6.70828
G1 X149.476 Y26.468 E6.7371
G1 X150.328 Y26.308 E6.76593
G1 X151.191 Y26.228 E6.79476
G1 X151.636 Y26.217 E6.80956
G1 X162.854 Y26.217 E7.18267
G1 X163.72 Y26.257 E7.21151
G1 X164.579 Y26.377 E7.24035
G1 X165.423 Y26.575 E7.26919
G1 X166.245 Y26.85 E7.29802
G1 X166.509 Y26.966 E7.30761
G1 X167.309 Y26.668 E7.336
G1 X168.145 Y26.441 E7.36482
G1 X168.999 Y26.292 E7.39365
G1 X170.184 Y26.217 E7.43314
G1 X184.402 Y26.217 E7.90603
G1 X185.268 Y26.257 E7.93487
G1 X186.127 Y26.377 E7.96372
G1 X186.971 Y26.575 E7.99255
G1 X187.793 Y26.85 E8.02138
G1 X188.586 Y27.2 E8.05021
G1 X189.344 Y27.621 E8.07905
G1 X190.059 Y28.11 E8.10786
G1 X190.727 Y28.663 E8.1367
G1 X191.049 Y28.97 E8.1515
G1 X191.166 Y29.087 E8.157
G1 X191.75 Y29.728 E8.18584
G1 X192.273 Y30.42 E8.21469
G1 X192.729 Y31.157 E8.24352
G1 X193.116 Y31.932 E8.27233
G1 X193.43 Y32.741 E8.30119
G1 X193.668 Y33.574 E8.33001
G1 X193.828 Y34.426 E8.35884
G1 X193.908 Y35.289 E8.38767
G1 X193.919 Y35.749 E8.40297
G1 X193.871 Y66.172 E9.41485
G1 X193.83 Y67.038 E9.44368
G1 X193.709 Y67.896 E9.4725
G1 X193.509 Y68.74 E9.50135
G1 X193.268 Y69.47 E9.52692
G1 X192.894 Y70.463 E9.56221
G1 X192.551 Y71.26 E9.59107
G1 X192.137 Y72.021 E9.61988
G1 X191.453 Y73.003 E9.65969
G1 X190.943 Y73.644 E9.68693
G1 X190.372 Y74.296 E9.71576
G1 X189.744 Y74.894 E9.7446
G1 X188.742 Y75.651 E9.78637
G1 X187.85 Y76.236 E9.82185
G1 X187.104 Y76.678 E9.85069
G1 X186.32 Y77.049 E9.87954
G1 X185.506 Y77.346 E9.90836
G1 X184.782 Y77.541 E9.93329
G1 X183.737 Y77.779 E9.96894
G1 X182.884 Y77.933 E9.99777
G1 X181.651 Y78.014 E10.03887
G1 X151.637 Y78.017 E11.03714
G1 X150.771 Y77.977 E11.06597
G1 X149.912 Y77.858 E11.09482
G1 X149.068 Y77.659 E11.12366
G1 X148.246 Y77.384 E11.15249
G1 X147.453 Y77.035 E11.1813
G1 X146.695 Y76.614 E11.21014
G1 X145.979 Y76.124 E11.239
G1 X145.312 Y75.571 E11.26782
G1 X144.989 Y75.264 E11.28264
G1 X144.872 Y75.147 E11.28814
G1 X144.288 Y74.506 E11.31698
G1 X143.765 Y73.814 E11.34583
G1 X143.309 Y73.077 E11.37466
G1 X142.922 Y72.302 E11.40347
G1 X142.608 Y71.493 E11.43233
G1 X142.37 Y70.66 E11.46115
G1 X142.21 Y69.808 E11.48998
G1 X142.13 Y68.945 E11.51881
G1 X142.119 Y68.5 E11.53361
G1 X142.119 Y54.282 E12.0065
G1 X142.159 Y53.416 E12.03534
G1 X142.279 Y52.557 E12.06419
G1 X142.477 Y51.713 E12.09302
G1 X142.752 Y50.891 E12.12185
G1 X142.869 Y50.627 E12.13145
G1 X142.57 Y49.826 E12.15989
G1 X142.343 Y48.99 E12.1887
G1 X142.194 Y48.136 E12.21754
G1 X142.119 Y46.951 E12.25703
G1 X142.119 Y35.734 E12.63011
G1 X142.159 Y34.868 E12.65894
G1 X142.279 Y34.009 E12.68779
G1 X142.295 Y33.944 E12.69001
G0 F810 X142.477 Y33.165
M204 S5000
M205 X30 Y30
G0 F7200 X142.877 Y33.222
M204 S500
M205 X20 Y20
G1 F6000 E12.71662
G1 F900 X143.152 Y32.419 E12.74485
G1 X143.501 Y31.646 E12.77306
G1 X143.921 Y30.91 E12.80125
G1 X144.409 Y30.216 E12.82947
G1 X145.155 Y29.37 E12.86698
G1 X145.272 Y29.253 E12.87248
G1 X145.899 Y28.682 E12.90069
G1 X146.578 Y28.173 E12.92891
G1 X147.301 Y27.73 E12.95712
G1 X148.063 Y27.357 E12.98533
G1 X148.857 Y27.057 E13.01356
G1 X149.675 Y26.833 E13.04177
G1 X150.511 Y26.688 E13.06999
G1 X151.636 Y26.617 E13.10749
G1 X162.854 Y26.617 E13.4806
G1 X163.701 Y26.657 E13.5088
G1 X164.541 Y26.777 E13.53702
G1 X165.366 Y26.975 E13.56524
G1 X166.169 Y27.25 E13.59347
G1 X166.517 Y27.407 E13.60617
G1 X166.771 Y27.289 E13.61549
G1 X167.57 Y27.005 E13.64369
G1 X168.393 Y26.797 E13.67192
G1 X169.231 Y26.668 E13.70012
G1 X170.184 Y26.617 E13.73187
G1 X184.402 Y26.617 E14.20476
G1 X185.249 Y26.657 E14.23296
G1 X186.089 Y26.777 E14.26118
G1 X186.914 Y26.975 E14.2894
G1 X187.717 Y27.25 E14.31763
G1 X188.49 Y27.599 E14.34584
G1 X189.226 Y28.019 E14.37403
G1 X189.92 Y28.507 E14.40224
G1 X190.766 Y29.253 E14.43976
G1 X190.883 Y29.37 E14.44526
G1 X191.454 Y29.997 E14.47347
G1 X191.963 Y30.676 E14.50169
G1 X192.406 Y31.399 E14.5299
G1 X192.779 Y32.161 E14.55811
G1 X193.079 Y32.955 E14.58634
G1 X193.303 Y33.773 E14.61455
G1 X193.448 Y34.609 E14.64277
G1 X193.519 Y35.748 E14.68073
G1 X193.471 Y66.171 E15.6926
G1 X193.43 Y67.018 E15.72081
G1 X193.309 Y67.858 E15.74904
G1 X193.109 Y68.683 E15.77727
G1 X192.893 Y69.329 E15.79992
G1 X192.519 Y70.322 E15.83522
G1 X192.183 Y71.101 E15.86343
G1 X191.775 Y71.845 E15.89166
G1 X191.14 Y72.753 E15.92851
G1 X190.63 Y73.394 E15.95575
G1 X190.071 Y74.033 E15.98399
G1 X189.454 Y74.615 E16.0122
G1 X188.523 Y75.317 E16.05098
G1 X187.631 Y75.902 E16.08646
G1 X186.9 Y76.333 E16.11469
G1 X186.132 Y76.694 E16.14291
G1 X185.334 Y76.98 E16.17111
G1 X184.694 Y77.151 E16.19314
G1 X183.649 Y77.389 E16.22879
G1 X182.814 Y77.538 E16.257
G1 X181.651 Y77.614 E16.29576
G1 X151.637 Y77.617 E17.29403
G1 X150.79 Y77.577 E17.32223
G1 X149.95 Y77.458 E17.35045
G1 X149.125 Y77.26 E17.37867
G1 X148.322 Y76.985 E17.4069
G1 X147.549 Y76.636 E17.43511
G1 X146.812 Y76.215 E17.46334
G1 X146.118 Y75.727 E17.49156
G1 X145.272 Y74.981 E17.52907
G1 X145.155 Y74.864 E17.53458
G1 X144.584 Y74.237 E17.56278
G1 X144.075 Y73.558 E17.59101
G1 X143.632 Y72.835 E17.61921
G1 X143.259 Y72.073 E17.64743
G1 X142.959 Y71.279 E17.67566
G1 X142.735 Y70.461 E17.70387
G1 X142.59 Y69.625 E17.73209
G1 X142.519 Y68.5 E17.76958
G1 X142.519 Y54.282 E18.24247
G1 X142.559 Y53.435 E18.27067
G1 X142.679 Y52.595 E18.2989
G1 X142.877 Y51.77 E18.32712
G1 X143.152 Y50.967 E18.35535
G1 X143.309 Y50.618 E18.36807
G1 X143.191 Y50.364 E18.37739
G1 X142.907 Y49.565 E18.40559
G1 X142.699 Y48.742 E18.43383
G1 X142.57 Y47.904 E18.46203
G1 X142.519 Y46.951 E18.49377
G1 X142.519 Y35.734 E18.86685
G1 X142.559 Y34.887 E18.89505
G1 X142.679 Y34.047 E18.92327
G1 X142.691 Y34 E18.92489
G0 F810 X142.877 Y33.222
M204 S5000
M205 X30 Y30
G0 F7200 X143.277 Y33.28
M204 S500
M205 X20 Y20
G1 F6000 E18.95149
G1 F900 X143.551 Y32.498 E18.97905
G1 X143.9 Y31.745 E19.00666
G1 X144.32 Y31.03 E19.03424
G1 X144.806 Y30.359 E19.0618
G1 X145.438 Y29.653 E19.09331
G1 X145.555 Y29.536 E19.09881
G1 X146.169 Y28.978 E19.12641
G1 X146.834 Y28.483 E19.15398
G1 X147.543 Y28.053 E19.18156
G1 X148.29 Y27.694 E19.20913
G1 X149.069 Y27.409 E19.23672
G1 X149.871 Y27.2 E19.26428
G1 X150.69 Y27.069 E19.29187
G1 X151.636 Y27.017 E19.32338
G1 X162.854 Y27.017 E19.69649
G1 X163.682 Y27.057 E19.72406
G1 X164.503 Y27.177 E19.75166
G1 X165.308 Y27.375 E19.77923
G1 X166.09 Y27.649 E19.80679
G1 X166.517 Y27.847 E19.82245
G1 X167.044 Y27.611 E19.84165
G1 X167.83 Y27.346 E19.86924
G1 X168.637 Y27.157 E19.89681
G1 X169.459 Y27.048 E19.92439
G1 X170.184 Y27.017 E19.94852
G1 X184.402 Y27.017 E20.42142
G1 X185.23 Y27.057 E20.44899
G1 X186.051 Y27.177 E20.47658
G1 X186.856 Y27.375 E20.50416
G1 X187.638 Y27.649 E20.53172
G1 X188.391 Y27.998 E20.55932
G1 X189.106 Y28.418 E20.5869
G1 X189.777 Y28.904 E20.61446
G1 X190.483 Y29.536 E20.64597
G1 X190.6 Y29.653 E20.65148
G1 X191.158 Y30.267 E20.67907
G1 X191.653 Y30.932 E20.70664
G1 X192.083 Y31.641 E20.73422
G1 X192.442 Y32.388 E20.76179
G1 X192.727 Y33.167 E20.78938
G1 X192.936 Y33.969 E20.81694
G1 X193.067 Y34.788 E20.84453
G1 X193.119 Y35.748 E20.87651
G1 X193.071 Y66.171 E21.88838
G1 X193.03 Y66.999 E21.91595
G1 X192.909 Y67.819 E21.94352
G1 X192.71 Y68.624 E21.9711
G1 X192.519 Y69.188 E21.99091
G1 X192.145 Y70.181 E22.0262
G1 X191.816 Y70.942 E22.05378
G1 X191.415 Y71.668 E22.08136
G1 X190.827 Y72.504 E22.11536
G1 X190.317 Y73.145 E22.1426
G1 X189.77 Y73.769 E22.1702
G1 X189.165 Y74.336 E22.19778
G1 X188.303 Y74.982 E22.23361
G1 X187.411 Y75.567 E22.26908
G1 X186.697 Y75.988 E22.29665
G1 X185.945 Y76.338 E22.32424
G1 X185.163 Y76.614 E22.35182
G1 X184.605 Y76.761 E22.37102
G1 X183.56 Y76.999 E22.40666
G1 X182.743 Y77.144 E22.43426
G1 X181.651 Y77.214 E22.47066
G1 X151.637 Y77.217 E23.46892
G1 X150.809 Y77.177 E23.4965
G1 X149.988 Y77.058 E23.52409
G1 X149.183 Y76.86 E23.55166
G1 X148.4 Y76.585 E23.57926
G1 X147.648 Y76.236 E23.60684
G1 X146.933 Y75.817 E23.6344
G1 X146.261 Y75.331 E23.66198
G1 X145.555 Y74.698 E23.69352
G1 X145.438 Y74.581 E23.69903
G1 X144.88 Y73.967 E23.72662
G1 X144.385 Y73.302 E23.75419
G1 X143.955 Y72.593 E23.78177
G1 X143.596 Y71.846 E23.80934
G1 X143.311 Y71.067 E23.83693
G1 X143.102 Y70.265 E23.86449
G1 X142.971 Y69.446 E23.89208
G1 X142.919 Y68.5 E23.92359
G1 X142.919 Y54.282 E24.39648
G1 X142.959 Y53.454 E24.42405
G1 X143.079 Y52.633 E24.45165
G1 X143.277 Y51.828 E24.47922
G1 X143.551 Y51.046 E24.50678
G1 X143.749 Y50.618 E24.52247
G1 X143.513 Y50.091 E24.54167
G1 X143.248 Y49.305 E24.56926
G1 X143.059 Y48.498 E24.59683
G1 X142.95 Y47.676 E24.62441
G1 X142.919 Y46.951 E24.64854
G1 X142.919 Y35.734 E25.02162
G1 X142.959 Y34.906 E25.04919
G1 X143.079 Y34.085 E25.07679
G1 X143.086 Y34.057 E25.07775
G0 F810 X143.277 Y33.28
M204 S5000
M205 X30 Y30
G0 F7200 X143.676 Y33.339
M204 S500
M205 X20 Y20
G1 F6000 E25.10436
G1 F900 X143.951 Y32.578 E25.13127
G1 X144.299 Y31.847 E25.1582
G1 X144.718 Y31.153 E25.18516
G1 X145.203 Y30.505 E25.21208
G1 X145.721 Y29.936 E25.23768
G1 X145.838 Y29.819 E25.24318
G1 X146.438 Y29.275 E25.27012
G1 X147.089 Y28.793 E25.29706
G1 X147.784 Y28.378 E25.32398
G1 X148.516 Y28.034 E25.35088
G1 X149.28 Y27.763 E25.37784
G1 X150.066 Y27.569 E25.40477
G1 X150.867 Y27.453 E25.43169
G1 X151.636 Y27.417 E25.4573
G1 X162.854 Y27.417 E25.83041
G1 X163.663 Y27.457 E25.85735
G1 X164.464 Y27.577 E25.88429
G1 X165.249 Y27.774 E25.91121
G1 X166.01 Y28.049 E25.93812
G1 X166.513 Y28.288 E25.95664
G1 X166.571 Y28.256 E25.95884
G1 X167.315 Y27.935 E25.9858
G1 X168.086 Y27.69 E26.0127
G1 X168.878 Y27.522 E26.03963
G1 X169.683 Y27.432 E26.06657
G1 X170.184 Y27.417 E26.08324
G1 X184.402 Y27.417 E26.55614
G1 X185.211 Y27.457 E26.58308
G1 X186.012 Y27.577 E26.61001
G1 X186.797 Y27.774 E26.63693
G1 X187.558 Y28.049 E26.66385
G1 X188.289 Y28.397 E26.69077
G1 X188.983 Y28.816 E26.71774
G1 X189.631 Y29.301 E26.74466
G1 X190.2 Y29.819 E26.77025
G1 X190.317 Y29.936 E26.77575
G1 X190.861 Y30.536 E26.80269
G1 X191.343 Y31.187 E26.82963
G1 X191.758 Y31.882 E26.85656
G1 X192.102 Y32.614 E26.88346
G1 X192.373 Y33.378 E26.91042
G1 X192.567 Y34.164 E26.93735
G1 X192.683 Y34.965 E26.96426
G1 X192.719 Y35.747 E26.9903
G1 X192.671 Y66.17 E28.00218
G1 X192.63 Y66.979 E28.02912
G1 X192.509 Y67.779 E28.05603
G1 X192.31 Y68.564 E28.08296
G1 X192.145 Y69.047 E28.09994
G1 X191.771 Y70.04 E28.13523
G1 X191.448 Y70.783 E28.16218
G1 X191.054 Y71.49 E28.1891
G1 X190.514 Y72.255 E28.22024
G1 X190.004 Y72.896 E28.24749
G1 X189.469 Y73.504 E28.27442
G1 X188.877 Y74.057 E28.30137
G1 X188.084 Y74.648 E28.33426
G1 X187.192 Y75.233 E28.36974
G1 X186.494 Y75.643 E28.39667
G1 X185.759 Y75.982 E28.42359
G1 X184.994 Y76.247 E28.45051
G1 X184.516 Y76.371 E28.46694
G1 X183.471 Y76.609 E28.50259
G1 X182.674 Y76.75 E28.52951
G1 X181.651 Y76.814 E28.5636
G1 X151.637 Y76.817 E29.56187
G1 X150.828 Y76.777 E29.58881
G1 X150.027 Y76.658 E29.61574
G1 X149.242 Y76.46 E29.64267
G1 X148.48 Y76.185 E29.66961
G1 X147.749 Y75.837 E29.69654
G1 X147.056 Y75.419 E29.72346
G1 X146.408 Y74.934 E29.75038
G1 X145.838 Y74.415 E29.77602
G1 X145.721 Y74.298 E29.78152
G1 X145.177 Y73.698 E29.80846
G1 X144.695 Y73.047 E29.8354
G1 X144.28 Y72.352 E29.86232
G1 X143.936 Y71.62 E29.88922
G1 X143.665 Y70.856 E29.91619
G1 X143.471 Y70.07 E29.94311
G1 X143.355 Y69.269 E29.97003
G1 X143.319 Y68.5 E29.99564
G1 X143.319 Y54.282 E30.46853
G1 X143.359 Y53.473 E30.49547
G1 X143.479 Y52.672 E30.52241
G1 X143.676 Y51.887 E30.54933
G1 X143.951 Y51.126 E30.57624
G1 X144.191 Y50.623 E30.59478
G1 X144.158 Y50.564 E30.59703
G1 X143.837 Y49.82 E30.62398
G1 X143.592 Y49.049 E30.65088
G1 X143.424 Y48.257 E30.67781
G1 X143.334 Y47.452 E30.70475
G1 X143.319 Y46.951 E30.72142
G1 X143.319 Y35.734 E31.0945
G1 X143.359 Y34.925 E31.12144
G1 X143.479 Y34.124 E31.14838
G1 X143.482 Y34.115 E31.1487
G0 F810 X143.676 Y33.339
M204 S5000
M205 X30 Y30
G0 F7200 X144.076 Y33.4
M204 S500
M205 X20 Y20
G1 F6000 E31.1753
G1 F900 X144.35 Y32.66 E31.20155
