;FLAVOR:Marlin
;TIME:12220
;Filament used: 6.72885m
;Layer height: 0.2
;Generated with Cura_SteamEngine 3.6.0
M140 S70
M105
M190 S70
M104 S215
M105
M109 S215
M82 ;absolute extrusion mode
G28 ; home all axes
M117 Purge extruder
G92 E0 ; reset extruder
G1 Z1.0 F3000 ; move z up little to prevent scratching of surface
G1 X0.1 Y20 Z0.3 F5000.0 ; move to start-line position G1 X0.1 Y200.0 Z0.3 F1500.0 E15 ; draw 1st line
G1 X0.4 Y200.0 Z0.3 F5000.0 ; move to side a little
G1 X0.4 Y20 Z0.3 F1500.0 E30 ; draw 2nd line
G92 E0 ; reset extruder
G1 Z1.0 F3000 ; move z up little to prevent scratching of surface
M117 All systems go!
G92 E0
G1 F6000 E-5
;LAYER_COUNT:12
;LAYER:0
M107
M204 S5000
M205 X30 Y30
G0 F7200 X53.57 Y51.687 Z0.2
M204 S500
M205 X20 Y20
;TYPE:SKIRT
G1 F6000 E0
G1 F900 X53.687 Y51.57 E0.0055
G1 X54.341 Y50.973 E0.03496
G1 X55.046 Y50.438 E0.06439
G1 X55.796 Y49.968 E0.09383
G1 X56.586 Y49.568 E0.12328
G1 X57.408 Y49.24 E0.15272
G1 X58.257 Y48.989 E0.18216
G1 X59.125 Y48.814 E0.21161
G1 X60.005 Y48.719 E0.24105
G1 X60.601 Y48.7 E0.26089
G1 X64.884 Y48.693 E0.40334
G1 X65.181 Y48.426 E0.41662
G1 X65.889 Y47.896 E0.44604
G1 X66.643 Y47.432 E0.47548
G1 X67.436 Y47.038 E0.50494
G1 X68.261 Y46.716 E0.53439
G1 X69.111 Y46.471 E0.56381
G1 X69.98 Y46.303 E0.59325
G1 X70.861 Y46.215 E0.6227
G1 X71.4 Y46.2 E0.64063
G1 X79.6 Y46.2 E0.91337
G1 X80.484 Y46.24 E0.9428
G1 X81.361 Y46.36 E0.97224
G1 X82.224 Y46.558 E1.00169
G1 X83.065 Y46.833 E1.03112
G1 X83.878 Y47.183 E1.06056
G1 X84.657 Y47.605 E1.09003
G1 X85.393 Y48.096 E1.11945
G1 X86.083 Y48.651 E1.1489
G1 X86.134 Y48.7 E1.15126
G1 X90.383 Y48.7 E1.29258
G1 X91.267 Y48.74 E1.32201
G1 X92.144 Y48.86 E1.35145
G1 X93.007 Y49.058 E1.3809
G1 X93.848 Y49.333 E1.41033
G1 X94.661 Y49.683 E1.43977
G1 X95.44 Y50.105 E1.46924
G1 X96.176 Y50.596 E1.49866
G1 X96.497 Y50.854 E1.51236
G1 X97.046 Y50.438 E1.53527
G1 X97.796 Y49.968 E1.56471
G1 X98.586 Y49.568 E1.59416
G1 X99.408 Y49.24 E1.6236
G1 X100.257 Y48.989 E1.65304
G1 X101.125 Y48.814 E1.68249
G1 X102.005 Y48.719 E1.71193
G1 X102.601 Y48.7 E1.73177
G1 X106.884 Y48.693 E1.87422
G1 X107.181 Y48.426 E1.8875
G1 X107.889 Y47.896 E1.91692
G1 X108.643 Y47.432 E1.94636
G1 X109.436 Y47.038 E1.97582
G1 X110.261 Y46.716 E2.00527
G1 X111.111 Y46.471 E2.03469
G1 X111.98 Y46.303 E2.06413
G1 X112.861 Y46.215 E2.09358
G1 X113.4 Y46.2 E2.11151
G1 X121.6 Y46.2 E2.38425
G1 X122.484 Y46.24 E2.41368
G1 X123.361 Y46.36 E2.44312
G1 X124.224 Y46.558 E2.47257
G1 X125.065 Y46.833 E2.502
G1 X125.878 Y47.183 E2.53144
G1 X126.657 Y47.605 E2.56091
G1 X127.393 Y48.096 E2.59033
G1 X128.083 Y48.651 E2.61978
G1 X128.134 Y48.7 E2.62214
G1 X132.383 Y48.7 E2.76346
G1 X133.267 Y48.74 E2.79289
G1 X134.144 Y48.86 E2.82233
G1 X135.007 Y49.058 E2.85178
G1 X135.848 Y49.333 E2.88121
G1 X136.661 Y49.683 E2.91065
G1 X137.44 Y50.105 E2.94012
G1 X138.176 Y50.596 E2.96954
G1 X138.497 Y50.854 E2.98324
G1 X139.046 Y50.438 E3.00615
G1 X139.796 Y49.968 E3.03559
G1 X140.586 Y49.568 E3.06504
G1 X141.408 Y49.24 E3.09448
G1 X142.257 Y48.989 E3.12392
G1 X143.125 Y48.814 E3.15337
G1 X144.005 Y48.719 E3.18281
G1 X144.601 Y48.7 E3.20265
G1 X148.884 Y48.693 E3.3451
G1 X149.181 Y48.426 E3.35838
G1 X149.889 Y47.896 E3.3878
G1 X150.643 Y47.432 E3.41724
G1 X151.436 Y47.038 E3.4467
G1 X152.261 Y46.716 E3.47615
G1 X153.111 Y46.471 E3.50557
G1 X153.98 Y46.303 E3.53501
G1 X154.861 Y46.215 E3.56446
G1 X155.4 Y46.2 E3.58239
G1 X163.6 Y46.2 E3.85513
G1 X164.484 Y46.24 E3.88456
G1 X165.361 Y46.36 E3.914
G1 X166.224 Y46.558 E3.94345
G1 X167.065 Y46.833 E3.97288
G1 X167.878 Y47.183 E4.00232
G1 X168.657 Y47.605 E4.03179
G1 X169.393 Y48.096 E4.06121
G1 X170.083 Y48.651 E4.09066
G1 X170.134 Y48.7 E4.09302
G1 X174.383 Y48.7 E4.23434
G1 X175.267 Y48.74 E4.26377
G1 X176.144 Y48.86 E4.29321
G1 X177.007 Y49.058 E4.32266
G1 X177.848 Y49.333 E4.35209
G1 X178.661 Y49.683 E4.38153
G1 X179.44 Y50.105 E4.411
G1 X180.176 Y50.596 E4.44042
G1 X180.866 Y51.151 E4.46988
G1 X181.313 Y51.57 E4.49025
G1 X181.43 Y51.687 E4.49576
G1 X182.027 Y52.341 E4.52521
G1 X182.562 Y53.046 E4.55465
G1 X183.032 Y53.796 E4.58408
G1 X183.432 Y54.586 E4.61354
G1 X183.76 Y55.408 E4.64297
G1 X184.011 Y56.257 E4.67242
G1 X184.186 Y57.125 E4.70187
G1 X184.281 Y58.005 E4.73131
G1 X184.3 Y58.601 E4.75114
G1 X184.307 Y62.884 E4.89359
G1 X184.574 Y63.181 E4.90688
G1 X185.104 Y63.889 E4.93629
G1 X185.568 Y64.643 E4.96574
G1 X185.962 Y65.436 E4.99519
G1 X186.284 Y66.261 E5.02465
G1 X186.529 Y67.111 E5.05407
G1 X186.697 Y67.98 E5.08351
G1 X186.785 Y68.861 E5.11295
G1 X186.8 Y69.4 E5.13089
G1 X186.8 Y77.6 E5.40362
G1 X186.76 Y78.484 E5.43305
G1 X186.64 Y79.361 E5.46249
G1 X186.442 Y80.224 E5.49194
G1 X186.167 Y81.065 E5.52137
G1 X185.817 Y81.878 E5.55081
G1 X185.395 Y82.657 E5.58028
G1 X184.904 Y83.393 E5.60971
G1 X184.349 Y84.083 E5.63916
G1 X184.3 Y84.134 E5.64151
G1 X184.3 Y88.383 E5.78283
G1 X184.26 Y89.267 E5.81226
G1 X184.14 Y90.144 E5.84171
G1 X183.942 Y91.007 E5.87116
G1 X183.667 Y91.848 E5.90058
G1 X183.317 Y92.661 E5.93002
G1 X182.895 Y93.44 E5.95949
G1 X182.404 Y94.176 E5.98892
G1 X181.849 Y94.866 E6.01837
G1 X181.43 Y95.313 E6.03875
G1 X181.313 Y95.43 E6.04425
G1 X181.237 Y95.499 E6.04767
G1 X181.313 Y95.57 E6.05112
G1 X181.43 Y95.687 E6.05663
G1 X182.027 Y96.341 E6.08608
G1 X182.562 Y97.046 E6.11552
G1 X183.032 Y97.796 E6.14495
G1 X183.432 Y98.586 E6.17441
G1 X183.76 Y99.408 E6.20384
G1 X184.011 Y100.257 E6.23329
G1 X184.186 Y101.125 E6.26274
G1 X184.281 Y102.005 E6.29218
G1 X184.3 Y102.601 E6.31201
G1 X184.307 Y106.884 E6.45446
G1 X184.574 Y107.181 E6.46775
G1 X185.104 Y107.889 E6.49716
G1 X185.568 Y108.643 E6.52661
G1 X185.962 Y109.436 E6.55606
G1 X186.284 Y110.261 E6.58552
G1 X186.529 Y111.111 E6.61494
G1 X186.697 Y111.98 E6.64438
G1 X186.785 Y112.861 E6.67382
G1 X186.8 Y113.4 E6.69176
G1 X186.8 Y121.6 E6.96449
G1 X186.76 Y122.484 E6.99392
G1 X186.64 Y123.361 E7.02336
G1 X186.442 Y124.224 E7.05281
G1 X186.167 Y125.065 E7.08224
G1 X185.817 Y125.878 E7.11168
G1 X185.395 Y126.657 E7.14115
G1 X184.904 Y127.393 E7.17058
G1 X184.349 Y128.083 E7.20003
G1 X184.3 Y128.134 E7.20238
G1 X184.3 Y132.383 E7.3437
G1 X184.26 Y133.267 E7.37314
G1 X184.14 Y134.144 E7.40258
G1 X183.942 Y135.007 E7.43203
G1 X183.667 Y135.848 E7.46145
G1 X183.317 Y136.661 E7.49089
G1 X182.895 Y137.44 E7.52036
G1 X182.404 Y138.176 E7.54979
G1 X181.849 Y138.866 E7.57924
G1 X181.43 Y139.313 E7.59962
G1 X181.313 Y139.43 E7.60512
G1 X181.237 Y139.499 E7.60854
G1 X181.313 Y139.57 E7.61199
G1 X181.43 Y139.687 E7.6175
G1 X182.027 Y140.341 E7.64695
G1 X182.562 Y141.046 E7.67639
G1 X183.032 Y141.796 E7.70582
G1 X183.432 Y142.586 E7.73528
G1 X183.76 Y143.408 E7.76471
G1 X184.011 Y144.257 E7.79416
G1 X184.186 Y145.125 E7.82361
G1 X184.281 Y146.005 E7.85305
G1 X184.3 Y146.601 E7.87288
G1 X184.307 Y150.884 E8.01533
G1 X184.574 Y151.181 E8.02862
G1 X185.104 Y151.889 E8.05803
G1 X185.568 Y152.643 E8.08748
G1 X185.962 Y153.436 E8.11693
G1 X186.284 Y154.261 E8.14639
G1 X186.529 Y155.111 E8.17581
G1 X186.697 Y155.98 E8.20525
G1 X186.785 Y156.861 E8.23469
G1 X186.8 Y157.4 E8.25263
G1 X186.8 Y165.6 E8.52536
G1 X186.76 Y166.484 E8.55479
G1 X186.64 Y167.361 E8.58423
G1 X186.442 Y168.224 E8.61368
G1 X186.167 Y169.065 E8.64311
G1 X185.817 Y169.878 E8.67255
G1 X185.395 Y170.657 E8.70202
G1 X184.904 Y171.393 E8.73145
G1 X184.349 Y172.083 E8.7609
G1 X184.3 Y172.134 E8.76325
G1 X184.3 Y176.383 E8.90457
G1 X184.26 Y177.267 E8.93401
G1 X184.14 Y178.144 E8.96345
G1 X183.942 Y179.007 E8.9929
G1 X183.667 Y179.848 E9.02232
G1 X183.317 Y180.661 E9.05176
G1 X182.895 Y181.44 E9.08123
G1 X182.404 Y182.176 E9.11066
G1 X181.849 Y182.866 E9.14011
G1 X181.43 Y183.313 E9.16049
G1 X181.313 Y183.43 E9.16599
G1 X180.659 Y184.027 E9.19544
G1 X179.954 Y184.562 E9.22488
G1 X179.204 Y185.032 E9.25432
G1 X178.414 Y185.432 E9.28377
G1 X177.592 Y185.76 E9.31321
G1 X176.743 Y186.011 E9.34265
G1 X175.875 Y186.186 E9.3721
G1 X174.995 Y186.281 E9.40154
G1 X174.399 Y186.3 E9.42137
G1 X170.116 Y186.307 E9.56383
G1 X169.819 Y186.574 E9.57711
G1 X169.111 Y187.104 E9.60653
G1 X168.357 Y187.568 E9.63597
G1 X167.564 Y187.962 E9.66542
G1 X166.739 Y188.284 E9.69488
G1 X165.889 Y188.529 E9.7243
G1 X165.02 Y188.697 E9.75374
G1 X164.139 Y188.785 E9.78319
G1 X163.6 Y188.8 E9.80112
G1 X155.4 Y188.8 E10.07386
G1 X154.516 Y188.76 E10.10329
G1 X153.639 Y188.64 E10.13273
G1 X152.776 Y188.442 E10.16218
G1 X151.935 Y188.167 E10.19161
G1 X151.122 Y187.817 E10.22105
G1 X150.343 Y187.395 E10.25051
G1 X149.607 Y186.904 E10.27994
G1 X148.917 Y186.349 E10.30939
G1 X148.866 Y186.3 E10.31174
G1 X144.617 Y186.3 E10.45307
G1 X143.733 Y186.26 E10.4825
G1 X142.856 Y186.14 E10.51194
G1 X141.993 Y185.942 E10.54139
G1 X141.152 Y185.667 E10.57082
G1 X140.339 Y185.317 E10.60026
G1 X139.56 Y184.895 E10.62973
G1 X138.824 Y184.404 E10.65915
G1 X138.503 Y184.146 E10.67285
G1 X137.954 Y184.562 E10.69576
G1 X137.204 Y185.032 E10.7252
G1 X136.414 Y185.432 E10.75465
G1 X135.592 Y185.76 E10.78409
G1 X134.743 Y186.011 E10.81353
G1 X133.875 Y186.186 E10.84298
G1 X132.995 Y186.281 E10.87242
G1 X132.399 Y186.3 E10.89225
G1 X128.116 Y186.307 E11.03471
G1 X127.819 Y186.574 E11.04799
G1 X127.111 Y187.104 E11.07741
G1 X126.357 Y187.568 E11.10685
G1 X125.564 Y187.962 E11.1363
G1 X124.739 Y188.284 E11.16576
G1 X123.889 Y188.529 E11.19518
G1 X123.02 Y188.697 E11.22462
G1 X122.139 Y188.785 E11.25407
G1 X121.6 Y188.8 E11.272
G1 X113.4 Y188.8 E11.54474
G1 X112.516 Y188.76 E11.57417
G1 X111.639 Y188.64 E11.60361
G1 X110.776 Y188.442 E11.63306
G1 X109.935 Y188.167 E11.66249
G1 X109.122 Y187.817 E11.69193
G1 X108.343 Y187.395 E11.72139
G1 X107.607 Y186.904 E11.75082
G1 X106.917 Y186.349 E11.78027
G1 X106.866 Y186.3 E11.78263
G1 X102.617 Y186.3 E11.92395
G1 X101.733 Y186.26 E11.95338
G1 X100.856 Y186.14 E11.98282
G1 X99.993 Y185.942 E12.01227
G1 X99.152 Y185.667 E12.0417
G1 X98.339 Y185.317 E12.07114
G1 X97.56 Y184.895 E12.10061
G1 X96.824 Y184.404 E12.13003
G1 X96.503 Y184.146 E12.14373
G1 X95.954 Y184.562 E12.16664
G1 X95.204 Y185.032 E12.19608
G1 X94.414 Y185.432 E12.22553
G1 X93.592 Y185.76 E12.25497
G1 X92.743 Y186.011 E12.28441
G1 X91.875 Y186.186 E12.31386
G1 X90.995 Y186.281 E12.3433
G1 X90.399 Y186.3 E12.36314
G1 X86.116 Y186.307 E12.50559
G1 X85.819 Y186.574 E12.51887
G1 X85.111 Y187.104 E12.54829
G1 X84.357 Y187.568 E12.57773
G1 X83.564 Y187.962 E12.60718
G1 X82.739 Y188.284 E12.63664
G1 X81.889 Y188.529 E12.66606
G1 X81.02 Y188.697 E12.6955
G1 X80.139 Y188.785 E12.72495
G1 X79.6 Y188.8 E12.74288
G1 X71.4 Y188.8 E13.01562
G1 X70.516 Y188.76 E13.04505
G1 X69.639 Y188.64 E13.07449
G1 X68.776 Y188.442 E13.10394
G1 X67.935 Y188.167 E13.13337
G1 X67.122 Y187.817 E13.16281
G1 X66.343 Y187.395 E13.19227
G1 X65.607 Y186.904 E13.2217
G1 X64.917 Y186.349 E13.25115
G1 X64.866 Y186.3 E13.25351
G1 X60.617 Y186.3 E13.39483
G1 X59.733 Y186.26 E13.42426
G1 X58.856 Y186.14 E13.4537
G1 X57.993 Y185.942 E13.48315
G1 X57.152 Y185.667 E13.51258
G1 X56.339 Y185.317 E13.54202
G1 X55.56 Y184.895 E13.57149
G1 X54.824 Y184.404 E13.60091
G1 X54.134 Y183.849 E13.63036
G1 X53.687 Y183.43 E13.65074
G1 X53.57 Y183.313 E13.65625
G1 X52.973 Y182.659 E13.6857
G1 X52.438 Y181.954 E13.71513
G1 X51.968 Y181.204 E13.74457
G1 X51.568 Y180.414 E13.77402
G1 X51.24 Y179.592 E13.80346
G1 X50.989 Y178.743 E13.83291
G1 X50.814 Y177.875 E13.86236
G1 X50.719 Y176.995 E13.8918
G1 X50.7 Y176.399 E13.91163
G1 X50.693 Y172.116 E14.05408
G1 X50.426 Y171.819 E14.06737
G1 X49.896 Y171.111 E14.09678
G1 X49.432 Y170.357 E14.12623
G1 X49.038 Y169.564 E14.15568
G1 X48.716 Y168.739 E14.18513
G1 X48.471 Y167.889 E14.21456
G1 X48.303 Y167.02 E14.24399
G1 X48.215 Y166.139 E14.27344
G1 X48.2 Y165.6 E14.29138
G1 X48.2 Y157.4 E14.56411
G1 X48.24 Y156.516 E14.59354
G1 X48.36 Y155.639 E14.62298
G1 X48.558 Y154.776 E14.65243
G1 X48.833 Y153.935 E14.68186
G1 X49.183 Y153.122 E14.7113
G1 X49.605 Y152.343 E14.74077
G1 X50.096 Y151.607 E14.77019
G1 X50.651 Y150.917 E14.79965
G1 X50.7 Y150.866 E14.802
G1 X50.7 Y146.617 E14.94332
G1 X50.74 Y145.733 E14.97275
G1 X50.86 Y144.856 E15.00219
G1 X51.058 Y143.993 E15.03164
G1 X51.333 Y143.152 E15.06107
G1 X51.683 Y142.339 E15.09051
G1 X52.105 Y141.56 E15.11998
G1 X52.596 Y140.824 E15.14941
G1 X53.151 Y140.134 E15.17886
G1 X53.57 Y139.687 E15.19924
G1 X53.687 Y139.57 E15.20474
G1 X53.763 Y139.501 E15.20815
G1 X53.687 Y139.43 E15.21161
G1 X53.57 Y139.313 E15.21712
G1 X52.973 Y138.659 E15.24657
G1 X52.438 Y137.954 E15.276
G1 X51.968 Y137.204 E15.30544
G1 X51.568 Y136.414 E15.33489
G1 X51.24 Y135.592 E15.36433
G1 X50.989 Y134.743 E15.39378
G1 X50.814 Y133.875 E15.42323
G1 X50.719 Y132.995 E15.45267
G1 X50.7 Y132.399 E15.4725
G1 X50.693 Y128.116 E15.61495
G1 X50.426 Y127.819 E15.62824
G1 X49.896 Y127.111 E15.65765
G1 X49.432 Y126.357 E15.6871
G1 X49.038 Y125.564 E15.71655
G1 X48.716 Y124.739 E15.746
G1 X48.471 Y123.889 E15.77543
G1 X48.303 Y123.02 E15.80486
G1 X48.215 Y122.139 E15.83431
G1 X48.2 Y121.6 E15.85225
G1 X48.2 Y113.4 E16.12498
G1 X48.24 Y112.516 E16.15441
G1 X48.36 Y111.639 E16.18385
G1 X48.558 Y110.776 E16.2133
G1 X48.833 Y109.935 E16.24273
G1 X49.183 Y109.122 E16.27217
G1 X49.605 Y108.343 E16.30164
G1 X50.096 Y107.607 E16.33106
G1 X50.651 Y106.917 E16.36052
G1 X50.7 Y106.866 E16.36287
G1 X50.7 Y102.617 E16.50419
G1 X50.74 Y101.733 E16.53362
G1 X50.86 Y100.856 E16.56306
G1 X51.058 Y99.993 E16.59251
G1 X51.333 Y99.152 E16.62194
G1 X51.683 Y98.339 E16.65138
G1 X52.105 Y97.56 E16.68085
G1 X52.596 Y96.824 E16.71028
G1 X53.151 Y96.134 E16.73973
G1 X53.57 Y95.687 E16.76011
G1 X53.687 Y95.57 E16.76561
G1 X53.763 Y95.501 E16.76902
G1 X53.687 Y95.43 E16.77248
G1 X53.57 Y95.313 E16.77799
G1 X52.973 Y94.659 E16.80744
G1 X52.438 Y93.954 E16.83687
G1 X51.968 Y93.204 E16.86631
G1 X51.568 Y92.414 E16.89576
G1 X51.24 Y91.592 E16.9252
G1 X50.989 Y90.743 E16.95465
G1 X50.814 Y89.875 E16.9841
G1 X50.719 Y88.995 E17.01354
G1 X50.7 Y88.399 E17.03337
G1 X50.693 Y84.116 E17.17582
G1 X50.426 Y83.819 E17.18911
G1 X49.896 Y83.111 E17.21852
G1 X49.432 Y82.357 E17.24797
G1 X49.038 Y81.564 E17.27742
G1 X48.716 Y80.739 E17.30687
G1 X48.471 Y79.889 E17.3363
G1 X48.303 Y79.02 E17.36573
G1 X48.215 Y78.139 E17.39518
G1 X48.2 Y77.6 E17.41312
G1 X48.2 Y69.4 E17.68585
G1 X48.24 Y68.516 E17.71528
G1 X48.36 Y67.639 E17.74472
G1 X48.558 Y66.776 E17.77417
G1 X48.833 Y65.935 E17.8036
G1 X49.183 Y65.122 E17.83304
G1 X49.605 Y64.343 E17.86251
G1 X50.096 Y63.607 E17.89194
G1 X50.651 Y62.917 E17.92139
G1 X50.7 Y62.866 E17.92374
G1 X50.7 Y58.617 E18.06506
G1 X50.74 Y57.733 E18.09449
G1 X50.86 Y56.856 E18.12394
G1 X51.058 Y55.993 E18.15338
G1 X51.333 Y55.152 E18.18281
G1 X51.683 Y54.339 E18.21225
G1 X52.105 Y53.56 E18.24172
G1 X52.596 Y52.824 E18.27115
G1 X53.034 Y52.28 E18.29438
G0 F810 X53.151 Y52.134
G0 X53.57 Y51.687
M204 S5000
M205 X30 Y30
G0 F7200 X53.853 Y51.97
M204 S500
M205 X20 Y20
G1 F6000 E18.32098
G1 F900 X53.97 Y51.853 E18.32649
G1 X54.611 Y51.269 E18.35533
G1 X55.303 Y50.746 E18.38418
G1 X56.04 Y50.29 E18.413
G1 X56.815 Y49.903 E18.44182
G1 X57.624 Y49.589 E18.47068
G1 X58.457 Y49.351 E18.49949
G1 X59.309 Y49.191 E18.52833
G1 X60.601 Y49.1 E18.57141
G1 X65.037 Y49.093 E18.71895
G1 X65.49 Y48.69 E18.73911
G1 X66.189 Y48.177 E18.76795
G1 X66.931 Y47.73 E18.79676
G1 X67.712 Y47.354 E18.82559
G1 X68.525 Y47.051 E18.85445
G1 X69.361 Y46.824 E18.88326
G1 X70.215 Y46.675 E18.9121
G1 X71.4 Y46.6 E18.95159
G1 X79.6 Y46.6 E19.22432
G1 X80.466 Y46.64 E19.25315
G1 X81.325 Y46.76 E19.282
G1 X82.169 Y46.958 E19.31084
G1 X82.991 Y47.233 E19.33967
G1 X83.784 Y47.583 E19.3685
G1 X84.542 Y48.004 E19.39733
G1 X85.257 Y48.493 E19.42615
G1 X85.925 Y49.046 E19.45499
G1 X85.979 Y49.1 E19.45753
G1 X90.383 Y49.1 E19.60401
G1 X91.249 Y49.14 E19.63284
G1 X92.108 Y49.26 E19.66169
G1 X92.952 Y49.458 E19.69052
G1 X93.774 Y49.733 E19.71935
G1 X94.567 Y50.083 E19.74818
G1 X95.325 Y50.504 E19.77702
G1 X96.04 Y50.993 E19.80583
G1 X96.498 Y51.372 E19.8256
G1 X96.611 Y51.269 E19.83069
G1 X97.303 Y50.746 E19.85954
G1 X98.04 Y50.29 E19.88836
G1 X98.815 Y49.903 E19.91718
G1 X99.624 Y49.589 E19.94604
G1 X100.457 Y49.351 E19.97485
