;FLAVOR:Marlin
;TIME:11598
;Filament used: 6.22358m
;Layer height: 0.2
;Generated with Cura_SteamEngine 3.6.0
M140 S70
M105
M190 S70
M104 S215
M105
M109 S215
M82 ;absolute extrusion mode
G28 ; home all axes
M117 Purge extruder
G92 E0 ; reset extruder
G1 Z1.0 F3000 ; move z up little to prevent scratching of surface
G1 X0.1 Y20 Z0.3 F5000.0 ; move to start-line position G1 X0.1 Y200.0 Z0.3 F1500.0 E15 ; draw 1st line
G1 X0.4 Y200.0 Z0.3 F5000.0 ; move to side a little
G1 X0.4 Y20 Z0.3 F1500.0 E30 ; draw 2nd line
G92 E0 ; reset extruder
G1 Z1.0 F3000 ; move z up little to prevent scratching of surface
M117 All systems go!
G92 E0
G1 F6000 E-5
;LAYER_COUNT:12
;LAYER:0
M107
M204 S5000
M205 X30 Y30
G0 F7200 X57.57 Y55.687 Z0.2
M204 S500
M205 X20 Y20
;TYPE:SKIRT
G1 F6000 E0
G1 F900 X57.687 Y55.57 E0.0055
G1 X58.341 Y54.973 E0.03496
G1 X59.046 Y54.438 E0.06439
G1 X59.796 Y53.968 E0.09383
G1 X60.586 Y53.568 E0.12328
G1 X61.408 Y53.24 E0.15272
G1 X62.257 Y52.989 E0.18216
G1 X63.125 Y52.814 E0.21161
G1 X64.005 Y52.719 E0.24105
G1 X64.617 Y52.7 E0.26142
G1 X75.835 Y52.7 E0.63453
G1 X76.719 Y52.74 E0.66396
G1 X77.596 Y52.86 E0.6934
G1 X78.459 Y53.058 E0.72285
G1 X79.3 Y53.333 E0.75228
G1 X79.503 Y53.42 E0.75963
G1 X80.026 Y53.216 E0.7783
G1 X80.876 Y52.971 E0.80772
G1 X81.745 Y52.803 E0.83716
G1 X82.626 Y52.715 E0.86661
G1 X83.165 Y52.7 E0.88454
G1 X94.383 Y52.7 E1.25765
G1 X95.267 Y52.74 E1.28709
G1 X96.144 Y52.86 E1.31653
G1 X97.007 Y53.058 E1.34598
G1 X97.848 Y53.333 E1.37541
G1 X98.498 Y53.613 E1.39894
G1 X98.586 Y53.568 E1.40223
G1 X99.408 Y53.24 E1.43167
G1 X100.257 Y52.989 E1.46111
G1 X101.125 Y52.814 E1.49056
G1 X102.005 Y52.719 E1.52
G1 X102.617 Y52.7 E1.54037
G1 X113.835 Y52.7 E1.91348
G1 X114.719 Y52.74 E1.94291
G1 X115.596 Y52.86 E1.97235
G1 X116.459 Y53.058 E2.0018
G1 X117.3 Y53.333 E2.03123
G1 X117.503 Y53.42 E2.03858
G1 X118.026 Y53.216 E2.05725
G1 X118.876 Y52.971 E2.08667
G1 X119.745 Y52.803 E2.11611
G1 X120.626 Y52.715 E2.14556
G1 X121.165 Y52.7 E2.16349
G1 X132.383 Y52.7 E2.5366
G1 X133.267 Y52.74 E2.56604
G1 X134.144 Y52.86 E2.59548
G1 X135.007 Y53.058 E2.62493
G1 X135.848 Y53.333 E2.65436
G1 X136.498 Y53.613 E2.6779
G1 X136.586 Y53.568 E2.68118
G1 X137.408 Y53.24 E2.71062
G1 X138.257 Y52.989 E2.74006
G1 X139.125 Y52.814 E2.76952
G1 X140.005 Y52.719 E2.79895
G1 X140.617 Y52.7 E2.81932
G1 X151.835 Y52.7 E3.19243
G1 X152.719 Y52.74 E3.22186
G1 X153.596 Y52.86 E3.2513
G1 X154.459 Y53.058 E3.28075
G1 X155.3 Y53.333 E3.31018
G1 X155.503 Y53.42 E3.31753
G1 X156.026 Y53.216 E3.3362
G1 X156.876 Y52.971 E3.36562
G1 X157.745 Y52.803 E3.39506
G1 X158.626 Y52.715 E3.42451
G1 X159.165 Y52.7 E3.44244
G1 X170.383 Y52.7 E3.81556
G1 X171.267 Y52.74 E3.84499
G1 X172.144 Y52.86 E3.87443
G1 X173.007 Y53.058 E3.90388
G1 X173.848 Y53.333 E3.93331
G1 X174.661 Y53.683 E3.96275
G1 X175.44 Y54.105 E3.99221
G1 X176.176 Y54.596 E4.02164
G1 X176.866 Y55.151 E4.05109
G1 X177.313 Y55.57 E4.07147
G1 X177.43 Y55.687 E4.07697
G1 X178.027 Y56.341 E4.10643
G1 X178.562 Y57.046 E4.13586
G1 X179.032 Y57.796 E4.1653
G1 X179.432 Y58.586 E4.19475
G1 X179.76 Y59.408 E4.22419
G1 X180.011 Y60.257 E4.25363
G1 X180.186 Y61.125 E4.28308
G1 X180.281 Y62.005 E4.31252
G1 X180.3 Y62.617 E4.33289
G1 X180.3 Y73.835 E4.706
G1 X180.26 Y74.719 E4.73543
G1 X180.14 Y75.596 E4.76487
G1 X179.942 Y76.459 E4.79432
G1 X179.667 Y77.3 E4.82375
G1 X179.58 Y77.503 E4.8311
G1 X179.784 Y78.026 E4.84977
G1 X180.029 Y78.876 E4.87919
G1 X180.197 Y79.745 E4.90863
G1 X180.285 Y80.626 E4.93808
G1 X180.3 Y81.165 E4.95601
G1 X180.3 Y92.383 E5.32912
G1 X180.26 Y93.267 E5.35856
G1 X180.14 Y94.144 E5.388
G1 X179.942 Y95.007 E5.41745
G1 X179.667 Y95.848 E5.44688
G1 X179.317 Y96.661 E5.47632
G1 X178.895 Y97.44 E5.50578
G1 X178.851 Y97.507 E5.50845
G1 X179.032 Y97.796 E5.51979
G1 X179.432 Y98.586 E5.54924
G1 X179.76 Y99.408 E5.57868
G1 X180.011 Y100.257 E5.60812
G1 X180.186 Y101.125 E5.63757
G1 X180.281 Y102.005 E5.66701
G1 X180.3 Y102.617 E5.68738
G1 X180.3 Y113.835 E6.06049
G1 X180.26 Y114.719 E6.08992
G1 X180.14 Y115.596 E6.11936
G1 X179.942 Y116.459 E6.14881
G1 X179.667 Y117.3 E6.17824
G1 X179.58 Y117.503 E6.18559
G1 X179.784 Y118.026 E6.20426
G1 X180.029 Y118.876 E6.23368
G1 X180.197 Y119.745 E6.26312
G1 X180.285 Y120.626 E6.29257
G1 X180.3 Y121.165 E6.3105
G1 X180.3 Y132.383 E6.68361
G1 X180.26 Y133.267 E6.71305
G1 X180.14 Y134.144 E6.74249
G1 X179.942 Y135.007 E6.77194
G1 X179.667 Y135.848 E6.80137
G1 X179.317 Y136.661 E6.83081
G1 X178.895 Y137.44 E6.86027
G1 X178.851 Y137.507 E6.86294
G1 X179.032 Y137.796 E6.87428
G1 X179.432 Y138.586 E6.90373
G1 X179.76 Y139.408 E6.93317
G1 X180.011 Y140.257 E6.96261
G1 X180.186 Y141.125 E6.99206
G1 X180.281 Y142.005 E7.0215
G1 X180.3 Y142.617 E7.04187
G1 X180.3 Y153.835 E7.41498
G1 X180.26 Y154.719 E7.44441
G1 X180.14 Y155.596 E7.47385
G1 X179.942 Y156.459 E7.5033
G1 X179.667 Y157.3 E7.53273
G1 X179.58 Y157.503 E7.54008
G1 X179.784 Y158.026 E7.55875
G1 X180.029 Y158.876 E7.58817
G1 X180.197 Y159.745 E7.61761
G1 X180.285 Y160.626 E7.64706
G1 X180.3 Y161.165 E7.66499
G1 X180.3 Y172.383 E8.0381
G1 X180.26 Y173.267 E8.06754
G1 X180.14 Y174.144 E8.09698
G1 X179.942 Y175.007 E8.12643
G1 X179.667 Y175.848 E8.15586
G1 X179.317 Y176.661 E8.1853
G1 X178.895 Y177.44 E8.21476
G1 X178.404 Y178.176 E8.24419
G1 X177.849 Y178.866 E8.27364
G1 X177.43 Y179.313 E8.29402
G1 X177.313 Y179.43 E8.29952
G1 X176.659 Y180.027 E8.32897
G1 X175.954 Y180.562 E8.35841
G1 X175.204 Y181.032 E8.38785
G1 X174.414 Y181.432 E8.4173
G1 X173.592 Y181.76 E8.44674
G1 X172.743 Y182.011 E8.47618
G1 X171.875 Y182.186 E8.50563
G1 X170.995 Y182.281 E8.53507
G1 X170.383 Y182.3 E8.55544
G1 X159.165 Y182.3 E8.92855
G1 X158.281 Y182.26 E8.95798
G1 X157.404 Y182.14 E8.98742
G1 X156.541 Y181.942 E9.01687
G1 X155.7 Y181.667 E9.0463
G1 X155.497 Y181.58 E9.05365
G1 X154.974 Y181.784 E9.07232
G1 X154.124 Y182.029 E9.10174
G1 X153.255 Y182.197 E9.13118
G1 X152.374 Y182.285 E9.16063
G1 X151.835 Y182.3 E9.17856
G1 X140.617 Y182.3 E9.55167
G1 X139.733 Y182.26 E9.5811
G1 X138.856 Y182.14 E9.61055
G1 X137.993 Y181.942 E9.63999
G1 X137.152 Y181.667 E9.66942
G1 X136.502 Y181.387 E9.69296
G1 X136.414 Y181.432 E9.69625
G1 X135.592 Y181.76 E9.72569
G1 X134.743 Y182.011 E9.75513
G1 X133.875 Y182.186 E9.78458
G1 X132.995 Y182.281 E9.81402
G1 X132.383 Y182.3 E9.83439
G1 X121.165 Y182.3 E10.2075
G1 X120.281 Y182.26 E10.23693
G1 X119.404 Y182.14 E10.26637
G1 X118.541 Y181.942 E10.29582
G1 X117.7 Y181.667 E10.32525
G1 X117.497 Y181.58 E10.3326
G1 X116.974 Y181.784 E10.35127
G1 X116.124 Y182.029 E10.38069
G1 X115.255 Y182.197 E10.41013
G1 X114.374 Y182.285 E10.43958
G1 X113.835 Y182.3 E10.45751
G1 X102.617 Y182.3 E10.83062
G1 X101.733 Y182.26 E10.86006
G1 X100.856 Y182.14 E10.8895
G1 X99.993 Y181.942 E10.91895
G1 X99.152 Y181.667 E10.94837
G1 X98.502 Y181.387 E10.97191
G1 X98.414 Y181.432 E10.9752
G1 X97.592 Y181.76 E11.00464
G1 X96.743 Y182.011 E11.03408
G1 X95.875 Y182.186 E11.06353
G1 X94.995 Y182.281 E11.09297
G1 X94.383 Y182.3 E11.11334
G1 X83.165 Y182.3 E11.48645
G1 X82.281 Y182.26 E11.51588
G1 X81.404 Y182.14 E11.54532
G1 X80.541 Y181.942 E11.57477
G1 X79.7 Y181.667 E11.6042
G1 X79.497 Y181.58 E11.61155
G1 X78.974 Y181.784 E11.63022
G1 X78.124 Y182.029 E11.65964
G1 X77.255 Y182.197 E11.68908
G1 X76.374 Y182.285 E11.71853
G1 X75.835 Y182.3 E11.73646
G1 X64.617 Y182.3 E12.10957
G1 X63.733 Y182.26 E12.13901
G1 X62.856 Y182.14 E12.16845
G1 X61.993 Y181.942 E12.1979
G1 X61.152 Y181.667 E12.22733
G1 X60.339 Y181.317 E12.25677
G1 X59.56 Y180.895 E12.28623
G1 X58.824 Y180.404 E12.31566
G1 X58.134 Y179.849 E12.34511
G1 X57.687 Y179.43 E12.36549
G1 X57.57 Y179.313 E12.37099
G1 X56.973 Y178.659 E12.40044
G1 X56.438 Y177.954 E12.42988
G1 X55.968 Y177.204 E12.45932
G1 X55.568 Y176.414 E12.48877
G1 X55.24 Y175.592 E12.51821
G1 X54.989 Y174.743 E12.54765
G1 X54.814 Y173.875 E12.5771
G1 X54.719 Y172.995 E12.60654
G1 X54.7 Y172.383 E12.62691
G1 X54.7 Y161.165 E13.00002
G1 X54.74 Y160.281 E13.02945
G1 X54.86 Y159.404 E13.05889
G1 X55.058 Y158.541 E13.08834
G1 X55.333 Y157.7 E13.11777
G1 X55.42 Y157.497 E13.12512
G1 X55.216 Y156.974 E13.14379
G1 X54.971 Y156.124 E13.17321
G1 X54.803 Y155.255 E13.20265
G1 X54.715 Y154.374 E13.2321
G1 X54.7 Y153.835 E13.25003
G1 X54.7 Y142.617 E13.62314
G1 X54.74 Y141.733 E13.65257
G1 X54.86 Y140.856 E13.68202
G1 X55.058 Y139.993 E13.71147
G1 X55.333 Y139.152 E13.74089
G1 X55.683 Y138.339 E13.77033
G1 X56.105 Y137.56 E13.7998
G1 X56.149 Y137.493 E13.80247
G1 X55.968 Y137.204 E13.81381
G1 X55.568 Y136.414 E13.84326
G1 X55.24 Y135.592 E13.8727
G1 X54.989 Y134.743 E13.90214
G1 X54.814 Y133.875 E13.93159
G1 X54.719 Y132.995 E13.96103
G1 X54.7 Y132.383 E13.9814
G1 X54.7 Y121.165 E14.35451
G1 X54.74 Y120.281 E14.38394
G1 X54.86 Y119.404 E14.41338
G1 X55.058 Y118.541 E14.44283
G1 X55.333 Y117.7 E14.47226
G1 X55.42 Y117.497 E14.47961
G1 X55.216 Y116.974 E14.49828
G1 X54.971 Y116.124 E14.5277
G1 X54.803 Y115.255 E14.55714
G1 X54.715 Y114.374 E14.58659
G1 X54.7 Y113.835 E14.60452
G1 X54.7 Y102.617 E14.97763
G1 X54.74 Y101.733 E15.00707
G1 X54.86 Y100.856 E15.03651
G1 X55.058 Y99.993 E15.06596
G1 X55.333 Y99.152 E15.09538
G1 X55.683 Y98.339 E15.12482
G1 X56.105 Y97.56 E15.15429
G1 X56.149 Y97.493 E15.15696
G1 X55.968 Y97.204 E15.1683
G1 X55.568 Y96.414 E15.19775
G1 X55.24 Y95.592 E15.22719
G1 X54.989 Y94.743 E15.25663
G1 X54.814 Y93.875 E15.28608
G1 X54.719 Y92.995 E15.31552
G1 X54.7 Y92.383 E15.33589
G1 X54.7 Y81.165 E15.709
G1 X54.74 Y80.281 E15.73843
G1 X54.86 Y79.404 E15.76787
G1 X55.058 Y78.541 E15.79732
G1 X55.333 Y77.7 E15.82675
G1 X55.42 Y77.497 E15.8341
G1 X55.216 Y76.974 E15.85277
G1 X54.971 Y76.124 E15.88219
G1 X54.803 Y75.255 E15.91163
G1 X54.715 Y74.374 E15.94108
G1 X54.7 Y73.835 E15.95901
G1 X54.7 Y62.617 E16.33212
G1 X54.74 Y61.733 E16.36156
G1 X54.86 Y60.856 E16.391
G1 X55.058 Y59.993 E16.42045
G1 X55.333 Y59.152 E16.44987
G1 X55.683 Y58.339 E16.47931
G1 X56.105 Y57.56 E16.50878
G1 X56.596 Y56.824 E16.53821
G1 X57.034 Y56.28 E16.56144
G0 F810 X57.151 Y56.134
G0 X57.57 Y55.687
M204 S5000
M205 X30 Y30
G0 F7200 X57.853 Y55.97
M204 S500
M205 X20 Y20
G1 F6000 E16.58805
G1 F900 X57.97 Y55.853 E16.59355
G1 X58.611 Y55.269 E16.62239
G1 X59.303 Y54.746 E16.65124
G1 X60.04 Y54.29 E16.68007
G1 X60.815 Y53.903 E16.70888
G1 X61.624 Y53.589 E16.73774
G1 X62.457 Y53.351 E16.76656
G1 X63.309 Y53.191 E16.79539
G1 X64.172 Y53.111 E16.82421
G1 X64.617 Y53.1 E16.83902
G1 X75.835 Y53.1 E17.21213
G1 X76.701 Y53.14 E17.24097
G1 X77.56 Y53.26 E17.26981
G1 X78.404 Y53.458 E17.29865
G1 X79.226 Y53.733 E17.32748
G1 X79.49 Y53.849 E17.33707
G1 X80.29 Y53.551 E17.36546
G1 X81.126 Y53.324 E17.39427
G1 X81.98 Y53.175 E17.42311
G1 X83.165 Y53.1 E17.4626
G1 X94.383 Y53.1 E17.83571
G1 X95.249 Y53.14 E17.86455
G1 X96.108 Y53.26 E17.89339
G1 X96.952 Y53.458 E17.92223
G1 X97.774 Y53.733 E17.95106
G1 X98.507 Y54.057 E17.97771
G1 X98.815 Y53.903 E17.98917
G1 X99.624 Y53.589 E18.01803
G1 X100.457 Y53.351 E18.04684
G1 X101.309 Y53.191 E18.07568
G1 X102.172 Y53.111 E18.1045
G1 X102.617 Y53.1 E18.11931
G1 X113.835 Y53.1 E18.49242
G1 X114.701 Y53.14 E18.52125
G1 X115.56 Y53.26 E18.5501
G1 X116.404 Y53.458 E18.57894
G1 X117.226 Y53.733 E18.60776
G1 X117.49 Y53.849 E18.61736
G1 X118.29 Y53.551 E18.64575
G1 X119.126 Y53.324 E18.67456
G1 X119.98 Y53.175 E18.70339
G1 X121.165 Y53.1 E18.74289
G1 X132.383 Y53.1 E19.116
G1 X133.249 Y53.14 E19.14483
G1 X134.108 Y53.26 E19.17368
G1 X134.952 Y53.458 E19.20251
G1 X135.774 Y53.733 E19.23134
G1 X136.507 Y54.057 E19.258
G1 X136.815 Y53.903 E19.26945
G1 X137.624 Y53.589 E19.29832
G1 X138.457 Y53.351 E19.32713
G1 X139.309 Y53.191 E19.35596
G1 X140.172 Y53.111 E19.38479
G1 X140.617 Y53.1 E19.39959
G1 X151.835 Y53.1 E19.77271
G1 X152.701 Y53.14 E19.80154
G1 X153.56 Y53.26 E19.83039
G1 X154.404 Y53.458 E19.85922
G1 X155.226 Y53.733 E19.88805
G1 X155.49 Y53.849 E19.89764
G1 X156.29 Y53.551 E19.92604
G1 X157.126 Y53.324 E19.95485
G1 X157.98 Y53.175 E19.98368
G1 X159.165 Y53.1 E20.02317
G1 X170.383 Y53.1 E20.39629
G1 X171.249 Y53.14 E20.42512
G1 X172.108 Y53.26 E20.45397
G1 X172.952 Y53.458 E20.4828
G1 X173.774 Y53.733 E20.51163
G1 X174.567 Y54.083 E20.54046
G1 X175.325 Y54.504 E20.5693
G1 X176.04 Y54.993 E20.59811
G1 X176.708 Y55.546 E20.62695
G1 X177.03 Y55.853 E20.64175
G1 X177.147 Y55.97 E20.64725
G1 X177.731 Y56.611 E20.6761
G1 X178.254 Y57.303 E20.70495
G1 X178.71 Y58.04 E20.73377
G1 X179.097 Y58.815 E20.76258
G1 X179.411 Y59.624 E20.79145
G1 X179.649 Y60.457 E20.82026
G1 X179.809 Y61.309 E20.84909
G1 X179.889 Y62.172 E20.87792
G1 X179.9 Y62.617 E20.89273
G1 X179.9 Y73.835 E21.26584
G1 X179.86 Y74.701 E21.29467
G1 X179.74 Y75.56 E21.32352
G1 X179.542 Y76.404 E21.35235
G1 X179.267 Y77.226 E21.38118
G1 X179.151 Y77.49 E21.39077
G1 X179.449 Y78.29 E21.41917
G1 X179.676 Y79.126 E21.44798
G1 X179.825 Y79.98 E21.47681
G1 X179.9 Y81.165 E21.51631
G1 X179.9 Y92.383 E21.88942
G1 X179.86 Y93.249 E21.91825
G1 X179.74 Y94.108 E21.9471
G1 X179.542 Y94.952 E21.97593
G1 X179.267 Y95.774 E22.00476
G1 X178.917 Y96.567 E22.03359
G1 X178.496 Y97.325 E22.06243
G1 X178.376 Y97.5 E22.06949
G1 X178.71 Y98.04 E22.09061
G1 X179.097 Y98.815 E22.11942
G1 X179.411 Y99.624 E22.14828
G1 X179.649 Y100.457 E22.1771
G1 X179.809 Y101.309 E22.20593
G1 X179.889 Y102.172 E22.23476
G1 X179.9 Y102.617 E22.24956
G1 X179.9 Y113.835 E22.62267
G1 X179.86 Y114.701 E22.65151
G1 X179.74 Y115.56 E22.68036
G1 X179.542 Y116.404 E22.70919
G1 X179.267 Y117.226 E22.73802
G1 X179.151 Y117.49 E22.74761
G1 X179.449 Y118.29 E22.776
G1 X179.676 Y119.126 E22.80482
G1 X179.825 Y119.98 E22.83365
G1 X179.9 Y121.165 E22.87314
G1 X179.9 Y132.383 E23.24625
G1 X179.86 Y133.249 E23.27509
G1 X179.74 Y134.108 E23.30393
G1 X179.542 Y134.952 E23.33277
G1 X179.267 Y135.774 E23.3616
G1 X178.917 Y136.567 E23.39043
G1 X178.496 Y137.325 E23.41927
G1 X178.376 Y137.5 E23.42632
G1 X178.71 Y138.04 E23.44744
G1 X179.097 Y138.815 E23.47625
G1 X179.411 Y139.624 E23.50512
G1 X179.649 Y140.457 E23.53393
G1 X179.809 Y141.309 E23.56276
G1 X179.889 Y142.172 E23.59159
G1 X179.9 Y142.617 E23.6064
G1 X179.9 Y153.835 E23.97951
G1 X179.86 Y154.701 E24.00834
G1 X179.74 Y155.56 E24.03719
G1 X179.542 Y156.404 E24.06602
G1 X179.267 Y157.226 E24.09485
G1 X179.151 Y157.49 E24.10444
G1 X179.449 Y158.29 E24.13284
G1 X179.676 Y159.126 E24.16165
G1 X179.825 Y159.98 E24.19048
G1 X179.9 Y161.165 E24.22998
G1 X179.9 Y172.383 E24.60309
G1 X179.86 Y173.249 E24.63192
G1 X179.74 Y174.108 E24.66077
G1 X179.542 Y174.952 E24.6896
G1 X179.267 Y175.774 E24.71843
G1 X178.917 Y176.567 E24.74726
G1 X178.496 Y177.325 E24.7761
G1 X178.007 Y178.04 E24.80491
G1 X177.454 Y178.708 E24.83376
G1 X177.147 Y179.03 E24.84855
G1 X177.03 Y179.147 E24.85406
G1 X176.389 Y179.731 E24.8829
G1 X175.697 Y180.254 E24.91175
G1 X174.96 Y180.71 E24.94057
G1 X174.185 Y181.097 E24.96938
G1 X173.376 Y181.411 E24.99825
G1 X172.543 Y181.649 E25.02706
G1 X171.691 Y181.809 E25.0559
G1 X170.828 Y181.889 E25.08472
G1 X170.383 Y181.9 E25.09953
G1 X159.165 Y181.9 E25.47264
G1 X158.299 Y181.86 E25.50147
G1 X157.44 Y181.74 E25.53032
G1 X156.596 Y181.542 E25.55915
G1 X155.774 Y181.267 E25.58798
G1 X155.51 Y181.151 E25.59758
G1 X154.71 Y181.449 E25.62597
G1 X153.874 Y181.676 E25.65478
G1 X153.02 Y181.825 E25.68361
G1 X151.835 Y181.9 E25.72311
G1 X140.617 Y181.9 E26.09622
G1 X139.751 Y181.86 E26.12505
G1 X138.892 Y181.74 E26.1539
G1 X138.048 Y181.542 E26.18273
G1 X137.226 Y181.267 E26.21156
G1 X136.493 Y180.943 E26.23822
G1 X136.185 Y181.097 E26.24967
G1 X135.376 Y181.411 E26.27854
G1 X134.543 Y181.649 E26.30735
G1 X133.691 Y181.809 E26.33618
G1 X132.828 Y181.889 E26.36501
G1 X132.383 Y181.9 E26.37981
G1 X121.165 Y181.9 E26.75293
G1 X120.299 Y181.86 E26.78176
G1 X119.44 Y181.74 E26.81061
G1 X118.596 Y181.542 E26.83944
G1 X117.774 Y181.267 E26.86827
G1 X117.51 Y181.151 E26.87786
G1 X116.71 Y181.449 E26.90626
G1 X115.874 Y181.676 E26.93507
G1 X115.02 Y181.825 E26.9639
G1 X113.835 Y181.9 E27.00339
G1 X102.617 Y181.9 E27.37651
G1 X101.751 Y181.86 E27.40534
G1 X100.892 Y181.74 E27.43419
G1 X100.048 Y181.542 E27.46302
