;FLAVOR:Marlin
;TIME:6035
;Filament used: 3.34479m
;Layer height: 0.2
;Generated with Cura_SteamEngine 3.6.0
M140 S70
M105
M190 S70
M104 S215
M105
M109 S215
M82 ;absolute extrusion mode
G28 ; home all axes
M117 Purge extruder
G92 E0 ; reset extruder
G1 Z1.0 F3000 ; move z up little to prevent scratching of surface
G1 X0.1 Y20 Z0.3 F5000.0 ; move to start-line position G1 X0.1 Y200.0 Z0.3 F1500.0 E15 ; draw 1st line
G1 X0.4 Y200.0 Z0.3 F5000.0 ; move to side a little
G1 X0.4 Y20 Z0.3 F1500.0 E30 ; draw 2nd line
G92 E0 ; reset extruder
G1 Z1.0 F3000 ; move z up little to prevent scratching of surface
M117 All systems go!
G92 E0
G1 F6000 E-5
;LAYER_COUNT:17
;LAYER:0
M107
M204 S5000
M205 X30 Y30
G0 F7200 X73.96 Y28.484 Z0.2
M204 S500
M205 X20 Y20
;TYPE:SKIRT
G1 F6000 E0
G1 F900 X74.31 Y27.671 E0.02944
G1 X74.732 Y26.892 E0.05891
G1 X75.223 Y26.156 E0.08833
G1 X75.778 Y25.466 E0.11779
G1 X76.197 Y25.019 E0.13816
G1 X76.314 Y24.902 E0.14367
G1 X76.968 Y24.305 E0.17312
G1 X77.673 Y23.77 E0.20255
G1 X78.423 Y23.3 E0.23199
G1 X79.213 Y22.9 E0.26144
G1 X80.035 Y22.572 E0.29088
G1 X80.884 Y22.321 E0.32033
G1 X81.752 Y22.146 E0.34978
G1 X82.632 Y22.051 E0.37922
G1 X83.244 Y22.032 E0.39958
G1 X94.462 Y22.032 E0.77269
G1 X95.346 Y22.072 E0.80213
G1 X96.223 Y22.192 E0.83157
G1 X97.086 Y22.39 E0.86102
G1 X97.927 Y22.665 E0.89045
G1 X98.13 Y22.752 E0.89779
G1 X98.654 Y22.548 E0.91649
G1 X99.504 Y22.303 E0.94592
G1 X100.373 Y22.135 E0.97535
G1 X101.254 Y22.047 E1.0048
G1 X101.793 Y22.032 E1.02274
G1 X113.01 Y22.032 E1.39581
G1 X113.894 Y22.072 E1.42525
G1 X114.771 Y22.192 E1.45469
G1 X115.634 Y22.39 E1.48414
G1 X116.475 Y22.665 E1.51357
G1 X117.288 Y23.015 E1.54301
G1 X118.067 Y23.437 E1.57247
G1 X118.803 Y23.928 E1.6019
G1 X119.493 Y24.483 E1.63135
G1 X119.94 Y24.902 E1.65173
G1 X120.057 Y25.019 E1.65723
G1 X120.654 Y25.673 E1.68669
G1 X121.189 Y26.378 E1.71612
G1 X121.659 Y27.128 E1.74556
G1 X122.059 Y27.918 E1.77501
G1 X122.387 Y28.74 E1.80445
G1 X122.544 Y29.271 E1.82286
G1 X122.66 Y28.917 E1.83525
G1 X123.01 Y28.104 E1.86469
G1 X123.432 Y27.325 E1.89416
G1 X123.923 Y26.589 E1.92359
G1 X124.478 Y25.899 E1.95304
G1 X124.897 Y25.452 E1.97342
G1 X125.014 Y25.335 E1.97892
G1 X125.668 Y24.738 E2.00837
G1 X126.373 Y24.203 E2.03781
G1 X127.123 Y23.733 E2.06725
G1 X127.913 Y23.333 E2.0967
G1 X128.735 Y23.005 E2.12614
G1 X129.584 Y22.754 E2.15558
G1 X130.452 Y22.579 E2.18503
G1 X131.332 Y22.484 E2.21447
G1 X131.944 Y22.465 E2.23484
G1 X143.162 Y22.465 E2.60795
G1 X144.046 Y22.505 E2.63738
G1 X144.923 Y22.625 E2.66682
G1 X145.786 Y22.823 E2.69627
G1 X146.627 Y23.098 E2.7257
G1 X146.83 Y23.185 E2.73305
G1 X147.353 Y22.981 E2.75172
G1 X148.203 Y22.736 E2.78114
G1 X149.072 Y22.568 E2.81058
G1 X149.953 Y22.48 E2.84002
G1 X150.492 Y22.465 E2.85796
G1 X161.71 Y22.465 E3.23107
G1 X162.594 Y22.505 E3.2605
G1 X163.471 Y22.625 E3.28994
G1 X164.334 Y22.823 E3.31939
G1 X165.175 Y23.098 E3.34882
G1 X165.988 Y23.448 E3.37826
G1 X166.767 Y23.87 E3.40773
G1 X167.503 Y24.361 E3.43716
G1 X168.193 Y24.916 E3.46661
G1 X168.64 Y25.335 E3.48699
G1 X168.757 Y25.452 E3.49249
G1 X169.354 Y26.106 E3.52194
G1 X169.889 Y26.811 E3.55138
G1 X170.359 Y27.561 E3.58082
G1 X170.759 Y28.351 E3.61027
G1 X171.064 Y29.116 E3.63766
G1 X171.179 Y28.615 E3.65476
G1 X171.454 Y27.774 E3.68419
G1 X171.804 Y26.961 E3.71363
G1 X172.226 Y26.182 E3.74309
G1 X172.717 Y25.446 E3.77252
G1 X173.272 Y24.756 E3.80197
G1 X173.691 Y24.309 E3.82235
G1 X173.808 Y24.192 E3.82785
G1 X174.462 Y23.595 E3.8573
G1 X175.167 Y23.06 E3.88674
G1 X175.917 Y22.59 E3.91618
G1 X176.707 Y22.19 E3.94563
G1 X177.529 Y21.862 E3.97507
G1 X178.378 Y21.611 E4.00451
G1 X179.246 Y21.436 E4.03396
G1 X180.126 Y21.341 E4.0634
G1 X180.738 Y21.322 E4.08377
G1 X191.955 Y21.322 E4.45685
G1 X192.839 Y21.362 E4.48628
G1 X193.716 Y21.482 E4.51572
G1 X194.579 Y21.68 E4.54517
G1 X195.42 Y21.955 E4.5746
G1 X195.623 Y22.042 E4.58194
G1 X196.147 Y21.838 E4.60065
G1 X196.997 Y21.593 E4.63007
G1 X197.866 Y21.425 E4.65951
G1 X198.747 Y21.337 E4.68895
G1 X199.286 Y21.322 E4.70689
G1 X210.504 Y21.322 E5.08
G1 X211.388 Y21.362 E5.10943
G1 X212.265 Y21.482 E5.13887
G1 X213.128 Y21.68 E5.16832
G1 X213.969 Y21.955 E5.19775
G1 X214.782 Y22.305 E5.22719
G1 X215.561 Y22.727 E5.25666
G1 X216.297 Y23.218 E5.28609
G1 X216.987 Y23.773 E5.31554
G1 X217.434 Y24.192 E5.33592
G1 X217.551 Y24.309 E5.34142
G1 X218.148 Y24.963 E5.37087
G1 X218.683 Y25.668 E5.40031
G1 X219.153 Y26.418 E5.42974
G1 X219.553 Y27.208 E5.4592
G1 X219.881 Y28.03 E5.48863
G1 X220.132 Y28.879 E5.51808
G1 X220.307 Y29.747 E5.54753
G1 X220.402 Y30.627 E5.57697
G1 X220.421 Y31.239 E5.59733
G1 X220.421 Y42.457 E5.97045
G1 X220.381 Y43.341 E5.99988
G1 X220.261 Y44.218 E6.02932
G1 X220.063 Y45.081 E6.05877
G1 X219.788 Y45.922 E6.0882
G1 X219.701 Y46.125 E6.09554
G1 X219.905 Y46.648 E6.11421
G1 X220.15 Y47.498 E6.14364
G1 X220.318 Y48.367 E6.17307
G1 X220.406 Y49.248 E6.20252
G1 X220.421 Y49.787 E6.22046
G1 X220.421 Y64.005 E6.69335
G1 X220.381 Y64.889 E6.72278
G1 X220.261 Y65.766 E6.75222
G1 X220.063 Y66.629 E6.78167
G1 X219.788 Y67.47 E6.8111
G1 X219.438 Y68.283 E6.84054
G1 X219.016 Y69.062 E6.87001
G1 X218.525 Y69.798 E6.89943
G1 X217.97 Y70.488 E6.92889
G1 X217.551 Y70.935 E6.94926
G1 X217.434 Y71.052 E6.95477
G1 X216.78 Y71.649 E6.98422
G1 X216.075 Y72.184 E7.01366
G1 X215.325 Y72.654 E7.04309
G1 X214.535 Y73.054 E7.07255
G1 X213.713 Y73.382 E7.10198
G1 X212.864 Y73.633 E7.13143
G1 X211.996 Y73.808 E7.16088
G1 X211.116 Y73.903 E7.19032
G1 X210.504 Y73.922 E7.21068
G1 X180.738 Y73.922 E8.2007
G1 X179.854 Y73.882 E8.23014
G1 X178.977 Y73.762 E8.25958
G1 X178.114 Y73.564 E8.28903
G1 X177.273 Y73.289 E8.31845
G1 X176.46 Y72.939 E8.34789
G1 X175.681 Y72.517 E8.37736
G1 X174.945 Y72.026 E8.40679
G1 X174.255 Y71.471 E8.43624
G1 X173.808 Y71.052 E8.45662
G1 X173.691 Y70.935 E8.46212
G1 X173.094 Y70.281 E8.49157
G1 X172.559 Y69.576 E8.52101
G1 X172.089 Y68.826 E8.55045
G1 X171.689 Y68.036 E8.5799
G1 X171.384 Y67.271 E8.60729
G1 X171.269 Y67.772 E8.62439
G1 X170.994 Y68.613 E8.65382
G1 X170.644 Y69.426 E8.68326
G1 X170.222 Y70.205 E8.71272
G1 X169.731 Y70.941 E8.74215
G1 X169.176 Y71.631 E8.7716
G1 X168.757 Y72.078 E8.79198
G1 X168.64 Y72.195 E8.79748
G1 X167.986 Y72.792 E8.82694
G1 X167.281 Y73.327 E8.85637
G1 X166.531 Y73.797 E8.88581
G1 X165.741 Y74.197 E8.91526
G1 X164.919 Y74.525 E8.9447
G1 X164.07 Y74.776 E8.97414
G1 X163.202 Y74.951 E9.00359
G1 X162.322 Y75.046 E9.03303
G1 X161.71 Y75.065 E9.0534
G1 X131.944 Y75.065 E10.04342
G1 X131.06 Y75.025 E10.07285
G1 X130.183 Y74.905 E10.10229
G1 X129.32 Y74.707 E10.13174
G1 X128.479 Y74.432 E10.16117
G1 X127.666 Y74.082 E10.19061
G1 X126.887 Y73.66 E10.22008
G1 X126.151 Y73.169 E10.24951
G1 X125.461 Y72.614 E10.27896
G1 X125.014 Y72.195 E10.29933
G1 X124.897 Y72.078 E10.30484
G1 X124.3 Y71.424 E10.33429
G1 X123.765 Y70.719 E10.36373
G1 X123.295 Y69.969 E10.39316
G1 X122.895 Y69.179 E10.42262
G1 X122.567 Y68.357 E10.45205
G1 X122.41 Y67.826 E10.47047
G1 X122.294 Y68.18 E10.48286
G1 X121.944 Y68.993 E10.5123
G1 X121.522 Y69.772 E10.54177
G1 X121.031 Y70.508 E10.57119
G1 X120.476 Y71.198 E10.60065
G1 X120.057 Y71.645 E10.62102
G1 X119.94 Y71.762 E10.62653
G1 X119.286 Y72.359 E10.65598
G1 X118.581 Y72.894 E10.68541
G1 X117.831 Y73.364 E10.71485
G1 X117.041 Y73.764 E10.7443
G1 X116.219 Y74.092 E10.77374
G1 X115.37 Y74.343 E10.80319
G1 X114.502 Y74.518 E10.83264
G1 X113.622 Y74.613 E10.86208
G1 X113.01 Y74.632 E10.88244
G1 X83.244 Y74.632 E11.87246
G1 X82.36 Y74.592 E11.90189
G1 X81.483 Y74.472 E11.93134
G1 X80.62 Y74.274 E11.96078
G1 X79.779 Y73.999 E11.99021
G1 X78.966 Y73.649 E12.01965
G1 X78.187 Y73.227 E12.04912
G1 X77.451 Y72.736 E12.07855
G1 X76.761 Y72.181 E12.108
G1 X76.314 Y71.762 E12.12838
G1 X76.197 Y71.645 E12.13388
G1 X75.6 Y70.991 E12.16333
G1 X75.065 Y70.286 E12.19277
G1 X74.595 Y69.536 E12.22221
G1 X74.195 Y68.746 E12.25166
G1 X73.867 Y67.924 E12.28109
G1 X73.616 Y67.075 E12.31054
G1 X73.441 Y66.207 E12.33999
G1 X73.346 Y65.327 E12.36943
G1 X73.327 Y64.715 E12.3898
G1 X73.327 Y50.497 E12.86269
G1 X73.367 Y49.613 E12.89212
G1 X73.487 Y48.736 E12.92156
G1 X73.685 Y47.873 E12.95101
G1 X73.96 Y47.032 E12.98044
G1 X74.047 Y46.829 E12.98778
G1 X73.843 Y46.306 E13.00646
G1 X73.598 Y45.456 E13.03588
G1 X73.43 Y44.587 E13.06532
G1 X73.342 Y43.706 E13.09476
G1 X73.327 Y43.167 E13.1127
G1 X73.327 Y31.949 E13.48581
G1 X73.367 Y31.065 E13.51524
G1 X73.487 Y30.188 E13.54468
G1 X73.685 Y29.325 E13.57413
G1 X73.712 Y29.245 E13.57694
G0 F810 X73.96 Y28.484
M204 S5000
M205 X30 Y30
G0 F7200 X74.36 Y28.558
M204 S500
M205 X20 Y20
G1 F6000 E13.60355
G1 F900 X74.71 Y27.765 E13.63238
G1 X75.131 Y27.007 E13.66122
G1 X75.62 Y26.292 E13.69003
G1 X76.173 Y25.624 E13.71887
G1 X76.48 Y25.302 E13.73367
G1 X76.597 Y25.185 E13.73917
G1 X77.238 Y24.601 E13.76801
G1 X77.93 Y24.078 E13.79686
G1 X78.667 Y23.622 E13.82569
G1 X79.442 Y23.235 E13.8545
G1 X80.251 Y22.921 E13.88336
G1 X81.084 Y22.683 E13.91218
G1 X81.936 Y22.523 E13.94101
G1 X82.799 Y22.443 E13.96984
G1 X83.244 Y22.432 E13.98464
G1 X94.462 Y22.432 E14.35776
G1 X95.328 Y22.472 E14.38659
G1 X96.187 Y22.592 E14.41544
G1 X97.031 Y22.79 E14.44427
G1 X97.853 Y23.065 E14.4731
G1 X98.117 Y23.182 E14.48271
G1 X98.918 Y22.883 E14.51114
G1 X99.754 Y22.656 E14.53995
G1 X100.608 Y22.507 E14.56879
G1 X101.793 Y22.432 E14.60828
G1 X113.01 Y22.432 E14.98136
G1 X113.876 Y22.472 E15.01019
G1 X114.735 Y22.592 E15.03904
G1 X115.579 Y22.79 E15.06787
G1 X116.401 Y23.065 E15.0967
G1 X117.194 Y23.415 E15.12553
G1 X117.952 Y23.836 E15.15437
G1 X118.667 Y24.325 E15.18318
G1 X119.335 Y24.878 E15.21203
G1 X119.657 Y25.185 E15.22682
G1 X119.774 Y25.302 E15.23233
G1 X120.358 Y25.943 E15.26117
G1 X120.881 Y26.635 E15.29002
G1 X121.337 Y27.372 E15.31884
G1 X121.724 Y28.147 E15.34766
G1 X122.038 Y28.956 E15.37652
G1 X122.276 Y29.789 E15.40533
G1 X122.436 Y30.641 E15.43417
G1 X122.497 Y31.3 E15.45618
G1 X122.587 Y30.657 E15.47777
G1 X122.785 Y29.813 E15.50661
G1 X123.06 Y28.991 E15.53544
G1 X123.41 Y28.198 E15.56427
G1 X123.831 Y27.44 E15.5931
G1 X124.32 Y26.725 E15.62191
G1 X124.873 Y26.057 E15.65076
G1 X125.18 Y25.735 E15.66556
G1 X125.297 Y25.618 E15.67106
G1 X125.938 Y25.034 E15.6999
G1 X126.63 Y24.511 E15.72875
G1 X127.367 Y24.055 E15.75758
G1 X128.142 Y23.668 E15.78639
G1 X128.951 Y23.354 E15.81525
G1 X129.784 Y23.116 E15.84406
G1 X130.636 Y22.956 E15.8729
G1 X131.499 Y22.876 E15.90172
G1 X131.944 Y22.865 E15.91653
G1 X143.162 Y22.865 E16.28964
G1 X144.028 Y22.905 E16.31848
G1 X144.887 Y23.025 E16.34732
G1 X145.731 Y23.223 E16.37616
G1 X146.553 Y23.498 E16.40499
G1 X146.817 Y23.614 E16.41458
G1 X147.617 Y23.316 E16.44297
G1 X148.453 Y23.089 E16.47178
G1 X149.307 Y22.94 E16.50062
G1 X150.492 Y22.865 E16.54011
G1 X161.71 Y22.865 E16.91322
G1 X162.576 Y22.905 E16.94206
G1 X163.435 Y23.025 E16.9709
G1 X164.279 Y23.223 E16.99974
G1 X165.101 Y23.498 E17.02857
G1 X165.894 Y23.848 E17.0574
G1 X166.652 Y24.269 E17.08623
G1 X167.367 Y24.758 E17.11505
G1 X168.035 Y25.311 E17.14389
G1 X168.357 Y25.618 E17.15869
G1 X168.474 Y25.735 E17.16419
G1 X169.058 Y26.376 E17.19303
G1 X169.581 Y27.068 E17.22188
G1 X170.037 Y27.805 E17.25071
G1 X170.424 Y28.58 E17.27952
G1 X170.738 Y29.389 E17.30838
G1 X170.976 Y30.222 E17.3372
G1 X171.136 Y31.074 E17.36603
G1 X171.216 Y31.937 E17.39485
G1 X171.221 Y32.139 E17.40158
G1 X171.221 Y31.239 E17.43151
G1 X171.261 Y30.373 E17.46034
G1 X171.381 Y29.514 E17.48919
G1 X171.579 Y28.67 E17.51803
G1 X171.854 Y27.848 E17.54685
G1 X172.204 Y27.055 E17.57568
G1 X172.625 Y26.297 E17.60452
G1 X173.114 Y25.582 E17.63333
G1 X173.667 Y24.914 E17.66218
G1 X173.974 Y24.592 E17.67697
G1 X174.091 Y24.475 E17.68248
G1 X174.732 Y23.891 E17.71132
G1 X175.424 Y23.368 E17.74017
G1 X176.161 Y22.912 E17.76899
G1 X176.936 Y22.525 E17.79781
G1 X177.745 Y22.211 E17.82667
G1 X178.578 Y21.973 E17.85548
G1 X179.43 Y21.813 E17.88432
G1 X180.293 Y21.733 E17.91314
G1 X180.738 Y21.722 E17.92795
G1 X191.955 Y21.722 E18.30103
G1 X192.821 Y21.762 E18.32986
G1 X193.68 Y21.882 E18.35871
G1 X194.524 Y22.08 E18.38754
G1 X195.346 Y22.355 E18.41637
G1 X195.61 Y22.472 E18.42598
G1 X196.411 Y22.173 E18.45441
G1 X197.247 Y21.946 E18.48323
G1 X198.101 Y21.797 E18.51206
G1 X199.286 Y21.722 E18.55155
G1 X210.504 Y21.722 E18.92466
G1 X211.37 Y21.762 E18.9535
G1 X212.229 Y21.882 E18.98235
G1 X213.073 Y22.08 E19.01118
G1 X213.895 Y22.355 E19.04001
G1 X214.688 Y22.705 E19.06884
G1 X215.446 Y23.126 E19.09768
G1 X216.161 Y23.615 E19.12649
G1 X216.829 Y24.168 E19.15533
G1 X217.151 Y24.475 E19.17013
G1 X217.268 Y24.592 E19.17563
G1 X217.852 Y25.233 E19.20447
G1 X218.375 Y25.925 E19.23332
G1 X218.831 Y26.662 E19.26215
G1 X219.218 Y27.437 E19.29096
G1 X219.532 Y28.246 E19.31982
G1 X219.77 Y29.079 E19.34864
G1 X219.93 Y29.931 E19.37747
G1 X220.01 Y30.794 E19.4063
G1 X220.021 Y31.239 E19.4211
G1 X220.021 Y42.457 E19.79421
G1 X219.981 Y43.323 E19.82305
G1 X219.861 Y44.182 E19.8519
G1 X219.663 Y45.026 E19.88073
G1 X219.388 Y45.848 E19.90956
G1 X219.272 Y46.112 E19.91915
G1 X219.57 Y46.912 E19.94754
G1 X219.797 Y47.748 E19.97636
G1 X219.946 Y48.602 E20.00519
G1 X220.021 Y49.787 E20.04468
G1 X220.021 Y64.005 E20.51757
G1 X219.981 Y64.871 E20.54641
G1 X219.861 Y65.73 E20.57526
G1 X219.663 Y66.574 E20.60409
G1 X219.388 Y67.396 E20.63292
G1 X219.038 Y68.189 E20.66175
G1 X218.617 Y68.947 E20.69059
G1 X218.128 Y69.662 E20.7194
G1 X217.575 Y70.33 E20.74824
G1 X217.268 Y70.652 E20.76304
G1 X217.151 Y70.769 E20.76854
G1 X216.51 Y71.353 E20.79738
G1 X215.818 Y71.876 E20.82623
G1 X215.081 Y72.332 E20.85506
G1 X214.306 Y72.719 E20.88387
G1 X213.497 Y73.033 E20.91273
G1 X212.664 Y73.271 E20.94155
G1 X211.812 Y73.431 E20.97038
G1 X210.949 Y73.511 E20.99921
G1 X210.504 Y73.522 E21.01401
G1 X180.738 Y73.522 E22.00403
G1 X179.872 Y73.482 E22.03287
G1 X179.013 Y73.362 E22.06172
G1 X178.169 Y73.164 E22.09055
G1 X177.347 Y72.889 E22.11938
G1 X176.554 Y72.539 E22.14821
G1 X175.796 Y72.118 E22.17705
G1 X175.081 Y71.629 E22.20586
G1 X174.413 Y71.076 E22.2347
G1 X174.091 Y70.769 E22.2495
G1 X173.974 Y70.652 E22.255
G1 X173.39 Y70.011 E22.28384
G1 X172.867 Y69.319 E22.31269
G1 X172.411 Y68.582 E22.34152
G1 X172.024 Y67.807 E22.37033
G1 X171.71 Y66.998 E22.39919
G1 X171.472 Y66.165 E22.42801
G1 X171.312 Y65.313 E22.45684
G1 X171.232 Y64.45 E22.48567
G1 X171.227 Y64.248 E22.49239
G1 X171.227 Y65.148 E22.52232
G1 X171.187 Y66.014 E22.55116
G1 X171.067 Y66.873 E22.58
G1 X170.869 Y67.717 E22.60884
G1 X170.594 Y68.539 E22.63767
G1 X170.244 Y69.332 E22.6665
G1 X169.823 Y70.09 E22.69534
G1 X169.334 Y70.805 E22.72415
G1 X168.781 Y71.473 E22.75299
G1 X168.474 Y71.795 E22.76779
G1 X168.357 Y71.912 E22.77329
G1 X167.716 Y72.496 E22.80213
G1 X167.024 Y73.019 E22.83098
G1 X166.287 Y73.475 E22.85981
G1 X165.512 Y73.862 E22.88862
G1 X164.703 Y74.176 E22.91748
G1 X163.87 Y74.414 E22.9463
G1 X163.018 Y74.574 E22.97513
G1 X162.155 Y74.654 E23.00396
G1 X161.71 Y74.665 E23.01876
G1 X131.944 Y74.665 E24.00878
G1 X131.078 Y74.625 E24.03762
G1 X130.219 Y74.505 E24.06646
G1 X129.375 Y74.307 E24.0953
G1 X128.553 Y74.032 E24.12413
G1 X127.76 Y73.682 E24.15296
G1 X127.002 Y73.261 E24.1818
G1 X126.287 Y72.772 E24.21061
G1 X125.619 Y72.219 E24.23945
G1 X125.297 Y71.912 E24.25425
G1 X125.18 Y71.795 E24.25975
G1 X124.596 Y71.154 E24.28859
G1 X124.073 Y70.462 E24.31744
G1 X123.617 Y69.725 E24.34627
G1 X123.23 Y68.95 E24.37508
G1 X122.916 Y68.141 E24.40394
G1 X122.678 Y67.308 E24.43276
G1 X122.518 Y66.456 E24.46159
G1 X122.457 Y65.797 E24.4836
G1 X122.367 Y66.44 E24.5052
G1 X122.169 Y67.284 E24.53403
G1 X121.894 Y68.106 E24.56286
G1 X121.544 Y68.899 E24.59169
G1 X121.123 Y69.657 E24.62053
G1 X120.634 Y70.372 E24.64934
G1 X120.081 Y71.04 E24.67818
G1 X119.774 Y71.362 E24.69298
G1 X119.657 Y71.479 E24.69848
G1 X119.016 Y72.063 E24.72732
G1 X118.324 Y72.586 E24.75617
G1 X117.587 Y73.042 E24.785
G1 X116.812 Y73.429 E24.81381
G1 X116.003 Y73.743 E24.84267
G1 X115.17 Y73.981 E24.87149
G1 X114.318 Y74.141 E24.90032
G1 X113.455 Y74.221 E24.92915
G1 X113.01 Y74.232 E24.94395
G1 X83.244 Y74.232 E25.93397
