;FLAVOR:Marlin
;TIME:3078
;Filament used: 0.7634m
;Layer height: 0.1
;Generated with Cura_SteamEngine 3.6.0
M140 S70
M105
M190 S70
M104 S215
M105
M109 S215
M82 ;absolute extrusion mode
G28 ; home all axes
M117 Purge extruder
G92 E0 ; reset extruder
G1 Z1.0 F3000 ; move z up little to prevent scratching of surface
G1 X0.1 Y20 Z0.3 F5000.0 ; move to start-line position G1 X0.1 Y200.0 Z0.3 F1500.0 E15 ; draw 1st line
G1 X0.4 Y200.0 Z0.3 F5000.0 ; move to side a little
G1 X0.4 Y20 Z0.3 F1500.0 E30 ; draw 2nd line
G92 E0 ; reset extruder
G1 Z1.0 F3000 ; move z up little to prevent scratching of surface
M117 All systems go!
G92 E0
G1 F6000 E-5
;LAYER_COUNT:250
;LAYER:0
M107
M204 S5000
M205 X30 Y30
G0 F7200 X96.283 Y109.422 Z0.2
M204 S500
M205 X20 Y20
;TYPE:SKIRT
G1 F6000 E0
G1 F900 X96.76 Y109.002 E0.02325
G1 X97.286 Y108.644 E0.04653
G1 X97.853 Y108.356 E0.0698
G1 X98.451 Y108.14 E0.09306
G1 X99.072 Y108.002 E0.11633
G1 X99.861 Y107.94 E0.14529
G1 X117.371 Y107.94 E0.78591
G1 X118.006 Y107.98 E0.80919
G1 X118.63 Y108.099 E0.83243
G1 X119.235 Y108.296 E0.85571
G1 X119.81 Y108.567 E0.87897
G1 X120.347 Y108.908 E0.90224
G1 X120.949 Y109.422 E0.9312
G1 X121.078 Y109.551 E0.93788
G1 X121.498 Y110.028 E0.96113
G1 X121.856 Y110.554 E0.98441
G1 X122.144 Y111.121 E1.00767
G1 X122.36 Y111.719 E1.03094
G1 X122.498 Y112.34 E1.05421
G1 X122.545 Y112.94 E1.07623
G1 X135.139 Y112.94 E1.537
G1 X135.774 Y112.98 E1.56027
G1 X136.398 Y113.099 E1.58352
G1 X137.003 Y113.296 E1.60679
G1 X137.578 Y113.567 E1.63005
G1 X138.115 Y113.908 E1.65332
G1 X138.717 Y114.422 E1.68228
G1 X138.846 Y114.551 E1.68896
G1 X139.266 Y115.028 E1.71221
G1 X139.624 Y115.554 E1.73549
G1 X139.912 Y116.121 E1.75876
G1 X140.128 Y116.719 E1.78202
G1 X140.266 Y117.34 E1.80529
G1 X140.328 Y118.129 E1.83425
G1 X140.328 Y118.871 E1.8614
G1 X140.288 Y119.506 E1.88467
G1 X140.169 Y120.13 E1.90791
G1 X139.972 Y120.735 E1.93119
G1 X139.701 Y121.31 E1.95445
G1 X139.36 Y121.847 E1.97772
G1 X138.846 Y122.449 E2.00668
G1 X138.717 Y122.578 E2.01336
G1 X138.24 Y122.998 E2.03661
G1 X137.714 Y123.356 E2.05989
G1 X137.147 Y123.644 E2.08316
G1 X136.549 Y123.86 E2.10642
G1 X135.928 Y123.998 E2.12969
G1 X135.139 Y124.06 E2.15865
G1 X123.253 Y124.06 E2.59351
G1 X122.908 Y124.536 E2.61502
G1 X122.475 Y125.001 E2.63827
G1 X122.177 Y125.262 E2.65276
G1 X121.659 Y125.68 E2.67711
G1 X121.14 Y126.047 E2.70037
G1 X120.579 Y126.347 E2.72364
G1 X120.216 Y126.495 E2.73798
G1 X119.605 Y126.718 E2.76178
G1 X118.995 Y126.898 E2.78505
G1 X118.367 Y127.001 E2.80833
G1 X117.984 Y127.024 E2.82237
G1 X117.321 Y127.039 E2.84663
G1 X116.686 Y127.013 E2.86989
G1 X116.059 Y126.908 E2.89314
G1 X115.661 Y126.798 E2.90825
G1 X115.044 Y126.6 E2.93196
G1 X115 Y126.583 E2.93368
G1 X115 Y126.609 E2.93464
G1 X114.92 Y127.24 E2.95791
G1 X114.763 Y127.848 E2.98088
G1 X114.668 Y128.14 E2.99211
G1 X114.433 Y128.732 E3.01542
G1 X114.127 Y129.289 E3.03867
G1 X113.753 Y129.803 E3.06193
G1 X113.317 Y130.266 E3.08519
G1 X112.834 Y130.666 E3.10814
G1 X111.393 Y131.715 E3.17335
G1 X110.856 Y132.056 E3.19662
G1 X110.281 Y132.327 E3.21988
G1 X109.677 Y132.524 E3.24312
G1 X109.052 Y132.644 E3.26641
G1 X108.415 Y132.684 E3.28976
G1 X106.635 Y132.684 E3.35488
G1 X106 Y132.644 E3.37816
G1 X105.376 Y132.525 E3.4014
G1 X104.771 Y132.328 E3.42468
G1 X104.196 Y132.057 E3.44793
G1 X103.657 Y131.715 E3.47129
G1 X102.216 Y130.666 E3.5365
G1 X101.726 Y130.26 E3.55978
G1 X101.292 Y129.796 E3.58303
G1 X100.918 Y129.281 E3.60631
G1 X100.613 Y128.723 E3.62958
G1 X100.384 Y128.146 E3.65229
G1 X100.288 Y127.852 E3.6636
G1 X100.129 Y127.236 E3.68688
G1 X100.048 Y126.605 E3.71016
G1 X100.048 Y126.06 E3.7301
G1 X99.86 Y126.06 E3.73697
G1 X99.225 Y126.02 E3.76025
G1 X98.6 Y125.9 E3.78354
G1 X97.996 Y125.704 E3.80677
G1 X97.421 Y125.433 E3.83002
G1 X96.884 Y125.091 E3.85332
G1 X96.283 Y124.578 E3.88223
G1 X96.154 Y124.449 E3.8889
G1 X95.734 Y123.972 E3.91215
G1 X95.376 Y123.446 E3.93543
G1 X95.088 Y122.879 E3.9587
G1 X94.872 Y122.281 E3.98196
G1 X94.734 Y121.66 E4.00524
G1 X94.672 Y120.871 E4.03419
G1 X94.672 Y120.129 E4.06134
G1 X94.712 Y119.494 E4.08462
G1 X94.831 Y118.87 E4.10786
G1 X95.028 Y118.265 E4.13114
G1 X95.299 Y117.69 E4.15439
G1 X95.64 Y117.153 E4.17767
G1 X95.765 Y117.007 E4.1847
G1 X95.734 Y116.972 E4.18641
G1 X95.376 Y116.446 E4.20969
G1 X95.088 Y115.879 E4.23295
G1 X94.872 Y115.281 E4.25622
G1 X94.734 Y114.66 E4.27949
G1 X94.672 Y113.871 E4.30845
G1 X94.672 Y113.129 E4.33559
G1 X94.712 Y112.494 E4.35887
G1 X94.831 Y111.87 E4.38211
G1 X95.028 Y111.265 E4.40539
G1 X95.299 Y110.69 E4.42865
G1 X95.64 Y110.153 E4.45192
G1 X95.8 Y109.965 E4.46095
G0 F810 X96.154 Y109.551
G0 X96.283 Y109.422
M204 S5000
M205 X30 Y30
G0 F7200 X96.594 Y109.733
M204 S500
M205 X20 Y20
G1 F6000 E4.48755
G1 F900 X97.051 Y109.333 E4.50977
G1 X97.557 Y108.996 E4.53201
G1 X98.102 Y108.728 E4.55423
G1 X98.678 Y108.534 E4.57647
G1 X99.274 Y108.417 E4.59869
G1 X99.861 Y108.38 E4.62021
G1 X117.371 Y108.38 E5.26083
G1 X117.977 Y108.42 E5.28305
G1 X118.573 Y108.539 E5.30529
G1 X119.148 Y108.735 E5.32751
G1 X119.692 Y109.006 E5.34975
G1 X120.197 Y109.345 E5.372
G1 X120.638 Y109.733 E5.39349
G1 X120.767 Y109.862 E5.40017
G1 X121.167 Y110.319 E5.42239
G1 X121.504 Y110.825 E5.44463
G1 X121.772 Y111.37 E5.46685
G1 X121.966 Y111.946 E5.48909
G1 X122.083 Y112.542 E5.51131
G1 X122.12 Y113.129 E5.53283
G1 X122.12 Y113.38 E5.54201
G1 X135.139 Y113.38 E6.01832
G1 X135.745 Y113.42 E6.04054
G1 X136.341 Y113.539 E6.06278
G1 X136.916 Y113.735 E6.08501
G1 X137.46 Y114.006 E6.10724
G1 X137.965 Y114.345 E6.12949
G1 X138.406 Y114.733 E6.15098
G1 X138.535 Y114.862 E6.15766
G1 X138.935 Y115.319 E6.17988
G1 X139.272 Y115.825 E6.20212
G1 X139.54 Y116.37 E6.22434
G1 X139.734 Y116.946 E6.24658
G1 X139.851 Y117.542 E6.2688
G1 X139.888 Y118.129 E6.29032
G1 X139.888 Y118.871 E6.31747
G1 X139.848 Y119.477 E6.33968
G1 X139.729 Y120.073 E6.36192
G1 X139.533 Y120.648 E6.38415
G1 X139.262 Y121.192 E6.40638
G1 X138.923 Y121.697 E6.42863
G1 X138.535 Y122.138 E6.45012
G1 X138.406 Y122.267 E6.4568
G1 X137.949 Y122.667 E6.47902
G1 X137.443 Y123.004 E6.50126
G1 X136.898 Y123.272 E6.52348
G1 X136.322 Y123.466 E6.54572
G1 X135.726 Y123.583 E6.56794
G1 X135.139 Y123.62 E6.58946
G1 X123.013 Y123.62 E7.0331
G1 X122.908 Y123.786 E7.04029
G1 X122.551 Y124.278 E7.06253
G1 X122.133 Y124.719 E7.08476
G1 X121.9 Y124.919 E7.09599
G1 X121.382 Y125.337 E7.12035
G1 X120.885 Y125.687 E7.14259
G1 X120.065 Y126.082 E7.17589
G1 X119.454 Y126.305 E7.19968
G1 X118.871 Y126.475 E7.2219
G1 X117.974 Y126.584 E7.25496
G1 X117.311 Y126.599 E7.27922
G1 X116.704 Y126.573 E7.30145
G1 X116.106 Y126.467 E7.32367
G1 X115.795 Y126.379 E7.33549
G1 X115.178 Y126.181 E7.3592
G1 X114.613 Y125.958 E7.38143
G1 X114.548 Y125.922 E7.38414
G1 X114.571 Y126.325 E7.39891
G1 X114.525 Y126.93 E7.42111
G1 X114.344 Y127.712 E7.45048
G1 X114.249 Y128.004 E7.46171
G1 X114.024 Y128.569 E7.48396
G1 X113.726 Y129.098 E7.50618
G1 X113.361 Y129.584 E7.52841
G1 X112.936 Y130.018 E7.55064
G1 X112.575 Y130.31 E7.56762
G1 X111.134 Y131.359 E7.63283
G1 X110.62 Y131.684 E7.65508
G1 X110.069 Y131.938 E7.67728
G1 X109.488 Y132.118 E7.69953
G1 X108.889 Y132.22 E7.72176
G1 X108.415 Y132.244 E7.73913
G1 X106.635 Y132.244 E7.80425
G1 X106.029 Y132.204 E7.82647
G1 X105.433 Y132.085 E7.84871
G1 X104.858 Y131.889 E7.87093
G1 X104.314 Y131.618 E7.89317
G1 X103.916 Y131.359 E7.91054
G1 X102.475 Y130.31 E7.97575
G1 X102.008 Y129.921 E7.99799
G1 X101.597 Y129.474 E8.0202
G1 X101.247 Y128.977 E8.04244
G1 X100.966 Y128.438 E8.06468
G1 X100.802 Y128.009 E8.08149
G1 X100.706 Y127.715 E8.0928
G1 X100.556 Y127.126 E8.11504
G1 X100.484 Y126.523 E8.13726
G1 X100.492 Y125.915 E8.1595
G1 X100.535 Y125.62 E8.17041
G1 X99.86 Y125.62 E8.19511
G1 X99.254 Y125.58 E8.21733
G1 X98.658 Y125.461 E8.23956
G1 X98.083 Y125.264 E8.2618
G1 X97.539 Y124.994 E8.28402
G1 X97.035 Y124.655 E8.30624
G1 X96.594 Y124.267 E8.32773
G1 X96.465 Y124.138 E8.33441
G1 X96.065 Y123.681 E8.35663
G1 X95.728 Y123.175 E8.37887
G1 X95.46 Y122.63 E8.40109
G1 X95.266 Y122.054 E8.42332
G1 X95.149 Y121.458 E8.44555
G1 X95.112 Y120.871 E8.46706
G1 X95.112 Y120.129 E8.49421
G1 X95.152 Y119.523 E8.51643
G1 X95.271 Y118.927 E8.53867
G1 X95.467 Y118.352 E8.56089
G1 X95.738 Y117.808 E8.58313
G1 X96.077 Y117.303 E8.60538
G1 X96.344 Y117 E8.62016
G1 X96.065 Y116.681 E8.63566
G1 X95.728 Y116.175 E8.6579
G1 X95.46 Y115.63 E8.68012
G1 X95.266 Y115.054 E8.70236
G1 X95.149 Y114.458 E8.72458
G1 X95.112 Y113.871 E8.7461
G1 X95.112 Y113.129 E8.77325
G1 X95.152 Y112.523 E8.79547
G1 X95.271 Y111.927 E8.8177
G1 X95.467 Y111.352 E8.83993
G1 X95.738 Y110.808 E8.86216
G1 X96.077 Y110.303 E8.88442
G1 X96.105 Y110.271 E8.88597
G0 F810 X96.465 Y109.862
G0 X96.594 Y109.733
M204 S5000
M205 X30 Y30
G0 F7200 X96.905 Y110.044
M204 S500
M205 X20 Y20
G1 F6000 E8.91257
G1 F900 X97.341 Y109.665 E8.93371
G1 X97.825 Y109.349 E8.95485
G1 X98.348 Y109.103 E8.976
G1 X98.9 Y108.932 E8.99714
G1 X99.471 Y108.838 E9.01831
G1 X99.861 Y108.82 E9.0326
G1 X117.371 Y108.82 E9.67322
G1 X117.948 Y108.86 E9.69438
G1 X118.513 Y108.979 E9.71551
G1 X119.057 Y109.175 E9.73666
G1 X119.568 Y109.444 E9.75779
G1 X120.038 Y109.781 E9.77895
G1 X120.327 Y110.044 E9.79325
G1 X120.456 Y110.173 E9.79992
G1 X120.835 Y110.609 E9.82106
G1 X121.151 Y111.093 E9.8422
G1 X121.397 Y111.616 E9.86335
G1 X121.568 Y112.168 E9.88449
G1 X121.662 Y112.739 E9.90566
G1 X121.68 Y113.129 E9.91995
G1 X121.68 Y113.82 E9.94523
G1 X135.139 Y113.82 E10.43764
G1 X135.716 Y113.86 E10.4588
G1 X136.281 Y113.979 E10.47993
G1 X136.825 Y114.175 E10.50108
G1 X137.336 Y114.444 E10.52221
G1 X137.806 Y114.781 E10.54337
G1 X138.095 Y115.044 E10.55767
G1 X138.224 Y115.173 E10.56434
G1 X138.603 Y115.609 E10.58548
G1 X138.919 Y116.093 E10.60662
G1 X139.165 Y116.616 E10.62777
G1 X139.336 Y117.168 E10.64891
G1 X139.43 Y117.739 E10.67008
G1 X139.448 Y118.129 E10.68437
G1 X139.448 Y118.871 E10.71151
G1 X139.408 Y119.448 E10.73267
G1 X139.289 Y120.013 E10.7538
G1 X139.093 Y120.557 E10.77495
G1 X138.824 Y121.068 E10.79608
G1 X138.487 Y121.538 E10.81724
G1 X138.224 Y121.827 E10.83154
G1 X138.095 Y121.956 E10.83821
G1 X137.659 Y122.335 E10.85935
G1 X137.175 Y122.651 E10.8805
G1 X136.652 Y122.897 E10.90164
G1 X136.1 Y123.068 E10.92278
G1 X135.529 Y123.162 E10.94396
G1 X135.139 Y123.18 E10.95824
G1 X122.77 Y123.18 E11.41077
G1 X122.536 Y123.552 E11.42685
G1 X122.195 Y124.018 E11.44798
G1 X121.624 Y124.577 E11.47721
G1 X121.106 Y124.995 E11.50157
G1 X120.632 Y125.326 E11.52272
G1 X119.914 Y125.669 E11.55183
G1 X119.303 Y125.892 E11.57563
G1 X118.748 Y126.052 E11.59676
G1 X117.965 Y126.144 E11.6256
G1 X117.302 Y126.159 E11.64987
G1 X116.724 Y126.132 E11.67104
G1 X115.93 Y125.96 E11.70076
G1 X115.313 Y125.762 E11.72447
G1 X114.776 Y125.548 E11.74562
G1 X114.174 Y125.184 E11.77135
G1 X113.974 Y125.184 E11.77867
G1 X114.058 Y125.507 E11.79088
G1 X114.126 Y126.081 E11.81203
G1 X114.114 Y126.659 E11.83318
G1 X114.022 Y127.23 E11.85434
G1 X113.926 Y127.576 E11.86748
G1 X113.831 Y127.868 E11.87871
G1 X113.615 Y128.404 E11.89985
G1 X113.326 Y128.905 E11.92101
G1 X112.972 Y129.361 E11.94213
G1 X112.558 Y129.765 E11.9633
G1 X112.316 Y129.954 E11.97453
G1 X110.875 Y131.003 E12.03974
G1 X110.385 Y131.31 E12.0609
G1 X109.858 Y131.547 E12.08204
G1 X109.303 Y131.709 E12.10319
G1 X108.731 Y131.792 E12.12434
G1 X108.415 Y131.804 E12.13591
G1 X106.635 Y131.804 E12.20103
G1 X106.058 Y131.764 E12.22219
G1 X105.493 Y131.645 E12.24332
G1 X104.949 Y131.449 E12.26447
G1 X104.438 Y131.18 E12.2856
G1 X104.175 Y131.003 E12.2972
G1 X102.734 Y129.954 E12.36241
G1 X102.291 Y129.583 E12.38355
G1 X101.904 Y129.154 E12.40469
G1 X101.58 Y128.675 E12.42584
G1 X101.325 Y128.157 E12.44697
G1 X101.22 Y127.872 E12.45808
G1 X101.124 Y127.578 E12.4694
G1 X100.983 Y127.018 E12.49052
G1 X100.921 Y126.443 E12.51168
G1 X100.939 Y125.866 E12.5328
G1 X101.036 Y125.296 E12.55396
G1 X101.073 Y125.18 E12.55841
G1 X99.86 Y125.18 E12.60279
G1 X99.283 Y125.14 E12.62395
G1 X98.718 Y125.021 E12.64508
G1 X98.174 Y124.825 E12.66623
G1 X97.663 Y124.555 E12.68738
G1 X97.193 Y124.218 E12.70853
G1 X96.905 Y123.956 E12.72278
G1 X96.776 Y123.827 E12.72945
G1 X96.397 Y123.391 E12.75059
G1 X96.081 Y122.907 E12.77174
G1 X95.835 Y122.384 E12.79288
G1 X95.664 Y121.832 E12.81403
G1 X95.57 Y121.261 E12.8352
G1 X95.552 Y120.871 E12.84948
G1 X95.552 Y120.129 E12.87663
G1 X95.592 Y119.552 E12.89779
G1 X95.711 Y118.987 E12.91891
G1 X95.907 Y118.443 E12.94007
G1 X96.176 Y117.932 E12.9612
G1 X96.513 Y117.462 E12.98236
G1 X96.776 Y117.173 E12.99665
G1 X96.905 Y117.044 E13.00333
G1 X96.954 Y117.001 E13.00571
G1 X96.905 Y116.956 E13.00815
G1 X96.776 Y116.827 E13.01482
G1 X96.397 Y116.391 E13.03596
G1 X96.081 Y115.907 E13.0571
G1 X95.835 Y115.384 E13.07825
G1 X95.664 Y114.832 E13.09939
G1 X95.57 Y114.261 E13.12056
G1 X95.552 Y113.871 E13.13485
G1 X95.552 Y113.129 E13.16199
G1 X95.592 Y112.552 E13.18315
G1 X95.711 Y111.987 E13.20428
G1 X95.907 Y111.443 E13.22543
G1 X96.176 Y110.932 E13.24656
G1 X96.423 Y110.588 E13.26206
G0 F810 X96.513 Y110.462
G0 X96.776 Y110.173
G0 X96.905 Y110.044
M204 S5000
M205 X30 Y30
G0 F7200 X97.216 Y110.355
M204 S500
M205 X20 Y20
G1 F6000 E13.28865
G1 F900 X97.63 Y109.998 E13.30865
G1 X98.092 Y109.705 E13.32867
G1 X98.591 Y109.482 E13.34867
G1 X99.117 Y109.335 E13.36865
G1 X99.861 Y109.26 E13.39601
G1 X117.371 Y109.26 E14.03663
G1 X117.916 Y109.3 E14.05662
G1 X118.45 Y109.419 E14.07664
G1 X118.96 Y109.614 E14.09662
G1 X119.437 Y109.882 E14.11663
G1 X120.016 Y110.355 E14.14399
G1 X120.145 Y110.484 E14.15066
G1 X120.502 Y110.898 E14.17066
G1 X120.795 Y111.36 E14.19068
G1 X121.018 Y111.859 E14.21067
G1 X121.165 Y112.385 E14.23066
G1 X121.24 Y113.129 E14.25801
G1 X121.24 Y114.26 E14.29939
G1 X135.139 Y114.26 E14.8079
G1 X135.684 Y114.3 E14.8279
G1 X136.218 Y114.419 E14.84791
G1 X136.728 Y114.614 E14.86789
G1 X137.205 Y114.882 E14.88791
G1 X137.784 Y115.355 E14.91526
G1 X137.913 Y115.484 E14.92193
G1 X138.27 Y115.898 E14.94193
G1 X138.563 Y116.36 E14.96195
G1 X138.786 Y116.859 E14.98195
G1 X138.933 Y117.385 E15.00193
G1 X139.008 Y118.129 E15.02929
G1 X139.008 Y118.871 E15.05643
G1 X138.968 Y119.416 E15.07643
G1 X138.849 Y119.95 E15.09644
G1 X138.654 Y120.46 E15.11642
G1 X138.386 Y120.937 E15.13644
G1 X137.913 Y121.516 E15.16379
G1 X137.784 Y121.645 E15.17046
G1 X137.37 Y122.002 E15.19046
G1 X136.908 Y122.295 E15.21048
G1 X136.409 Y122.518 E15.23048
G1 X135.883 Y122.665 E15.25046
G1 X135.139 Y122.74 E15.27782
G1 X122.523 Y122.74 E15.73939
G1 X122.506 Y122.774 E15.74078
G1 X122.164 Y123.317 E15.76426
G1 X121.839 Y123.757 E15.78427
G1 X121.348 Y124.235 E15.80934
G1 X120.83 Y124.653 E15.83369
G1 X120.38 Y124.964 E15.85371
G1 X119.763 Y125.255 E15.87866
G1 X119.152 Y125.478 E15.90246
G1 X118.626 Y125.628 E15.92247
G1 X117.955 Y125.704 E15.94718
G1 X117.292 Y125.719 E15.97144
G1 X116.746 Y125.691 E15.99144
G1 X116.064 Y125.541 E16.01699
G1 X115.447 Y125.343 E16.0407
G1 X114.94 Y125.139 E16.06069
G1 X114.358 Y124.783 E16.08565
G1 X114.305 Y124.744 E16.08806
G1 X113.354 Y124.743 E16.12286
G1 X113.396 Y124.826 E16.12626
G1 X113.571 Y125.344 E16.14626
G1 X113.669 Y125.882 E16.16627
G1 X113.688 Y126.428 E16.18626
G1 X113.627 Y126.971 E16.20625
G1 X113.508 Y127.44 E16.22395
G1 X113.413 Y127.732 E16.23519
G1 X113.206 Y128.238 E16.25519
G1 X112.928 Y128.709 E16.2752
G1 X112.584 Y129.134 E16.2952
G1 X112.057 Y129.599 E16.32092
G1 X110.616 Y130.648 E16.38613
G1 X110.152 Y130.936 E16.40611
G1 X109.651 Y131.154 E16.4261
G1 X109.123 Y131.296 E16.4461
G1 X108.415 Y131.364 E16.47212
G1 X106.635 Y131.364 E16.53725
G1 X106.09 Y131.324 E16.55724
G1 X105.556 Y131.205 E16.57725
G1 X105.046 Y131.01 E16.59723
G1 X104.434 Y130.648 E16.62325
G1 X102.993 Y129.599 E16.68846
G1 X102.576 Y129.246 E16.70844
G1 X102.214 Y128.835 E16.72848
G1 X101.917 Y128.377 E16.74845
G1 X101.639 Y127.736 E16.77402
G1 X101.543 Y127.442 E16.78533
G1 X101.411 Y126.911 E16.80535
G1 X101.359 Y126.367 E16.82534
G1 X101.386 Y125.821 E16.84534
G1 X101.493 Y125.285 E16.86534
G1 X101.677 Y124.77 E16.88535
G1 X101.693 Y124.74 E16.88659
