;FLAVOR:Marlin
;TIME:2540
;Filament used: 0.851199m
;Layer height: 0.1
;Generated with Cura_SteamEngine 3.6.0
M140 S70
M105
M190 S70
M104 S215
M105
M109 S215
M82 ;absolute extrusion mode
G28 ; home all axes
M117 Purge extruder
G92 E0 ; reset extruder
G1 Z1.0 F3000 ; move z up little to prevent scratching of surface
G1 X0.1 Y20 Z0.3 F5000.0 ; move to start-line position G1 X0.1 Y200.0 Z0.3 F1500.0 E15 ; draw 1st line
G1 X0.4 Y200.0 Z0.3 F5000.0 ; move to side a little
G1 X0.4 Y20 Z0.3 F1500.0 E30 ; draw 2nd line
G92 E0 ; reset extruder
G1 Z1.0 F3000 ; move z up little to prevent scratching of surface
M117 All systems go!
G92 E0
G1 F6000 E-5
;LAYER_COUNT:200
;LAYER:0
M107
M204 S5000
M205 X30 Y30
G0 F7200 X89.672 Y108.835 Z0.2
M204 S500
M205 X20 Y20
;TYPE:SKIRT
G1 F6000 E0
G1 F900 X90.181 Y108.454 E0.02326
G1 X90.734 Y108.14 E0.04653
G1 X91.322 Y107.898 E0.06979
G1 X91.936 Y107.732 E0.09306
G1 X92.566 Y107.644 E0.11633
G1 X92.915 Y107.629 E0.12911
G1 X98.083 Y107.593 E0.3182
G1 X98.718 Y107.629 E0.34147
G1 X99.343 Y107.744 E0.36472
G1 X99.949 Y107.936 E0.38797
G1 X100.526 Y108.203 E0.41123
G1 X100.743 Y108.339 E0.4206
G1 X100.762 Y108.325 E0.42147
G1 X101.316 Y108.014 E0.44471
G1 X101.906 Y107.775 E0.468
G1 X102.52 Y107.612 E0.49124
G1 X103.151 Y107.527 E0.51454
G1 X104.037 Y107.542 E0.54696
G1 X105.171 Y107.661 E0.58867
G1 X105.568 Y107.728 E0.6034
G1 X105.771 Y107.662 E0.61121
G1 X106.396 Y107.542 E0.6345
G1 X106.473 Y107.537 E0.63732
G1 X106.584 Y107.501 E0.64159
G1 X107.414 Y107.36 E0.67239
G1 X110.257 Y107.118 E0.77678
G1 X110.755 Y107.1 E0.79501
G1 X127.701 Y107.332 E1.41506
G1 X131.422 Y107.274 E1.55121
G1 X132.057 Y107.304 E1.57447
G1 X132.683 Y107.413 E1.59772
G1 X133.291 Y107.6 E1.62099
G1 X133.871 Y107.862 E1.64428
G1 X134.413 Y108.195 E1.66755
G1 X134.45 Y108.224 E1.66927
G1 X134.874 Y108.009 E1.68666
G1 X135.472 Y107.793 E1.70993
G1 X136.093 Y107.655 E1.7332
G1 X136.884 Y107.593 E1.76223
G1 X141.912 Y107.595 E1.94618
G1 X142.547 Y107.635 E1.96946
G1 X143.171 Y107.755 E1.99271
G1 X143.682 Y107.915 E2.0123
G1 X143.888 Y107.992 E2.02035
G1 X144.468 Y108.252 E2.0436
G1 X145.011 Y108.582 E2.06685
G1 X145.509 Y108.978 E2.09013
G1 X145.953 Y109.434 E2.11341
G1 X146.337 Y109.941 E2.13668
G1 X146.512 Y110.226 E2.14892
G1 X146.638 Y110.447 E2.15822
G1 X146.917 Y111.018 E2.18148
G1 X147.123 Y111.62 E2.20475
G1 X147.252 Y112.242 E2.22799
G1 X147.302 Y112.966 E2.25455
G1 X147.279 Y122.139 E2.59015
G1 X147.237 Y122.773 E2.6134
G1 X147.117 Y123.398 E2.63668
G1 X146.918 Y124.002 E2.65995
G1 X146.646 Y124.576 E2.68319
G1 X146.108 Y125.363 E2.71807
G1 X145.969 Y125.53 E2.72602
G1 X145.532 Y125.992 E2.74928
G1 X145.041 Y126.396 E2.77254
G1 X144.503 Y126.735 E2.79581
G1 X143.927 Y127.004 E2.81907
G1 X143.321 Y127.198 E2.84235
G1 X142.696 Y127.315 E2.86561
G1 X142.133 Y127.353 E2.88626
G1 X136.935 Y127.407 E3.07644
G1 X136.3 Y127.373 E3.09971
G1 X135.674 Y127.261 E3.12297
G1 X135.067 Y127.07 E3.14625
G1 X134.652 Y126.88 E3.16295
G1 X134.378 Y127.092 E3.17563
G1 X133.83 Y127.416 E3.19892
G1 X133.247 Y127.669 E3.22217
G1 X132.636 Y127.846 E3.24544
G1 X132.008 Y127.946 E3.26871
G1 X131.409 Y127.967 E3.29064
G1 X130.553 Y127.946 E3.32197
G1 X129.935 Y128.063 E3.34498
G1 X129.307 Y128.102 E3.368
G1 X128.663 Y128.102 E3.39156
G1 X128.028 Y128.062 E3.41484
G1 X127.906 Y128.039 E3.41938
G1 X127.853 Y128.049 E3.42135
G1 X127.211 Y128.09 E3.44489
G1 X126.567 Y128.09 E3.46845
G1 X125.932 Y128.05 E3.49173
G1 X125.794 Y128.024 E3.49687
G1 X125.702 Y128.041 E3.50029
G1 X125.074 Y128.08 E3.52331
G1 X124.43 Y128.08 E3.54687
G1 X123.795 Y128.04 E3.57015
G1 X123.683 Y128.019 E3.57432
G1 X123.552 Y128.044 E3.5792
G1 X122.913 Y128.084 E3.60262
G1 X122.269 Y128.084 E3.62618
G1 X121.634 Y128.044 E3.64946
G1 X121.519 Y128.022 E3.65375
G1 X121.389 Y128.047 E3.65859
G1 X120.754 Y128.087 E3.68187
G1 X120.11 Y128.087 E3.70543
G1 X119.475 Y128.047 E3.72871
G1 X119.253 Y128.005 E3.73697
G1 X119.22 Y128.011 E3.7382
G1 X118.594 Y128.05 E3.76115
G1 X117.95 Y128.05 E3.78471
G1 X117.315 Y128.01 E3.80799
G1 X117.105 Y127.97 E3.81581
G1 X117.083 Y127.974 E3.81663
G1 X116.448 Y128.014 E3.83991
G1 X115.804 Y128.014 E3.86347
G1 X115.169 Y127.974 E3.88675
G1 X115.054 Y127.952 E3.89103
G1 X114.955 Y127.971 E3.89472
G1 X114.32 Y128.011 E3.918
G1 X113.676 Y128.011 E3.94156
G1 X113.041 Y127.971 E3.96484
G1 X112.807 Y127.926 E3.97355
G1 X112.441 Y127.9 E3.98698
G1 X112.423 Y127.897 E3.98764
G1 X112.367 Y127.907 E3.98973
G1 X111.735 Y127.974 E4.01298
G1 X111.099 Y127.96 E4.03625
G1 X110.696 Y127.9 E4.05116
G1 X110.597 Y127.91 E4.0548
G1 X109.962 Y127.892 E4.07804
G1 X109.527 Y127.825 E4.09414
G1 X109.401 Y127.833 E4.09876
G1 X108.766 Y127.795 E4.12204
G1 X108.141 Y127.677 E4.14531
G1 X107.945 Y127.61 E4.15289
G1 X107.648 Y127.591 E4.16377
G1 X107.024 Y127.472 E4.18701
G1 X106.658 Y127.353 E4.2011
G1 X106.532 Y127.345 E4.20571
G1 X105.908 Y127.226 E4.22896
G1 X105.587 Y127.122 E4.2413
G1 X105.253 Y127.23 E4.25414
G1 X105.053 Y127.268 E4.26159
G1 X104.776 Y127.359 E4.27226
G1 X104.152 Y127.478 E4.2955
G1 X103.517 Y127.519 E4.31878
G1 X102.882 Y127.48 E4.34206
G1 X102.258 Y127.361 E4.3653
G1 X101.653 Y127.165 E4.38857
G1 X101.077 Y126.895 E4.41184
G1 X100.732 Y126.676 E4.42679
G1 X100.693 Y126.703 E4.42853
G1 X100.126 Y126.991 E4.45179
G1 X99.528 Y127.207 E4.47505
G1 X98.907 Y127.345 E4.49833
G1 X98.09 Y127.407 E4.52831
G1 X92.947 Y127.379 E4.71647
G1 X92.313 Y127.336 E4.73972
G1 X91.689 Y127.213 E4.76299
G1 X91.085 Y127.013 E4.78627
G1 X90.512 Y126.739 E4.8095
G1 X89.902 Y126.339 E4.83619
G1 X89.745 Y126.219 E4.84342
G1 X89.265 Y125.802 E4.86668
G1 X88.841 Y125.328 E4.88995
G1 X88.48 Y124.804 E4.91323
G1 X88.188 Y124.24 E4.93647
G1 X88.008 Y123.77 E4.95488
G1 X87.944 Y123.574 E4.96243
G1 X87.785 Y122.958 E4.9857
G1 X87.704 Y122.327 E5.00898
G1 X87.694 Y121.988 E5.02138
G1 X87.721 Y112.859 E5.35538
G1 X87.763 Y112.224 E5.37866
G1 X87.884 Y111.6 E5.40192
G1 X88.082 Y110.996 E5.42517
G1 X88.355 Y110.422 E5.44843
G1 X88.698 Y109.886 E5.47171
G1 X89.045 Y109.461 E5.49178
G1 X89.152 Y109.344 E5.49758
G0 F810 X89.214 Y109.276
G0 X89.672 Y108.835
M204 S5000
M205 X30 Y30
G0 F7200 X89.977 Y109.152
M204 S500
M205 X20 Y20
G1 F6000 E5.52418
G1 F900 X90.467 Y108.793 E5.54641
G1 X91 Y108.501 E5.56864
G1 X91.567 Y108.281 E5.59089
G1 X92.157 Y108.138 E5.6131
G1 X92.918 Y108.069 E5.64106
G1 X98.086 Y108.033 E5.83014
G1 X98.692 Y108.069 E5.85235
G1 X99.289 Y108.184 E5.8746
G1 X99.865 Y108.376 E5.89681
G1 X100.412 Y108.643 E5.91908
G1 X100.756 Y108.871 E5.93418
G1 X101.185 Y108.581 E5.95312
G1 X101.729 Y108.311 E5.97534
G1 X102.304 Y108.114 E5.99758
G1 X102.9 Y107.994 E6.01982
G1 X103.506 Y107.954 E6.04204
G1 X103.991 Y107.979 E6.05981
G1 X105.125 Y108.098 E6.10153
G1 X105.6 Y108.18 E6.11916
G1 X105.96 Y108.069 E6.13294
G1 X106.559 Y107.967 E6.15517
G1 X106.585 Y107.966 E6.15613
G1 X106.772 Y107.908 E6.16329
G1 X107.451 Y107.799 E6.18845
G1 X110.294 Y107.557 E6.29284
G1 X110.749 Y107.54 E6.3095
G1 X127.702 Y107.772 E6.9298
G1 X131.429 Y107.714 E7.06618
G1 X132.035 Y107.744 E7.08837
G1 X132.633 Y107.854 E7.11062
G1 X133.211 Y108.041 E7.13284
G1 X133.759 Y108.303 E7.15507
G1 X134.269 Y108.634 E7.17731
G1 X134.414 Y108.758 E7.18429
G1 X134.578 Y108.649 E7.1915
G1 X135.123 Y108.381 E7.21372
G1 X135.699 Y108.187 E7.23595
G1 X136.295 Y108.07 E7.25818
G1 X136.884 Y108.033 E7.27977
G1 X141.912 Y108.035 E7.46372
G1 X142.518 Y108.075 E7.48594
G1 X143.114 Y108.195 E7.50818
G1 X143.528 Y108.327 E7.52408
G1 X143.734 Y108.404 E7.53213
G1 X144.288 Y108.654 E7.55437
G1 X144.804 Y108.974 E7.57658
G1 X145.274 Y109.36 E7.59883
G1 X145.689 Y109.803 E7.62104
G1 X146.13 Y110.444 E7.64951
G1 X146.256 Y110.665 E7.65881
G1 X146.521 Y111.211 E7.68102
G1 X146.713 Y111.788 E7.70327
G1 X146.827 Y112.385 E7.7255
G1 X146.862 Y112.965 E7.74676
G1 X146.839 Y122.138 E8.08237
G1 X146.798 Y122.744 E8.10459
G1 X146.677 Y123.339 E8.1268
G1 X146.479 Y123.914 E8.14905
G1 X146.208 Y124.457 E8.17125
G1 X145.77 Y125.082 E8.19918
G1 X145.631 Y125.249 E8.20713
G1 X145.212 Y125.689 E8.22936
G1 X144.74 Y126.071 E8.25157
G1 X144.221 Y126.387 E8.2738
G1 X143.665 Y126.633 E8.29605
G1 X143.082 Y126.803 E8.31826
G1 X142.481 Y126.896 E8.34051
G1 X142.128 Y126.913 E8.35344
G1 X136.93 Y126.967 E8.54363
G1 X136.323 Y126.933 E8.56587
G1 X135.726 Y126.82 E8.5881
G1 X135.149 Y126.63 E8.61033
G1 X134.602 Y126.365 E8.63256
G1 X134.591 Y126.358 E8.63304
G1 X134.444 Y126.494 E8.64037
G1 X133.948 Y126.846 E8.66262
G1 X133.411 Y127.129 E8.68483
G1 X132.841 Y127.339 E8.70705
G1 X132.248 Y127.472 E8.72929
G1 X131.42 Y127.527 E8.75965
G1 X130.482 Y127.504 E8.79398
G1 X130.372 Y127.538 E8.79819
G1 X129.772 Y127.638 E8.82044
G1 X129.307 Y127.662 E8.83748
G1 X128.663 Y127.662 E8.86104
G1 X128.057 Y127.622 E8.88326
G1 X127.895 Y127.59 E8.8893
G1 X127.69 Y127.625 E8.89691
G1 X127.211 Y127.65 E8.91446
G1 X126.567 Y127.65 E8.93802
G1 X125.961 Y127.61 E8.96024
G1 X125.786 Y127.575 E8.96677
G1 X125.54 Y127.616 E8.97589
G1 X125.074 Y127.64 E8.99296
G1 X124.43 Y127.64 E9.01653
G1 X123.824 Y127.6 E9.03874
G1 X123.685 Y127.572 E9.04393
G1 X123.67 Y127.571 E9.04448
G1 X123.389 Y127.619 E9.05491
G1 X122.913 Y127.644 E9.07235
G1 X122.269 Y127.644 E9.09591
G1 X121.663 Y127.604 E9.11813
G1 X121.513 Y127.574 E9.12373
G1 X121.226 Y127.623 E9.13438
G1 X120.754 Y127.647 E9.15167
G1 X120.11 Y127.647 E9.17523
G1 X119.504 Y127.607 E9.19745
G1 X119.245 Y127.555 E9.20712
G1 X119.058 Y127.587 E9.21406
G1 X118.594 Y127.61 E9.23106
G1 X117.95 Y127.61 E9.25462
G1 X117.344 Y127.57 E9.27684
G1 X117.095 Y127.52 E9.28613
G1 X116.92 Y127.55 E9.29262
G1 X116.448 Y127.574 E9.30991
G1 X115.804 Y127.574 E9.33348
G1 X115.198 Y127.534 E9.3557
G1 X115.144 Y127.523 E9.35771
G1 X115.002 Y127.511 E9.36293
G1 X114.792 Y127.547 E9.37072
G1 X114.32 Y127.571 E9.38801
G1 X113.676 Y127.571 E9.41157
G1 X113.07 Y127.531 E9.43379
G1 X112.917 Y127.501 E9.4395
G1 X112.505 Y127.465 E9.45463
G1 X112.417 Y127.452 E9.45788
G1 X112.294 Y127.473 E9.46245
G1 X111.69 Y127.535 E9.48466
G1 X111.082 Y127.517 E9.50692
G1 X110.711 Y127.456 E9.52067
G1 X110.555 Y127.471 E9.52641
G1 X109.948 Y127.449 E9.54863
G1 X109.553 Y127.382 E9.56329
G1 X109.373 Y127.393 E9.56988
G1 X108.767 Y127.351 E9.59211
G1 X108.171 Y127.23 E9.61436
G1 X108.01 Y127.173 E9.62061
G1 X107.677 Y127.151 E9.63282
G1 X107.081 Y127.032 E9.65505
G1 X106.744 Y126.917 E9.66808
G1 X106.561 Y126.905 E9.67479
G1 X105.965 Y126.786 E9.69703
G1 X105.594 Y126.66 E9.71136
G1 X105.064 Y126.824 E9.73166
G1 X104.923 Y126.848 E9.73689
G1 X104.588 Y126.952 E9.74972
G1 X103.989 Y127.054 E9.77195
G1 X103.381 Y127.077 E9.79422
G1 X102.776 Y127.02 E9.81645
G1 X102.184 Y126.884 E9.83867
G1 X101.615 Y126.672 E9.86089
G1 X101.079 Y126.386 E9.88311
G1 X100.736 Y126.142 E9.89851
G1 X100.422 Y126.351 E9.91231
G1 X99.877 Y126.619 E9.93453
G1 X99.301 Y126.813 E9.95677
G1 X98.705 Y126.93 E9.97899
G1 X98.093 Y126.967 E10.00142
G1 X92.95 Y126.939 E10.18959
G1 X92.344 Y126.896 E10.21182
G1 X91.749 Y126.773 E10.23405
G1 X91.175 Y126.574 E10.25627
G1 X90.632 Y126.301 E10.27851
G1 X90.169 Y125.99 E10.29891
G1 X90.012 Y125.87 E10.30614
G1 X89.555 Y125.47 E10.32836
G1 X89.154 Y125.013 E10.35061
G1 X88.816 Y124.508 E10.37284
G1 X88.548 Y123.963 E10.39506
G1 X88.426 Y123.633 E10.40793
G1 X88.362 Y123.437 E10.41548
G1 X88.212 Y122.848 E10.43771
G1 X88.134 Y121.989 E10.46927
G1 X88.161 Y112.86 E10.80327
G1 X88.203 Y112.254 E10.82549
G1 X88.324 Y111.659 E10.8477
G1 X88.522 Y111.084 E10.86995
G1 X88.793 Y110.541 E10.89216
G1 X89.134 Y110.038 E10.91439
G1 X89.37 Y109.758 E10.92779
G1 X89.458 Y109.661 E10.93258
G0 F810 X89.539 Y109.573
G0 X89.977 Y109.152
M204 S5000
M205 X30 Y30
G0 F7200 X90.282 Y109.471
M204 S500
M205 X20 Y20
G1 F6000 E10.95918
G1 F900 X90.752 Y109.134 E10.98034
G1 X91.263 Y108.865 E11.00146
G1 X91.807 Y108.668 E11.02263
G1 X92.372 Y108.549 E11.04376
G1 X92.921 Y108.509 E11.0639
G1 X98.089 Y108.473 E11.25298
G1 X98.666 Y108.509 E11.27413
G1 X99.232 Y108.624 E11.29526
G1 X99.777 Y108.816 E11.3164
G1 X100.29 Y109.082 E11.33754
G1 X100.762 Y109.416 E11.3587
G1 X100.772 Y109.425 E11.35919
G1 X101.11 Y109.151 E11.37511
G1 X101.605 Y108.853 E11.39625
G1 X102.136 Y108.626 E11.41737
G1 X102.694 Y108.474 E11.43853
G1 X103.267 Y108.401 E11.45967
G1 X103.945 Y108.417 E11.48448
G1 X105.079 Y108.536 E11.5262
G1 X105.618 Y108.631 E11.54622
G1 X106.145 Y108.478 E11.5663
G1 X106.666 Y108.401 E11.58556
G1 X106.957 Y108.317 E11.59665
G1 X107.488 Y108.237 E11.61629
G1 X110.331 Y107.995 E11.72068
G1 X110.743 Y107.98 E11.73577
G1 X127.702 Y108.213 E12.35629
G1 X131.435 Y108.154 E12.49288
G1 X132.013 Y108.184 E12.51406
G1 X132.58 Y108.295 E12.5352
G1 X133.127 Y108.482 E12.55635
G1 X133.642 Y108.743 E12.57747
G1 X134.117 Y109.073 E12.59863
G1 X134.374 Y109.31 E12.61142
G1 X134.846 Y109.002 E12.63204
G1 X135.369 Y108.756 E12.65319
G1 X135.921 Y108.585 E12.67433
G1 X136.492 Y108.491 E12.6955
G1 X136.884 Y108.473 E12.70986
G1 X141.912 Y108.475 E12.89381
G1 X142.488 Y108.515 E12.91494
G1 X143.054 Y108.634 E12.9361
G1 X143.374 Y108.74 E12.94843
G1 X143.58 Y108.817 E12.95648
G1 X144.106 Y109.056 E12.97761
G1 X144.594 Y109.365 E12.99875
G1 X145.034 Y109.739 E13.01987
G1 X145.419 Y110.17 E13.04102
G1 X145.747 Y110.662 E13.06265
G1 X145.873 Y110.883 E13.07196
G1 X146.124 Y111.403 E13.09308
G1 X146.301 Y111.954 E13.11426
G1 X146.4 Y112.523 E13.13539
G1 X146.422 Y112.963 E13.15151
G1 X146.399 Y122.136 E13.48711
G1 X146.358 Y122.713 E13.50827
G1 X146.237 Y123.278 E13.52941
G1 X146.04 Y123.821 E13.55055
G1 X145.769 Y124.332 E13.57171
G1 X145.432 Y124.8 E13.59281
G1 X145.293 Y124.967 E13.60076
G1 X144.893 Y125.385 E13.62193
G1 X144.44 Y125.743 E13.64305
G1 X143.941 Y126.036 E13.66422
G1 X143.407 Y126.257 E13.68537
G1 X142.848 Y126.402 E13.70649
G1 X142.123 Y126.473 E13.73315
G1 X136.925 Y126.527 E13.92333
G1 X136.348 Y126.493 E13.94448
G1 X135.782 Y126.38 E13.96559
G1 X135.236 Y126.189 E13.98676
G1 X134.722 Y125.926 E14.00788
G1 X134.541 Y125.799 E14.01597
G1 X134.451 Y125.9 E14.02092
G1 X134.011 Y126.274 E14.04205
G1 X133.523 Y126.584 E14.0632
G1 X132.997 Y126.823 E14.08434
G1 X132.443 Y126.988 E14.10549
G1 X131.871 Y127.074 E14.12665
G1 X131.43 Y127.087 E14.14279
G1 X130.416 Y127.062 E14.1799
G1 X130.188 Y127.128 E14.18858
G1 X129.616 Y127.211 E14.20973
G1 X129.307 Y127.222 E14.22104
G1 X128.663 Y127.222 E14.2446
G1 X128.086 Y127.182 E14.26576
G1 X127.903 Y127.143 E14.27261
G1 X127.532 Y127.198 E14.28633
G1 X127.211 Y127.21 E14.29808
G1 X126.567 Y127.21 E14.32165
G1 X125.99 Y127.17 E14.34281
G1 X125.796 Y127.129 E14.35006
G1 X125.383 Y127.189 E14.36533
G1 X125.074 Y127.2 E14.37664
G1 X124.43 Y127.2 E14.4002
G1 X123.853 Y127.16 E14.42136
G1 X123.687 Y127.125 E14.42757
G1 X123.231 Y127.192 E14.44443
G1 X122.913 Y127.204 E14.45608
G1 X122.269 Y127.204 E14.47964
G1 X121.692 Y127.164 E14.5008
G1 X121.525 Y127.129 E14.50704
G1 X121.069 Y127.195 E14.5239
G1 X120.754 Y127.207 E14.53543
G1 X120.11 Y127.207 E14.55899
G1 X119.533 Y127.167 E14.58015
G1 X119.253 Y127.108 E14.59062
G1 X118.901 Y127.159 E14.60364
G1 X118.594 Y127.17 E14.61487
G1 X117.95 Y127.17 E14.63844
G1 X117.373 Y127.13 E14.6596
G1 X117.101 Y127.073 E14.66976
G1 X116.763 Y127.122 E14.68226
G1 X116.448 Y127.134 E14.69379
G1 X115.804 Y127.134 E14.71735
G1 X115.227 Y127.094 E14.73852
G1 X115.162 Y127.08 E14.74095
G1 X115.061 Y127.081 E14.74464
G1 X114.963 Y127.071 E14.74825
G1 X114.635 Y127.119 E14.76038
G1 X114.32 Y127.131 E14.77191
G1 X113.676 Y127.131 E14.79547
G1 X113.099 Y127.091 E14.81663
G1 X112.973 Y127.065 E14.82134
G1 X112.91 Y127.065 E14.82364
G1 X112.568 Y127.03 E14.83622
G1 X112.413 Y127.008 E14.84195
G1 X112.221 Y127.04 E14.84907
G1 X111.646 Y127.096 E14.87021
G1 X111.068 Y127.073 E14.89137
G1 X110.731 Y127.012 E14.9039
G1 X110.514 Y127.032 E14.91187
G1 X109.937 Y127.005 E14.93301
G1 X109.586 Y126.939 E14.94607
G1 X109.346 Y126.953 E14.95487
G1 X108.77 Y126.907 E14.97601
G1 X108.206 Y126.782 E14.99714
G1 X108.083 Y126.737 E15.00194
G1 X107.706 Y126.711 E15.01576
G1 X107.141 Y126.592 E15.03689
G1 X106.87 Y126.484 E15.04756
