;FLAVOR:Marlin
;TIME:3611
;Filament used: 2.55592m
;Layer height: 0.2
;Generated with Cura_SteamEngine 3.6.0
M140 S70
M105
M190 S70
M104 S215
M105
M109 S215
M82 ;absolute extrusion mode
G28 ; home all axes
M117 Purge extruder
G92 E0 ; reset extruder
G1 Z1.0 F3000 ; move z up little to prevent scratching of surface
G1 X0.1 Y20 Z0.3 F5000.0 ; move to start-line position G1 X0.1 Y200.0 Z0.3 F1500.0 E15 ; draw 1st line
G1 X0.4 Y200.0 Z0.3 F5000.0 ; move to side a little
G1 X0.4 Y20 Z0.3 F1500.0 E30 ; draw 2nd line
G92 E0 ; reset extruder
G1 Z1.0 F3000 ; move z up little to prevent scratching of surface
M117 All systems go!
G92 E0
G1 F6000 E-5
;LAYER_COUNT:40
;LAYER:0
M107
M204 S5000
M205 X30 Y30
G0 F7200 X97.392 Y78.898 Z0.2
M204 S500
M205 X20 Y20
;TYPE:SKIRT
G1 F6000 E0
G1 F900 X98.239 Y77.957 E0.04632
G1 X99.143 Y77.072 E0.0926
G1 X100.086 Y76.258 E0.13818
G1 X100.202 Y76.164 E0.14364
G1 X101.21 Y75.399 E0.18994
G1 X102.264 Y74.699 E0.23623
G1 X103.36 Y74.067 E0.28252
G1 X104.494 Y73.505 E0.32882
G1 X105.661 Y73.016 E0.37512
G1 X106.857 Y72.602 E0.42142
G1 X108.076 Y72.265 E0.46769
G1 X109.315 Y72.005 E0.51401
G1 X110.567 Y71.824 E0.56029
G1 X112.1 Y71.71 E0.61653
G1 X117.34 Y71.525 E0.80836
G1 X118.605 Y71.521 E0.85465
G1 X119.868 Y71.596 E0.90094
G1 X121.124 Y71.751 E0.94724
G1 X122.368 Y71.985 E0.99355
G1 X123.594 Y72.297 E1.03983
G1 X124.798 Y72.686 E1.08612
G1 X125.975 Y73.15 E1.13241
G1 X127.121 Y73.688 E1.17873
G1 X128.23 Y74.297 E1.22502
G1 X129.298 Y74.975 E1.2713
G1 X130.743 Y76.055 E1.3373
G1 X130.871 Y76.16 E1.34336
G1 X131.824 Y76.993 E1.38967
G1 X132.722 Y77.884 E1.43595
G1 X133.561 Y78.831 E1.48224
G1 X134.34 Y79.828 E1.52853
G1 X135.054 Y80.873 E1.57483
G1 X135.122 Y80.988 E1.57972
G1 X135.135 Y81 E1.58037
G1 X136 Y81.923 E1.62665
G1 X136.805 Y82.9 E1.67297
G1 X137.533 Y83.905 E1.71837
G1 X137.67 Y84.107 E1.7273
G1 X138.347 Y85.176 E1.77359
G1 X138.955 Y86.286 E1.8199
G1 X139.491 Y87.432 E1.86618
G1 X139.954 Y88.609 E1.91246
G1 X140.342 Y89.814 E1.95877
G1 X140.653 Y91.04 E2.00505
G1 X140.694 Y91.261 E2.01327
G1 X141.71 Y91.922 E2.05762
G1 X142.831 Y92.762 E2.10887
G1 X146.387 Y95.628 E2.27596
G1 X147.347 Y96.453 E2.32227
G1 X148.252 Y97.337 E2.36856
G1 X149.185 Y98.377 E2.41967
G1 X152.112 Y101.879 E2.58666
G1 X152.892 Y102.875 E2.63294
G1 X153.608 Y103.919 E2.67926
G1 X154.323 Y105.126 E2.73058
G1 X156.513 Y109.138 E2.89781
G1 X157.084 Y110.267 E2.9441
G1 X157.583 Y111.43 E2.9904
G1 X158.045 Y112.743 E3.04133
G1 X159.409 Y117.095 E3.20819
G1 X159.749 Y118.313 E3.25445
G1 X160.011 Y119.551 E3.30075
G1 X160.21 Y120.944 E3.35223
G1 X160.698 Y125.487 E3.5194
G1 X160.794 Y126.749 E3.5657
G1 X160.809 Y128.014 E3.61199
G1 X160.733 Y129.409 E3.6631
G1 X160.326 Y133.959 E3.83023
G1 X160.174 Y135.215 E3.87652
G1 X159.942 Y136.459 E3.92282
G1 X159.594 Y137.817 E3.97411
G1 X158.308 Y142.195 E4.14105
G1 X157.914 Y143.398 E4.18736
G1 X157.444 Y144.572 E4.23363
G1 X156.84 Y145.831 E4.28472
G1 X154.723 Y149.879 E4.45185
G1 X154.102 Y150.981 E4.49813
G1 X153.412 Y152.042 E4.54443
G1 X152.569 Y153.166 E4.59583
G1 X149.703 Y156.721 E4.7629
G1 X148.878 Y157.681 E4.80921
G1 X147.994 Y158.586 E4.8555
G1 X146.958 Y159.515 E4.90641
G1 X143.456 Y162.443 E5.07342
G1 X142.461 Y163.223 E5.11967
G1 X141.417 Y163.94 E5.16601
G1 X140.207 Y164.656 E5.21745
G1 X136.195 Y166.846 E5.38467
G1 X135.066 Y167.417 E5.43096
G1 X133.903 Y167.916 E5.47726
G1 X132.585 Y168.379 E5.52837
G1 X128.232 Y169.742 E5.69526
G1 X127.013 Y170.082 E5.74156
G1 X125.775 Y170.344 E5.78785
G1 X124.392 Y170.542 E5.83897
G1 X119.848 Y171.031 E6.00618
G1 X118.586 Y171.127 E6.05248
G1 X117.321 Y171.142 E6.09877
G1 X115.922 Y171.066 E6.15003
G1 X111.374 Y170.659 E6.31708
G1 X110.117 Y170.507 E6.36341
G1 X108.873 Y170.275 E6.40971
G1 X107.517 Y169.928 E6.46092
G1 X103.138 Y168.642 E6.62789
G1 X101.936 Y168.247 E6.67418
G1 X100.761 Y167.777 E6.72048
G1 X99.494 Y167.17 E6.77188
G1 X95.448 Y165.052 E6.93897
G1 X94.346 Y164.43 E6.98526
G1 X93.286 Y163.739 E7.03156
G1 X92.173 Y162.905 E7.08244
G1 X88.617 Y160.04 E7.24951
G1 X87.657 Y159.215 E7.29582
G1 X86.751 Y158.331 E7.34213
G1 X85.816 Y157.289 E7.39335
G1 X82.889 Y153.787 E7.56034
G1 X82.109 Y152.791 E7.60662
G1 X81.393 Y151.747 E7.65294
G1 X80.679 Y150.544 E7.70412
G1 X78.488 Y146.532 E7.87137
G1 X77.917 Y145.402 E7.91769
G1 X77.419 Y144.239 E7.96397
G1 X76.954 Y142.918 E8.01521
G1 X75.591 Y138.565 E8.18209
G1 X75.251 Y137.346 E8.2284
G1 X74.989 Y136.108 E8.27469
G1 X74.791 Y134.726 E8.32577
G1 X74.302 Y130.184 E8.4929
G1 X74.206 Y128.922 E8.53921
G1 X74.191 Y127.657 E8.58549
G1 X74.267 Y126.258 E8.63675
G1 X74.674 Y121.707 E8.80392
G1 X74.826 Y120.451 E8.85021
G1 X75.058 Y119.207 E8.89651
G1 X75.406 Y117.846 E8.9479
G1 X76.692 Y113.469 E9.11481
G1 X77.087 Y112.267 E9.1611
G1 X77.557 Y111.092 E9.2074
G1 X78.161 Y109.832 E9.25852
G1 X80.279 Y105.784 E9.42567
G1 X80.901 Y104.682 E9.47197
G1 X81.591 Y103.621 E9.51827
G1 X82.428 Y102.505 E9.56931
G1 X85.293 Y98.949 E9.73638
G1 X86.118 Y97.989 E9.78269
G1 X87.002 Y97.083 E9.829
G1 X88.044 Y96.148 E9.88022
G1 X90.063 Y94.46 E9.97651
G1 X90.109 Y93.773 E10.0017
G1 X90.274 Y92.518 E10.04801
G1 X90.517 Y91.276 E10.09431
G1 X90.838 Y90.052 E10.14061
G1 X91.236 Y88.851 E10.1869
G1 X91.709 Y87.677 E10.2332
G1 X92.509 Y86.062 E10.29914
G1 X92.63 Y85.843 E10.30829
G1 X93.276 Y84.756 E10.35456
G1 X93.99 Y83.711 E10.40086
G1 X94.769 Y82.713 E10.44718
G1 X95.007 Y82.445 E10.46029
G1 X95.232 Y82.013 E10.47811
G1 X95.886 Y80.93 E10.5244
G1 X96.607 Y79.89 E10.5707
G1 X96.941 Y79.468 E10.59039
G0 F810 X97.392 Y78.898
M204 S5000
M205 X30 Y30
G0 F7200 X97.818 Y79.076
M204 S500
M205 X20 Y20
G1 F6000 E10.61699
G1 F900 X98.662 Y78.152 E10.66277
G1 X99.563 Y77.284 E10.70855
G1 X100.363 Y76.6 E10.74706
G1 X100.479 Y76.506 E10.75252
G1 X101.476 Y75.749 E10.79832
G1 X102.519 Y75.058 E10.84409
G1 X103.604 Y74.435 E10.88987
G1 X104.727 Y73.882 E10.93566
G1 X105.883 Y73.403 E10.98144
G1 X107.067 Y72.998 E11.02723
G1 X108.274 Y72.67 E11.07299
G1 X109.5 Y72.419 E11.11877
G1 X110.74 Y72.247 E11.16457
G1 X112.115 Y72.15 E11.215
G1 X117.355 Y71.965 E11.40684
G1 X118.607 Y71.961 E11.45264
G1 X119.856 Y72.037 E11.49842
G1 X121.097 Y72.192 E11.54418
G1 X122.327 Y72.427 E11.58999
G1 X123.538 Y72.739 E11.63575
G1 X124.728 Y73.128 E11.68155
G1 X125.89 Y73.593 E11.72734
G1 X127.02 Y74.13 E11.77311
G1 X128.113 Y74.739 E11.81889
G1 X129.165 Y75.417 E11.86468
G1 X130.464 Y76.395 E11.92417
G1 X130.592 Y76.5 E11.93023
G1 X131.534 Y77.324 E11.97602
G1 X132.421 Y78.207 E12.02181
G1 X133.25 Y79.144 E12.06758
G1 X134.017 Y80.133 E12.11337
G1 X134.72 Y81.168 E12.15914
G1 X134.79 Y81.286 E12.16416
G1 X134.949 Y81.439 E12.17224
G1 X135.796 Y82.36 E12.21802
G1 X136.583 Y83.334 E12.26383
G1 X137.169 Y84.152 E12.30064
G1 X137.306 Y84.354 E12.30957
G1 X137.975 Y85.411 E12.35534
G1 X138.575 Y86.509 E12.40112
G1 X139.103 Y87.644 E12.44692
G1 X139.558 Y88.809 E12.49268
G1 X139.938 Y90.002 E12.53848
G1 X140.241 Y91.216 E12.58426
G1 X140.3 Y91.541 E12.59635
G1 X140.433 Y91.616 E12.60193
G1 X141.482 Y92.299 E12.64773
G1 X142.555 Y93.105 E12.69683
G1 X146.111 Y95.971 E12.86392
G1 X147.06 Y96.787 E12.90971
G1 X147.954 Y97.662 E12.95548
G1 X148.847 Y98.659 E13.00445
G1 X151.774 Y102.161 E13.17143
G1 X152.546 Y103.147 E13.21725
G1 X153.253 Y104.179 E13.26302
G1 X153.937 Y105.337 E13.31222
G1 X156.127 Y109.349 E13.47945
G1 X156.691 Y110.466 E13.52523
G1 X157.183 Y111.616 E13.57099
G1 X157.625 Y112.874 E13.61978
G1 X158.989 Y117.226 E13.78664
G1 X159.325 Y118.432 E13.83244
G1 X159.583 Y119.656 E13.87821
G1 X159.773 Y120.991 E13.92754
G1 X160.261 Y125.534 E14.09471
G1 X160.355 Y126.782 E14.1405
G1 X160.369 Y128.033 E14.18627
G1 X160.295 Y129.369 E14.23522
G1 X159.888 Y133.919 E14.40236
G1 X159.737 Y135.162 E14.44817
G1 X159.507 Y136.392 E14.49395
G1 X159.172 Y137.693 E14.5431
G1 X157.886 Y142.071 E14.71004
G1 X157.495 Y143.26 E14.75583
G1 X157.029 Y144.421 E14.8016
G1 X156.451 Y145.627 E14.85053
G1 X154.334 Y149.675 E15.01766
G1 X153.718 Y150.765 E15.06347
G1 X153.035 Y151.813 E15.10924
G1 X152.226 Y152.89 E15.15852
G1 X149.36 Y156.445 E15.32558
G1 X148.544 Y157.394 E15.37137
G1 X147.669 Y158.288 E15.41714
G1 X146.676 Y159.177 E15.4659
G1 X143.174 Y162.105 E15.63291
G1 X142.189 Y162.877 E15.6787
G1 X141.157 Y163.584 E15.72447
G1 X139.996 Y164.27 E15.7738
G1 X135.984 Y166.46 E15.94103
G1 X134.867 Y167.024 E15.98681
G1 X133.717 Y167.516 E16.03258
G1 X132.454 Y167.959 E16.08154
G1 X128.101 Y169.322 E16.24843
G1 X126.895 Y169.658 E16.29423
G1 X125.671 Y169.916 E16.34
G1 X124.345 Y170.105 E16.389
G1 X119.801 Y170.594 E16.55621
G1 X118.553 Y170.688 E16.602
G1 X117.302 Y170.702 E16.64777
G1 X115.961 Y170.628 E16.6969
G1 X111.413 Y170.221 E16.86396
G1 X110.171 Y170.07 E16.90974
G1 X108.941 Y169.839 E16.95553
G1 X107.641 Y169.506 E17.00462
G1 X103.262 Y168.22 E17.1716
G1 X102.073 Y167.829 E17.21739
G1 X100.912 Y167.363 E17.26316
G1 X99.698 Y166.78 E17.31243
G1 X95.652 Y164.662 E17.47952
G1 X94.563 Y164.046 E17.52529
G1 X93.515 Y163.363 E17.57106
G1 X92.449 Y162.562 E17.61984
G1 X88.893 Y159.697 E17.78692
G1 X87.944 Y158.881 E17.83271
G1 X87.049 Y158.006 E17.8785
G1 X86.154 Y157.007 E17.92757
G1 X83.227 Y153.505 E18.09456
G1 X82.455 Y152.519 E18.14037
G1 X81.748 Y151.487 E18.18614
G1 X81.066 Y150.333 E18.23518
G1 X78.875 Y146.321 E18.40243
G1 X78.31 Y145.204 E18.44822
G1 X77.818 Y144.053 E18.49402
G1 X77.374 Y142.787 E18.5431
G1 X76.011 Y138.434 E18.70999
G1 X75.675 Y137.228 E18.75579
G1 X75.417 Y136.004 E18.80156
G1 X75.228 Y134.679 E18.85052
G1 X74.739 Y130.137 E19.01766
G1 X74.645 Y128.889 E19.06345
G1 X74.631 Y127.638 E19.10922
G1 X74.705 Y126.297 E19.15836
G1 X75.112 Y121.746 E19.32552
G1 X75.263 Y120.504 E19.3713
G1 X75.493 Y119.274 E19.41708
G1 X75.828 Y117.971 E19.4663
G1 X77.114 Y113.594 E19.63321
G1 X77.505 Y112.405 E19.679
G1 X77.971 Y111.243 E19.72481
G1 X78.551 Y110.036 E19.7738
G1 X80.669 Y105.988 E19.94095
G1 X81.285 Y104.898 E19.98675
G1 X81.968 Y103.85 E20.03252
G1 X82.771 Y102.781 E20.08144
G1 X85.636 Y99.225 E20.24851
G1 X86.452 Y98.276 E20.2943
G1 X87.327 Y97.381 E20.34009
G1 X88.326 Y96.486 E20.38916
G1 X90.487 Y94.68 E20.4922
G1 X90.561 Y93.678 E20.52896
G1 X90.733 Y92.439 E20.57473
G1 X90.984 Y91.213 E20.62051
G1 X91.312 Y90.005 E20.66631
G1 X91.717 Y88.821 E20.71209
G1 X92.196 Y87.665 E20.75787
G1 X92.894 Y86.275 E20.81478
G1 X93.015 Y86.056 E20.82393
G1 X93.655 Y84.981 E20.8697
G1 X94.362 Y83.948 E20.9155
G1 X95.134 Y82.963 E20.96129
G1 X95.374 Y82.694 E20.97448
G1 X95.663 Y82.144 E20.99721
G1 X96.316 Y81.076 E21.04301
G1 X97.035 Y80.052 E21.08878
G1 X97.363 Y79.643 E21.10797
G0 F810 X97.818 Y79.076
M204 S5000
M205 X30 Y30
G0 F7200 X98.244 Y79.256
M204 S500
M205 X20 Y20
G1 F6000 E21.13456
G1 F900 X99.085 Y78.349 E21.17982
G1 X99.983 Y77.498 E21.22508
G1 X100.64 Y76.942 E21.25657
G1 X100.756 Y76.848 E21.26203
G1 X101.742 Y76.1 E21.30731
G1 X102.774 Y75.418 E21.35257
G1 X103.848 Y74.804 E21.39783
G1 X104.96 Y74.26 E21.44312
G1 X106.104 Y73.79 E21.48837
G1 X107.276 Y73.394 E21.53363
G1 X108.472 Y73.075 E21.57892
G1 X109.685 Y72.834 E21.62416
G1 X110.912 Y72.672 E21.66945
G1 X112.131 Y72.59 E21.71414
G1 X117.371 Y72.405 E21.90598
G1 X118.608 Y72.401 E21.95123
G1 X119.843 Y72.478 E21.9965
G1 X121.07 Y72.633 E22.04175
G1 X122.285 Y72.868 E22.08703
G1 X123.482 Y73.181 E22.13229
G1 X124.656 Y73.571 E22.17755
G1 X125.803 Y74.035 E22.22282
G1 X126.917 Y74.573 E22.26808
G1 X127.995 Y75.182 E22.31338
G1 X129.03 Y75.859 E22.35863
G1 X130.185 Y76.735 E22.41167
G1 X130.313 Y76.84 E22.41772
G1 X131.244 Y77.655 E22.46299
G1 X132.12 Y78.529 E22.50827
G1 X132.938 Y79.457 E22.55352
G1 X133.694 Y80.436 E22.59878
G1 X134.385 Y81.463 E22.64407
G1 X134.448 Y81.571 E22.64864
G1 X134.762 Y81.877 E22.66468
G1 X135.59 Y82.796 E22.70994
G1 X136.357 Y83.767 E22.75521
G1 X136.804 Y84.399 E22.78353
G1 X136.941 Y84.601 E22.79246
G1 X137.603 Y85.647 E22.83775
G1 X138.195 Y86.733 E22.883
G1 X138.715 Y87.855 E22.92825
G1 X139.162 Y89.009 E22.97352
G1 X139.534 Y90.189 E23.01879
G1 X139.828 Y91.391 E23.06406
G1 X139.905 Y91.823 E23.08012
G1 X140.217 Y91.999 E23.09322
G1 X141.253 Y92.676 E23.1385
G1 X142.279 Y93.448 E23.18548
G1 X145.835 Y96.314 E23.35257
G1 X146.772 Y97.121 E23.39782
G1 X147.656 Y97.987 E23.44309
G1 X148.51 Y98.941 E23.48994
G1 X151.437 Y102.443 E23.65692
G1 X152.199 Y103.418 E23.70219
G1 X152.897 Y104.44 E23.74747
G1 X153.551 Y105.547 E23.79451
G1 X155.741 Y109.559 E23.96174
G1 X156.298 Y110.664 E24.00702
G1 X156.783 Y111.802 E24.05227
G1 X157.205 Y113.006 E24.09895
G1 X158.569 Y117.358 E24.26581
G1 X158.901 Y118.55 E24.31108
G1 X159.155 Y119.761 E24.35635
G1 X159.336 Y121.038 E24.40354
G1 X159.824 Y125.581 E24.57071
G1 X159.916 Y126.815 E24.61598
G1 X159.928 Y128.052 E24.66124
G1 X159.857 Y129.33 E24.70807
G1 X159.45 Y133.88 E24.8752
G1 X159.3 Y135.108 E24.92046
G1 X159.071 Y136.324 E24.96573
G1 X158.75 Y137.569 E25.01277
G1 X157.464 Y141.947 E25.17971
G1 X157.077 Y143.123 E25.22501
G1 X156.615 Y144.27 E25.27025
G1 X156.061 Y145.423 E25.31705
G1 X153.944 Y149.471 E25.48418
G1 X153.335 Y150.548 E25.52945
G1 X152.658 Y151.584 E25.57473
G1 X151.884 Y152.614 E25.62186
G1 X149.018 Y156.169 E25.78893
G1 X148.21 Y157.106 E25.8342
G1 X147.344 Y157.99 E25.87947
G1 X146.394 Y158.84 E25.92611
G1 X142.892 Y161.768 E26.09312
G1 X141.918 Y162.53 E26.13836
G1 X140.896 Y163.228 E26.18364
G1 X139.786 Y163.884 E26.23081
G1 X135.774 Y166.074 E26.39804
G1 X134.669 Y166.631 E26.44332
G1 X133.531 Y167.116 E26.48857
G1 X132.322 Y167.54 E26.53545
G1 X127.969 Y168.903 E26.70233
G1 X126.777 Y169.234 E26.74759
G1 X125.566 Y169.488 E26.79286
G1 X124.298 Y169.667 E26.83971
G1 X119.754 Y170.156 E27.00692
G1 X118.52 Y170.249 E27.0522
G1 X117.283 Y170.261 E27.09746
G1 X116 Y170.19 E27.14447
G1 X111.452 Y169.783 E27.31153
G1 X110.224 Y169.633 E27.35679
G1 X109.008 Y169.404 E27.40206
G1 X107.765 Y169.083 E27.44903
G1 X103.386 Y167.797 E27.616
G1 X102.211 Y167.411 E27.66125
G1 X101.063 Y166.949 E27.70653
G1 X99.902 Y166.39 E27.75367
G1 X95.856 Y164.272 E27.92076
G1 X94.779 Y163.663 E27.96602
G1 X93.744 Y162.986 E28.01127
G1 X92.725 Y162.219 E28.05793
G1 X89.169 Y159.354 E28.225
G1 X88.231 Y158.547 E28.27027
G1 X87.347 Y157.682 E28.31552
G1 X86.491 Y156.725 E28.3625
G1 X83.564 Y153.223 E28.52948
G1 X82.802 Y152.248 E28.57476
G1 X82.104 Y151.226 E28.62004
G1 X81.452 Y150.122 E28.66695
G1 X79.261 Y146.11 E28.83419
G1 X78.703 Y145.005 E28.87948
G1 X78.218 Y143.867 E28.92474
G1 X77.793 Y142.655 E28.97173
G1 X76.43 Y138.302 E29.13861
G1 X76.099 Y137.11 E29.18387
G1 X75.845 Y135.899 E29.22914
G1 X75.666 Y134.632 E29.27596
G1 X75.177 Y130.09 E29.44309
G1 X75.084 Y128.856 E29.48837
G1 X75.072 Y127.619 E29.53363
G1 X75.143 Y126.336 E29.58064
G1 X75.55 Y121.785 E29.74781
G1 X75.7 Y120.557 E29.79307
G1 X75.929 Y119.341 E29.83834
G1 X76.25 Y118.095 E29.88542
G1 X77.536 Y113.718 E30.05232
G1 X77.923 Y112.542 E30.09762
G1 X78.385 Y111.395 E30.14286
G1 X78.941 Y110.24 E30.18976
G1 X81.059 Y106.192 E30.3569
G1 X81.668 Y105.115 E30.40217
G1 X82.345 Y104.079 E30.44745
G1 X83.114 Y103.057 E30.49424
G1 X85.979 Y99.501 E30.66132
G1 X86.786 Y98.563 E30.70659
G1 X87.651 Y97.679 E30.75184
G1 X88.608 Y96.823 E30.79881
G1 X90.913 Y94.897 E30.90871
G1 X90.914 Y94.819 E30.91156
G1 X91.014 Y93.586 E30.95682
G1 X91.193 Y92.362 E31.00208
G1 X91.451 Y91.152 E31.04734
G1 X91.787 Y89.961 E31.09262
G1 X92.198 Y88.794 E31.13788
G1 X92.685 Y87.656 E31.18317
G1 X93.279 Y86.488 E31.23111
G1 X93.4 Y86.269 E31.24027
G1 X94.033 Y85.206 E31.28553
G1 X94.733 Y84.186 E31.33079
G1 X95.498 Y83.213 E31.37607
G1 X95.739 Y82.945 E31.38926
G1 X96.095 Y82.276 E31.41699
G1 X96.745 Y81.224 E31.46223
G1 X97.463 Y80.216 E31.50751
G1 X97.785 Y79.82 E31.52618
G0 F810 X98.244 Y79.256
M204 S5000
M205 X30 Y30
G0 F7200 X98.669 Y79.439
M204 S500
M205 X20 Y20
G1 F6000 E31.55278
G1 F900 X99.508 Y78.549 E31.59753
G1 X100.403 Y77.715 E31.64229
G1 X100.917 Y77.283 E31.66685
G1 X101.033 Y77.189 E31.67231
G1 X102.008 Y76.451 E31.71705
G1 X103.029 Y75.778 E31.76179
G1 X104.091 Y75.173 E31.80651
