;FLAVOR:Marlin
;TIME:4623
;Filament used: 4.01944m
;Layer height: 0.2
;Generated with Cura_SteamEngine 3.6.0
M140 S70
M105
M190 S70
M104 S215
M105
M109 S215
M82 ;absolute extrusion mode
G28 ; home all axes
M117 Purge extruder
G92 E0 ; reset extruder
G1 Z1.0 F3000 ; move z up little to prevent scratching of surface
G1 X0.1 Y20 Z0.3 F5000.0 ; move to start-line position G1 X0.1 Y200.0 Z0.3 F1500.0 E15 ; draw 1st line
G1 X0.4 Y200.0 Z0.3 F5000.0 ; move to side a little
G1 X0.4 Y20 Z0.3 F1500.0 E30 ; draw 2nd line
G92 E0 ; reset extruder
G1 Z1.0 F3000 ; move z up little to prevent scratching of surface
M117 All systems go!
G92 E0
G1 F6000 E-5
;LAYER_COUNT:56
;LAYER:0
M107
M204 S5000
M205 X30 Y30
G0 F7200 X47.588 Y93.502 Z0.2
M204 S500
M205 X20 Y20
;TYPE:SKIRT
G1 F6000 E0
G1 F900 X48.735 Y92.965 E0.04634
G1 X49.912 Y92.502 E0.09261
G1 X51.117 Y92.115 E0.13891
G1 X52.343 Y91.804 E0.18519
G1 X53.587 Y91.572 E0.23149
G1 X54.843 Y91.418 E0.27778
G1 X56.643 Y91.337 E0.3437
G1 X178.541 Y91.337 E4.80348
G1 X179.806 Y91.377 E4.84979
G1 X181.065 Y91.497 E4.89606
G1 X182.315 Y91.696 E4.94237
G1 X183.55 Y91.974 E4.98868
G1 X184.764 Y92.329 E5.03496
G1 X185.954 Y92.76 E5.08126
G1 X187.114 Y93.265 E5.12755
G1 X188.24 Y93.843 E5.17386
G1 X189.327 Y94.491 E5.22016
G1 X190.371 Y95.206 E5.26645
G1 X191.367 Y95.985 E5.31271
G1 X192.697 Y97.201 E5.37864
G1 X192.826 Y97.33 E5.38532
G1 X193.692 Y98.252 E5.4316
G1 X194.498 Y99.228 E5.47791
G1 X195.241 Y100.252 E5.5242
G1 X195.918 Y101.322 E5.57052
G1 X196.525 Y102.431 E5.61677
G1 X197.062 Y103.578 E5.66311
G1 X197.525 Y104.755 E5.70938
G1 X197.912 Y105.96 E5.75569
G1 X198.223 Y107.186 E5.80196
G1 X198.455 Y108.43 E5.84826
G1 X198.609 Y109.686 E5.89456
G1 X198.69 Y111.484 E5.96041
G1 X198.691 Y123.512 E6.40046
G1 X198.651 Y124.777 E6.44677
G1 X198.531 Y126.037 E6.49308
G1 X198.332 Y127.286 E6.53935
G1 X198.055 Y128.521 E6.58565
G1 X197.7 Y129.736 E6.63197
G1 X197.269 Y130.925 E6.67824
G1 X196.763 Y132.085 E6.72454
G1 X196.186 Y133.211 E6.77083
G1 X195.538 Y134.298 E6.81713
G1 X194.823 Y135.342 E6.86342
G1 X194.044 Y136.339 E6.90971
G1 X192.827 Y137.67 E6.9757
G1 X192.698 Y137.799 E6.98237
G1 X191.776 Y138.665 E7.02865
G1 X190.8 Y139.471 E7.07496
G1 X189.776 Y140.214 E7.12125
G1 X188.706 Y140.891 E7.16757
G1 X187.597 Y141.498 E7.21383
G1 X186.45 Y142.035 E7.26016
G1 X185.273 Y142.498 E7.30644
G1 X184.068 Y142.885 E7.35274
G1 X182.842 Y143.196 E7.39902
G1 X181.598 Y143.428 E7.44531
G1 X180.342 Y143.582 E7.49161
G1 X178.542 Y143.663 E7.55753
G1 X56.643 Y143.663 E12.01735
G1 X55.378 Y143.623 E12.06365
G1 X54.119 Y143.503 E12.10992
G1 X52.869 Y143.304 E12.15623
G1 X51.634 Y143.026 E12.20254
G1 X50.42 Y142.671 E12.24882
G1 X49.23 Y142.24 E12.29513
G1 X48.07 Y141.735 E12.34141
G1 X46.944 Y141.157 E12.38772
G1 X45.857 Y140.509 E12.43402
G1 X44.813 Y139.794 E12.48031
G1 X43.817 Y139.015 E12.52658
G1 X42.487 Y137.799 E12.59251
G1 X42.358 Y137.67 E12.59918
G1 X41.492 Y136.748 E12.64546
G1 X40.686 Y135.772 E12.69177
G1 X39.943 Y134.748 E12.73806
G1 X39.266 Y133.678 E12.78438
G1 X38.659 Y132.569 E12.83064
G1 X38.122 Y131.422 E12.87697
G1 X37.659 Y130.245 E12.92325
G1 X37.272 Y129.04 E12.96955
G1 X36.961 Y127.814 E13.01583
G1 X36.729 Y126.57 E13.06212
G1 X36.575 Y125.314 E13.10842
G1 X36.494 Y123.514 E13.17434
G1 X36.494 Y111.486 E13.6144
G1 X36.534 Y110.221 E13.6607
G1 X36.654 Y108.962 E13.70698
G1 X36.853 Y107.712 E13.75328
G1 X37.131 Y106.477 E13.7996
G1 X37.486 Y105.263 E13.84587
G1 X37.917 Y104.073 E13.89218
G1 X38.422 Y102.913 E13.93847
G1 X39 Y101.787 E13.98477
G1 X39.648 Y100.7 E14.03107
G1 X40.363 Y99.656 E14.07737
G1 X41.142 Y98.66 E14.12363
G1 X42.358 Y97.33 E14.18956
G1 X42.487 Y97.201 E14.19624
G1 X43.409 Y96.335 E14.24251
G1 X44.385 Y95.529 E14.28882
G1 X45.409 Y94.786 E14.33511
G1 X46.479 Y94.109 E14.38144
G1 X46.951 Y93.851 E14.40112
G0 F810 X47.588 Y93.502
M204 S5000
M205 X30 Y30
G0 F7200 X47.849 Y93.863
M204 S500
M205 X20 Y20
G1 F6000 E14.42772
G1 F900 X48.985 Y93.337 E14.47352
G1 X50.151 Y92.884 E14.51928
G1 X51.345 Y92.507 E14.56509
G1 X52.56 Y92.208 E14.61087
G1 X53.791 Y91.986 E14.65663
G1 X55.034 Y91.843 E14.70241
G1 X56.643 Y91.777 E14.76133
G1 X178.541 Y91.777 E19.22111
G1 X179.792 Y91.817 E19.2669
G1 X181.037 Y91.937 E19.31266
G1 X182.273 Y92.136 E19.35846
G1 X183.493 Y92.414 E19.40424
G1 X184.693 Y92.769 E19.45003
G1 X185.868 Y93.2 E19.49582
G1 X187.013 Y93.705 E19.5416
G1 X188.123 Y94.282 E19.58737
G1 X189.194 Y94.929 E19.63315
G1 X190.222 Y95.643 E19.67894
G1 X191.202 Y96.421 E19.72472
G1 X192.386 Y97.512 E19.78362
G1 X192.515 Y97.641 E19.7903
G1 X193.371 Y98.554 E19.83609
G1 X194.167 Y99.519 E19.88185
G1 X194.9 Y100.533 E19.92763
G1 X195.567 Y101.593 E19.97345
G1 X196.164 Y102.692 E20.01921
G1 X196.69 Y103.828 E20.06501
G1 X197.143 Y104.994 E20.11077
G1 X197.52 Y106.188 E20.15658
G1 X197.819 Y107.403 E20.20236
G1 X198.041 Y108.634 E20.24813
G1 X198.184 Y109.877 E20.2939
G1 X198.25 Y111.484 E20.35275
G1 X198.251 Y123.512 E20.79281
G1 X198.211 Y124.763 E20.8386
G1 X198.091 Y126.009 E20.8844
G1 X197.892 Y127.244 E20.93016
G1 X197.615 Y128.465 E20.97597
G1 X197.26 Y129.665 E21.02175
G1 X196.829 Y130.839 E21.06751
G1 X196.324 Y131.984 E21.11329
G1 X195.747 Y133.095 E21.15909
G1 X195.1 Y134.166 E21.20487
G1 X194.386 Y135.194 E21.25067
G1 X193.608 Y136.174 E21.29645
G1 X192.516 Y137.359 E21.3554
G1 X192.387 Y137.488 E21.36208
G1 X191.474 Y138.344 E21.40786
G1 X190.509 Y139.14 E21.45363
G1 X189.495 Y139.873 E21.49941
G1 X188.435 Y140.54 E21.54523
G1 X187.336 Y141.137 E21.59099
G1 X186.2 Y141.663 E21.63679
G1 X185.034 Y142.116 E21.68255
G1 X183.84 Y142.493 E21.72836
G1 X182.625 Y142.792 E21.77414
G1 X181.394 Y143.014 E21.8199
G1 X180.151 Y143.157 E21.86568
G1 X178.542 Y143.223 E21.9246
G1 X56.643 Y143.223 E26.38441
G1 X55.392 Y143.183 E26.4302
G1 X54.147 Y143.063 E26.47597
G1 X52.911 Y142.864 E26.52177
G1 X51.691 Y142.586 E26.56755
G1 X50.491 Y142.231 E26.61333
G1 X49.316 Y141.8 E26.65912
G1 X48.171 Y141.295 E26.70491
G1 X47.061 Y140.718 E26.75068
G1 X45.99 Y140.071 E26.79645
G1 X44.962 Y139.357 E26.84225
G1 X43.982 Y138.579 E26.88803
G1 X42.798 Y137.488 E26.94693
G1 X42.669 Y137.359 E26.9536
G1 X41.813 Y136.446 E26.99939
G1 X41.017 Y135.481 E27.04516
G1 X40.284 Y134.467 E27.09094
G1 X39.617 Y133.407 E27.13676
G1 X39.02 Y132.308 E27.18251
G1 X38.494 Y131.172 E27.22832
G1 X38.041 Y130.006 E27.27408
G1 X37.664 Y128.812 E27.31989
G1 X37.365 Y127.597 E27.36567
G1 X37.143 Y126.366 E27.41143
G1 X37 Y125.123 E27.45721
G1 X36.934 Y123.514 E27.51613
G1 X36.934 Y111.486 E27.95618
G1 X36.974 Y110.235 E28.00198
G1 X37.094 Y108.99 E28.04774
G1 X37.293 Y107.754 E28.09354
G1 X37.571 Y106.534 E28.13932
G1 X37.926 Y105.334 E28.1851
G1 X38.357 Y104.159 E28.23089
G1 X38.862 Y103.014 E28.27668
G1 X39.439 Y101.904 E28.32245
G1 X40.086 Y100.833 E28.36823
G1 X40.8 Y99.805 E28.41402
G1 X41.578 Y98.825 E28.4598
G1 X42.669 Y97.641 E28.5187
G1 X42.798 Y97.512 E28.52538
G1 X43.711 Y96.656 E28.57117
G1 X44.676 Y95.86 E28.61693
G1 X45.69 Y95.127 E28.66271
G1 X46.75 Y94.46 E28.70853
G1 X47.21 Y94.21 E28.72768
G0 F810 X47.849 Y93.863
M204 S5000
M205 X30 Y30
G0 F7200 X48.109 Y94.225
M204 S500
M205 X20 Y20
G1 F6000 E28.75428
G1 F900 X49.234 Y93.709 E28.79956
G1 X50.39 Y93.267 E28.84484
G1 X51.572 Y92.901 E28.89011
G1 X52.775 Y92.612 E28.93538
G1 X53.994 Y92.401 E28.98064
G1 X55.224 Y92.27 E29.0259
G1 X56.643 Y92.217 E29.07785
G1 X178.541 Y92.217 E33.53763
G1 X179.778 Y92.257 E33.58291
G1 X181.009 Y92.377 E33.62816
G1 X182.23 Y92.576 E33.67342
G1 X183.436 Y92.853 E33.71869
G1 X184.621 Y93.208 E33.76395
G1 X185.781 Y93.639 E33.80922
G1 X186.911 Y94.144 E33.85451
G1 X188.005 Y94.721 E33.89976
G1 X189.06 Y95.367 E33.94502
G1 X190.071 Y96.08 E33.99028
G1 X191.034 Y96.857 E34.03555
G1 X192.075 Y97.823 E34.08751
G1 X192.204 Y97.952 E34.09418
G1 X193.05 Y98.855 E34.13945
G1 X193.836 Y99.81 E34.18471
G1 X194.559 Y100.814 E34.22997
G1 X195.215 Y101.863 E34.27524
G1 X195.802 Y102.952 E34.3205
G1 X196.318 Y104.077 E34.36578
G1 X196.76 Y105.233 E34.41106
G1 X197.126 Y106.415 E34.45633
G1 X197.415 Y107.618 E34.5016
G1 X197.626 Y108.837 E34.54686
G1 X197.757 Y110.067 E34.59211
G1 X197.81 Y111.484 E34.64399
G1 X197.811 Y123.512 E35.08405
G1 X197.771 Y124.749 E35.12933
G1 X197.651 Y125.98 E35.17458
G1 X197.452 Y127.202 E35.21988
G1 X197.175 Y128.407 E35.26512
G1 X196.82 Y129.593 E35.31041
G1 X196.389 Y130.753 E35.35569
G1 X195.885 Y131.882 E35.40092
G1 X195.308 Y132.977 E35.4462
G1 X194.662 Y134.032 E35.49146
G1 X193.949 Y135.043 E35.53672
G1 X193.172 Y136.006 E35.582
G1 X192.205 Y137.048 E35.63401
G1 X192.076 Y137.177 E35.64068
G1 X191.173 Y138.023 E35.68595
G1 X190.218 Y138.809 E35.7312
G1 X189.214 Y139.532 E35.77647
G1 X188.165 Y140.188 E35.82173
G1 X187.076 Y140.775 E35.867
G1 X185.951 Y141.291 E35.91228
G1 X184.795 Y141.733 E35.95756
G1 X183.613 Y142.099 E36.00283
G1 X182.41 Y142.388 E36.04809
G1 X181.191 Y142.599 E36.09336
G1 X179.961 Y142.73 E36.13861
G1 X178.542 Y142.783 E36.19056
G1 X56.643 Y142.783 E40.65038
G1 X55.406 Y142.743 E40.69566
G1 X54.175 Y142.623 E40.74091
G1 X52.954 Y142.424 E40.78617
G1 X51.748 Y142.147 E40.83144
G1 X50.563 Y141.792 E40.8767
G1 X49.403 Y141.361 E40.92198
G1 X48.273 Y140.856 E40.96726
G1 X47.179 Y140.279 E41.01251
G1 X46.124 Y139.633 E41.05777
G1 X45.113 Y138.92 E41.10303
G1 X44.15 Y138.143 E41.1483
G1 X43.109 Y137.177 E41.20026
G1 X42.98 Y137.048 E41.20693
G1 X42.134 Y136.145 E41.25221
G1 X41.348 Y135.19 E41.29746
G1 X40.625 Y134.186 E41.34272
G1 X39.969 Y133.137 E41.38799
G1 X39.382 Y132.048 E41.43325
G1 X38.866 Y130.923 E41.47853
G1 X38.424 Y129.767 E41.52381
G1 X38.058 Y128.585 E41.56908
G1 X37.769 Y127.382 E41.61435
G1 X37.558 Y126.163 E41.65961
G1 X37.427 Y124.933 E41.70487
G1 X37.374 Y123.514 E41.75682
G1 X37.374 Y111.486 E42.19688
G1 X37.414 Y110.249 E42.24216
G1 X37.534 Y109.018 E42.28741
G1 X37.733 Y107.797 E42.33267
G1 X38.01 Y106.591 E42.37794
G1 X38.365 Y105.406 E42.4232
G1 X38.796 Y104.246 E42.46847
G1 X39.301 Y103.116 E42.51376
G1 X39.878 Y102.022 E42.55901
G1 X40.524 Y100.967 E42.60427
G1 X41.237 Y99.956 E42.64953
G1 X42.014 Y98.993 E42.6948
G1 X42.98 Y97.952 E42.74676
G1 X43.109 Y97.823 E42.75343
G1 X44.012 Y96.977 E42.7987
G1 X44.967 Y96.191 E42.84395
G1 X45.971 Y95.468 E42.88922
G1 X47.02 Y94.812 E42.93449
G1 X47.469 Y94.569 E42.95316
G0 F810 X48.109 Y94.225
M204 S5000
M205 X30 Y30
G0 F7200 X48.369 Y94.587
M204 S500
M205 X20 Y20
G1 F6000 E42.97976
G1 F900 X49.483 Y94.082 E43.02451
G1 X50.627 Y93.651 E43.06924
G1 X51.797 Y93.296 E43.11397
G1 X52.988 Y93.018 E43.15872
G1 X54.195 Y92.818 E43.20348
G1 X55.412 Y92.698 E43.24822
G1 X56.643 Y92.657 E43.29328
G1 X178.541 Y92.657 E47.75306
G1 X179.763 Y92.697 E47.79779
G1 X180.98 Y92.817 E47.84253
G1 X182.187 Y93.016 E47.88729
G1 X183.378 Y93.293 E47.93203
G1 X184.548 Y93.648 E47.97676
G1 X185.693 Y94.079 E48.02152
G1 X186.807 Y94.583 E48.06625
G1 X187.886 Y95.159 E48.111
G1 X188.925 Y95.805 E48.15576
G1 X189.919 Y96.517 E48.2005
G1 X190.865 Y97.292 E48.24524
G1 X191.764 Y98.134 E48.2903
G1 X191.893 Y98.263 E48.29698
G1 X192.729 Y99.156 E48.34173
G1 X193.505 Y100.101 E48.38647
G1 X194.217 Y101.095 E48.4312
G1 X194.863 Y102.133 E48.47593
G1 X195.44 Y103.212 E48.5207
G1 X195.945 Y104.326 E48.56545
G1 X196.376 Y105.47 E48.61018
G1 X196.731 Y106.64 E48.65491
G1 X197.009 Y107.831 E48.69965
G1 X197.209 Y109.038 E48.74442
G1 X197.329 Y110.255 E48.78916
G1 X197.37 Y111.484 E48.83415
G1 X197.371 Y123.512 E49.27421
G1 X197.331 Y124.735 E49.31897
G1 X197.211 Y125.952 E49.36372
G1 X197.012 Y127.158 E49.40843
G1 X196.735 Y128.35 E49.45321
G1 X196.38 Y129.52 E49.49794
G1 X195.95 Y130.665 E49.54269
G1 X195.446 Y131.779 E49.58742
G1 X194.869 Y132.857 E49.63216
G1 X194.224 Y133.896 E49.6769
G1 X193.512 Y134.891 E49.72166
G1 X192.737 Y135.836 E49.76638
G1 X191.894 Y136.737 E49.81152
G1 X191.765 Y136.866 E49.81819
G1 X190.872 Y137.702 E49.86295
G1 X189.927 Y138.478 E49.90768
G1 X188.933 Y139.19 E49.95242
G1 X187.895 Y139.836 E49.99715
G1 X186.816 Y140.413 E50.04191
G1 X185.702 Y140.918 E50.08666
G1 X184.558 Y141.349 E50.13139
G1 X183.388 Y141.704 E50.17612
G1 X182.197 Y141.982 E50.22087
G1 X180.99 Y142.182 E50.26563
G1 X179.773 Y142.302 E50.31037
G1 X178.542 Y142.343 E50.35543
G1 X56.643 Y142.343 E54.81525
G1 X55.421 Y142.303 E54.85998
G1 X54.204 Y142.183 E54.90472
G1 X52.997 Y141.984 E54.94948
G1 X51.806 Y141.707 E54.99421
G1 X50.636 Y141.352 E55.03895
G1 X49.491 Y140.921 E55.08371
G1 X48.377 Y140.417 E55.12844
G1 X47.298 Y139.841 E55.17319
G1 X46.259 Y139.195 E55.21795
G1 X45.265 Y138.483 E55.26269
G1 X44.319 Y137.708 E55.30743
G1 X43.42 Y136.866 E55.35249
G1 X43.291 Y136.737 E55.35917
G1 X42.455 Y135.844 E55.40392
G1 X41.679 Y134.899 E55.44866
G1 X40.967 Y133.905 E55.49339
G1 X40.321 Y132.867 E55.53812
G1 X39.744 Y131.788 E55.58289
G1 X39.239 Y130.674 E55.62764
G1 X38.808 Y129.53 E55.67236
G1 X38.453 Y128.36 E55.7171
G1 X38.175 Y127.169 E55.76184
G1 X37.975 Y125.962 E55.8066
G1 X37.855 Y124.745 E55.85135
G1 X37.814 Y123.514 E55.89641
G1 X37.814 Y111.486 E56.33647
G1 X37.854 Y110.264 E56.3812
G1 X37.974 Y109.047 E56.42594
G1 X38.173 Y107.84 E56.4707
G1 X38.45 Y106.649 E56.51543
G1 X38.805 Y105.479 E56.56017
G1 X39.236 Y104.334 E56.60493
G1 X39.74 Y103.22 E56.64966
G1 X40.316 Y102.141 E56.69441
G1 X40.962 Y101.102 E56.73917
G1 X41.674 Y100.108 E56.7839
G1 X42.449 Y99.162 E56.82865
G1 X43.291 Y98.263 E56.87371
G1 X43.42 Y98.134 E56.88039
G1 X44.313 Y97.298 E56.92514
G1 X45.258 Y96.522 E56.96988
G1 X46.252 Y95.81 E57.01461
G1 X47.29 Y95.164 E57.05934
G1 X47.728 Y94.929 E57.07753
G0 F810 X48.369 Y94.587
M204 S5000
M205 X30 Y30
G0 F7200 X48.628 Y94.95
M204 S500
M205 X20 Y20
G1 F6000 E57.10412
G1 F900 X49.731 Y94.456 E57.14834
G1 X50.864 Y94.036 E57.19255
G1 X52.022 Y93.691 E57.23676
G1 X53.201 Y93.424 E57.28098
G1 X54.394 Y93.236 E57.32517
G1 X55.598 Y93.127 E57.3694
G1 X56.643 Y93.097 E57.40765
G1 X178.541 Y93.097 E61.86743
G1 X179.749 Y93.137 E61.91165
G1 X180.951 Y93.257 E61.95584
G1 X182.143 Y93.456 E62.00006
G1 X183.319 Y93.733 E62.04426
G1 X184.475 Y94.088 E62.0885
G1 X185.604 Y94.518 E62.1327
G1 X186.702 Y95.022 E62.1769
G1 X187.765 Y95.598 E62.22114
G1 X188.787 Y96.243 E62.26535
G1 X189.764 Y96.953 E62.30954
G1 X190.693 Y97.727 E62.35378
G1 X191.453 Y98.445 E62.39203
G1 X191.582 Y98.574 E62.3987
G1 X192.408 Y99.457 E62.44294
G1 X193.173 Y100.392 E62.48714
G1 X193.875 Y101.375 E62.53133
G1 X194.511 Y102.403 E62.57556
G1 X195.077 Y103.471 E62.61978
G1 X195.571 Y104.574 E62.664
G1 X195.991 Y105.707 E62.70821
G1 X196.336 Y106.865 E62.75241
G1 X196.603 Y108.044 E62.79664
G1 X196.791 Y109.237 E62.84083
G1 X196.9 Y110.441 E62.88506
G1 X196.93 Y111.484 E62.92323
G1 X196.931 Y123.512 E63.36329
G1 X196.891 Y124.72 E63.40751
G1 X196.771 Y125.923 E63.45174
G1 X196.572 Y127.115 E63.49596
G1 X196.295 Y128.291 E63.54016
G1 X195.94 Y129.446 E63.58437
G1 X195.51 Y130.576 E63.6286
G1 X195.006 Y131.674 E63.6728
G1 X194.431 Y132.737 E63.71702
G1 X193.786 Y133.759 E63.76124
G1 X193.076 Y134.736 E63.80542
G1 X192.302 Y135.664 E63.84963
G1 X191.583 Y136.426 E63.88796
G1 X191.454 Y136.555 E63.89464
G1 X190.571 Y137.381 E63.93887
G1 X189.636 Y138.146 E63.98307
G1 X188.653 Y138.848 E64.02727
G1 X187.625 Y139.484 E64.07149
G1 X186.557 Y140.05 E64.11572
G1 X185.454 Y140.544 E64.15993
G1 X184.321 Y140.964 E64.20414
G1 X183.163 Y141.309 E64.24835
G1 X181.984 Y141.576 E64.29258
G1 X180.791 Y141.764 E64.33676
G1 X179.587 Y141.873 E64.38099
G1 X178.542 Y141.903 E64.41924
G1 X56.643 Y141.903 E68.87905
G1 X55.435 Y141.863 E68.92327
G1 X54.233 Y141.743 E68.96747
G1 X53.041 Y141.544 E69.01168
G1 X51.865 Y141.267 E69.05589
G1 X50.709 Y140.912 E69.10013
G1 X49.58 Y140.482 E69.14433
G1 X48.482 Y139.978 E69.18853
G1 X47.419 Y139.402 E69.23276
G1 X46.397 Y138.757 E69.27698
G1 X45.42 Y138.047 E69.32117
G1 X44.491 Y137.273 E69.36541
G1 X43.731 Y136.555 E69.40366
G1 X43.602 Y136.426 E69.41033
G1 X42.776 Y135.543 E69.45457
G1 X42.011 Y134.608 E69.49877
G1 X41.309 Y133.625 E69.54296
G1 X40.673 Y132.597 E69.58719
G1 X40.107 Y131.529 E69.63141
G1 X39.613 Y130.426 E69.67563
