;FLAVOR:Marlin
;TIME:9412
;Filament used: 10.0795m
;Layer height: 0.2
;Generated with Cura_SteamEngine 3.6.0
M140 S70
M105
M190 S70
M104 S215
M105
M109 S215
M82 ;absolute extrusion mode
G28 ; home all axes
M117 Purge extruder
G92 E0 ; reset extruder
G1 Z1.0 F3000 ; move z up little to prevent scratching of surface
G1 X0.1 Y20 Z0.3 F5000.0 ; move to start-line position G1 X0.1 Y200.0 Z0.3 F1500.0 E15 ; draw 1st line
G1 X0.4 Y200.0 Z0.3 F5000.0 ; move to side a little
G1 X0.4 Y20 Z0.3 F1500.0 E30 ; draw 2nd line
G92 E0 ; reset extruder
G1 Z1.0 F3000 ; move z up little to prevent scratching of surface
M117 All systems go!
G92 E0
G1 F6000 E-5
;LAYER_COUNT:56
;LAYER:0
M107
M204 S5000
M205 X30 Y30
G0 F7200 X67.448 Y79.747 Z0.2
M204 S500
M205 X20 Y20
;TYPE:SKIRT
G1 F6000 E0
G1 F900 X72.221 Y75.833 E0.22583
G1 X73.225 Y75.062 E0.27215
G1 X74.275 Y74.356 E0.31844
G1 X75.484 Y73.655 E0.36957
G1 X80.93 Y70.746 E0.59546
G1 X82.064 Y70.186 E0.64173
G1 X83.232 Y69.698 E0.68804
G1 X84.558 Y69.245 E0.73931
G1 X90.467 Y67.455 E0.9652
G1 X91.689 Y67.126 E1.0115
G1 X92.929 Y66.876 E1.05778
G1 X94.315 Y66.691 E1.10894
G1 X100.457 Y66.088 E1.33473
G1 X101.72 Y66.004 E1.38104
G1 X102.985 Y66 E1.42732
G1 X104.376 Y66.088 E1.47831
G1 X110.496 Y66.691 E1.70331
G1 X111.751 Y66.855 E1.74961
G1 X112.993 Y67.098 E1.79591
G1 X114.337 Y67.455 E1.84679
G1 X120.246 Y69.245 E2.07268
G1 X121.445 Y69.65 E2.11898
G1 X122.616 Y70.13 E2.16528
G1 X123.874 Y70.746 E2.21653
G1 X129.32 Y73.655 E2.44242
G1 X130.417 Y74.286 E2.48872
G1 X131.472 Y74.986 E2.53504
G1 X132.582 Y75.833 E2.58613
G1 X137.353 Y79.745 E2.81186
G1 X138.306 Y80.578 E2.85816
G1 X139.204 Y81.469 E2.90445
G1 X140.132 Y82.522 E2.9558
G1 X142.52 Y85.43 E3.09347
G1 X155.919 Y85.431 E3.58368
G1 X157.184 Y85.471 E3.62999
G1 X158.443 Y85.591 E3.67626
G1 X159.097 Y85.685 E3.70043
G1 X161.628 Y86.092 E3.79422
G1 X162.87 Y86.332 E3.8405
G1 X164.095 Y86.651 E3.88681
G1 X165.297 Y87.046 E3.9331
G1 X166.472 Y87.516 E3.97941
G1 X167.574 Y88.038 E4.02402
G1 X169.851 Y89.204 E4.11761
G1 X170.958 Y89.817 E4.16391
G1 X172.025 Y90.497 E4.2102
G1 X173.047 Y91.244 E4.25651
G1 X174.019 Y92.054 E4.3028
G1 X174.91 Y92.895 E4.34763
G1 X176.717 Y94.709 E4.44131
G1 X177.581 Y95.633 E4.48759
G1 X178.385 Y96.61 E4.53388
G1 X179.126 Y97.636 E4.58018
G1 X179.8 Y98.707 E4.62648
G1 X180.391 Y99.788 E4.67156
G1 X181.547 Y102.069 E4.76511
G1 X182.083 Y103.215 E4.8114
G1 X182.545 Y104.393 E4.8577
G1 X182.933 Y105.598 E4.90401
G1 X183.243 Y106.824 E4.95028
G1 X183.463 Y107.989 E4.99365
G1 X183.861 Y110.503 E5.08678
G1 X184.019 Y111.758 E5.13305
G1 X184.107 Y113.636 E5.20184
G1 X184.106 Y121.385 E5.48534
G1 X184.066 Y122.649 E5.53161
G1 X183.946 Y123.909 E5.57792
G1 X183.851 Y124.568 E5.60228
G1 X183.443 Y127.099 E5.69607
G1 X183.202 Y128.341 E5.74236
G1 X182.883 Y129.566 E5.78867
G1 X182.488 Y130.768 E5.83496
G1 X182.017 Y131.943 E5.88128
G1 X181.501 Y133.032 E5.92537
G1 X180.336 Y135.309 E6.01894
G1 X179.724 Y136.416 E6.06522
G1 X179.044 Y137.483 E6.11151
G1 X178.297 Y138.505 E6.15783
G1 X177.488 Y139.478 E6.20412
G1 X176.634 Y140.381 E6.2496
G1 X174.819 Y142.187 E6.34327
G1 X173.894 Y143.051 E6.38958
G1 X172.917 Y143.855 E6.43587
G1 X171.891 Y144.595 E6.48216
G1 X170.82 Y145.269 E6.52845
G1 X169.751 Y145.852 E6.573
G1 X167.469 Y147.009 E6.66661
G1 X166.323 Y147.545 E6.7129
G1 X165.145 Y148.008 E6.7592
G1 X163.941 Y148.396 E6.80548
G1 X162.714 Y148.706 E6.85179
G1 X161.538 Y148.928 E6.89557
G1 X159.023 Y149.325 E6.98872
G1 X157.767 Y149.483 E7.03504
G1 X155.901 Y149.57 E7.10338
G1 X142.52 Y149.57 E7.59294
G1 X140.136 Y152.475 E7.73043
G1 X139.302 Y153.427 E7.77674
G1 X138.41 Y154.325 E7.82305
G1 X137.354 Y155.255 E7.87453
G1 X132.581 Y159.168 E8.10034
G1 X131.577 Y159.939 E8.14665
G1 X130.527 Y160.645 E8.19294
G1 X129.32 Y161.345 E8.24399
G1 X123.874 Y164.254 E8.46988
G1 X122.74 Y164.814 E8.51615
G1 X121.572 Y165.302 E8.56247
G1 X120.246 Y165.755 E8.61373
G1 X114.337 Y167.545 E8.83962
G1 X113.115 Y167.874 E8.88592
G1 X111.875 Y168.124 E8.9322
G1 X110.489 Y168.309 E8.98336
G1 X104.347 Y168.912 E9.20915
G1 X103.084 Y168.996 E9.25546
G1 X101.819 Y169 E9.30174
G1 X100.422 Y168.911 E9.35296
G1 X94.28 Y168.304 E9.57876
G1 X93.025 Y168.14 E9.62507
G1 X91.784 Y167.897 E9.67134
G1 X90.431 Y167.537 E9.72256
G1 X84.524 Y165.743 E9.94842
G1 X83.326 Y165.337 E9.9947
G1 X82.155 Y164.857 E10.041
G1 X80.897 Y164.239 E10.09228
G1 X75.453 Y161.326 E10.31818
G1 X74.356 Y160.694 E10.3645
G1 X73.302 Y159.994 E10.41079
G1 X72.193 Y159.146 E10.46186
G1 X67.423 Y155.229 E10.68768
G1 X66.471 Y154.395 E10.73399
G1 X65.573 Y153.503 E10.78029
G1 X64.647 Y152.451 E10.83157
G1 X60.734 Y147.679 E11.05735
G1 X59.963 Y146.676 E11.10363
G1 X59.257 Y145.626 E11.14993
G1 X58.556 Y144.416 E11.20109
G1 X55.648 Y138.971 E11.42693
G1 X55.087 Y137.837 E11.47322
G1 X54.599 Y136.669 E11.51953
G1 X54.147 Y135.344 E11.57075
G1 X52.357 Y129.435 E11.79664
G1 X52.028 Y128.213 E11.84294
G1 X51.778 Y126.973 E11.88922
G1 X51.593 Y125.588 E11.94034
G1 X50.99 Y119.448 E12.16606
G1 X50.906 Y118.185 E12.21237
G1 X50.902 Y116.92 E12.25865
G1 X50.991 Y115.523 E12.30987
G1 X51.598 Y109.378 E12.53578
G1 X51.762 Y108.123 E12.58209
G1 X52.005 Y106.881 E12.62839
G1 X52.365 Y105.527 E12.67965
G1 X54.159 Y99.621 E12.90548
G1 X54.565 Y98.423 E12.95175
G1 X55.046 Y97.252 E12.99807
G1 X55.663 Y95.995 E13.0493
G1 X58.576 Y90.551 E13.2752
G1 X59.208 Y89.454 E13.32152
G1 X59.908 Y88.4 E13.36781
G1 X60.756 Y87.292 E13.41885
G1 X64.671 Y82.524 E13.64457
G1 X65.504 Y81.571 E13.69088
G1 X66.396 Y80.674 E13.73716
G1 X66.903 Y80.227 E13.76189
G0 F810 X67.448 Y79.747
M204 S5000
M205 X30 Y30
G0 F7200 X67.727 Y80.088
M204 S500
M205 X20 Y20
G1 F6000 E13.78849
G1 F900 X72.5 Y76.174 E14.01432
G1 X73.493 Y75.411 E14.06013
G1 X74.532 Y74.714 E14.10591
G1 X75.691 Y74.043 E14.1549
G1 X81.137 Y71.134 E14.3808
G1 X82.259 Y70.58 E14.42658
G1 X83.414 Y70.099 E14.47235
G1 X84.685 Y69.666 E14.52148
G1 X90.594 Y67.876 E14.74737
G1 X91.803 Y67.552 E14.79316
G1 X93.03 Y67.305 E14.83895
G1 X94.358 Y67.129 E14.88796
G1 X100.5 Y66.526 E15.11376
G1 X101.749 Y66.443 E15.15955
G1 X103 Y66.441 E15.20532
G1 X104.333 Y66.526 E15.25419
G1 X110.453 Y67.129 E15.47918
G1 X111.694 Y67.292 E15.52498
G1 X112.922 Y67.533 E15.57076
G1 X114.21 Y67.876 E15.61953
G1 X120.119 Y69.666 E15.84541
G1 X121.304 Y70.067 E15.89118
G1 X122.461 Y70.543 E15.93696
G1 X123.667 Y71.134 E15.98609
G1 X129.113 Y74.043 E16.21198
G1 X130.198 Y74.668 E16.2578
G1 X131.24 Y75.361 E16.30358
G1 X132.303 Y76.173 E16.35252
G1 X137.074 Y80.085 E16.57825
G1 X138.016 Y80.909 E16.62404
G1 X138.903 Y81.792 E16.66983
G1 X139.792 Y82.801 E16.71903
G1 X142.312 Y85.87 E16.86431
G1 X155.919 Y85.871 E17.36214
G1 X157.17 Y85.911 E17.40793
G1 X159.027 Y86.119 E17.4763
G1 X161.558 Y86.526 E17.57009
G1 X162.786 Y86.764 E17.61585
G1 X163.997 Y87.08 E17.66164
G1 X165.185 Y87.473 E17.70742
G1 X166.346 Y87.941 E17.75322
G1 X167.373 Y88.43 E17.79483
G1 X169.65 Y89.596 E17.88843
G1 X170.745 Y90.202 E17.93422
G1 X171.8 Y90.876 E17.98002
G1 X172.809 Y91.617 E18.02582
G1 X173.768 Y92.42 E18.07158
G1 X174.598 Y93.206 E18.1134
G1 X176.405 Y95.02 E18.20708
G1 X177.259 Y95.934 E18.25284
G1 X178.053 Y96.901 E18.29862
G1 X178.784 Y97.917 E18.34441
G1 X179.449 Y98.977 E18.3902
G1 X179.998 Y99.987 E18.43225
G1 X181.154 Y102.268 E18.52581
G1 X181.684 Y103.401 E18.57158
G1 X182.14 Y104.567 E18.61738
G1 X182.521 Y105.759 E18.66317
G1 X182.825 Y106.973 E18.70895
G1 X183.028 Y108.057 E18.7493
G1 X183.426 Y110.571 E18.84242
G1 X183.582 Y111.813 E18.88822
G1 X183.667 Y113.636 E18.95499
G1 X183.666 Y121.385 E19.2385
G1 X183.626 Y122.635 E19.28425
G1 X183.416 Y124.498 E19.35284
G1 X183.008 Y127.029 E19.44664
G1 X182.77 Y128.258 E19.49244
G1 X182.453 Y129.468 E19.5382
G1 X182.06 Y130.656 E19.58398
G1 X181.592 Y131.817 E19.62978
G1 X181.109 Y132.831 E19.67087
G1 X179.944 Y135.108 E19.76445
G1 X179.339 Y136.204 E19.81025
G1 X178.665 Y137.258 E19.85602
G1 X177.925 Y138.267 E19.9018
G1 X177.122 Y139.227 E19.94759
G1 X176.324 Y140.07 E19.99006
G1 X174.509 Y141.876 E20.08374
G1 X173.594 Y142.729 E20.12951
G1 X172.626 Y143.523 E20.17531
G1 X171.61 Y144.253 E20.22108
G1 X170.549 Y144.917 E20.26688
G1 X169.552 Y145.46 E20.30841
G1 X167.27 Y146.617 E20.40202
G1 X166.137 Y147.147 E20.44778
G1 X164.971 Y147.603 E20.49359
G1 X163.779 Y147.984 E20.53937
G1 X162.566 Y148.288 E20.58512
G1 X161.469 Y148.494 E20.62596
G1 X158.954 Y148.891 E20.71911
G1 X157.712 Y149.046 E20.76491
G1 X155.901 Y149.13 E20.83123
G1 X142.312 Y149.13 E21.3284
G1 X139.795 Y152.196 E21.47353
G1 X138.971 Y153.137 E21.5193
G1 X138.088 Y154.024 E21.56509
G1 X137.075 Y154.915 E21.61444
G1 X132.302 Y158.828 E21.84025
G1 X131.309 Y159.59 E21.88605
G1 X130.27 Y160.287 E21.93182
G1 X129.113 Y160.957 E21.98074
G1 X123.667 Y163.866 E22.20663
G1 X122.545 Y164.42 E22.25241
G1 X121.39 Y164.901 E22.29818
G1 X120.119 Y165.334 E22.34731
G1 X114.21 Y167.124 E22.5732
G1 X113.001 Y167.448 E22.61899
G1 X111.774 Y167.695 E22.66478
G1 X110.446 Y167.871 E22.71379
G1 X104.304 Y168.474 E22.93959
G1 X103.055 Y168.557 E22.98538
G1 X101.804 Y168.559 E23.03115
G1 X100.465 Y168.473 E23.08024
G1 X94.323 Y167.866 E23.30605
G1 X93.083 Y167.703 E23.35181
G1 X91.855 Y167.462 E23.39759
G1 X90.559 Y167.116 E23.44667
G1 X84.652 Y165.322 E23.67253
G1 X83.467 Y164.92 E23.71831
G1 X82.31 Y164.444 E23.76408
G1 X81.104 Y163.851 E23.81325
G1 X75.66 Y160.938 E24.03915
G1 X74.576 Y160.313 E24.08493
G1 X73.535 Y159.619 E24.1307
G1 X72.472 Y158.806 E24.17966
G1 X67.702 Y154.889 E24.40548
G1 X66.761 Y154.064 E24.45126
G1 X65.874 Y153.181 E24.49705
G1 X64.987 Y152.172 E24.54621
G1 X61.074 Y147.4 E24.77199
G1 X60.312 Y146.408 E24.81775
G1 X59.615 Y145.368 E24.86356
G1 X58.944 Y144.209 E24.91255
G1 X56.036 Y138.764 E25.13839
G1 X55.482 Y137.642 E25.18418
G1 X55.001 Y136.487 E25.22995
G1 X54.568 Y135.217 E25.27904
G1 X52.778 Y129.308 E25.50493
G1 X52.454 Y128.099 E25.55072
G1 X52.207 Y126.872 E25.59652
G1 X52.031 Y125.545 E25.64549
G1 X51.428 Y119.405 E25.87121
G1 X51.345 Y118.156 E25.91701
G1 X51.343 Y116.905 E25.96278
G1 X51.429 Y115.566 E26.01187
G1 X52.036 Y109.421 E26.23778
G1 X52.199 Y108.18 E26.28358
G1 X52.44 Y106.953 E26.32932
G1 X52.786 Y105.655 E26.37847
G1 X54.58 Y99.749 E26.6043
G1 X54.982 Y98.564 E26.65008
G1 X55.459 Y97.407 E26.69587
G1 X56.051 Y96.202 E26.74499
G1 X58.964 Y90.758 E26.97088
G1 X59.589 Y89.674 E27.01666
G1 X60.283 Y88.633 E27.06243
G1 X61.096 Y87.571 E27.11137
G1 X65.011 Y82.803 E27.33708
G1 X65.835 Y81.862 E27.38284
G1 X66.718 Y80.975 E27.42863
G1 X67.181 Y80.568 E27.45119
G0 F810 X67.727 Y80.088
M204 S5000
M205 X30 Y30
G0 F7200 X68.006 Y80.428
M204 S500
M205 X20 Y20
G1 F6000 E27.47778
G1 F900 X72.779 Y76.514 E27.70362
G1 X73.761 Y75.761 E27.74889
G1 X74.789 Y75.072 E27.79417
G1 X75.898 Y74.432 E27.84101
G1 X81.344 Y71.523 E28.0669
G1 X82.454 Y70.975 E28.11219
G1 X83.596 Y70.501 E28.15743
G1 X84.813 Y70.087 E28.20446
G1 X90.722 Y68.297 E28.43035
G1 X91.917 Y67.977 E28.47561
G1 X93.13 Y67.734 E28.52087
G1 X94.401 Y67.567 E28.56777
G1 X100.543 Y66.964 E28.79357
G1 X101.777 Y66.883 E28.83881
G1 X103.015 Y66.881 E28.88411
G1 X104.29 Y66.964 E28.93085
G1 X110.41 Y67.567 E29.15584
G1 X111.636 Y67.728 E29.20108
G1 X112.85 Y67.968 E29.24636
G1 X114.082 Y68.297 E29.29301
G1 X119.991 Y70.087 E29.5189
G1 X121.163 Y70.484 E29.56417
G1 X122.307 Y70.955 E29.60944
G1 X123.46 Y71.523 E29.65646
G1 X128.906 Y74.432 E29.88235
G1 X129.978 Y75.049 E29.9276
G1 X131.008 Y75.735 E29.97288
G1 X132.024 Y76.513 E30.0197
G1 X136.795 Y80.425 E30.24543
G1 X137.726 Y81.24 E30.2907
G1 X138.602 Y82.114 E30.33597
G1 X139.452 Y83.08 E30.38305
G1 X142.104 Y86.31 E30.53595
G1 X155.919 Y86.311 E31.04139
G1 X157.155 Y86.351 E31.08663
G1 X158.957 Y86.554 E31.15298
G1 X161.488 Y86.961 E31.24676
G1 X162.702 Y87.197 E31.29201
G1 X163.899 Y87.51 E31.33728
G1 X165.073 Y87.901 E31.38255
G1 X166.22 Y88.366 E31.42783
G1 X167.173 Y88.822 E31.46648
G1 X169.45 Y89.988 E31.56008
G1 X170.532 Y90.587 E31.60532
G1 X171.574 Y91.255 E31.65061
G1 X172.57 Y91.989 E31.69587
G1 X173.517 Y92.785 E31.74114
G1 X174.286 Y93.516 E31.77995
G1 X176.093 Y95.33 E31.87363
G1 X176.938 Y96.234 E31.9189
G1 X177.722 Y97.191 E31.96417
G1 X178.442 Y98.197 E32.00943
G1 X179.097 Y99.247 E32.0547
G1 X179.606 Y100.186 E32.09378
G1 X180.762 Y102.467 E32.18734
G1 X181.285 Y103.588 E32.2326
G1 X181.735 Y104.74 E32.27784
G1 X182.109 Y105.92 E32.32313
G1 X182.407 Y107.121 E32.3684
G1 X182.594 Y108.126 E32.40581
G1 X182.992 Y110.64 E32.49893
G1 X183.145 Y111.868 E32.5442
G1 X183.227 Y113.635 E32.60892
G1 X183.226 Y121.384 E32.89243
G1 X183.186 Y122.621 E32.93771
G1 X182.982 Y124.428 E33.00424
G1 X182.574 Y126.959 E33.09803
G1 X182.338 Y128.174 E33.14332
G1 X182.024 Y129.37 E33.18856
G1 X181.633 Y130.544 E33.23383
G1 X181.167 Y131.69 E33.27909
G1 X180.717 Y132.631 E33.31725
G1 X179.552 Y134.908 E33.41083
G1 X178.953 Y135.991 E33.45611
G1 X178.286 Y137.032 E33.50134
G1 X177.552 Y138.029 E33.54664
G1 X176.756 Y138.976 E33.5919
G1 X176.013 Y139.758 E33.63136
G1 X174.198 Y141.564 E33.72504
G1 X173.294 Y142.408 E33.77029
G1 X172.336 Y143.191 E33.81555
G1 X171.33 Y143.911 E33.86082
G1 X170.28 Y144.565 E33.90607
G1 X169.353 Y145.067 E33.94464
G1 X167.071 Y146.224 E34.03825
G1 X165.95 Y146.748 E34.08352
G1 X164.798 Y147.198 E34.12877
G1 X163.619 Y147.572 E34.17402
G1 X162.418 Y147.87 E34.2193
G1 X161.4 Y148.059 E34.25718
G1 X158.885 Y148.456 E34.35033
G1 X157.658 Y148.609 E34.39557
G1 X155.901 Y148.69 E34.45992
G1 X142.104 Y148.69 E34.9647
G1 X139.455 Y151.917 E35.11745
G1 X138.64 Y152.847 E35.16269
G1 X137.766 Y153.723 E35.20796
G1 X136.796 Y154.575 E35.2552
G1 X132.023 Y158.488 E35.481
G1 X131.041 Y159.241 E35.52628
G1 X130.013 Y159.929 E35.57154
G1 X128.906 Y160.568 E35.6183
G1 X123.46 Y163.477 E35.84419
G1 X122.35 Y164.025 E35.88948
G1 X121.208 Y164.499 E35.93472
G1 X119.991 Y164.913 E35.98175
G1 X114.082 Y166.703 E36.20764
G1 X112.887 Y167.023 E36.2529
G1 X111.674 Y167.266 E36.29816
G1 X110.403 Y167.433 E36.34506
G1 X104.261 Y168.036 E36.57085
G1 X103.027 Y168.117 E36.6161
G1 X101.789 Y168.119 E36.66139
G1 X100.509 Y168.035 E36.70832
G1 X94.367 Y167.428 E36.93413
G1 X93.14 Y167.267 E36.97941
G1 X91.926 Y167.026 E37.02469
G1 X90.687 Y166.695 E37.07161
G1 X84.78 Y164.901 E37.29747
G1 X83.608 Y164.503 E37.34275
G1 X82.465 Y164.031 E37.388
G1 X81.312 Y163.463 E37.43502
G1 X75.868 Y160.55 E37.66092
G1 X74.796 Y159.931 E37.70621
G1 X73.767 Y159.245 E37.75145
G1 X72.751 Y158.466 E37.79829
G1 X67.981 Y154.549 E38.02411
G1 X67.051 Y153.733 E38.06938
G1 X66.175 Y152.859 E38.11465
G1 X65.328 Y151.893 E38.16165
G1 X61.415 Y147.121 E38.38743
G1 X60.661 Y146.14 E38.4327
G1 X59.973 Y145.111 E38.47799
G1 X59.332 Y144.002 E38.52485
G1 X56.424 Y138.557 E38.75069
G1 X55.877 Y137.447 E38.79597
G1 X55.402 Y136.304 E38.84125
G1 X54.989 Y135.089 E38.8882
G1 X53.199 Y129.18 E39.11409
G1 X52.879 Y127.985 E39.15935
G1 X52.636 Y126.772 E39.20461
G1 X52.469 Y125.502 E39.25148
G1 X51.866 Y119.362 E39.4772
G1 X51.785 Y118.127 E39.52248
G1 X51.783 Y116.89 E39.56773
G1 X51.867 Y115.61 E39.61467
G1 X52.474 Y109.465 E39.84058
G1 X52.635 Y108.238 E39.88586
G1 X52.875 Y107.024 E39.93113
G1 X53.207 Y105.783 E39.97813
G1 X55.001 Y99.877 E40.20396
G1 X55.399 Y98.705 E40.24924
G1 X55.871 Y97.562 E40.29449
G1 X56.439 Y96.41 E40.34148
G1 X59.352 Y90.966 E40.56737
G1 X59.971 Y89.894 E40.61266
G1 X60.657 Y88.865 E40.65791
G1 X61.436 Y87.85 E40.70472
G1 X65.351 Y83.082 E40.93043
G1 X66.166 Y82.152 E40.97568
G1 X67.04 Y81.276 E41.02095
G1 X67.46 Y80.907 E41.0414
G0 F810 X68.006 Y80.428
M204 S5000
M205 X30 Y30
G0 F7200 X68.285 Y80.768
M204 S500
M205 X20 Y20
G1 F6000 E41.068
G1 F900 X73.058 Y76.854 E41.29383
G1 X74.029 Y76.11 E41.33859
G1 X75.046 Y75.431 E41.38333
G1 X76.105 Y74.82 E41.42806
G1 X81.551 Y71.911 E41.65395
G1 X82.648 Y71.37 E41.6987
G1 X83.778 Y70.902 E41.74345
G1 X84.941 Y70.508 E41.78837
G1 X90.85 Y68.718 E42.01426
G1 X92.031 Y68.402 E42.05899
G1 X93.23 Y68.164 E42.10371
G1 X94.444 Y68.004 E42.14851
G1 X100.586 Y67.401 E42.3743
G1 X101.806 Y67.322 E42.41903
