;FLAVOR:Marlin
;TIME:1265
;Filament used: 0.867621m
;Layer height: 0.16
;Generated with Cura_SteamEngine 3.6.0
M140 S70
M105
M190 S70
M104 S215
M105
M109 S215
M82 ;absolute extrusion mode
G28 ; home all axes
M117 Purge extruder
G92 E0 ; reset extruder
G1 Z1.0 F3000 ; move z up little to prevent scratching of surface
G1 X0.1 Y20 Z0.3 F5000.0 ; move to start-line position G1 X0.1 Y200.0 Z0.3 F1500.0 E15 ; draw 1st line
G1 X0.4 Y200.0 Z0.3 F5000.0 ; move to side a little
G1 X0.4 Y20 Z0.3 F1500.0 E30 ; draw 2nd line
G92 E0 ; reset extruder
G1 Z1.0 F3000 ; move z up little to prevent scratching of surface
M117 All systems go!
G92 E0
G1 F6000 E-5
;LAYER_COUNT:63
;LAYER:0
M107
M204 S5000
M205 X30 Y30
G0 F7200 X104.051 Y106.315 Z0.2
M204 S500
M205 X20 Y20
;TYPE:SKIRT
G1 F6000 E0
G1 F900 X104.528 Y105.895 E0.02325
G1 X105.054 Y105.537 E0.04653
G1 X105.621 Y105.249 E0.0698
G1 X106.219 Y105.033 E0.09306
G1 X106.84 Y104.895 E0.11633
G1 X107.629 Y104.833 E0.14529
G1 X127.371 Y104.834 E0.86757
G1 X128.006 Y104.874 E0.89085
G1 X128.631 Y104.993 E0.91413
G1 X129.235 Y105.19 E0.93737
G1 X129.811 Y105.461 E0.96066
G1 X130.347 Y105.802 E0.9839
G1 X130.949 Y106.316 E1.01287
G1 X131.078 Y106.445 E1.01954
G1 X131.498 Y106.922 E1.04279
G1 X131.856 Y107.448 E1.06607
G1 X132.144 Y108.015 E1.08934
G1 X132.36 Y108.613 E1.1126
G1 X132.498 Y109.234 E1.13587
G1 X132.56 Y110.023 E1.16483
G1 X132.56 Y110.871 E1.19585
G1 X132.52 Y111.506 E1.21913
G1 X132.401 Y112.13 E1.24237
G1 X132.204 Y112.735 E1.26565
G1 X131.933 Y113.31 E1.28891
G1 X131.592 Y113.847 E1.31218
G1 X131.315 Y114.172 E1.32781
G1 X131.451 Y114.36 E1.3363
G1 X131.756 Y114.918 E1.35956
G1 X131.989 Y115.51 E1.38284
G1 X132.186 Y116.373 E1.41522
G1 X132.441 Y118.226 E1.48366
G1 X132.488 Y118.86 E1.50692
G1 X132.455 Y119.495 E1.53018
G1 X132.454 Y119.502 E1.53044
G1 X132.489 Y119.609 E1.53456
G1 X132.612 Y120.233 E1.55783
G1 X132.655 Y120.868 E1.58111
G1 X132.618 Y121.502 E1.60435
G1 X132.502 Y122.128 E1.62764
G1 X132.408 Y122.456 E1.64012
G1 X132.212 Y123.06 E1.66335
G1 X132.289 Y123.486 E1.67919
G1 X132.346 Y123.973 E1.69713
G1 X132.486 Y124.361 E1.71222
G1 X132.625 Y124.981 E1.73547
G1 X132.685 Y125.614 E1.75873
G1 X132.666 Y126.25 E1.78201
G1 X132.552 Y126.94 E1.8076
G1 X132.383 Y127.654 E1.83444
G1 X132.198 Y128.263 E1.85773
G1 X131.938 Y128.843 E1.88098
G1 X131.607 Y129.386 E1.90425
G1 X131.211 Y129.884 E1.92753
G1 X130.756 Y130.328 E1.95079
G1 X130.437 Y130.58 E1.96566
G1 X129.908 Y130.965 E1.9896
G1 X129.371 Y131.306 E2.01287
G1 X128.796 Y131.578 E2.03614
G1 X128.191 Y131.774 E2.05941
G1 X127.566 Y131.894 E2.08269
G1 X126.93 Y131.934 E2.10601
G1 X126.278 Y131.934 E2.12986
G1 X125.643 Y131.894 E2.15314
G1 X125.345 Y131.837 E2.16424
G1 X125.266 Y131.841 E2.16714
G1 X124.587 Y131.822 E2.19199
G1 X123.954 Y131.764 E2.21524
G1 X123.333 Y131.628 E2.2385
G1 X123.166 Y131.568 E2.24499
G1 X122.818 Y131.639 E2.25799
G1 X122.188 Y131.727 E2.28126
G1 X121.28 Y131.713 E2.31449
G1 X120.729 Y131.655 E2.33476
G1 X120.203 Y131.903 E2.35603
G1 X119.598 Y132.099 E2.3793
G1 X118.974 Y132.218 E2.40254
G1 X118.34 Y132.258 E2.42578
G1 X117.672 Y132.258 E2.45022
G1 X117.037 Y132.218 E2.4735
G1 X116.413 Y132.099 E2.49674
G1 X115.876 Y131.924 E2.5174
G1 X115.492 Y131.9 E2.53148
G1 X114.868 Y131.781 E2.55472
G1 X114.322 Y131.603 E2.57573
G1 X113.785 Y131.778 E2.5964
G1 X113.161 Y131.898 E2.61964
G1 X112.52 Y131.939 E2.64314
G1 X111.868 Y131.939 E2.667
G1 X111.233 Y131.899 E2.69028
G1 X111.034 Y131.861 E2.69769
G1 X110.54 Y131.861 E2.71576
G1 X109.905 Y131.821 E2.73904
G1 X109.281 Y131.702 E2.76228
G1 X108.676 Y131.505 E2.78556
G1 X108.54 Y131.441 E2.79106
G1 X108.099 Y131.441 E2.80719
G1 X107.464 Y131.401 E2.83047
G1 X106.84 Y131.282 E2.85371
G1 X106.235 Y131.085 E2.87699
G1 X105.66 Y130.814 E2.90025
G1 X105.121 Y130.472 E2.9236
G1 X104.592 Y130.087 E2.94754
G1 X104.103 Y129.681 E2.97079
G1 X103.668 Y129.217 E2.99406
G1 X103.295 Y128.703 E3.0173
G1 X102.989 Y128.145 E3.04058
G1 X102.756 Y127.553 E3.06386
G1 X102.645 Y127.157 E3.0789
G1 X102.476 Y126.44 E3.10586
G1 X102.369 Y125.813 E3.12913
G1 X102.342 Y125.178 E3.15238
G1 X102.395 Y124.544 E3.17566
G1 X102.501 Y124.016 E3.19536
G1 X102.727 Y123.139 E3.22849
G1 X102.66 Y122.933 E3.23642
G1 X102.502 Y122.317 E3.25969
G1 X102.422 Y121.686 E3.28296
G1 X102.422 Y121.05 E3.30622
G1 X102.502 Y120.419 E3.3295
G1 X102.659 Y119.805 E3.35268
G1 X102.86 Y119.186 E3.37649
G1 X102.91 Y119.06 E3.38145
G1 X102.91 Y119.036 E3.38233
G1 X102.937 Y118.814 E3.39051
G1 X102.696 Y118.209 E3.41434
G1 X102.548 Y117.713 E3.43328
G1 X102.405 Y117.093 E3.45655
G1 X102.341 Y116.461 E3.4798
G1 X102.356 Y115.825 E3.50307
G1 X102.451 Y115.196 E3.52634
G1 X102.625 Y114.584 E3.54962
G1 X102.873 Y113.999 E3.57287
G1 X103.171 Y113.486 E3.59457
G1 X103.144 Y113.446 E3.59634
G1 X102.856 Y112.879 E3.61961
G1 X102.64 Y112.281 E3.64287
G1 X102.502 Y111.66 E3.66614
G1 X102.44 Y110.871 E3.6951
G1 X102.44 Y110.022 E3.72616
G1 X102.48 Y109.387 E3.74944
G1 X102.599 Y108.763 E3.77268
G1 X102.796 Y108.158 E3.79596
G1 X103.067 Y107.583 E3.81922
G1 X103.408 Y107.046 E3.84249
G1 X103.568 Y106.858 E3.85152
G0 F810 X103.922 Y106.444
G0 X104.051 Y106.315
M204 S5000
M205 X30 Y30
G0 F7200 X104.362 Y106.626
M204 S500
M205 X20 Y20
G1 F6000 E3.87812
G1 F900 X104.819 Y106.226 E3.90034
G1 X105.325 Y105.889 E3.92258
G1 X105.87 Y105.621 E3.9448
G1 X106.446 Y105.427 E3.96704
G1 X107.042 Y105.31 E3.98926
G1 X107.629 Y105.273 E4.01078
G1 X127.371 Y105.274 E4.73306
G1 X127.978 Y105.314 E4.75532
G1 X128.573 Y105.433 E4.77752
G1 X129.148 Y105.63 E4.79975
G1 X129.693 Y105.9 E4.82201
G1 X130.197 Y106.239 E4.84423
G1 X130.638 Y106.627 E4.86572
G1 X130.767 Y106.756 E4.87239
G1 X131.167 Y107.213 E4.89461
G1 X131.504 Y107.719 E4.91686
G1 X131.772 Y108.264 E4.93908
G1 X131.966 Y108.84 E4.96131
G1 X132.083 Y109.436 E4.98354
G1 X132.12 Y110.023 E5.00505
G1 X132.12 Y110.871 E5.03608
G1 X132.08 Y111.477 E5.0583
G1 X131.961 Y112.073 E5.08053
G1 X131.765 Y112.648 E5.10276
G1 X131.494 Y113.192 E5.125
G1 X131.155 Y113.697 E5.14725
G1 X130.767 Y114.138 E5.16874
G1 X130.756 Y114.149 E5.16931
G1 X130.773 Y114.167 E5.17021
G1 X131.121 Y114.664 E5.19241
G1 X131.402 Y115.203 E5.21465
G1 X131.61 Y115.774 E5.23688
G1 X131.75 Y116.433 E5.26153
G1 X132.005 Y118.286 E5.32997
G1 X132.048 Y118.892 E5.35219
G1 X132.011 Y119.499 E5.37444
G1 X132.004 Y119.542 E5.37603
G1 X132.071 Y119.747 E5.38393
G1 X132.182 Y120.344 E5.40614
G1 X132.215 Y120.951 E5.42838
G1 X132.167 Y121.557 E5.45062
G1 X131.989 Y122.32 E5.47929
G1 X131.788 Y122.939 E5.5031
G1 X131.757 Y123.017 E5.50617
G1 X131.856 Y123.564 E5.52651
G1 X131.914 Y124.068 E5.54507
G1 X132.071 Y124.51 E5.56223
G1 X132.199 Y125.104 E5.58446
G1 X132.248 Y125.709 E5.60667
G1 X132.216 Y126.316 E5.62891
G1 X132.124 Y126.839 E5.64833
G1 X131.955 Y127.553 E5.67518
G1 X131.776 Y128.134 E5.69742
G1 X131.523 Y128.686 E5.71964
G1 X131.2 Y129.201 E5.74188
G1 X130.811 Y129.668 E5.76411
G1 X130.178 Y130.224 E5.79494
G1 X129.649 Y130.609 E5.81888
G1 X129.135 Y130.934 E5.84113
G1 X128.583 Y131.188 E5.86336
G1 X128.003 Y131.368 E5.88557
G1 X127.404 Y131.47 E5.90781
G1 X126.93 Y131.494 E5.92517
G1 X126.278 Y131.494 E5.94902
G1 X125.672 Y131.454 E5.97124
G1 X125.386 Y131.397 E5.98191
G1 X125.279 Y131.401 E5.98583
G1 X124.6 Y131.382 E6.01068
G1 X123.995 Y131.325 E6.03291
G1 X123.403 Y131.189 E6.05514
G1 X123.198 Y131.113 E6.06314
G1 X122.73 Y131.208 E6.08061
G1 X122.128 Y131.29 E6.10284
G1 X121.326 Y131.276 E6.13218
G1 X120.632 Y131.203 E6.15771
G1 X120.543 Y131.259 E6.16156
G1 X119.991 Y131.513 E6.18379
G1 X119.41 Y131.692 E6.20603
G1 X118.811 Y131.794 E6.22826
G1 X118.34 Y131.818 E6.24552
G1 X117.672 Y131.818 E6.26996
G1 X117.066 Y131.778 E6.29218
G1 X116.47 Y131.659 E6.31441
G1 X115.974 Y131.49 E6.33358
G1 X115.521 Y131.46 E6.35019
G1 X114.925 Y131.341 E6.37243
G1 X114.35 Y131.145 E6.39466
G1 X114.316 Y131.128 E6.39605
G1 X114.177 Y131.192 E6.40165
G1 X113.597 Y131.372 E6.42386
G1 X112.998 Y131.474 E6.44609
G1 X112.52 Y131.499 E6.46361
G1 X111.868 Y131.499 E6.48746
G1 X111.262 Y131.459 E6.50968
G1 X111.072 Y131.421 E6.51677
G1 X110.54 Y131.421 E6.53623
G1 X109.934 Y131.381 E6.55845
G1 X109.338 Y131.262 E6.58069
G1 X108.763 Y131.066 E6.60291
G1 X108.633 Y131.001 E6.60823
G1 X108.099 Y131.001 E6.62777
G1 X107.493 Y130.961 E6.64999
G1 X106.897 Y130.842 E6.67222
G1 X106.322 Y130.646 E6.69445
G1 X105.778 Y130.375 E6.71669
G1 X105.38 Y130.116 E6.73406
G1 X104.851 Y129.731 E6.758
G1 X104.385 Y129.342 E6.7802
G1 X103.973 Y128.895 E6.80244
G1 X103.624 Y128.398 E6.82466
G1 X103.343 Y127.86 E6.84687
G1 X103.073 Y127.056 E6.8779
G1 X102.904 Y126.339 E6.90485
G1 X102.804 Y125.74 E6.92707
G1 X102.783 Y125.132 E6.94933
G1 X102.843 Y124.528 E6.97153
G1 X102.927 Y124.126 E6.98656
G1 X103.185 Y123.124 E7.02441
G1 X103.079 Y122.797 E7.03699
G1 X102.929 Y122.208 E7.05923
G1 X102.858 Y121.605 E7.08144
G1 X102.867 Y120.997 E7.10369
G1 X102.955 Y120.396 E7.12591
G1 X103.078 Y119.941 E7.14316
G1 X103.279 Y119.322 E7.16697
G1 X103.352 Y119.139 E7.17417
G1 X103.353 Y119.01 E7.17889
G1 X103.385 Y118.763 E7.18801
G1 X103.118 Y118.083 E7.21473
G1 X102.97 Y117.587 E7.23367
G1 X102.835 Y116.995 E7.25589
G1 X102.779 Y116.39 E7.27812
G1 X102.802 Y115.782 E7.30038
G1 X102.906 Y115.184 E7.32258
G1 X103.086 Y114.604 E7.3448
G1 X103.342 Y114.052 E7.36706
G1 X103.668 Y113.539 E7.3893
G1 X103.707 Y113.492 E7.39154
G1 X103.496 Y113.175 E7.40547
G1 X103.228 Y112.63 E7.42769
G1 X103.034 Y112.054 E7.44992
G1 X102.917 Y111.458 E7.47215
G1 X102.88 Y110.871 E7.49366
G1 X102.88 Y110.022 E7.52473
G1 X102.92 Y109.416 E7.54695
G1 X103.039 Y108.82 E7.56918
G1 X103.235 Y108.245 E7.59141
G1 X103.506 Y107.701 E7.61364
G1 X103.845 Y107.196 E7.6359
G1 X103.873 Y107.164 E7.63745
G0 F810 X104.233 Y106.755
G0 X104.362 Y106.626
M204 S5000
M205 X30 Y30
G0 F7200 X104.673 Y106.937
M204 S500
M205 X20 Y20
G1 F6000 E7.66405
G1 F900 X105.109 Y106.558 E7.68518
G1 X105.593 Y106.242 E7.70633
G1 X106.116 Y105.996 E7.72748
G1 X106.668 Y105.825 E7.74862
G1 X107.239 Y105.731 E7.76979
G1 X107.629 Y105.713 E7.78408
G1 X127.371 Y105.714 E8.50636
G1 X127.948 Y105.754 E8.52752
G1 X128.513 Y105.873 E8.54865
G1 X129.057 Y106.069 E8.5698
G1 X129.568 Y106.338 E8.59093
G1 X130.038 Y106.675 E8.61209
G1 X130.327 Y106.938 E8.62638
G1 X130.456 Y107.067 E8.63306
G1 X130.835 Y107.503 E8.65419
G1 X131.151 Y107.987 E8.67534
G1 X131.397 Y108.51 E8.69649
G1 X131.568 Y109.062 E8.71763
G1 X131.662 Y109.633 E8.7388
G1 X131.68 Y110.023 E8.75309
G1 X131.68 Y110.871 E8.78411
G1 X131.64 Y111.448 E8.80527
G1 X131.521 Y112.013 E8.8264
G1 X131.325 Y112.557 E8.84755
G1 X131.056 Y113.068 E8.86868
G1 X130.719 Y113.538 E8.88984
G1 X130.456 Y113.827 E8.90413
G1 X130.327 Y113.956 E8.91081
G1 X130.16 Y114.101 E8.9189
G1 X130.24 Y114.237 E8.92467
G1 X130.465 Y114.487 E8.93698
G1 X130.789 Y114.966 E8.95814
G1 X131.043 Y115.484 E8.97924
G1 X131.224 Y116.033 E9.00039
G1 X131.314 Y116.493 E9.01754
G1 X131.569 Y118.346 E9.08597
G1 X131.608 Y118.923 E9.10713
G1 X131.567 Y119.499 E9.12826
G1 X131.553 Y119.58 E9.13127
G1 X131.651 Y119.883 E9.14292
G1 X131.752 Y120.453 E9.1641
G1 X131.773 Y121.03 E9.18522
G1 X131.714 Y121.605 E9.20637
G1 X131.571 Y122.184 E9.22819
G1 X131.37 Y122.803 E9.252
G1 X131.302 Y122.972 E9.25866
G1 X131.423 Y123.643 E9.28361
G1 X131.481 Y124.163 E9.30275
G1 X131.656 Y124.657 E9.32193
G1 X131.771 Y125.223 E9.34306
G1 X131.808 Y125.8 E9.36421
G1 X131.764 Y126.377 E9.38538
G1 X131.696 Y126.738 E9.39882
G1 X131.527 Y127.452 E9.42567
G1 X131.355 Y128.004 E9.44682
G1 X131.109 Y128.527 E9.46797
G1 X130.793 Y129.01 E9.48908
G1 X130.413 Y129.446 E9.51024
G1 X129.919 Y129.869 E9.53404
G1 X129.39 Y130.254 E9.55797
G1 X128.9 Y130.561 E9.57913
G1 X128.373 Y130.797 E9.60025
G1 X127.818 Y130.959 E9.62141
G1 X127.246 Y131.042 E9.64255
G1 X126.93 Y131.054 E9.65412
G1 X126.278 Y131.054 E9.67798
G1 X125.701 Y131.014 E9.69914
G1 X125.434 Y130.958 E9.70912
G1 X125.291 Y130.961 E9.71435
G1 X124.612 Y130.942 E9.7392
G1 X124.037 Y130.886 E9.76034
G1 X123.475 Y130.751 E9.78149
G1 X123.234 Y130.657 E9.79095
G1 X122.643 Y130.777 E9.81301
G1 X122.07 Y130.853 E9.83416
G1 X121.372 Y130.838 E9.8597
G1 X120.611 Y130.758 E9.8877
G1 X120.534 Y130.744 E9.89056
G1 X120.308 Y130.886 E9.90033
G1 X119.781 Y131.122 E9.92145
G1 X119.226 Y131.283 E9.9426
G1 X118.654 Y131.366 E9.96374
G1 X118.34 Y131.378 E9.97524
G1 X117.672 Y131.378 E9.99968
G1 X117.095 Y131.338 E10.02084
G1 X116.53 Y131.219 E10.04197
G1 X116.08 Y131.057 E10.05946
G1 X115.55 Y131.02 E10.0789
G1 X114.985 Y130.901 E10.10003
G1 X114.441 Y130.705 E10.12118
G1 X114.321 Y130.642 E10.12614
G1 X113.966 Y130.801 E10.14037
G1 X113.411 Y130.963 E10.16152
G1 X112.84 Y131.047 E10.18264
G1 X112.52 Y131.059 E10.19436
G1 X111.868 Y131.059 E10.21821
G1 X111.291 Y131.019 E10.23937
G1 X111.111 Y130.981 E10.2461
G1 X110.54 Y130.981 E10.26699
G1 X109.963 Y130.941 E10.28815
G1 X109.398 Y130.822 E10.30928
G1 X108.854 Y130.626 E10.33043
G1 X108.731 Y130.561 E10.33552
G1 X108.099 Y130.561 E10.35864
G1 X107.522 Y130.521 E10.37981
G1 X106.957 Y130.402 E10.40093
G1 X106.413 Y130.206 E10.42209
G1 X105.902 Y129.937 E10.44321
G1 X105.639 Y129.761 E10.45479
G1 X105.11 Y129.376 E10.47873
G1 X104.668 Y129.004 E10.49986
G1 X104.28 Y128.575 E10.52103
G1 X103.956 Y128.097 E10.54215
G1 X103.701 Y127.578 E10.56331
G1 X103.501 Y126.955 E10.58725
G1 X103.332 Y126.238 E10.6142
G1 X103.239 Y125.668 E10.63533
G1 X103.225 Y125.09 E10.65648
G1 X103.353 Y124.236 E10.68808
G1 X103.643 Y123.11 E10.73062
G1 X103.497 Y122.661 E10.74789
G1 X103.357 Y122.1 E10.76905
G1 X103.295 Y121.526 E10.79017
G1 X103.313 Y120.948 E10.81132
G1 X103.411 Y120.378 E10.83249
G1 X103.496 Y120.077 E10.84393
G1 X103.697 Y119.458 E10.86774
G1 X103.792 Y119.222 E10.87705
G1 X103.797 Y118.987 E10.88565
G1 X103.838 Y118.678 E10.89705
G1 X103.77 Y118.557 E10.90213
G1 X103.54 Y117.957 E10.92564
G1 X103.392 Y117.461 E10.94458
G1 X103.265 Y116.897 E10.96573
G1 X103.217 Y116.321 E10.98687
G1 X103.25 Y115.744 E11.00802
G1 X103.361 Y115.177 E11.02916
G1 X103.55 Y114.631 E11.05029
G1 X103.812 Y114.116 E11.07143
G1 X104.143 Y113.642 E11.09259
G1 X104.267 Y113.508 E11.09927
G1 X104.165 Y113.391 E11.10495
G1 X103.849 Y112.907 E11.12609
G1 X103.603 Y112.384 E11.14724
G1 X103.432 Y111.832 E11.16838
G1 X103.338 Y111.261 E11.18955
G1 X103.32 Y110.871 E11.20384
G1 X103.32 Y110.022 E11.2349
G1 X103.36 Y109.445 E11.25606
G1 X103.479 Y108.88 E11.27718
G1 X103.675 Y108.336 E11.29834
G1 X103.944 Y107.825 E11.31947
G1 X104.191 Y107.481 E11.33496
G0 F810 X104.281 Y107.355
G0 X104.544 Y107.066
G0 X104.673 Y106.937
M204 S5000
M205 X30 Y30
G0 F7200 X104.984 Y107.248
M204 S500
M205 X20 Y20
G1 F6000 E11.36156
G1 F900 X105.398 Y106.891 E11.38156
G1 X105.86 Y106.598 E11.40157
G1 X106.359 Y106.375 E11.42157
G1 X106.885 Y106.228 E11.44155
G1 X107.629 Y106.153 E11.46891
G1 X127.371 Y106.154 E12.19119
G1 X127.916 Y106.194 E12.21119
G1 X128.45 Y106.313 E12.2312
G1 X128.96 Y106.508 E12.25118
G1 X129.437 Y106.776 E12.2712
G1 X130.016 Y107.249 E12.29855
G1 X130.145 Y107.378 E12.30523
G1 X130.502 Y107.792 E12.32523
G1 X130.795 Y108.254 E12.34524
G1 X131.018 Y108.753 E12.36524
G1 X131.165 Y109.279 E12.38522
G1 X131.24 Y110.023 E12.41258
G1 X131.24 Y110.871 E12.4436
G1 X131.2 Y111.416 E12.4636
G1 X131.081 Y111.95 E12.48361
G1 X130.886 Y112.46 E12.50359
G1 X130.618 Y112.937 E12.52361
G1 X130.145 Y113.516 E12.55096
G1 X130.016 Y113.645 E12.55763
G1 X129.602 Y114.002 E12.57763
G1 X129.574 Y114.02 E12.57885
G1 X129.8 Y114.338 E12.59313
G1 X129.88 Y114.493 E12.59951
G1 X130.154 Y114.805 E12.6147
G1 X130.452 Y115.264 E12.63472
G1 X130.679 Y115.761 E12.65471
G1 X130.878 Y116.553 E12.68459
G1 X131.133 Y118.406 E12.75302
G1 X131.168 Y118.952 E12.77304
G1 X131.096 Y119.594 E12.79667
G1 X131.231 Y120.019 E12.81299
G1 X131.32 Y120.558 E12.83298
G1 X131.329 Y121.104 E12.85295
G1 X131.258 Y121.646 E12.87295
G1 X131.152 Y122.048 E12.88816
G1 X130.951 Y122.667 E12.91197
G1 X130.846 Y122.925 E12.92217
G1 X130.99 Y123.721 E12.95176
G1 X131.048 Y124.261 E12.97163
G1 X131.059 Y124.287 E12.97266
