;FLAVOR:Marlin
;TIME:8046
;Filament used: 6.0984m
;Layer height: 0.16
;Generated with Cura_SteamEngine 3.6.0
M140 S70
M105
M190 S70
M104 S215
M105
M109 S215
M82 ;absolute extrusion mode
G28 ; home all axes
M117 Purge extruder
G92 E0 ; reset extruder
G1 Z1.0 F3000 ; move z up little to prevent scratching of surface
G1 X0.1 Y20 Z0.3 F5000.0 ; move to start-line position G1 X0.1 Y200.0 Z0.3 F1500.0 E15 ; draw 1st line
G1 X0.4 Y200.0 Z0.3 F5000.0 ; move to side a little
G1 X0.4 Y20 Z0.3 F1500.0 E30 ; draw 2nd line
G92 E0 ; reset extruder
G1 Z1.0 F3000 ; move z up little to prevent scratching of surface
M117 All systems go!
G92 E0
G1 F6000 E-5
;LAYER_COUNT:63
;LAYER:0
M107
M204 S5000
M205 X30 Y30
G0 F7200 X40.621 Y105.249 Z0.2
M204 S500
M205 X20 Y20
;TYPE:SKIRT
G1 F6000 E0
G1 F900 X41.219 Y105.033 E0.02326
G1 X41.84 Y104.895 E0.04654
G1 X42.629 Y104.833 E0.07549
G1 X192.371 Y104.834 E5.55397
G1 X193.006 Y104.874 E5.57725
G1 X193.63 Y104.993 E5.60049
G1 X194.235 Y105.19 E5.62377
G1 X194.81 Y105.461 E5.64703
G1 X195.347 Y105.802 E5.6703
G1 X195.949 Y106.316 E5.69926
G1 X196.078 Y106.445 E5.70594
G1 X196.498 Y106.922 E5.72919
G1 X196.856 Y107.448 E5.75247
G1 X197.144 Y108.015 E5.77574
G1 X197.36 Y108.613 E5.799
G1 X197.498 Y109.234 E5.82227
G1 X197.56 Y110.023 E5.85123
G1 X197.56 Y110.871 E5.88225
G1 X197.52 Y111.506 E5.90553
G1 X197.401 Y112.13 E5.92877
G1 X197.204 Y112.735 E5.95205
G1 X196.933 Y113.31 E5.97531
G1 X196.592 Y113.847 E5.99858
G1 X196.454 Y114.009 E6.00637
G1 X196.769 Y114.444 E6.02602
G1 X197.074 Y115.002 E6.04928
G1 X197.372 Y115.813 E6.08089
G1 X197.556 Y116.486 E6.10642
G1 X197.685 Y117.108 E6.12966
G1 X197.734 Y117.742 E6.15292
G1 X197.704 Y118.377 E6.17618
G1 X197.589 Y119.026 E6.2003
G1 X197.416 Y119.731 E6.22686
G1 X197.226 Y120.338 E6.25013
G1 X197.206 Y120.381 E6.25186
G1 X197.232 Y120.689 E6.26317
G1 X197.257 Y120.762 E6.26599
G1 X197.426 Y121.375 E6.28926
G1 X197.516 Y122.004 E6.3125
G1 X197.527 Y122.64 E6.33578
G1 X197.457 Y123.272 E6.35904
G1 X197.284 Y123.972 E6.38542
G1 X197.169 Y124.327 E6.39907
G1 X197.212 Y124.466 E6.4044
G1 X197.323 Y125.092 E6.42766
G1 X197.356 Y125.727 E6.45092
G1 X197.308 Y126.362 E6.47422
G1 X197.109 Y127.228 E6.50673
G1 X196.908 Y127.847 E6.53054
G1 X196.674 Y128.438 E6.55379
G1 X196.367 Y128.995 E6.57706
G1 X195.993 Y129.51 E6.60035
G1 X195.558 Y129.973 E6.62359
G1 X195.076 Y130.373 E6.64651
G1 X194.548 Y130.758 E6.67042
G1 X194.012 Y131.099 E6.69366
G1 X193.437 Y131.371 E6.71693
G1 X192.832 Y131.568 E6.74021
G1 X192.208 Y131.688 E6.76346
G1 X191.573 Y131.729 E6.78674
G1 X191.254 Y131.719 E6.79841
G1 X190.543 Y131.675 E6.82448
G1 X190.207 Y131.633 E6.83686
G1 X190.169 Y131.645 E6.83832
G1 X189.544 Y131.76 E6.86157
G1 X189.057 Y131.796 E6.87944
G1 X188.046 Y131.82 E6.91644
G1 X187.411 Y131.795 E6.93969
G1 X187.019 Y131.739 E6.95418
G1 X186.595 Y131.662 E6.96994
G1 X186.515 Y131.676 E6.97291
G1 X185.933 Y131.71 E6.99424
G1 X185.297 Y131.71 E7.01751
G1 X185.168 Y131.771 E7.02273
G1 X184.563 Y131.968 E7.04601
G1 X183.939 Y132.088 E7.06926
G1 X183.298 Y132.129 E7.09276
G1 X182.646 Y132.129 E7.11661
G1 X182.011 Y132.089 E7.13989
G1 X181.387 Y131.97 E7.16313
G1 X181.163 Y131.901 E7.17171
G1 X180.778 Y131.884 E7.18581
G1 X179.477 Y131.77 E7.23359
G1 X179.08 Y131.709 E7.24828
G1 X178.833 Y131.788 E7.25777
G1 X178.207 Y131.902 E7.28105
G1 X177.608 Y131.938 E7.303
G1 X176.956 Y131.938 E7.32686
G1 X176.321 Y131.898 E7.35014
G1 X175.697 Y131.779 E7.37338
G1 X175.388 Y131.678 E7.38527
G1 X174.672 Y131.696 E7.41148
G1 X174.037 Y131.672 E7.43472
G1 X174.003 Y131.666 E7.43599
G1 X173.417 Y131.779 E7.45782
G1 X173.068 Y131.812 E7.47065
G1 X171.565 Y131.899 E7.52573
G1 X170.771 Y131.882 E7.55479
G1 X170.5 Y131.855 E7.56475
G1 X170.356 Y131.883 E7.57012
G1 X169.95 Y131.918 E7.58503
G1 X168.226 Y132 E7.64817
G1 X167.591 Y131.991 E7.67141
G1 X167.177 Y131.932 E7.68671
G1 X166.706 Y132.053 E7.7045
G1 X166.081 Y132.173 E7.72778
G1 X165.459 Y132.213 E7.75058
G1 X164.394 Y132.216 E7.78955
G1 X163.759 Y132.178 E7.81282
G1 X163.134 Y132.06 E7.83609
G1 X162.529 Y131.865 E7.85935
G1 X162.427 Y131.817 E7.86347
G1 X162.398 Y131.83 E7.86464
G1 X161.786 Y132.006 E7.88793
G1 X161.086 Y132.109 E7.91382
G1 X160.357 Y132.165 E7.94057
G1 X159.721 Y132.174 E7.96384
G1 X159.089 Y132.103 E7.98711
G1 X158.471 Y131.953 E8.01038
G1 X157.876 Y131.727 E8.03366
G1 X157.68 Y131.619 E8.04185
G1 X157.516 Y131.697 E8.04849
G1 X156.911 Y131.894 E8.07177
G1 X156.287 Y132.014 E8.09502
G1 X155.646 Y132.055 E8.11852
G1 X154.994 Y132.055 E8.14237
G1 X154.359 Y132.015 E8.16565
G1 X153.735 Y131.896 E8.18889
G1 X153.244 Y131.736 E8.20779
G1 X152.671 Y131.736 E8.22875
G1 X152.036 Y131.696 E8.25203
G1 X151.996 Y131.688 E8.25352
G1 X151.882 Y131.726 E8.25792
G1 X151.257 Y131.847 E8.28121
G1 X150.623 Y131.888 E8.30445
G1 X150.249 Y131.875 E8.31814
G1 X150.036 Y131.86 E8.32596
G1 X149.73 Y131.919 E8.33736
G1 X149.078 Y131.961 E8.36126
G1 X148.426 Y131.961 E8.38512
G1 X147.791 Y131.921 E8.40839
G1 X147.167 Y131.802 E8.43164
G1 X146.651 Y131.634 E8.45149
G1 X146.113 Y131.678 E8.47124
G1 X145.46 Y131.678 E8.49513
G1 X144.825 Y131.638 E8.51841
G1 X144.451 Y131.567 E8.53233
G1 X144.387 Y131.579 E8.53472
G1 X143.748 Y131.62 E8.55814
G1 X143.18 Y131.62 E8.57892
G1 X142.961 Y131.695 E8.58739
G1 X142.338 Y131.824 E8.61067
G1 X141.623 Y131.875 E8.6369
G1 X140.971 Y131.875 E8.66075
G1 X140.605 Y131.852 E8.67417
G1 X140.422 Y131.912 E8.68121
G1 X139.797 Y132.033 E8.7045
G1 X139.163 Y132.074 E8.72775
G1 X138.607 Y132.045 E8.74812
G1 X137.841 Y131.962 E8.77631
G1 X137.214 Y131.853 E8.79959
G1 X137.079 Y131.812 E8.80475
G1 X137.008 Y131.815 E8.80735
G1 X136.317 Y131.787 E8.83265
G1 X135.685 Y131.721 E8.8559
G1 X135.385 Y131.651 E8.86717
G1 X134.98 Y131.729 E8.88226
G1 X134.339 Y131.77 E8.90576
G1 X133.687 Y131.77 E8.92962
G1 X133.052 Y131.73 E8.95289
G1 X132.428 Y131.611 E8.97614
G1 X132.255 Y131.555 E8.98279
G1 X132.221 Y131.56 E8.98405
G1 X131.855 Y131.581 E8.99746
G1 X130.908 Y131.601 E9.03211
G1 X130.484 Y131.725 E9.04828
G1 X129.856 Y131.826 E9.07155
G1 X129.367 Y131.85 E9.08946
G1 X128.715 Y131.85 E9.11331
G1 X128.08 Y131.81 E9.13659
G1 X127.943 Y131.784 E9.14169
G1 X127.709 Y131.862 E9.15072
G1 X127.086 Y131.986 E9.17396
G1 X126.451 Y132.032 E9.19725
G1 X125.948 Y132.011 E9.21567
G1 X124.314 Y131.862 E9.2757
G1 X123.686 Y131.765 E9.29895
G1 X123.638 Y131.753 E9.30076
G1 X123.139 Y131.915 E9.31995
G1 X122.515 Y132.035 E9.3432
G1 X121.88 Y132.076 E9.36648
G1 X121.267 Y132.039 E9.38895
G1 X120.307 Y131.923 E9.42433
G1 X120.107 Y131.886 E9.43177
G1 X119.566 Y132.141 E9.45365
G1 X118.961 Y132.337 E9.47692
G1 X118.337 Y132.456 E9.50016
G1 X117.703 Y132.496 E9.5234
G1 X117.035 Y132.496 E9.54784
G1 X116.4 Y132.456 E9.57112
G1 X115.776 Y132.337 E9.59436
G1 X115.171 Y132.14 E9.61764
G1 X114.596 Y131.869 E9.64089
G1 X114.449 Y131.775 E9.64728
G1 X114.13 Y131.674 E9.65952
G1 X114.078 Y131.691 E9.66152
G1 X113.454 Y131.811 E9.68477
G1 X112.679 Y131.85 E9.71316
G1 X112.06 Y131.834 E9.73581
G1 X112.022 Y131.845 E9.73726
G1 X111.395 Y131.948 E9.76051
G1 X110.885 Y131.974 E9.77919
G1 X110.232 Y131.974 E9.80308
G1 X109.597 Y131.934 E9.82636
G1 X108.973 Y131.815 E9.8496
G1 X108.368 Y131.618 E9.87288
G1 X108.367 Y131.618 E9.87292
G1 X108.102 Y131.647 E9.88267
G1 X106.786 Y131.696 E9.93085
G1 X106.205 Y131.681 E9.95212
G1 X106.028 Y131.728 E9.95882
G1 X105.404 Y131.852 E9.98209
G1 X104.77 Y131.896 E10.00534
G1 X104.135 Y131.86 E10.02861
G1 X103.509 Y131.745 E10.0519
G1 X102.903 Y131.553 E10.07516
G1 X102.838 Y131.523 E10.07778
G1 X102.684 Y131.533 E10.08342
G1 X102.314 Y131.52 E10.09697
G1 X101.751 Y131.48 E10.11762
G1 X101.624 Y131.54 E10.12276
G1 X101.019 Y131.737 E10.14603
G1 X100.395 Y131.857 E10.16928
G1 X99.754 Y131.898 E10.19278
G1 X99.102 Y131.898 E10.21664
G1 X98.467 Y131.858 E10.23991
G1 X97.869 Y131.744 E10.26219
G1 X97.797 Y131.758 E10.26487
G1 X97.261 Y131.798 E10.28453
G1 X94.143 Y131.865 E10.39864
G1 X93.507 Y131.839 E10.42192
G1 X92.88 Y131.733 E10.44519
G1 X92.482 Y131.613 E10.4604
G1 X91.601 Y131.713 E10.49284
G1 X90.966 Y131.746 E10.5161
G1 X90.332 Y131.698 E10.53936
G1 X90.044 Y131.639 E10.55012
G1 X88.581 Y131.794 E10.60394
G1 X87.945 Y131.821 E10.62723
G1 X87.311 Y131.768 E10.65051
G1 X86.717 Y131.642 E10.67273
G1 X86.05 Y131.699 E10.69722
G1 X85.414 Y131.713 E10.72049
G1 X84.782 Y131.647 E10.74374
G1 X84.742 Y131.638 E10.74524
G1 X84.686 Y131.659 E10.74743
G1 X84.068 Y131.809 E10.7707
G1 X83.436 Y131.88 E10.79396
G1 X82.947 Y131.88 E10.81185
G1 X80.746 Y131.776 E10.89247
G1 X80.114 Y131.706 E10.91573
G1 X79.871 Y131.652 E10.92484
G1 X79.27 Y131.777 E10.9473
G1 X78.553 Y131.828 E10.9736
G1 X77.901 Y131.828 E10.99745
G1 X77.266 Y131.788 E11.02073
G1 X76.642 Y131.669 E11.04397
G1 X76.345 Y131.572 E11.0554
G1 X76.28 Y131.575 E11.05778
G1 X75.628 Y131.575 E11.08164
G1 X75.125 Y131.543 E11.10008
G1 X74.575 Y131.649 E11.12057
G1 X73.94 Y131.69 E11.14385
G1 X73.666 Y131.679 E11.15388
G1 X73.138 Y131.842 E11.1741
G1 X72.512 Y131.952 E11.19735
G1 X72.132 Y131.981 E11.2113
G1 X71.446 Y132.006 E11.23641
G1 X70.811 Y131.989 E11.25965
G1 X70.182 Y131.892 E11.28294
G1 X69.57 Y131.718 E11.30622
G1 X69.443 Y131.664 E11.31127
G1 X69.422 Y131.665 E11.31203
G1 X68.788 Y131.626 E11.33527
G1 X68.746 Y131.619 E11.33683
G1 X68.646 Y131.638 E11.34056
G1 X68.003 Y131.679 E11.36413
G1 X67.401 Y131.679 E11.38615
G1 X67.33 Y131.708 E11.38896
G1 X66.716 Y131.873 E11.41222
G1 X66.041 Y131.963 E11.43713
G1 X65.325 Y132.01 E11.46339
G1 X64.69 Y132.012 E11.48662
G1 X64.058 Y131.934 E11.50992
G1 X63.442 Y131.777 E11.53317
G1 X63.241 Y131.698 E11.54108
G1 X62.752 Y131.729 E11.559
G1 X62.1 Y131.729 E11.58286
G1 X61.465 Y131.689 E11.60613
G1 X61.381 Y131.673 E11.60926
G1 X61.188 Y131.71 E11.61645
G1 X60.547 Y131.751 E11.63995
G1 X59.895 Y131.751 E11.66381
G1 X59.705 Y131.739 E11.67077
G1 X59.538 Y131.797 E11.67724
G1 X58.916 Y131.928 E11.7005
G1 X58.186 Y131.981 E11.72727
G1 X57.534 Y131.981 E11.75113
G1 X56.899 Y131.941 E11.77441
G1 X56.275 Y131.822 E11.79765
G1 X56.157 Y131.784 E11.80218
G1 X55.637 Y131.817 E11.82125
G1 X54.985 Y131.817 E11.8451
G1 X54.35 Y131.777 E11.86838
G1 X53.99 Y131.708 E11.88179
G1 X53.49 Y131.695 E11.90009
G1 X52.856 Y131.638 E11.92338
G1 X52.753 Y131.616 E11.92723
G1 X52.34 Y131.695 E11.94261
G1 X51.699 Y131.736 E11.96611
G1 X51.047 Y131.736 E11.98997
G1 X50.412 Y131.696 E12.01325
G1 X50.365 Y131.687 E12.015
G1 X50.252 Y131.724 E12.01935
G1 X49.628 Y131.844 E12.0426
G1 X48.993 Y131.885 E12.06588
G1 X48.655 Y131.874 E12.07825
G1 X47.94 Y131.827 E12.10446
G1 X47.309 Y131.746 E12.12774
G1 X46.869 Y131.631 E12.14438
G1 X46.547 Y131.714 E12.15654
G1 X46.416 Y131.73 E12.16137
G1 X46.26 Y131.823 E12.16802
G1 X45.676 Y132.075 E12.19129
G1 X45.065 Y132.252 E12.21456
G1 X44.437 Y132.351 E12.23782
G1 X43.965 Y132.373 E12.25511
G1 X43.304 Y132.373 E12.27929
G1 X42.669 Y132.333 E12.30257
G1 X42.045 Y132.214 E12.32581
G1 X41.44 Y132.017 E12.34909
G1 X40.865 Y131.746 E12.37235
G1 X40.323 Y131.402 E12.39583
G1 X39.788 Y131.012 E12.42006
G1 X39.299 Y130.606 E12.44331
G1 X38.864 Y130.141 E12.4666
G1 X38.492 Y129.626 E12.48985
G1 X38.186 Y129.068 E12.51313
G1 X37.957 Y128.489 E12.53591
G1 X37.753 Y127.862 E12.56003
G1 X37.595 Y127.246 E12.5833
G1 X37.515 Y126.615 E12.60657
G1 X37.515 Y125.979 E12.62984
G1 X37.595 Y125.348 E12.65311
G1 X37.613 Y125.277 E12.65579
G1 X37.481 Y124.855 E12.67197
G1 X37.37 Y124.229 E12.69523
G1 X37.337 Y123.593 E12.71853
G1 X37.344 Y123.496 E12.72209
G1 X37.118 Y122.923 E12.74462
G1 X36.917 Y122.304 E12.76843
G1 X36.759 Y121.688 E12.7917
G1 X36.68 Y121.057 E12.81497
G1 X36.68 Y120.421 E12.83823
G1 X36.804 Y119.582 E12.86926
G1 X37.349 Y117.265 E12.95635
G1 X37.534 Y116.657 E12.9796
G1 X37.567 Y116.582 E12.9826
G1 X37.566 Y116.571 E12.983
G1 X37.57 Y115.935 E13.00627
G1 X37.653 Y115.305 E13.02952
G1 X37.814 Y114.689 E13.05281
G1 X38.051 Y114.099 E13.07607
G1 X38.293 Y113.665 E13.09425
G1 X38.144 Y113.446 E13.10395
G1 X37.856 Y112.879 E13.12721
G1 X37.64 Y112.281 E13.15047
G1 X37.502 Y111.66 E13.17375
G1 X37.44 Y110.871 E13.2027
G1 X37.44 Y110.022 E13.23377
G1 X37.48 Y109.387 E13.25704
G1 X37.599 Y108.763 E13.28029
G1 X37.796 Y108.158 E13.30356
G1 X38.067 Y107.583 E13.32682
G1 X38.408 Y107.046 E13.35009
G1 X38.922 Y106.444 E13.37905
G1 X39.051 Y106.315 E13.38573
G1 X39.528 Y105.895 E13.40898
G1 X39.978 Y105.588 E13.42891
G0 F810 X40.054 Y105.537
G0 X40.621 Y105.249
M204 S5000
M205 X30 Y30
G0 F7200 X40.87 Y105.621
M204 S500
M205 X20 Y20
G1 F6000 E13.45551
G1 F900 X41.446 Y105.427 E13.47775
G1 X42.042 Y105.31 E13.49997
G1 X42.629 Y105.273 E13.52149
G1 X192.371 Y105.274 E18.99997
G1 X192.977 Y105.314 E19.02219
G1 X193.573 Y105.433 E19.04442
G1 X194.148 Y105.629 E19.06665
G1 X194.692 Y105.9 E19.08889
G1 X195.197 Y106.239 E19.11114
G1 X195.638 Y106.627 E19.13263
G1 X195.767 Y106.756 E19.1393
G1 X196.167 Y107.213 E19.16152
G1 X196.504 Y107.719 E19.18377
G1 X196.772 Y108.264 E19.20599
G1 X196.966 Y108.84 E19.22822
G1 X197.083 Y109.436 E19.25044
G1 X197.12 Y110.023 E19.27196
G1 X197.12 Y110.871 E19.30299
G1 X197.08 Y111.477 E19.32521
G1 X196.961 Y112.073 E19.34744
G1 X196.765 Y112.648 E19.36967
G1 X196.494 Y113.192 E19.3919
G1 X196.155 Y113.697 E19.41416
G1 X195.874 Y114.016 E19.42971
G1 X196.091 Y114.251 E19.44141
G1 X196.439 Y114.748 E19.46361
G1 X196.72 Y115.287 E19.48585
G1 X196.947 Y115.929 E19.51076
G1 X197.131 Y116.602 E19.53629
G1 X197.253 Y117.197 E19.55851
G1 X197.295 Y117.803 E19.58074
G1 X197.257 Y118.41 E19.60299
G1 X197.162 Y118.921 E19.622
G1 X196.989 Y119.626 E19.64856
G1 X196.806 Y120.205 E19.67078
G1 X196.758 Y120.309 E19.67497
G1 X196.797 Y120.778 E19.69219
G1 X196.841 Y120.905 E19.6971
G1 X197 Y121.491 E19.71932
G1 X197.081 Y122.093 E19.74154
G1 X197.083 Y122.701 E19.76379
G1 X197.004 Y123.303 E19.786
G1 X196.865 Y123.836 E19.80615
G1 X196.707 Y124.323 E19.82488
G1 X196.791 Y124.597 E19.83537
G1 X196.892 Y125.196 E19.85759
G1 X196.914 Y125.803 E19.87982
G1 X196.856 Y126.408 E19.90205
G1 X196.69 Y127.092 E19.9278
G1 X196.489 Y127.711 E19.95161
G1 X196.264 Y128.275 E19.97383
G1 X195.967 Y128.805 E19.99606
G1 X195.602 Y129.291 E20.0183
G1 X195.177 Y129.726 E20.04055
G1 X194.817 Y130.017 E20.05748
G1 X194.289 Y130.402 E20.08139
G1 X193.776 Y130.727 E20.10361
G1 X193.224 Y130.982 E20.12585
G1 X192.644 Y131.162 E20.14807
G1 X192.045 Y131.264 E20.1703
G1 X191.282 Y131.28 E20.19822
G1 X190.571 Y131.236 E20.22429
G1 X190.163 Y131.184 E20.23933
G1 X190.036 Y131.224 E20.24421
G1 X189.437 Y131.33 E20.26646
G1 X189.047 Y131.356 E20.28076
G1 X188.036 Y131.38 E20.31776
G1 X187.429 Y131.354 E20.33999
G1 X187.098 Y131.306 E20.35223
G1 X186.593 Y131.214 E20.37101
G1 X186.411 Y131.245 E20.37776
G1 X185.933 Y131.27 E20.39527
G1 X185.281 Y131.27 E20.41913
G1 X185.208 Y131.265 E20.4218
G1 X184.955 Y131.382 E20.432
G1 X184.375 Y131.562 E20.45422
G1 X183.776 Y131.664 E20.47645
G1 X183.298 Y131.689 E20.49396
G1 X182.646 Y131.689 E20.51782
G1 X182.04 Y131.649 E20.54004
G1 X181.444 Y131.53 E20.56227
G1 X181.166 Y131.443 E20.57293
G1 X180.817 Y131.445 E20.5857
G1 X179.516 Y131.331 E20.63348
G1 X179.047 Y131.259 E20.65084
G1 X178.647 Y131.38 E20.66613
G1 X178.047 Y131.477 E20.68836
G1 X177.608 Y131.498 E20.70444
G1 X176.956 Y131.498 E20.7283
G1 X176.35 Y131.458 E20.75052
G1 X175.754 Y131.339 E20.77275
G1 X175.456 Y131.237 E20.78428
G1 X174.661 Y131.257 E20.81337
G1 X174.054 Y131.232 E20.8356
G1 X173.969 Y131.217 E20.83876
G1 X173.853 Y131.253 E20.8432
G1 X173.043 Y131.372 E20.87315
G1 X171.54 Y131.459 E20.92823
G1 X170.815 Y131.444 E20.95477
G1 X170.438 Y131.406 E20.96863
G1 X169.929 Y131.479 E20.98744
G1 X168.205 Y131.561 E21.05059
G1 X167.598 Y131.55 E21.0728
G1 X167.156 Y131.483 E21.08915
G1 X166.596 Y131.627 E21.11031
G1 X165.999 Y131.74 E21.13254
G1 X165.458 Y131.773 E21.15237
G1 X164.393 Y131.776 E21.19133
G1 X163.787 Y131.738 E21.21355
G1 X163.19 Y131.62 E21.23581
G1 X162.615 Y131.426 E21.25801
G1 X162.432 Y131.336 E21.26548
G1 X162.199 Y131.433 E21.27471
G1 X161.612 Y131.593 E21.29697
G1 X161.052 Y131.67 E21.31765
