;FLAVOR:Marlin
;TIME:1811
;Filament used: 1.40952m
;Layer height: 0.16
;Generated with Cura_SteamEngine 3.6.0
M140 S70
M105
M190 S70
M104 S215
M105
M109 S215
M82 ;absolute extrusion mode
G28 ; home all axes
M117 Purge extruder
G92 E0 ; reset extruder
G1 Z1.0 F3000 ; move z up little to prevent scratching of surface
G1 X0.1 Y20 Z0.3 F5000.0 ; move to start-line position G1 X0.1 Y200.0 Z0.3 F1500.0 E15 ; draw 1st line
G1 X0.4 Y200.0 Z0.3 F5000.0 ; move to side a little
G1 X0.4 Y20 Z0.3 F1500.0 E30 ; draw 2nd line
G92 E0 ; reset extruder
G1 Z1.0 F3000 ; move z up little to prevent scratching of surface
M117 All systems go!
G92 E0
G1 F6000 E-5
;LAYER_COUNT:63
;LAYER:0
M107
M204 S5000
M205 X30 Y30
G0 F7200 X99.051 Y106.315 Z0.2
M204 S500
M205 X20 Y20
;TYPE:SKIRT
G1 F6000 E0
G1 F900 X99.528 Y105.895 E0.02325
G1 X100.054 Y105.537 E0.04653
G1 X100.621 Y105.249 E0.0698
G1 X101.219 Y105.033 E0.09306
G1 X101.84 Y104.895 E0.11633
G1 X102.629 Y104.833 E0.14529
G1 X132.371 Y104.834 E1.23344
G1 X133.006 Y104.874 E1.25671
G1 X133.63 Y104.993 E1.27995
G1 X134.235 Y105.19 E1.30323
G1 X134.811 Y105.461 E1.32652
G1 X135.347 Y105.802 E1.34976
G1 X135.949 Y106.316 E1.37873
G1 X136.078 Y106.445 E1.3854
G1 X136.498 Y106.922 E1.40865
G1 X136.856 Y107.448 E1.43193
G1 X137.144 Y108.015 E1.4552
G1 X137.36 Y108.613 E1.47846
G1 X137.498 Y109.234 E1.50173
G1 X137.56 Y110.023 E1.53069
G1 X137.56 Y110.871 E1.56172
G1 X137.52 Y111.506 E1.58499
G1 X137.401 Y112.13 E1.60823
G1 X137.204 Y112.735 E1.63151
G1 X136.933 Y113.31 E1.65477
G1 X136.873 Y113.404 E1.65885
G1 X136.974 Y113.543 E1.66514
G1 X137.28 Y114.1 E1.68839
G1 X137.513 Y114.692 E1.71166
G1 X137.671 Y115.308 E1.73493
G1 X137.76 Y116.252 E1.76962
G1 X137.76 Y127.582 E2.18414
G1 X137.72 Y128.217 E2.20742
G1 X137.601 Y128.841 E2.23066
G1 X137.404 Y129.446 E2.25394
G1 X137.133 Y130.021 E2.2772
G1 X136.792 Y130.558 E2.30047
G1 X136.278 Y131.16 E2.32943
G1 X136.032 Y131.406 E2.34216
G1 X135.555 Y131.826 E2.36541
G1 X135.029 Y132.184 E2.38869
G1 X134.462 Y132.472 E2.41196
G1 X133.864 Y132.688 E2.43522
G1 X133.243 Y132.826 E2.45849
G1 X132.454 Y132.888 E2.48745
G1 X102.546 Y132.887 E3.58167
G1 X101.911 Y132.847 E3.60494
G1 X101.287 Y132.728 E3.62819
G1 X100.682 Y132.531 E3.65146
G1 X100.106 Y132.26 E3.67475
G1 X99.57 Y131.919 E3.698
G1 X98.968 Y131.405 E3.72696
G1 X98.722 Y131.159 E3.73969
G1 X98.302 Y130.682 E3.76294
G1 X97.944 Y130.156 E3.78622
G1 X97.656 Y129.589 E3.80948
G1 X97.44 Y128.991 E3.83275
G1 X97.302 Y128.37 E3.85602
G1 X97.24 Y127.581 E3.88498
G1 X97.24 Y116.26 E4.29917
G1 X97.28 Y115.625 E4.32245
G1 X97.399 Y115.001 E4.34569
G1 X97.596 Y114.396 E4.36896
G1 X97.867 Y113.821 E4.39222
G1 X98.127 Y113.412 E4.40995
G1 X97.856 Y112.879 E4.43183
G1 X97.64 Y112.281 E4.45509
G1 X97.502 Y111.66 E4.47836
G1 X97.44 Y110.871 E4.50732
G1 X97.44 Y110.022 E4.53838
G1 X97.48 Y109.387 E4.56166
G1 X97.599 Y108.763 E4.5849
G1 X97.796 Y108.158 E4.60818
G1 X98.067 Y107.583 E4.63144
G1 X98.408 Y107.046 E4.65471
G1 X98.568 Y106.858 E4.66374
G0 F810 X98.922 Y106.444
G0 X99.051 Y106.315
M204 S5000
M205 X30 Y30
G0 F7200 X99.362 Y106.626
M204 S500
M205 X20 Y20
G1 F6000 E4.69034
G1 F900 X99.819 Y106.226 E4.71256
G1 X100.325 Y105.889 E4.7348
G1 X100.87 Y105.621 E4.75702
G1 X101.446 Y105.427 E4.77926
G1 X102.042 Y105.31 E4.80148
G1 X102.629 Y105.273 E4.823
G1 X132.371 Y105.274 E5.91114
G1 X132.977 Y105.314 E5.93336
G1 X133.573 Y105.433 E5.9556
G1 X134.148 Y105.63 E5.97784
G1 X134.693 Y105.9 E6.00009
G1 X135.197 Y106.239 E6.02231
G1 X135.638 Y106.627 E6.0438
G1 X135.767 Y106.756 E6.05048
G1 X136.167 Y107.213 E6.0727
G1 X136.504 Y107.719 E6.09494
G1 X136.772 Y108.264 E6.11716
G1 X136.966 Y108.84 E6.1394
G1 X137.083 Y109.436 E6.16162
G1 X137.12 Y110.023 E6.18314
G1 X137.12 Y110.871 E6.21416
G1 X137.08 Y111.477 E6.23638
G1 X136.961 Y112.073 E6.25862
G1 X136.765 Y112.648 E6.28084
G1 X136.494 Y113.192 E6.30308
G1 X136.344 Y113.416 E6.31294
G1 X136.379 Y113.457 E6.31491
G1 X136.714 Y113.964 E6.33715
G1 X136.979 Y114.51 E6.35935
G1 X137.171 Y115.087 E6.3816
G1 X137.285 Y115.684 E6.40383
G1 X137.32 Y116.252 E6.42466
G1 X137.32 Y127.582 E6.83918
G1 X137.28 Y128.188 E6.8614
G1 X137.161 Y128.784 E6.88363
G1 X136.965 Y129.359 E6.90586
G1 X136.694 Y129.903 E6.92809
G1 X136.355 Y130.408 E6.95035
G1 X135.967 Y130.849 E6.97184
G1 X135.721 Y131.095 E6.98456
G1 X135.264 Y131.495 E7.00678
G1 X134.758 Y131.832 E7.02903
G1 X134.213 Y132.1 E7.05125
G1 X133.637 Y132.294 E7.07348
G1 X133.041 Y132.411 E7.0957
G1 X132.454 Y132.448 E7.11722
G1 X102.546 Y132.447 E8.21144
G1 X101.94 Y132.407 E8.23366
G1 X101.344 Y132.288 E8.2559
G1 X100.769 Y132.091 E8.27813
G1 X100.224 Y131.821 E8.30039
G1 X99.72 Y131.482 E8.32261
G1 X99.279 Y131.094 E8.3441
G1 X99.033 Y130.848 E8.35683
G1 X98.633 Y130.391 E8.37905
G1 X98.296 Y129.885 E8.40129
G1 X98.028 Y129.34 E8.42351
G1 X97.834 Y128.764 E8.44575
G1 X97.717 Y128.168 E8.46797
G1 X97.68 Y127.581 E8.48949
G1 X97.68 Y116.26 E8.90368
G1 X97.72 Y115.654 E8.9259
G1 X97.839 Y115.058 E8.94813
G1 X98.035 Y114.483 E8.97036
G1 X98.306 Y113.939 E8.9926
G1 X98.645 Y113.434 E9.01485
G1 X98.658 Y113.419 E9.01557
G1 X98.496 Y113.175 E9.02629
G1 X98.228 Y112.63 E9.04851
G1 X98.034 Y112.054 E9.07075
G1 X97.917 Y111.458 E9.09297
G1 X97.88 Y110.871 E9.11449
G1 X97.88 Y110.022 E9.14555
G1 X97.92 Y109.416 E9.16777
G1 X98.039 Y108.82 E9.19
G1 X98.235 Y108.245 E9.21223
G1 X98.506 Y107.701 E9.23446
G1 X98.845 Y107.196 E9.25672
G1 X98.873 Y107.164 E9.25827
G0 F810 X99.233 Y106.755
G0 X99.362 Y106.626
M204 S5000
M205 X30 Y30
G0 F7200 X99.673 Y106.937
M204 S500
M205 X20 Y20
G1 F6000 E9.28487
G1 F900 X100.109 Y106.558 E9.30601
G1 X100.593 Y106.242 E9.32716
G1 X101.116 Y105.996 E9.3483
G1 X101.668 Y105.825 E9.36944
G1 X102.239 Y105.731 E9.39061
G1 X102.629 Y105.713 E9.4049
G1 X132.371 Y105.714 E10.49304
G1 X132.948 Y105.754 E10.5142
G1 X133.513 Y105.873 E10.53533
G1 X134.057 Y106.069 E10.55648
G1 X134.568 Y106.338 E10.57761
G1 X135.038 Y106.675 E10.59877
G1 X135.327 Y106.938 E10.61307
G1 X135.456 Y107.067 E10.61974
G1 X135.835 Y107.503 E10.64088
G1 X136.151 Y107.987 E10.66203
G1 X136.397 Y108.51 E10.68317
G1 X136.568 Y109.062 E10.70431
G1 X136.662 Y109.633 E10.72549
G1 X136.68 Y110.023 E10.73977
G1 X136.68 Y110.871 E10.77079
G1 X136.64 Y111.448 E10.79196
G1 X136.521 Y112.013 E10.81308
G1 X136.325 Y112.557 E10.83424
G1 X136.056 Y113.068 E10.85536
G1 X135.79 Y113.439 E10.87206
G1 X136.144 Y113.883 E10.89284
G1 X136.438 Y114.381 E10.914
G1 X136.66 Y114.914 E10.93512
G1 X136.807 Y115.473 E10.95627
G1 X136.88 Y116.252 E10.98489
G1 X136.88 Y127.582 E11.39942
G1 X136.84 Y128.159 E11.42058
G1 X136.721 Y128.724 E11.4417
G1 X136.525 Y129.268 E11.46286
G1 X136.256 Y129.779 E11.48398
G1 X135.919 Y130.249 E11.50514
G1 X135.656 Y130.538 E11.51944
G1 X135.41 Y130.784 E11.53217
G1 X134.974 Y131.163 E11.5533
G1 X134.49 Y131.479 E11.57445
G1 X133.967 Y131.725 E11.5956
G1 X133.415 Y131.896 E11.61674
G1 X132.844 Y131.99 E11.63791
G1 X132.454 Y132.008 E11.6522
G1 X102.546 Y132.007 E12.74641
G1 X101.969 Y131.967 E12.76757
G1 X101.404 Y131.848 E12.7887
G1 X100.86 Y131.652 E12.80985
G1 X100.349 Y131.383 E12.83098
G1 X99.879 Y131.046 E12.85214
G1 X99.59 Y130.783 E12.86644
G1 X99.344 Y130.537 E12.87917
G1 X98.965 Y130.101 E12.9003
G1 X98.649 Y129.617 E12.92145
G1 X98.403 Y129.094 E12.94259
G1 X98.232 Y128.542 E12.96374
G1 X98.138 Y127.971 E12.98491
G1 X98.12 Y127.581 E12.99919
G1 X98.12 Y116.26 E13.41338
G1 X98.16 Y115.683 E13.43455
G1 X98.279 Y115.118 E13.45567
G1 X98.475 Y114.574 E13.47683
G1 X98.744 Y114.063 E13.49795
G1 X99.081 Y113.593 E13.51911
G1 X99.217 Y113.451 E13.52631
G1 X99.165 Y113.391 E13.52921
G1 X98.849 Y112.907 E13.55036
G1 X98.603 Y112.384 E13.5715
G1 X98.432 Y111.832 E13.59265
G1 X98.338 Y111.261 E13.61382
G1 X98.32 Y110.871 E13.6281
G1 X98.32 Y110.022 E13.65916
G1 X98.36 Y109.445 E13.68032
G1 X98.479 Y108.88 E13.70145
G1 X98.675 Y108.336 E13.7226
G1 X98.944 Y107.825 E13.74373
G1 X99.191 Y107.481 E13.75923
G0 F810 X99.281 Y107.355
G0 X99.544 Y107.066
G0 X99.673 Y106.937
M204 S5000
M205 X30 Y30
G0 F7200 X99.984 Y107.248
M204 S500
M205 X20 Y20
G1 F6000 E13.78582
G1 F900 X100.398 Y106.891 E13.80582
G1 X100.86 Y106.598 E13.82584
G1 X101.359 Y106.375 E13.84584
G1 X101.885 Y106.228 E13.86582
G1 X102.629 Y106.153 E13.89318
G1 X132.371 Y106.154 E14.98132
G1 X132.916 Y106.194 E15.00131
G1 X133.45 Y106.313 E15.02133
G1 X133.96 Y106.508 E15.04131
G1 X134.437 Y106.776 E15.06132
G1 X135.016 Y107.249 E15.08868
G1 X135.145 Y107.378 E15.09535
G1 X135.502 Y107.792 E15.11535
G1 X135.795 Y108.254 E15.13537
G1 X136.018 Y108.753 E15.15537
G1 X136.165 Y109.279 E15.17535
G1 X136.24 Y110.023 E15.2027
G1 X136.24 Y110.871 E15.23373
G1 X136.2 Y111.416 E15.25372
G1 X136.081 Y111.95 E15.27374
G1 X135.886 Y112.46 E15.29372
G1 X135.618 Y112.937 E15.31373
G1 X135.189 Y113.462 E15.33854
G1 X135.197 Y113.468 E15.3389
G1 X135.576 Y113.862 E15.35891
G1 X135.894 Y114.307 E15.37892
G1 X136.144 Y114.793 E15.39891
G1 X136.32 Y115.31 E15.41889
G1 X136.418 Y115.848 E15.4389
G1 X136.44 Y116.252 E15.4537
G1 X136.44 Y127.582 E15.86822
G1 X136.4 Y128.127 E15.88822
G1 X136.281 Y128.661 E15.90823
G1 X136.086 Y129.171 E15.92821
G1 X135.818 Y129.648 E15.94823
G1 X135.345 Y130.227 E15.97558
G1 X135.099 Y130.473 E15.98831
G1 X134.685 Y130.83 E16.00831
G1 X134.223 Y131.123 E16.02832
G1 X133.724 Y131.346 E16.04832
G1 X133.198 Y131.493 E16.0683
G1 X132.454 Y131.568 E16.09566
G1 X102.546 Y131.567 E17.18988
G1 X102.001 Y131.527 E17.20987
G1 X101.467 Y131.408 E17.22989
G1 X100.957 Y131.213 E17.24986
G1 X100.48 Y130.945 E17.26988
G1 X99.901 Y130.472 E17.29724
G1 X99.655 Y130.226 E17.30996
G1 X99.298 Y129.812 E17.32996
G1 X99.005 Y129.35 E17.34998
G1 X98.782 Y128.851 E17.36998
G1 X98.635 Y128.325 E17.38996
G1 X98.56 Y127.581 E17.41732
G1 X98.56 Y116.26 E17.83151
G1 X98.6 Y115.715 E17.8515
G1 X98.719 Y115.181 E17.87152
G1 X98.914 Y114.671 E17.89149
G1 X99.182 Y114.194 E17.91151
G1 X99.517 Y113.762 E17.93151
G1 X99.817 Y113.472 E17.94678
G1 X99.498 Y113.102 E17.96465
G1 X99.205 Y112.64 E17.98467
G1 X98.982 Y112.141 E18.00466
G1 X98.835 Y111.615 E18.02464
G1 X98.76 Y110.871 E18.052
G1 X98.76 Y110.022 E18.08306
G1 X98.8 Y109.477 E18.10306
G1 X98.919 Y108.943 E18.12307
G1 X99.114 Y108.433 E18.14305
G1 X99.382 Y107.956 E18.16307
G1 X99.51 Y107.799 E18.17048
G0 F810 X99.855 Y107.377
G0 X99.984 Y107.248
M204 S5000
M205 X30 Y30
G0 F7200 X100.296 Y107.56
M204 S500
M205 X20 Y20
G1 F6000 E18.19708
G1 F900 X100.686 Y107.226 E18.21586
G1 X101.123 Y106.957 E18.23464
G1 X101.597 Y106.759 E18.25343
G1 X102.095 Y106.636 E18.2722
G1 X102.629 Y106.593 E18.2918
G1 X132.371 Y106.594 E19.37994
G1 X132.883 Y106.634 E19.39873
G1 X133.382 Y106.753 E19.4175
G1 X133.857 Y106.948 E19.43629
G1 X134.296 Y107.214 E19.45507
G1 X134.704 Y107.561 E19.47466
G1 X134.833 Y107.69 E19.48134
G1 X135.167 Y108.08 E19.50012
G1 X135.436 Y108.517 E19.5189
G1 X135.634 Y108.991 E19.53769
G1 X135.757 Y109.489 E19.55646
G1 X135.8 Y110.023 E19.57606
G1 X135.8 Y110.871 E19.60708
G1 X135.76 Y111.383 E19.62587
G1 X135.641 Y111.882 E19.64464
G1 X135.446 Y112.357 E19.66343
G1 X135.18 Y112.796 E19.68221
G1 X134.833 Y113.204 E19.7018
G1 X134.704 Y113.333 E19.70848
G1 X134.509 Y113.5 E19.71787
G1 X134.625 Y113.571 E19.72285
G1 X135.017 Y113.902 E19.74162
G1 X135.354 Y114.29 E19.76042
G1 X135.626 Y114.726 E19.77922
G1 X135.827 Y115.198 E19.79799
G1 X135.953 Y115.696 E19.81678
G1 X136 Y116.252 E19.8372
G1 X136 Y127.582 E20.25172
G1 X135.96 Y128.094 E20.27051
G1 X135.841 Y128.593 E20.28928
G1 X135.646 Y129.068 E20.30806
G1 X135.38 Y129.507 E20.32684
G1 X135.033 Y129.915 E20.34644
G1 X134.787 Y130.161 E20.35917
G1 X134.397 Y130.495 E20.37795
G1 X133.96 Y130.764 E20.39673
G1 X133.486 Y130.962 E20.41552
G1 X132.988 Y131.085 E20.43429
G1 X132.454 Y131.128 E20.45389
G1 X102.546 Y131.127 E21.54811
G1 X102.034 Y131.087 E21.5669
G1 X101.535 Y130.968 E21.58566
G1 X101.06 Y130.773 E21.60445
G1 X100.621 Y130.507 E21.62323
G1 X100.213 Y130.16 E21.64283
G1 X99.967 Y129.914 E21.65555
G1 X99.633 Y129.524 E21.67434
G1 X99.364 Y129.087 E21.69311
G1 X99.166 Y128.613 E21.71191
G1 X99.043 Y128.115 E21.73068
G1 X99 Y127.581 E21.75028
G1 X99 Y116.26 E22.16447
G1 X99.04 Y115.748 E22.18326
G1 X99.159 Y115.249 E22.20203
G1 X99.354 Y114.774 E22.22081
G1 X99.62 Y114.335 E22.23959
G1 X99.951 Y113.942 E22.25839
G1 X100.339 Y113.606 E22.27717
G1 X100.499 Y113.506 E22.28407
G1 X100.296 Y113.333 E22.29383
G1 X100.167 Y113.204 E22.3005
G1 X99.833 Y112.814 E22.31929
G1 X99.564 Y112.377 E22.33806
G1 X99.366 Y111.903 E22.35686
G1 X99.243 Y111.405 E22.37563
G1 X99.2 Y110.871 E22.39523
G1 X99.2 Y110.022 E22.42629
G1 X99.24 Y109.51 E22.44508
G1 X99.359 Y109.011 E22.46385
G1 X99.554 Y108.536 E22.48263
G1 X99.815 Y108.105 E22.50107
G0 F810 X99.82 Y108.097
G0 X100.167 Y107.689
G0 X100.296 Y107.56
M204 S5000
M205 X30 Y30
G0 F7200 X100.607 Y107.871
M204 S500
M205 X20 Y20
G1 F6000 E22.52766
G1 F900 X100.972 Y107.562 E22.54516
G1 X101.383 Y107.319 E22.56263
G1 X101.829 Y107.147 E22.58012
G1 X102.297 Y107.052 E22.59759
G1 X102.629 Y107.033 E22.60976
G1 X132.371 Y107.034 E23.6979
G1 X132.847 Y107.074 E23.71538
G1 X133.31 Y107.193 E23.73287
G1 X133.747 Y107.387 E23.75036
G1 X134.145 Y107.651 E23.76783
G1 X134.393 Y107.872 E23.77999
G1 X134.522 Y108.001 E23.78666
G1 X134.831 Y108.366 E23.80416
G1 X135.074 Y108.777 E23.82163
G1 X135.246 Y109.223 E23.83912
G1 X135.341 Y109.691 E23.85659
G1 X135.36 Y110.023 E23.86875
G1 X135.36 Y110.871 E23.89978
G1 X135.32 Y111.347 E23.91725
G1 X135.201 Y111.81 E23.93474
G1 X135.007 Y112.247 E23.95224
G1 X134.743 Y112.645 E23.96971
G1 X134.522 Y112.893 E23.98186
G1 X134.393 Y113.022 E23.98854
G1 X134.028 Y113.331 E24.00604
G1 X133.649 Y113.555 E24.02214
G1 X134.075 Y113.744 E24.03919
G1 X134.474 Y114.008 E24.0567
G1 X134.822 Y114.335 E24.07417
G1 X135.112 Y114.715 E24.09166
G1 X135.334 Y115.138 E24.10913
G1 X135.483 Y115.593 E24.12665
G1 X135.56 Y116.252 E24.15093
G1 X135.56 Y127.582 E24.56545
G1 X135.52 Y128.058 E24.58292
G1 X135.401 Y128.521 E24.60041
G1 X135.207 Y128.958 E24.61791
G1 X134.943 Y129.356 E24.63538
G1 X134.722 Y129.604 E24.64753
G1 X134.476 Y129.85 E24.66026
G1 X134.111 Y130.159 E24.67776
G1 X133.7 Y130.402 E24.69523
G1 X133.254 Y130.574 E24.71271
G1 X132.786 Y130.669 E24.73019
G1 X132.454 Y130.688 E24.74235
G1 X102.546 Y130.687 E25.83657
G1 X102.07 Y130.647 E25.85405
G1 X101.607 Y130.528 E25.87154
G1 X101.17 Y130.334 E25.88903
G1 X100.772 Y130.07 E25.9065
G1 X100.524 Y129.849 E25.91866
G1 X100.278 Y129.603 E25.93139
G1 X99.969 Y129.238 E25.94888
G1 X99.726 Y128.827 E25.96635
G1 X99.554 Y128.381 E25.98384
G1 X99.459 Y127.913 E26.00131
G1 X99.44 Y127.581 E26.01348
G1 X99.44 Y116.26 E26.42767
G1 X99.48 Y115.784 E26.44515
G1 X99.599 Y115.321 E26.46264
G1 X99.793 Y114.884 E26.48013
G1 X100.057 Y114.486 E26.4976
G1 X100.384 Y114.137 E26.5151
G1 X100.764 Y113.848 E26.53257
G1 X101.187 Y113.625 E26.55006
G1 X101.378 Y113.563 E26.55741
G1 X101.253 Y113.507 E26.56242
G1 X100.855 Y113.243 E26.57989
G1 X100.607 Y113.022 E26.59205
G1 X100.478 Y112.893 E26.59872
G1 X100.169 Y112.528 E26.61622
G1 X99.926 Y112.117 E26.63369
G1 X99.754 Y111.671 E26.65117
G1 X99.659 Y111.203 E26.66865
G1 X99.64 Y110.871 E26.68081
G1 X99.64 Y110.022 E26.71187
G1 X99.68 Y109.546 E26.72935
G1 X99.799 Y109.083 E26.74684
G1 X99.993 Y108.646 E26.76433
G1 X100.14 Y108.425 E26.77404
G0 F810 X100.257 Y108.248
G0 X100.478 Y108
G0 X100.607 Y107.871
M204 S5000
M205 X30 Y30
G0 F7200 X100.918 Y108.182
M204 S500
M205 X20 Y20
G1 F6000 E26.80064
G1 F900 X101.256 Y107.901 E26.81672
G1 X101.639 Y107.685 E26.83281
G1 X102.054 Y107.542 E26.84887
G1 X102.629 Y107.473 E26.87006
G1 X132.371 Y107.474 E27.9582
G1 X132.809 Y107.514 E27.97429
G1 X133.232 Y107.632 E27.99036
G1 X133.627 Y107.825 E28.00645
G1 X134.082 Y108.183 E28.02763
G1 X134.211 Y108.312 E28.0343
G1 X134.492 Y108.65 E28.05038
G1 X134.708 Y109.033 E28.06647
G1 X134.851 Y109.448 E28.08253
G1 X134.92 Y110.023 E28.10372
G1 X134.92 Y110.871 E28.13474
G1 X134.88 Y111.309 E28.15083
G1 X134.762 Y111.732 E28.1669
G1 X134.569 Y112.127 E28.18299
