;FLAVOR:Marlin
;TIME:231
;Filament used: 0.0956674m
;Layer height: 0.16
;Generated with Cura_SteamEngine 3.6.0
M140 S70
M105
M190 S70
M104 S215
M105
M109 S215
M82 ;absolute extrusion mode
G28 ; home all axes
M117 Purge extruder
G92 E0 ; reset extruder
G1 Z1.0 F3000 ; move z up little to prevent scratching of surface
G1 X0.1 Y20 Z0.3 F5000.0 ; move to start-line position G1 X0.1 Y200.0 Z0.3 F1500.0 E15 ; draw 1st line
G1 X0.4 Y200.0 Z0.3 F5000.0 ; move to side a little
G1 X0.4 Y20 Z0.3 F1500.0 E30 ; draw 2nd line
G92 E0 ; reset extruder
G1 Z1.0 F3000 ; move z up little to prevent scratching of surface
M117 All systems go!
G92 E0
G1 F6000 E-5
;LAYER_COUNT:17
;LAYER:0
M107
M204 S5000
M205 X30 Y30
G0 F7200 X107.445 Y112.159 Z0.2
M204 S500
M205 X20 Y20
;TYPE:SKIRT
G1 F6000 E0
G1 F900 X107.911 Y111.727 E0.02325
G1 X108.452 Y111.342 E0.04754
G1 X108.807 Y111.123 E0.0628
G1 X109.368 Y110.823 E0.08608
G1 X109.963 Y110.597 E0.10936
G1 X110.581 Y110.447 E0.13263
G1 X111.213 Y110.375 E0.1559
G1 X111.848 Y110.384 E0.17914
G1 X112.466 Y110.469 E0.20196
G1 X112.981 Y110.573 E0.22118
G1 X113.595 Y110.738 E0.24444
G1 X114.183 Y110.978 E0.26768
G1 X114.737 Y111.291 E0.29096
G1 X114.838 Y111.366 E0.29556
G1 X114.872 Y111.348 E0.29697
G1 X114.959 Y111.224 E0.30251
G1 X115.386 Y110.752 E0.3258
G1 X115.869 Y110.339 E0.34905
G1 X116.4 Y109.989 E0.37232
G1 X117.219 Y109.612 E0.4053
G1 X117.43 Y109.537 E0.41349
G1 X118.042 Y109.362 E0.43678
G1 X118.67 Y109.265 E0.46003
G1 X119.306 Y109.248 E0.48331
G1 X119.939 Y109.311 E0.50658
G1 X120.559 Y109.452 E0.52984
G1 X121.156 Y109.671 E0.55311
G1 X121.955 Y110.11 E0.58646
G1 X123.129 Y110.902 E0.63828
G1 X123.633 Y111.29 E0.66155
G1 X124.084 Y111.739 E0.68483
G1 X124.475 Y112.24 E0.70808
G1 X124.801 Y112.786 E0.73135
G1 X125.055 Y113.369 E0.75461
G1 X125.234 Y113.979 E0.77787
G1 X125.245 Y114.045 E0.78032
G1 X125.845 Y114.07 E0.80229
G1 X126.472 Y114.174 E0.82554
G1 X127.081 Y114.357 E0.84881
G1 X127.662 Y114.615 E0.87207
G1 X128.207 Y114.943 E0.89534
G1 X128.475 Y115.142 E0.90755
G1 X128.597 Y115.239 E0.91325
G1 X129.069 Y115.666 E0.93654
G1 X129.484 Y116.148 E0.95981
G1 X129.835 Y116.678 E0.98307
G1 X130.116 Y117.248 E1.00632
G1 X130.324 Y117.849 E1.02959
G1 X130.455 Y118.471 E1.05284
G1 X130.506 Y119.059 E1.07444
G1 X130.527 Y119.812 E1.102
G1 X130.505 Y120.447 E1.12524
G1 X130.403 Y121.075 E1.14852
G1 X130.223 Y121.685 E1.17179
G1 X129.968 Y122.268 E1.19507
G1 X129.643 Y122.814 E1.21832
G1 X129.251 Y123.315 E1.24159
G1 X128.846 Y123.722 E1.2626
G1 X128.721 Y123.834 E1.26874
G1 X128.221 Y124.227 E1.292
G1 X127.676 Y124.555 E1.31528
G1 X127.095 Y124.812 E1.33852
G1 X126.486 Y124.995 E1.36178
G1 X125.858 Y125.099 E1.38507
G1 X125.326 Y125.125 E1.40456
G1 X123.863 Y125.12 E1.45809
G1 X123.64 Y125.561 E1.47617
G1 X123.285 Y126.089 E1.49944
G1 X122.867 Y126.568 E1.5227
G1 X122.392 Y126.991 E1.54597
G1 X121.867 Y127.35 E1.56924
G1 X121.649 Y127.462 E1.57821
G1 X121.485 Y127.594 E1.58591
G1 X120.944 Y127.928 E1.60917
G1 X120.162 Y128.262 E1.64028
G1 X119.701 Y128.415 E1.65806
G1 X119.086 Y128.577 E1.68132
G1 X118.456 Y128.661 E1.70458
G1 X117.82 Y128.665 E1.72785
G1 X117.188 Y128.589 E1.75113
G1 X116.997 Y128.541 E1.75834
G1 X116.455 Y128.487 E1.77827
G1 X115.835 Y128.345 E1.80154
G1 X115.334 Y128.162 E1.82105
G1 X115.06 Y128.1 E1.83133
G1 X114.969 Y128.125 E1.83478
G1 X114.347 Y128.256 E1.85804
G1 X113.732 Y128.305 E1.88061
G1 X113.307 Y128.385 E1.89643
G1 X112.672 Y128.422 E1.9197
G1 X112.229 Y128.392 E1.93595
G1 X112.163 Y128.399 E1.93838
G1 X111.527 Y128.387 E1.96165
G1 X110.955 Y128.307 E1.98278
G1 X110.441 Y128.205 E2.00195
G1 X109.826 Y128.042 E2.02523
G1 X109.237 Y127.804 E2.04847
G1 X108.682 Y127.493 E2.07175
G1 X108.242 Y127.175 E2.09161
G1 X107.764 Y126.788 E2.11411
G1 X107.296 Y126.357 E2.13739
G1 X106.885 Y125.872 E2.16065
G1 X106.413 Y125.1 E2.19375
G1 X106.156 Y124.581 E2.21494
G1 X105.911 Y123.995 E2.23818
G1 X105.74 Y123.382 E2.26146
G1 X105.648 Y122.753 E2.28472
G1 X105.646 Y122.663 E2.28801
G1 X105.546 Y122.559 E2.29329
G1 X105.166 Y122.048 E2.31659
G1 X104.887 Y121.56 E2.33716
G1 X104.495 Y120.778 E2.36916
G1 X104.246 Y120.192 E2.39246
G1 X104.073 Y119.58 E2.41572
G1 X103.977 Y118.952 E2.43897
G1 X103.962 Y118.316 E2.46224
G1 X104.026 Y117.683 E2.48552
G1 X104.169 Y117.064 E2.50876
G1 X104.389 Y116.467 E2.53204
G1 X104.682 Y115.902 E2.55533
G1 X105.043 Y115.379 E2.57858
G1 X105.467 Y114.905 E2.60184
G1 X105.947 Y114.488 E2.62511
G1 X106.237 Y114.294 E2.63787
G1 X106.417 Y113.754 E2.6587
G1 X106.691 Y113.18 E2.68197
G1 X106.987 Y112.723 E2.70189
G0 F810 X107.036 Y112.646
G0 X107.445 Y112.159
M204 S5000
M205 X30 Y30
G0 F7200 X107.858 Y112.366
M204 S500
M205 X20 Y20
G1 F6000 E2.72849
G1 F900 X108.317 Y111.967 E2.75074
G1 X108.683 Y111.716 E2.76697
G1 X109.038 Y111.497 E2.78223
G1 X109.575 Y111.213 E2.80446
G1 X110.145 Y111.001 E2.82671
G1 X110.737 Y110.866 E2.84892
G1 X111.343 Y110.811 E2.87119
G1 X111.95 Y110.835 E2.89341
G1 X112.379 Y110.9 E2.90929
G1 X112.894 Y111.004 E2.92851
G1 X113.48 Y111.164 E2.95073
G1 X114.04 Y111.398 E2.97294
G1 X114.565 Y111.705 E2.99519
G1 X114.803 Y111.89 E3.00622
G1 X114.897 Y111.832 E3.01026
G1 X115.17 Y111.687 E3.02157
G1 X115.424 Y111.353 E3.03692
G1 X115.852 Y110.921 E3.05917
G1 X116.332 Y110.549 E3.08139
G1 X116.857 Y110.243 E3.10362
G1 X117.367 Y110.027 E3.12388
G1 X117.578 Y109.952 E3.13208
G1 X118.162 Y109.786 E3.15429
G1 X118.764 Y109.699 E3.17654
G1 X119.371 Y109.692 E3.19875
G1 X119.975 Y109.764 E3.22101
G1 X120.563 Y109.915 E3.24322
G1 X121.127 Y110.141 E3.26545
G1 X121.709 Y110.475 E3.29
G1 X122.883 Y111.267 E3.34181
G1 X123.363 Y111.639 E3.36403
G1 X123.79 Y112.071 E3.38625
G1 X124.157 Y112.556 E3.4085
G1 X124.457 Y113.084 E3.43072
G1 X124.686 Y113.647 E3.45296
G1 X124.838 Y114.235 E3.47518
G1 X124.87 Y114.492 E3.48465
G1 X125.219 Y114.484 E3.49742
G1 X125.826 Y114.51 E3.51965
G1 X126.425 Y114.616 E3.54191
G1 X127.004 Y114.799 E3.56412
G1 X127.555 Y115.056 E3.58637
G1 X128.201 Y115.487 E3.61478
G1 X128.323 Y115.584 E3.62048
G1 X128.773 Y115.992 E3.6427
G1 X129.165 Y116.456 E3.66493
G1 X129.493 Y116.968 E3.68717
G1 X129.751 Y117.518 E3.7094
G1 X129.934 Y118.097 E3.73162
G1 X130.04 Y118.696 E3.75387
G1 X130.066 Y119.071 E3.76762
G1 X130.087 Y119.824 E3.79518
G1 X130.064 Y120.431 E3.81741
G1 X129.962 Y121.03 E3.83964
G1 X129.781 Y121.611 E3.8619
G1 X129.527 Y122.162 E3.8841
G1 X129.202 Y122.676 E3.90635
G1 X128.812 Y123.142 E3.92858
G1 X128.552 Y123.394 E3.94183
G1 X128.427 Y123.506 E3.94797
G1 X127.949 Y123.881 E3.9702
G1 X127.426 Y124.19 E3.99242
G1 X126.866 Y124.427 E4.01467
G1 X126.281 Y124.589 E4.03688
G1 X125.679 Y124.673 E4.05912
G1 X125.327 Y124.685 E4.072
G1 X123.679 Y124.679 E4.1323
G1 X123.572 Y124.672 E4.13622
G1 X123.432 Y125.018 E4.14988
G1 X123.132 Y125.546 E4.17209
G1 X122.765 Y126.031 E4.19435
G1 X122.338 Y126.463 E4.21657
G1 X121.858 Y126.835 E4.23879
G1 X121.38 Y127.114 E4.25904
G1 X121.209 Y127.25 E4.26703
G1 X120.689 Y127.564 E4.28925
G1 X120.023 Y127.845 E4.3157
G1 X119.562 Y127.998 E4.33347
G1 X118.974 Y128.151 E4.3557
G1 X118.371 Y128.225 E4.37793
G1 X117.764 Y128.22 E4.40013
G1 X117.162 Y128.135 E4.42238
G1 X117.064 Y128.108 E4.4261
G1 X116.472 Y128.044 E4.44788
G1 X115.882 Y127.9 E4.4701
G1 X115.501 Y127.752 E4.48506
G1 X115.49 Y127.751 E4.48546
G1 X115.055 Y127.645 E4.50184
G1 X114.852 Y127.701 E4.50955
G1 X114.257 Y127.824 E4.53177
G1 X113.745 Y127.861 E4.55056
G1 X113.146 Y127.96 E4.57277
G1 X112.539 Y127.979 E4.59499
G1 X112.219 Y127.947 E4.60675
G1 X112.035 Y127.963 E4.61351
G1 X111.428 Y127.936 E4.63574
G1 X111.041 Y127.876 E4.65007
G1 X110.527 Y127.774 E4.66924
G1 X109.94 Y127.616 E4.69148
G1 X109.379 Y127.384 E4.71369
G1 X108.853 Y127.079 E4.73594
G1 X108.519 Y126.833 E4.75111
G1 X108.041 Y126.446 E4.77361
G1 X107.595 Y126.033 E4.79585
G1 X107.207 Y125.566 E4.81807
G1 X106.808 Y124.905 E4.84631
G1 X106.551 Y124.386 E4.8675
G1 X106.318 Y123.825 E4.88973
G1 X106.16 Y123.238 E4.91197
G1 X106.081 Y122.636 E4.93418
G1 X106.086 Y122.486 E4.93967
G1 X105.847 Y122.233 E4.95241
G1 X105.492 Y121.74 E4.97463
G1 X105.28 Y121.362 E4.99049
G1 X104.888 Y120.58 E5.02249
G1 X104.652 Y120.02 E5.04473
G1 X104.491 Y119.434 E5.06696
G1 X104.409 Y118.832 E5.08919
G1 X104.407 Y118.225 E5.1114
G1 X104.484 Y117.622 E5.13364
G1 X104.64 Y117.035 E5.15586
G1 X104.871 Y116.473 E5.17809
G1 X105.175 Y115.946 E5.20035
G1 X105.544 Y115.464 E5.22256
G1 X105.974 Y115.035 E5.24478
G1 X106.456 Y114.665 E5.26701
G1 X106.624 Y114.568 E5.27411
G1 X106.649 Y114.444 E5.27873
G1 X106.845 Y113.869 E5.30096
G1 X107.116 Y113.325 E5.3232
G1 X107.388 Y112.92 E5.34105
G0 F810 X107.455 Y112.821
G0 X107.858 Y112.366
M204 S5000
M205 X30 Y30
G0 F7200 X108.269 Y112.58
M204 S500
M205 X20 Y20
G1 F6000 E5.36764
G1 F900 X108.914 Y112.09 E5.39728
G1 X109.269 Y111.871 E5.41254
G1 X109.781 Y111.603 E5.43368
G1 X110.325 Y111.407 E5.45484
G1 X110.89 Y111.289 E5.47596
G1 X111.467 Y111.249 E5.49712
G1 X112.291 Y111.332 E5.52742
G1 X112.806 Y111.436 E5.54664
G1 X113.364 Y111.589 E5.56781
G1 X113.894 Y111.818 E5.58893
G1 X114.389 Y112.117 E5.61009
G1 X114.77 Y112.427 E5.62806
G1 X114.773 Y112.425 E5.62819
G1 X115.128 Y112.206 E5.64345
G1 X115.464 Y112.03 E5.65733
G1 X115.52 Y111.939 E5.66124
G1 X115.89 Y111.495 E5.68238
G1 X116.316 Y111.105 E5.70351
G1 X116.793 Y110.778 E5.72467
G1 X117.514 Y110.441 E5.75379
G1 X117.725 Y110.366 E5.76198
G1 X118.282 Y110.211 E5.78313
G1 X118.854 Y110.134 E5.80425
G1 X119.432 Y110.136 E5.8254
G1 X120.004 Y110.219 E5.84654
G1 X120.56 Y110.379 E5.86771
G1 X121.087 Y110.614 E5.88882
G1 X121.463 Y110.84 E5.90487
G1 X122.637 Y111.632 E5.95669
G1 X123.092 Y111.987 E5.9778
G1 X123.495 Y112.402 E5.99896
G1 X123.836 Y112.869 E6.02012
G1 X124.109 Y113.378 E6.04125
G1 X124.31 Y113.92 E6.0624
G1 X124.434 Y114.484 E6.08353
G1 X124.47 Y114.942 E6.10034
G1 X125.23 Y114.924 E6.12815
G1 X125.807 Y114.951 E6.14928
G1 X126.375 Y115.057 E6.17042
G1 X126.923 Y115.24 E6.19156
G1 X127.441 Y115.497 E6.21272
G1 X127.927 Y115.831 E6.23429
G1 X128.049 Y115.928 E6.23999
G1 X128.476 Y116.318 E6.26115
G1 X128.844 Y116.763 E6.28228
G1 X129.148 Y117.255 E6.30344
G1 X129.381 Y117.784 E6.32459
G1 X129.539 Y118.34 E6.34573
G1 X129.626 Y119.083 E6.3731
G1 X129.647 Y119.836 E6.40066
G1 X129.624 Y120.414 E6.42183
G1 X129.52 Y120.983 E6.44299
G1 X129.34 Y121.531 E6.46409
G1 X129.085 Y122.05 E6.48525
G1 X128.761 Y122.529 E6.5064
G1 X128.258 Y123.066 E6.53332
G1 X128.133 Y123.178 E6.53946
G1 X127.677 Y123.533 E6.56061
G1 X127.177 Y123.822 E6.58174
G1 X126.641 Y124.039 E6.60289
G1 X126.08 Y124.18 E6.62406
G1 X125.329 Y124.245 E6.65163
G1 X123.681 Y124.239 E6.71193
G1 X123.266 Y124.209 E6.72715
G1 X123.176 Y124.503 E6.7384
G1 X122.932 Y125.027 E6.75955
G1 X122.618 Y125.512 E6.78069
G1 X122.241 Y125.95 E6.80183
G1 X121.806 Y126.331 E6.82299
G1 X121.324 Y126.648 E6.84409
G1 X121.161 Y126.725 E6.85069
G1 X120.935 Y126.905 E6.86126
G1 X120.437 Y127.199 E6.88242
G1 X119.885 Y127.427 E6.90427
G1 X119.424 Y127.58 E6.92204
G1 X118.864 Y127.724 E6.94319
G1 X118.29 Y127.789 E6.96433
G1 X117.712 Y127.774 E6.98548
G1 X117.142 Y127.68 E7.00662
G1 X117.101 Y127.667 E7.00819
G1 X117.066 Y127.668 E7.00947
G1 X116.492 Y127.6 E7.03062
G1 X115.933 Y127.454 E7.05176
G1 X115.611 Y127.32 E7.06452
G1 X115.511 Y127.308 E7.0682
G1 X115.056 Y127.188 E7.08542
G1 X114.735 Y127.277 E7.09761
G1 X114.168 Y127.392 E7.11877
G1 X113.658 Y127.424 E7.13747
G1 X113.563 Y127.451 E7.14108
G1 X112.99 Y127.531 E7.16225
G1 X112.412 Y127.533 E7.1834
G1 X112.229 Y127.504 E7.19017
G1 X111.913 Y127.524 E7.20176
G1 X111.126 Y127.444 E7.2307
G1 X110.612 Y127.342 E7.24987
G1 X110.055 Y127.191 E7.27099
G1 X109.523 Y126.964 E7.29215
G1 X109.028 Y126.666 E7.31329
G1 X108.796 Y126.491 E7.32392
G1 X108.318 Y126.104 E7.34642
G1 X107.895 Y125.71 E7.36757
G1 X107.53 Y125.261 E7.38874
G1 X107.202 Y124.71 E7.4122
G1 X106.945 Y124.191 E7.43339
G1 X106.725 Y123.657 E7.45452
G1 X106.581 Y123.097 E7.47567
G1 X106.515 Y122.523 E7.49681
G1 X106.524 Y122.314 E7.50447
G1 X106.151 Y121.909 E7.52461
G1 X105.821 Y121.435 E7.54574
G1 X105.673 Y121.165 E7.55701
G1 X105.281 Y120.383 E7.58901
G1 X105.059 Y119.85 E7.61013
G1 X104.912 Y119.291 E7.63128
G1 X104.843 Y118.717 E7.65243
G1 X104.854 Y118.139 E7.67358
G1 X104.945 Y117.569 E7.6947
G1 X105.114 Y117.016 E7.71586
G1 X105.358 Y116.492 E7.737
G1 X105.671 Y116.006 E7.75815
G1 X106.048 Y115.568 E7.7793
G1 X106.482 Y115.187 E7.80043
G1 X106.965 Y114.869 E7.82158
G1 X107.017 Y114.845 E7.82368
G1 X107.081 Y114.531 E7.8354
G1 X107.274 Y113.986 E7.85656
G1 X107.539 Y113.473 E7.87768
G1 X107.788 Y113.123 E7.8934
G0 F810 X107.874 Y113.001
G0 X108.269 Y112.58
M204 S5000
M205 X30 Y30
G0 F7200 X108.291 Y113.19
M204 S500
M205 X20 Y20
G1 F6000 E7.91999
G1 F900 X108.679 Y112.805 E7.93999
G1 X109.145 Y112.465 E7.9611
G1 X109.5 Y112.246 E7.97636
G1 X109.985 Y111.994 E7.99635
G1 X110.502 Y111.815 E8.01637
G1 X111.039 Y111.713 E8.03637
G1 X111.585 Y111.691 E8.05636
G1 X112.204 Y111.763 E8.07916
G1 X112.719 Y111.867 E8.09838
G1 X113.246 Y112.014 E8.1184
G1 X113.745 Y112.236 E8.13838
G1 X114.207 Y112.529 E8.1584
G1 X114.621 Y112.886 E8.1784
G1 X114.724 Y113.004 E8.18413
G1 X115.004 Y112.8 E8.1968
G1 X115.359 Y112.581 E8.21206
G1 X115.773 Y112.366 E8.22913
G1 X115.985 Y112.055 E8.2429
G1 X116.355 Y111.652 E8.26292
G1 X116.78 Y111.309 E8.2829
G1 X117.25 Y111.03 E8.30289
G1 X117.661 Y110.856 E8.31922
G1 X117.872 Y110.781 E8.32742
G1 X118.399 Y110.636 E8.34741
G1 X118.942 Y110.569 E8.36743
G1 X119.488 Y110.583 E8.38741
G1 X120.027 Y110.675 E8.40742
G1 X120.547 Y110.846 E8.42745
G1 X121.217 Y111.205 E8.45526
G1 X122.391 Y111.997 E8.50707
G1 X122.82 Y112.335 E8.52705
G1 X123.196 Y112.732 E8.54705
G1 X123.51 Y113.179 E8.56704
G1 X123.755 Y113.668 E8.58705
G1 X123.927 Y114.187 E8.60705
G1 X124.02 Y114.725 E8.62703
G1 X124.035 Y115.272 E8.64705
G1 X124.021 Y115.392 E8.65147
G1 X125.24 Y115.364 E8.69608
G1 X125.786 Y115.391 E8.71608
G1 X126.322 Y115.498 E8.73608
G1 X126.837 Y115.682 E8.75609
G1 X127.319 Y115.938 E8.77605
G1 X127.654 Y116.176 E8.79109
G1 X127.776 Y116.273 E8.79679
G1 X128.177 Y116.643 E8.81675
G1 X128.521 Y117.068 E8.83676
G1 X128.799 Y117.539 E8.85677
G1 X129.005 Y118.045 E8.87676
G1 X129.136 Y118.576 E8.89676
G1 X129.187 Y119.096 E8.91588
G1 X129.208 Y119.849 E8.94344
G1 X129.183 Y120.395 E8.96344
G1 X129.079 Y120.931 E8.98341
G1 X128.898 Y121.447 E9.00342
G1 X128.643 Y121.931 E9.02343
G1 X128.321 Y122.373 E9.04344
G1 X127.965 Y122.738 E9.0621
G1 X127.84 Y122.85 E9.06824
G1 X127.407 Y123.184 E9.08824
G1 X126.93 Y123.452 E9.10826
G1 X126.42 Y123.647 E9.12824
G1 X125.886 Y123.766 E9.14825
G1 X125.33 Y123.805 E9.16865
G1 X123.682 Y123.799 E9.22894
G1 X123.137 Y123.757 E9.24894
G1 X122.936 Y123.711 E9.25648
G1 X122.872 Y124.023 E9.26814
G1 X122.686 Y124.536 E9.2881
G1 X122.426 Y125.018 E9.30814
G1 X122.099 Y125.456 E9.32813
G1 X121.712 Y125.841 E9.34811
G1 X121.272 Y126.167 E9.36814
G1 X120.923 Y126.353 E9.38261
G1 X120.661 Y126.559 E9.3948
G1 X120.187 Y126.831 E9.4148
G1 X119.746 Y127.01 E9.43221
G1 X119.285 Y127.163 E9.44998
G1 X118.755 Y127.296 E9.46997
G1 X118.211 Y127.352 E9.48998
G1 X117.665 Y127.327 E9.50998
G1 X117.142 Y127.226 E9.52947
G1 X117.058 Y127.227 E9.53254
G1 X116.516 Y127.156 E9.55254
G1 X115.99 Y127.008 E9.57253
G1 X115.725 Y126.889 E9.58316
G1 X115.535 Y126.864 E9.59017
G1 X115.064 Y126.73 E9.60809
G1 X114.617 Y126.853 E9.62505
G1 X114.081 Y126.96 E9.64504
G1 X113.586 Y126.984 E9.66318
G1 X113.384 Y127.038 E9.67083
G1 X112.841 Y127.099 E9.69082
G1 X112.294 Y127.081 E9.71084
G1 X112.213 Y127.067 E9.71385
G1 X111.798 Y127.081 E9.72904
G1 X111.212 Y127.012 E9.75063
G1 X110.698 Y126.91 E9.7698
G1 X110.171 Y126.765 E9.7898
G1 X109.671 Y126.545 E9.80978
G1 X109.073 Y126.149 E9.83602
G1 X108.595 Y125.762 E9.85852
G1 X108.196 Y125.388 E9.87853
G1 X107.856 Y124.959 E9.89856
G1 X107.596 Y124.515 E9.91738
G1 X107.339 Y123.996 E9.93857
G1 X107.133 Y123.489 E9.95859
G1 X107.003 Y122.958 E9.9786
G1 X106.952 Y122.414 E9.99859
G1 X106.969 Y122.113 E10.00962
G1 X106.823 Y121.993 E10.01653
