;FLAVOR:Marlin
;TIME:2345
;Filament used: 2.06017m
;Layer height: 0.2
;Generated with Cura_SteamEngine 3.6.0
M140 S70
M105
M190 S70
M104 S215
M105
M109 S215
M82 ;absolute extrusion mode
G28 ; home all axes
M117 Purge extruder
G92 E0 ; reset extruder
G1 Z1.0 F3000 ; move z up little to prevent scratching of surface
G1 X0.1 Y20 Z0.3 F5000.0 ; move to start-line position G1 X0.1 Y200.0 Z0.3 F1500.0 E15 ; draw 1st line
G1 X0.4 Y200.0 Z0.3 F5000.0 ; move to side a little
G1 X0.4 Y20 Z0.3 F1500.0 E30 ; draw 2nd line
G92 E0 ; reset extruder
G1 Z1.0 F3000 ; move z up little to prevent scratching of surface
M117 All systems go!
G92 E0
G1 F6000 E-5
;LAYER_COUNT:95
;LAYER:0
M107
M204 S5000
M205 X30 Y30
G0 F7200 X106.458 Y108.922 Z0.2
M204 S500
M205 X20 Y20
;TYPE:SKIRT
G1 F6000 E0
G1 F900 X106.935 Y108.502 E0.02325
G1 X107.461 Y108.144 E0.04653
G1 X108.028 Y107.856 E0.0698
G1 X108.626 Y107.64 E0.09306
G1 X109.247 Y107.502 E0.11633
G1 X110.036 Y107.44 E0.14529
G1 X124.963 Y107.44 E0.69141
G1 X125.598 Y107.48 E0.71469
G1 X126.222 Y107.599 E0.73793
G1 X126.827 Y107.796 E0.76121
G1 X127.402 Y108.067 E0.78447
G1 X127.939 Y108.408 E0.80774
G1 X128.541 Y108.922 E0.8367
G1 X128.67 Y109.051 E0.84337
G1 X129.09 Y109.528 E0.86663
G1 X129.448 Y110.054 E0.88991
G1 X129.736 Y110.621 E0.91317
G1 X129.952 Y111.219 E0.93643
G1 X130.09 Y111.84 E0.95971
G1 X130.152 Y112.628 E0.98863
G1 X130.153 Y122.37 E1.34505
G1 X130.113 Y123.005 E1.36833
G1 X129.994 Y123.63 E1.39161
G1 X129.797 Y124.235 E1.41488
G1 X129.526 Y124.81 E1.43814
G1 X129.186 Y125.347 E1.46139
G1 X129.06 Y125.494 E1.46848
G1 X129.09 Y125.528 E1.47014
G1 X129.448 Y126.054 E1.49341
G1 X129.736 Y126.621 E1.51668
G1 X129.952 Y127.219 E1.53994
G1 X130.09 Y127.84 E1.56322
G1 X130.152 Y128.628 E1.59214
G1 X130.153 Y138.37 E1.94856
G1 X130.113 Y139.005 E1.97184
G1 X129.994 Y139.63 E1.99511
G1 X129.797 Y140.235 E2.01839
G1 X129.526 Y140.81 E2.04165
G1 X129.186 Y141.347 E2.0649
G1 X128.671 Y141.949 E2.09389
G1 X128.542 Y142.078 E2.10056
G1 X128.065 Y142.498 E2.12381
G1 X127.539 Y142.856 E2.14709
G1 X126.972 Y143.144 E2.17036
G1 X126.374 Y143.36 E2.19362
G1 X125.753 Y143.498 E2.2169
G1 X124.964 Y143.56 E2.24585
G1 X110.037 Y143.56 E2.79197
G1 X109.402 Y143.52 E2.81525
G1 X108.778 Y143.401 E2.83849
G1 X108.173 Y143.204 E2.86177
G1 X107.598 Y142.933 E2.88503
G1 X107.061 Y142.592 E2.9083
G1 X106.459 Y142.078 E2.93726
G1 X106.33 Y141.949 E2.94394
G1 X105.91 Y141.472 E2.96719
G1 X105.552 Y140.946 E2.99047
G1 X105.264 Y140.379 E3.01373
G1 X105.048 Y139.781 E3.037
G1 X104.91 Y139.16 E3.06027
G1 X104.848 Y138.372 E3.08919
G1 X104.847 Y128.63 E3.44561
G1 X104.887 Y127.995 E3.46889
G1 X105.006 Y127.37 E3.49217
G1 X105.203 Y126.765 E3.51545
G1 X105.474 Y126.19 E3.5387
G1 X105.814 Y125.653 E3.56196
G1 X105.94 Y125.506 E3.56904
G1 X105.91 Y125.472 E3.5707
G1 X105.552 Y124.946 E3.59398
G1 X105.264 Y124.379 E3.61724
G1 X105.048 Y123.781 E3.64051
G1 X104.91 Y123.16 E3.66378
G1 X104.848 Y122.372 E3.6927
G1 X104.847 Y112.63 E4.04912
G1 X104.887 Y111.995 E4.0724
G1 X105.006 Y111.37 E4.09568
G1 X105.203 Y110.765 E4.11896
G1 X105.474 Y110.19 E4.14221
G1 X105.814 Y109.653 E4.16547
G1 X105.975 Y109.465 E4.17452
G0 F810 X106.329 Y109.051
G0 X106.458 Y108.922
M204 S5000
M205 X30 Y30
G0 F7200 X106.769 Y109.233
M204 S500
M205 X20 Y20
G1 F6000 E4.20112
G1 F900 X107.226 Y108.833 E4.22334
G1 X107.732 Y108.496 E4.24558
G1 X108.277 Y108.228 E4.2678
G1 X108.853 Y108.034 E4.29004
G1 X109.449 Y107.917 E4.31226
G1 X110.036 Y107.88 E4.33378
G1 X124.963 Y107.88 E4.8799
G1 X125.569 Y107.92 E4.90212
G1 X126.165 Y108.039 E4.92436
G1 X126.74 Y108.235 E4.94658
G1 X127.284 Y108.506 E4.96882
G1 X127.789 Y108.845 E4.99107
G1 X128.23 Y109.233 E5.01256
G1 X128.359 Y109.362 E5.01923
G1 X128.759 Y109.819 E5.04145
G1 X129.096 Y110.325 E5.0637
G1 X129.364 Y110.87 E5.08592
G1 X129.558 Y111.446 E5.10815
G1 X129.675 Y112.042 E5.13038
G1 X129.712 Y112.629 E5.15189
G1 X129.713 Y122.371 E5.50832
G1 X129.673 Y122.977 E5.53054
G1 X129.554 Y123.573 E5.55277
G1 X129.358 Y124.148 E5.575
G1 X129.088 Y124.692 E5.59722
G1 X128.749 Y125.196 E5.61944
G1 X128.481 Y125.501 E5.63429
G1 X128.759 Y125.819 E5.64975
G1 X129.096 Y126.325 E5.67199
G1 X129.364 Y126.87 E5.69421
G1 X129.558 Y127.446 E5.71645
G1 X129.675 Y128.042 E5.73867
G1 X129.712 Y128.629 E5.76019
G1 X129.713 Y138.371 E6.11661
G1 X129.673 Y138.977 E6.13883
G1 X129.554 Y139.573 E6.16106
G1 X129.358 Y140.148 E6.18329
G1 X129.088 Y140.692 E6.20551
G1 X128.749 Y141.196 E6.22773
G1 X128.36 Y141.638 E6.24927
G1 X128.231 Y141.767 E6.25595
G1 X127.774 Y142.167 E6.27817
G1 X127.268 Y142.504 E6.30041
G1 X126.723 Y142.772 E6.32263
G1 X126.147 Y142.966 E6.34487
G1 X125.551 Y143.083 E6.36709
G1 X124.964 Y143.12 E6.38861
G1 X110.037 Y143.12 E6.93473
G1 X109.431 Y143.08 E6.95695
G1 X108.835 Y142.961 E6.97918
G1 X108.26 Y142.765 E7.00141
G1 X107.716 Y142.494 E7.02365
G1 X107.211 Y142.155 E7.0459
G1 X106.77 Y141.767 E7.06739
G1 X106.641 Y141.638 E7.07406
G1 X106.241 Y141.181 E7.09628
G1 X105.904 Y140.675 E7.11853
G1 X105.636 Y140.13 E7.14075
G1 X105.442 Y139.554 E7.16298
G1 X105.325 Y138.958 E7.1852
G1 X105.288 Y138.371 E7.20672
G1 X105.287 Y128.629 E7.56314
G1 X105.327 Y128.023 E7.58536
G1 X105.446 Y127.427 E7.6076
G1 X105.642 Y126.852 E7.62983
G1 X105.912 Y126.308 E7.65204
G1 X106.251 Y125.804 E7.67427
G1 X106.519 Y125.499 E7.68912
G1 X106.241 Y125.181 E7.70458
G1 X105.904 Y124.675 E7.72682
G1 X105.636 Y124.13 E7.74904
G1 X105.442 Y123.554 E7.77127
G1 X105.325 Y122.958 E7.7935
G1 X105.288 Y122.371 E7.81501
G1 X105.287 Y112.629 E8.17144
G1 X105.327 Y112.023 E8.19366
G1 X105.446 Y111.427 E8.21589
G1 X105.642 Y110.852 E8.23812
G1 X105.912 Y110.308 E8.26034
G1 X106.251 Y109.804 E8.28256
G1 X106.28 Y109.771 E8.28417
G0 F810 X106.64 Y109.362
G0 X106.769 Y109.233
M204 S5000
M205 X30 Y30
G0 F7200 X107.08 Y109.544
M204 S500
M205 X20 Y20
G1 F6000 E8.31077
G1 F900 X107.516 Y109.165 E8.3319
G1 X108 Y108.849 E8.35305
G1 X108.523 Y108.603 E8.37419
G1 X109.075 Y108.432 E8.39534
G1 X109.646 Y108.338 E8.41651
G1 X110.036 Y108.32 E8.43079
G1 X124.963 Y108.32 E8.97691
G1 X125.54 Y108.36 E8.99807
G1 X126.105 Y108.479 E9.0192
G1 X126.649 Y108.675 E9.04035
G1 X127.16 Y108.944 E9.06148
G1 X127.63 Y109.281 E9.08264
G1 X127.919 Y109.544 E9.09694
G1 X128.048 Y109.673 E9.10361
G1 X128.427 Y110.109 E9.12475
G1 X128.743 Y110.593 E9.1459
G1 X128.989 Y111.116 E9.16704
G1 X129.16 Y111.668 E9.18818
G1 X129.254 Y112.239 E9.20936
G1 X129.272 Y112.629 E9.22364
G1 X129.273 Y122.371 E9.58006
G1 X129.233 Y122.947 E9.60119
G1 X129.114 Y123.513 E9.62235
G1 X128.918 Y124.056 E9.64347
G1 X128.649 Y124.568 E9.66463
G1 X128.312 Y125.037 E9.68576
G1 X128.049 Y125.327 E9.70008
G1 X127.92 Y125.456 E9.70675
G1 X127.87 Y125.499 E9.70917
G1 X127.919 Y125.544 E9.7116
G1 X128.048 Y125.673 E9.71828
G1 X128.427 Y126.109 E9.73941
G1 X128.743 Y126.593 E9.76056
G1 X128.989 Y127.116 E9.7817
G1 X129.16 Y127.668 E9.80285
G1 X129.254 Y128.239 E9.82402
G1 X129.272 Y128.629 E9.8383
G1 X129.273 Y138.371 E10.19472
G1 X129.233 Y138.947 E10.21585
G1 X129.114 Y139.513 E10.23701
G1 X128.918 Y140.056 E10.25813
G1 X128.649 Y140.568 E10.27929
G1 X128.312 Y141.037 E10.30042
G1 X128.049 Y141.327 E10.31474
G1 X127.92 Y141.456 E10.32142
G1 X127.484 Y141.835 E10.34255
G1 X127 Y142.151 E10.3637
G1 X126.477 Y142.397 E10.38485
G1 X125.925 Y142.568 E10.40599
G1 X125.354 Y142.662 E10.42716
G1 X124.964 Y142.68 E10.44144
G1 X110.037 Y142.68 E10.98757
G1 X109.46 Y142.64 E11.00873
G1 X108.895 Y142.521 E11.02985
G1 X108.351 Y142.325 E11.05101
G1 X107.84 Y142.056 E11.07213
G1 X107.37 Y141.719 E11.09329
G1 X107.081 Y141.456 E11.10759
G1 X106.952 Y141.327 E11.11426
G1 X106.573 Y140.891 E11.1354
G1 X106.257 Y140.407 E11.15655
G1 X106.011 Y139.884 E11.17769
G1 X105.84 Y139.332 E11.19884
G1 X105.746 Y138.761 E11.22001
G1 X105.728 Y138.371 E11.23429
G1 X105.727 Y128.629 E11.59071
G1 X105.767 Y128.053 E11.61184
G1 X105.886 Y127.487 E11.633
G1 X106.082 Y126.944 E11.65412
G1 X106.351 Y126.432 E11.67528
G1 X106.688 Y125.963 E11.69641
G1 X106.951 Y125.673 E11.71073
G1 X107.08 Y125.544 E11.71741
G1 X107.13 Y125.501 E11.71982
G1 X107.081 Y125.456 E11.72225
G1 X106.952 Y125.327 E11.72893
G1 X106.573 Y124.891 E11.75006
G1 X106.257 Y124.407 E11.77121
G1 X106.011 Y123.884 E11.79236
G1 X105.84 Y123.332 E11.8135
G1 X105.746 Y122.761 E11.83467
G1 X105.728 Y122.371 E11.84896
G1 X105.727 Y112.629 E12.20538
G1 X105.767 Y112.053 E12.2265
G1 X105.886 Y111.487 E12.24766
G1 X106.082 Y110.944 E12.26878
G1 X106.351 Y110.432 E12.28994
G1 X106.599 Y110.088 E12.30546
G0 F810 X106.688 Y109.963
G0 X106.951 Y109.673
G0 X107.08 Y109.544
M204 S5000
M205 X30 Y30
G0 F7200 X107.391 Y109.855
M204 S500
M205 X20 Y20
G1 F6000 E12.33206
G1 F900 X107.805 Y109.498 E12.35206
G1 X108.267 Y109.205 E12.37207
G1 X108.766 Y108.982 E12.39207
G1 X109.292 Y108.835 E12.41205
G1 X110.036 Y108.76 E12.43941
G1 X124.963 Y108.76 E12.98553
G1 X125.508 Y108.8 E13.00552
G1 X126.042 Y108.919 E13.02554
G1 X126.552 Y109.114 E13.04552
G1 X127.029 Y109.382 E13.06553
G1 X127.608 Y109.855 E13.09289
G1 X127.737 Y109.984 E13.09956
G1 X128.094 Y110.398 E13.11956
G1 X128.387 Y110.86 E13.13958
G1 X128.61 Y111.359 E13.15957
G1 X128.757 Y111.885 E13.17956
G1 X128.832 Y112.629 E13.20691
G1 X128.833 Y122.371 E13.56334
G1 X128.793 Y122.916 E13.58333
G1 X128.674 Y123.449 E13.60331
G1 X128.479 Y123.96 E13.62332
G1 X128.211 Y124.436 E13.64331
G1 X127.738 Y125.016 E13.67069
G1 X127.609 Y125.145 E13.67736
G1 X127.195 Y125.502 E13.69736
G1 X127.184 Y125.509 E13.69784
G1 X127.608 Y125.855 E13.71786
G1 X127.737 Y125.984 E13.72454
G1 X128.094 Y126.398 E13.74454
G1 X128.387 Y126.86 E13.76455
G1 X128.61 Y127.359 E13.78455
G1 X128.757 Y127.885 E13.80453
G1 X128.832 Y128.629 E13.83189
G1 X128.833 Y138.371 E14.18831
G1 X128.793 Y138.916 E14.2083
G1 X128.674 Y139.449 E14.22828
G1 X128.479 Y139.96 E14.24829
G1 X128.211 Y140.436 E14.26828
G1 X127.738 Y141.016 E14.29566
G1 X127.609 Y141.145 E14.30234
G1 X127.195 Y141.502 E14.32234
G1 X126.733 Y141.795 E14.34235
G1 X126.234 Y142.018 E14.36235
G1 X125.708 Y142.165 E14.38233
G1 X124.964 Y142.24 E14.40969
G1 X110.037 Y142.24 E14.95581
G1 X109.492 Y142.2 E14.9758
G1 X108.958 Y142.081 E14.99582
G1 X108.448 Y141.886 E15.0158
G1 X107.971 Y141.618 E15.03581
G1 X107.392 Y141.145 E15.06317
G1 X107.263 Y141.016 E15.06984
G1 X106.906 Y140.602 E15.08984
G1 X106.613 Y140.14 E15.10986
G1 X106.39 Y139.641 E15.12985
G1 X106.243 Y139.115 E15.14984
G1 X106.168 Y138.371 E15.17719
G1 X106.167 Y128.629 E15.53362
G1 X106.207 Y128.084 E15.55361
G1 X106.326 Y127.551 E15.57359
G1 X106.521 Y127.04 E15.5936
G1 X106.789 Y126.564 E15.61359
G1 X107.262 Y125.984 E15.64097
G1 X107.391 Y125.855 E15.64764
G1 X107.805 Y125.498 E15.66764
G1 X107.816 Y125.491 E15.66812
G1 X107.392 Y125.145 E15.68814
G1 X107.263 Y125.016 E15.69482
G1 X106.906 Y124.602 E15.71482
G1 X106.613 Y124.14 E15.73483
G1 X106.39 Y123.641 E15.75483
G1 X106.243 Y123.115 E15.77481
G1 X106.168 Y122.371 E15.80217
G1 X106.167 Y112.629 E16.15859
G1 X106.207 Y112.084 E16.17858
G1 X106.326 Y111.551 E16.19856
G1 X106.521 Y111.04 E16.21857
G1 X106.789 Y110.564 E16.23856
G1 X106.918 Y110.406 E16.24602
G0 F810 X107.262 Y109.984
G0 X107.391 Y109.855
M204 S5000
M205 X30 Y30
G0 F7200 X107.703 Y110.167
M204 S500
M205 X20 Y20
G1 F6000 E16.27262
G1 F900 X108.093 Y109.833 E16.29141
G1 X108.53 Y109.564 E16.31018
G1 X109.004 Y109.366 E16.32898
G1 X109.502 Y109.243 E16.34774
G1 X110.036 Y109.2 E16.36734
G1 X124.963 Y109.2 E16.91346
G1 X125.475 Y109.24 E16.93225
G1 X125.974 Y109.359 E16.95102
G1 X126.449 Y109.554 E16.96981
G1 X126.888 Y109.82 E16.98859
G1 X127.296 Y110.167 E17.00818
G1 X127.425 Y110.296 E17.01486
G1 X127.759 Y110.686 E17.03364
G1 X128.028 Y111.123 E17.05242
G1 X128.226 Y111.597 E17.07121
G1 X128.349 Y112.095 E17.08998
G1 X128.392 Y112.629 E17.10958
G1 X128.393 Y122.371 E17.466
G1 X128.353 Y122.883 E17.48479
G1 X128.234 Y123.382 E17.50356
G1 X128.039 Y123.857 E17.52235
G1 X127.773 Y124.296 E17.54113
G1 X127.426 Y124.704 E17.56072
G1 X127.297 Y124.833 E17.5674
G1 X126.907 Y125.167 E17.58618
G1 X126.47 Y125.436 E17.60496
G1 X126.317 Y125.5 E17.61102
G1 X126.449 Y125.554 E17.61624
G1 X126.888 Y125.82 E17.63502
G1 X127.296 Y126.167 E17.65462
G1 X127.425 Y126.296 E17.66129
G1 X127.759 Y126.686 E17.68008
G1 X128.028 Y127.123 E17.69885
G1 X128.226 Y127.597 E17.71765
G1 X128.349 Y128.095 E17.73641
G1 X128.392 Y128.629 E17.75601
G1 X128.393 Y138.371 E18.11244
G1 X128.353 Y138.883 E18.13123
G1 X128.234 Y139.382 E18.14999
G1 X128.039 Y139.857 E18.16878
G1 X127.773 Y140.296 E18.18756
G1 X127.426 Y140.704 E18.20715
G1 X127.297 Y140.833 E18.21383
G1 X126.907 Y141.167 E18.23262
G1 X126.47 Y141.436 E18.25139
G1 X125.996 Y141.634 E18.27018
G1 X125.498 Y141.757 E18.28895
G1 X124.964 Y141.8 E18.30855
G1 X110.037 Y141.8 E18.85467
G1 X109.525 Y141.76 E18.87346
G1 X109.026 Y141.641 E18.89223
G1 X108.551 Y141.446 E18.91102
G1 X108.112 Y141.18 E18.9298
G1 X107.704 Y140.833 E18.94939
G1 X107.575 Y140.704 E18.95607
G1 X107.241 Y140.314 E18.97485
G1 X106.972 Y139.877 E18.99363
G1 X106.774 Y139.403 E19.01242
G1 X106.651 Y138.905 E19.03119
G1 X106.608 Y138.371 E19.05079
G1 X106.607 Y128.629 E19.40721
G1 X106.647 Y128.117 E19.426
G1 X106.766 Y127.618 E19.44477
G1 X106.961 Y127.143 E19.46355
G1 X107.227 Y126.704 E19.48233
G1 X107.574 Y126.296 E19.50193
G1 X107.703 Y126.167 E19.5086
G1 X108.093 Y125.833 E19.52739
G1 X108.53 Y125.564 E19.54616
G1 X108.683 Y125.5 E19.55223
G1 X108.551 Y125.446 E19.55745
G1 X108.112 Y125.18 E19.57623
G1 X107.704 Y124.833 E19.59583
G1 X107.575 Y124.704 E19.6025
G1 X107.241 Y124.314 E19.62129
G1 X106.972 Y123.877 E19.64006
G1 X106.774 Y123.403 E19.65885
G1 X106.651 Y122.905 E19.67762
G1 X106.608 Y122.371 E19.69722
G1 X106.607 Y112.629 E20.05364
G1 X106.647 Y112.117 E20.07243
G1 X106.766 Y111.618 E20.0912
G1 X106.961 Y111.143 E20.10999
G1 X107.222 Y110.712 E20.12842
G0 F810 X107.227 Y110.704
G0 X107.574 Y110.296
G0 X107.703 Y110.167
M204 S5000
M205 X30 Y30
G0 F7200 X108.014 Y110.478
M204 S500
M205 X20 Y20
G1 F6000 E20.15502
G1 F900 X108.379 Y110.169 E20.17252
G1 X108.79 Y109.926 E20.18999
G1 X109.236 Y109.754 E20.20747
G1 X109.704 Y109.659 E20.22495
G1 X110.036 Y109.64 E20.23711
G1 X124.963 Y109.64 E20.78323
G1 X125.439 Y109.68 E20.80071
G1 X125.902 Y109.799 E20.8182
G1 X126.339 Y109.993 E20.83569
G1 X126.737 Y110.257 E20.85317
G1 X126.985 Y110.478 E20.86532
G1 X127.114 Y110.607 E20.87199
G1 X127.423 Y110.972 E20.88949
G1 X127.666 Y111.383 E20.90696
G1 X127.838 Y111.829 E20.92445
G1 X127.933 Y112.297 E20.94192
G1 X127.952 Y112.629 E20.95409
G1 X127.953 Y122.371 E21.31051
G1 X127.913 Y122.847 E21.32799
G1 X127.794 Y123.31 E21.34548
G1 X127.6 Y123.747 E21.36297
G1 X127.336 Y124.145 E21.38044
G1 X127.115 Y124.393 E21.39259
G1 X126.986 Y124.522 E21.39927
G1 X126.621 Y124.831 E21.41677
G1 X126.21 Y125.074 E21.43423
G1 X125.764 Y125.246 E21.45172
G1 X125.296 Y125.341 E21.46919
G1 X124.964 Y125.36 E21.48136
G1 X110.037 Y125.36 E22.02748
G1 X109.561 Y125.32 E22.04496
G1 X109.098 Y125.201 E22.06245
G1 X108.661 Y125.007 E22.07994
G1 X108.263 Y124.743 E22.09742
G1 X108.015 Y124.522 E22.10957
G1 X107.886 Y124.393 E22.11624
G1 X107.577 Y124.028 E22.13374
G1 X107.334 Y123.617 E22.15121
G1 X107.162 Y123.171 E22.1687
G1 X107.067 Y122.703 E22.18617
G1 X107.048 Y122.371 E22.19834
G1 X107.047 Y112.629 E22.55476
G1 X107.087 Y112.153 E22.57223
G1 X107.206 Y111.69 E22.58972
G1 X107.4 Y111.253 E22.60722
G1 X107.547 Y111.032 E22.61693
G0 F810 X107.664 Y110.855
G0 X107.885 Y110.607
G0 X108.014 Y110.478
M204 S5000
M205 X30 Y30
G0 F7200 X108.325 Y110.789
M204 S500
M205 X20 Y20
G1 F6000 E22.64353
G1 F900 X108.663 Y110.508 E22.65961
G1 X109.046 Y110.292 E22.67569
G1 X109.461 Y110.149 E22.69175
G1 X110.036 Y110.08 E22.71294
G1 X124.963 Y110.08 E23.25906
G1 X125.401 Y110.12 E23.27515
G1 X125.824 Y110.238 E23.29122
G1 X126.219 Y110.431 E23.30731
G1 X126.674 Y110.789 E23.32849
G1 X126.803 Y110.918 E23.33516
G1 X127.084 Y111.256 E23.35124
G1 X127.3 Y111.639 E23.36733
G1 X127.443 Y112.054 E23.38339
G1 X127.512 Y112.629 E23.40458
