;FLAVOR:Marlin
;TIME:14200
;Filament used: 11.6167m
;Layer height: 0.2
;Generated with Cura_SteamEngine 3.6.0
M140 S70
M105
M190 S70
M104 S215
M105
M109 S215
M82 ;absolute extrusion mode
G28 ; home all axes
M117 Purge extruder
G92 E0 ; reset extruder
G1 Z1.0 F3000 ; move z up little to prevent scratching of surface
G1 X0.1 Y20 Z0.3 F5000.0 ; move to start-line position G1 X0.1 Y200.0 Z0.3 F1500.0 E15 ; draw 1st line
G1 X0.4 Y200.0 Z0.3 F5000.0 ; move to side a little
G1 X0.4 Y20 Z0.3 F1500.0 E30 ; draw 2nd line
G92 E0 ; reset extruder
G1 Z1.0 F3000 ; move z up little to prevent scratching of surface
M117 All systems go!
G92 E0
G1 F6000 E-5
;LAYER_COUNT:23
;LAYER:0
M107
M204 S5000
M205 X30 Y30
G0 F7200 X26.429 Y87.832 Z0.2
M204 S500
M205 X20 Y20
;TYPE:SKIRT
G1 F6000 E0
G1 F900 X27.05 Y87.694 E0.02327
G1 X27.838 Y87.632 E0.05219
G1 X32.661 Y87.631 E0.22865
G1 X116.408 Y69.314 E3.36506
G1 X117.036 Y69.217 E3.38831
G1 X117.672 Y69.2 E3.41158
G1 X118.57 Y69.314 E3.4447
G1 X202.362 Y87.631 E6.58272
G1 X207.162 Y87.632 E6.75834
G1 X207.797 Y87.672 E6.78161
G1 X208.421 Y87.791 E6.80486
G1 X209.026 Y87.988 E6.82813
G1 X209.601 Y88.259 E6.85139
G1 X210.138 Y88.6 E6.87466
G1 X210.739 Y89.114 E6.9036
G1 X210.868 Y89.243 E6.91027
G1 X211.288 Y89.72 E6.93352
G1 X211.646 Y90.246 E6.9568
G1 X211.934 Y90.813 E6.98007
G1 X212.15 Y91.411 E7.00333
G1 X212.288 Y92.032 E7.02661
G1 X212.35 Y92.821 E7.05556
G1 X212.35 Y142.447 E8.87118
G1 X212.31 Y143.082 E8.89446
G1 X212.191 Y143.706 E8.9177
G1 X211.994 Y144.311 E8.94098
G1 X211.723 Y144.886 E8.96424
G1 X211.382 Y145.423 E8.98751
G1 X210.868 Y146.025 E9.01647
G1 X210.739 Y146.154 E9.02315
G1 X210.262 Y146.574 E9.0464
G1 X209.736 Y146.932 E9.06968
G1 X209.169 Y147.22 E9.09295
G1 X208.571 Y147.436 E9.11621
G1 X207.95 Y147.574 E9.13948
G1 X207.162 Y147.636 E9.1684
G1 X202.354 Y147.637 E9.34431
G1 X118.602 Y165.689 E12.47884
G1 X117.973 Y165.784 E12.50211
G1 X117.338 Y165.799 E12.52535
G1 X116.47 Y165.69 E12.55736
G1 X32.666 Y147.637 E15.69376
G1 X27.838 Y147.636 E15.8704
G1 X27.203 Y147.596 E15.89367
G1 X26.579 Y147.477 E15.91692
G1 X25.974 Y147.28 E15.94019
G1 X25.399 Y147.009 E15.96345
G1 X24.862 Y146.668 E15.98672
G1 X24.261 Y146.154 E16.01566
G1 X24.132 Y146.025 E16.02233
G1 X23.712 Y145.548 E16.04558
G1 X23.354 Y145.022 E16.06886
G1 X23.066 Y144.455 E16.09213
G1 X22.85 Y143.857 E16.11539
G1 X22.712 Y143.236 E16.13867
G1 X22.65 Y142.447 E16.16762
G1 X22.65 Y92.821 E17.98325
G1 X22.69 Y92.186 E18.00652
G1 X22.809 Y91.562 E18.02977
G1 X23.006 Y90.957 E18.05304
G1 X23.277 Y90.382 E18.0763
G1 X23.618 Y89.845 E18.09957
G1 X24.132 Y89.243 E18.12853
G1 X24.261 Y89.114 E18.13521
G1 X24.738 Y88.694 E18.15846
G1 X25.264 Y88.336 E18.18174
G1 X25.749 Y88.089 E18.20165
G0 F810 X25.831 Y88.048
G0 X26.429 Y87.832
M204 S5000
M205 X30 Y30
G0 F7200 X26.656 Y88.226
M204 S500
M205 X20 Y20
G1 F6000 E18.22825
G1 F900 X27.252 Y88.109 E18.25047
G1 X27.838 Y88.072 E18.27195
G1 X32.71 Y88.071 E18.4502
G1 X116.502 Y69.744 E21.5883
G1 X117.103 Y69.653 E21.61054
G1 X117.71 Y69.642 E21.63275
G1 X118.476 Y69.744 E21.66102
G1 X202.314 Y88.071 E24.80076
G1 X207.162 Y88.072 E24.97813
G1 X207.768 Y88.112 E25.00035
G1 X208.364 Y88.231 E25.02259
G1 X208.939 Y88.428 E25.04483
G1 X209.483 Y88.698 E25.06705
G1 X209.987 Y89.037 E25.08927
G1 X210.428 Y89.425 E25.11076
G1 X210.557 Y89.554 E25.11743
G1 X210.957 Y90.011 E25.13965
G1 X211.294 Y90.517 E25.1619
G1 X211.562 Y91.062 E25.18412
G1 X211.756 Y91.638 E25.20635
G1 X211.873 Y92.234 E25.22857
G1 X211.91 Y92.821 E25.25009
G1 X211.91 Y142.447 E27.06572
G1 X211.87 Y143.053 E27.08794
G1 X211.751 Y143.649 E27.11017
G1 X211.555 Y144.224 E27.1324
G1 X211.284 Y144.768 E27.15463
G1 X210.945 Y145.273 E27.17689
G1 X210.557 Y145.714 E27.19838
G1 X210.428 Y145.843 E27.20505
G1 X209.971 Y146.243 E27.22727
G1 X209.465 Y146.58 E27.24951
G1 X208.92 Y146.848 E27.27173
G1 X208.344 Y147.042 E27.29397
G1 X207.748 Y147.159 E27.31619
G1 X207.162 Y147.196 E27.33767
G1 X202.307 Y147.197 E27.5153
G1 X118.509 Y165.259 E30.65155
G1 X117.908 Y165.348 E30.67378
G1 X117.301 Y165.357 E30.69599
G1 X116.563 Y165.259 E30.72323
G1 X32.717 Y147.197 E33.8612
G1 X27.838 Y147.196 E34.03971
G1 X27.232 Y147.156 E34.06192
G1 X26.636 Y147.037 E34.08416
G1 X26.061 Y146.84 E34.1064
G1 X25.517 Y146.57 E34.12862
G1 X25.013 Y146.231 E34.15084
G1 X24.572 Y145.843 E34.17233
G1 X24.443 Y145.714 E34.179
G1 X24.043 Y145.257 E34.20122
G1 X23.706 Y144.751 E34.22347
G1 X23.438 Y144.206 E34.24569
G1 X23.244 Y143.63 E34.26792
G1 X23.127 Y143.034 E34.29015
G1 X23.09 Y142.447 E34.31166
G1 X23.09 Y92.821 E36.12729
G1 X23.13 Y92.215 E36.14951
G1 X23.249 Y91.619 E36.17174
G1 X23.445 Y91.044 E36.19397
G1 X23.716 Y90.5 E36.2162
G1 X24.055 Y89.995 E36.23846
G1 X24.443 Y89.554 E36.25995
G1 X24.572 Y89.425 E36.26662
G1 X25.029 Y89.025 E36.28884
G1 X25.535 Y88.688 E36.31109
G1 X25.973 Y88.472 E36.32895
G0 F810 X26.08 Y88.42
G0 X26.656 Y88.226
M204 S5000
M205 X30 Y30
G0 F7200 X26.878 Y88.624
M204 S500
M205 X20 Y20
G1 F6000 E36.35555
G1 F900 X27.449 Y88.53 E36.37672
G1 X27.838 Y88.512 E36.39097
G1 X32.758 Y88.511 E36.57097
G1 X116.596 Y70.174 E39.71079
G1 X117.168 Y70.089 E39.73195
G1 X117.746 Y70.085 E39.7531
G1 X118.382 Y70.173 E39.77659
G1 X202.27 Y88.511 E42.9182
G1 X207.162 Y88.512 E43.09718
G1 X207.738 Y88.552 E43.11831
G1 X208.304 Y88.671 E43.13947
G1 X208.847 Y88.867 E43.16059
G1 X209.359 Y89.136 E43.18175
G1 X209.828 Y89.474 E43.2029
G1 X210.117 Y89.736 E43.21717
G1 X210.246 Y89.865 E43.22384
G1 X210.625 Y90.301 E43.24498
G1 X210.941 Y90.785 E43.26613
G1 X211.187 Y91.308 E43.28727
G1 X211.358 Y91.86 E43.30842
G1 X211.452 Y92.431 E43.32959
G1 X211.47 Y92.821 E43.34387
G1 X211.47 Y142.447 E45.1595
G1 X211.43 Y143.024 E45.18066
G1 X211.311 Y143.589 E45.20178
G1 X211.115 Y144.133 E45.22294
G1 X210.846 Y144.644 E45.24406
G1 X210.509 Y145.114 E45.26522
G1 X210.246 Y145.403 E45.27952
G1 X210.117 Y145.532 E45.28619
G1 X209.681 Y145.911 E45.30733
G1 X209.197 Y146.227 E45.32848
G1 X208.674 Y146.473 E45.34962
G1 X208.122 Y146.644 E45.37077
G1 X207.551 Y146.738 E45.39194
G1 X207.162 Y146.756 E45.40619
G1 X202.261 Y146.757 E45.58549
G1 X118.417 Y164.829 E48.72347
G1 X117.845 Y164.912 E48.74462
G1 X117.267 Y164.914 E48.76576
G1 X116.656 Y164.829 E48.78833
G1 X32.764 Y146.757 E51.92803
G1 X27.838 Y146.756 E52.10825
G1 X27.262 Y146.716 E52.12938
G1 X26.696 Y146.597 E52.15054
G1 X26.153 Y146.401 E52.17166
G1 X25.641 Y146.132 E52.19282
G1 X25.172 Y145.794 E52.21397
G1 X24.883 Y145.532 E52.22824
G1 X24.754 Y145.403 E52.23491
G1 X24.375 Y144.967 E52.25605
G1 X24.059 Y144.483 E52.2772
G1 X23.813 Y143.96 E52.29834
G1 X23.642 Y143.408 E52.31948
G1 X23.548 Y142.837 E52.34066
G1 X23.53 Y142.447 E52.35494
G1 X23.53 Y92.821 E54.17056
G1 X23.57 Y92.244 E54.19173
G1 X23.689 Y91.679 E54.21285
G1 X23.885 Y91.135 E54.23401
G1 X24.154 Y90.624 E54.25513
G1 X24.491 Y90.154 E54.27629
G1 X24.754 Y89.865 E54.29059
G1 X24.883 Y89.736 E54.29726
G1 X25.319 Y89.357 E54.3184
G1 X25.803 Y89.041 E54.33955
G1 X26.191 Y88.858 E54.35524
G0 F810 X26.326 Y88.795
G0 X26.878 Y88.624
M204 S5000
M205 X30 Y30
G0 F7200 X26.569 Y89.174
M204 S500
M205 X20 Y20
G1 F6000 E54.38184
G1 F900 X27.095 Y89.027 E54.40182
G1 X27.838 Y88.952 E54.42914
G1 X32.802 Y88.951 E54.61076
G1 X116.69 Y70.603 E57.75245
G1 X117.231 Y70.526 E57.77244
G1 X117.778 Y70.528 E57.79245
G1 X118.288 Y70.603 E57.81131
G1 X202.222 Y88.951 E60.95465
G1 X207.162 Y88.952 E61.13539
G1 X207.707 Y88.992 E61.15538
G1 X208.24 Y89.111 E61.17536
G1 X208.751 Y89.307 E61.19538
G1 X209.227 Y89.575 E61.21537
G1 X209.806 Y90.047 E61.2427
G1 X209.935 Y90.176 E61.24937
G1 X210.292 Y90.59 E61.26937
G1 X210.585 Y91.052 E61.28939
G1 X210.808 Y91.551 E61.30939
G1 X210.955 Y92.077 E61.32937
G1 X211.03 Y92.821 E61.35673
G1 X211.03 Y142.447 E63.17235
G1 X210.99 Y142.992 E63.19234
G1 X210.871 Y143.526 E63.21236
G1 X210.676 Y144.036 E63.23234
G1 X210.408 Y144.513 E63.25235
G1 X209.935 Y145.092 E63.27971
G1 X209.806 Y145.221 E63.28638
G1 X209.392 Y145.578 E63.30638
G1 X208.93 Y145.871 E63.3264
G1 X208.431 Y146.094 E63.34639
G1 X207.905 Y146.241 E63.36638
G1 X207.162 Y146.316 E63.3937
G1 X202.215 Y146.317 E63.57469
G1 X118.324 Y164.399 E66.71442
G1 X117.783 Y164.475 E66.73441
G1 X117.236 Y164.471 E66.75443
G1 X116.748 Y164.399 E66.77247
G1 X32.81 Y146.317 E69.91389
G1 X27.838 Y146.316 E70.09579
G1 X27.293 Y146.276 E70.11579
G1 X26.76 Y146.157 E70.13577
G1 X26.249 Y145.961 E70.15579
G1 X25.773 Y145.693 E70.17578
G1 X25.194 Y145.221 E70.20311
G1 X25.065 Y145.092 E70.20978
G1 X24.708 Y144.678 E70.22978
G1 X24.415 Y144.216 E70.2498
G1 X24.192 Y143.717 E70.26979
G1 X24.045 Y143.191 E70.28978
G1 X23.97 Y142.447 E70.31713
G1 X23.97 Y92.821 E72.13276
G1 X24.01 Y92.276 E72.15275
G1 X24.129 Y91.742 E72.17277
G1 X24.324 Y91.232 E72.19274
G1 X24.592 Y90.755 E72.21276
G1 X25.065 Y90.176 E72.24012
G1 X25.194 Y90.047 E72.24679
G1 X25.608 Y89.69 E72.26679
G1 X25.918 Y89.493 E72.28023
G0 F810 X26.07 Y89.397
G0 X26.569 Y89.174
M204 S5000
M205 X30 Y30
G0 F7200 X26.807 Y89.558
M204 S500
M205 X20 Y20
G1 F6000 E72.30683
G1 F900 X27.305 Y89.435 E72.32559
G1 X27.838 Y89.392 E72.34516
G1 X32.85 Y89.391 E72.52853
G1 X116.784 Y71.033 E75.67194
G1 X117.292 Y70.963 E75.6907
G1 X117.806 Y70.972 E75.70951
G1 X118.194 Y71.033 E75.72388
G1 X202.174 Y89.391 E78.86894
G1 X207.162 Y89.392 E79.05143
G1 X207.673 Y89.432 E79.07019
G1 X208.173 Y89.551 E79.08899
G1 X208.648 Y89.746 E79.10778
G1 X209.087 Y90.012 E79.12655
G1 X209.494 Y90.359 E79.14612
G1 X209.623 Y90.488 E79.1528
G1 X209.957 Y90.878 E79.17158
G1 X210.226 Y91.315 E79.19036
G1 X210.424 Y91.789 E79.20915
G1 X210.547 Y92.287 E79.22792
G1 X210.59 Y92.821 E79.24752
G1 X210.59 Y142.447 E81.06314
G1 X210.55 Y142.959 E81.08193
G1 X210.431 Y143.458 E81.1007
G1 X210.236 Y143.933 E81.11949
G1 X209.97 Y144.372 E81.13827
G1 X209.623 Y144.78 E81.15786
G1 X209.494 Y144.909 E81.16454
G1 X209.104 Y145.243 E81.18332
G1 X208.667 Y145.512 E81.2021
G1 X208.193 Y145.71 E81.22089
G1 X207.695 Y145.833 E81.23966
G1 X207.162 Y145.876 E81.25922
G1 X202.168 Y145.877 E81.44193
G1 X118.231 Y163.969 E84.58339
G1 X117.723 Y164.038 E84.60215
G1 X117.209 Y164.027 E84.62096
G1 X116.841 Y163.969 E84.63459
G1 X32.856 Y145.877 E87.77776
G1 X27.838 Y145.876 E87.96135
G1 X27.327 Y145.836 E87.9801
G1 X26.827 Y145.717 E87.99891
G1 X26.352 Y145.522 E88.01769
G1 X25.913 Y145.256 E88.03647
G1 X25.506 Y144.909 E88.05604
G1 X25.377 Y144.78 E88.06272
G1 X25.043 Y144.39 E88.0815
G1 X24.774 Y143.953 E88.10028
G1 X24.576 Y143.479 E88.11907
G1 X24.453 Y142.981 E88.13784
G1 X24.41 Y142.447 E88.15744
G1 X24.41 Y92.821 E89.97306
G1 X24.45 Y92.309 E89.99185
G1 X24.569 Y91.81 E90.01062
G1 X24.764 Y91.335 E90.02941
G1 X25.03 Y90.896 E90.04818
G1 X25.377 Y90.488 E90.06778
G1 X25.506 Y90.359 E90.07446
G1 X25.896 Y90.025 E90.09324
G1 X26.151 Y89.868 E90.1042
G0 F810 X26.333 Y89.756
G0 X26.807 Y89.558
M204 S5000
M205 X30 Y30
G0 F7200 X27.039 Y89.946
M204 S500
M205 X20 Y20
G1 F6000 E90.1308
G1 F900 X27.507 Y89.851 E90.14827
G1 X27.838 Y89.832 E90.1604
G1 X32.898 Y89.831 E90.34552
G1 X116.878 Y71.463 E93.49066
G1 X117.352 Y71.4 E93.50815
G1 X117.829 Y71.417 E93.52562
G1 X118.1 Y71.463 E93.53567
G1 X202.125 Y89.831 E96.68242
G1 X207.162 Y89.832 E96.8667
G1 X207.638 Y89.872 E96.88418
G1 X208.101 Y89.991 E96.90167
G1 X208.537 Y90.185 E96.91913
G1 X208.936 Y90.449 E96.93663
G1 X209.183 Y90.67 E96.94876
G1 X209.312 Y90.799 E96.95543
G1 X209.621 Y91.164 E96.97293
G1 X209.864 Y91.575 E96.9904
G1 X210.036 Y92.021 E97.00789
G1 X210.131 Y92.489 E97.02536
G1 X210.15 Y92.821 E97.03753
G1 X210.15 Y142.447 E98.85315
G1 X210.11 Y142.923 E98.87063
G1 X209.991 Y143.386 E98.88812
G1 X209.797 Y143.823 E98.90561
G1 X209.533 Y144.221 E98.92308
G1 X209.312 Y144.469 E98.93524
G1 X209.183 Y144.598 E98.94191
G1 X208.818 Y144.907 E98.95941
G1 X208.407 Y145.15 E98.97688
G1 X207.961 Y145.322 E98.99436
G1 X207.493 Y145.417 E99.01184
G1 X207.162 Y145.436 E99.02397
G1 X202.122 Y145.437 E99.20836
G1 X118.139 Y163.539 E102.35154
G1 X117.665 Y163.6 E102.36902
G1 X117.187 Y163.582 E102.38653
G1 X116.934 Y163.539 E102.39591
G1 X32.903 Y145.437 E105.54081
G1 X27.838 Y145.436 E105.72612
G1 X27.362 Y145.396 E105.7436
G1 X26.899 Y145.277 E105.76109
G1 X26.463 Y145.083 E105.77855
G1 X26.064 Y144.819 E105.79605
G1 X25.817 Y144.598 E105.80818
G1 X25.688 Y144.469 E105.81485
G1 X25.379 Y144.104 E105.83235
G1 X25.136 Y143.693 E105.84981
G1 X24.964 Y143.247 E105.8673
G1 X24.869 Y142.779 E105.88478
G1 X24.85 Y142.447 E105.89694
G1 X24.85 Y92.821 E107.71257
G1 X24.89 Y92.345 E107.73004
G1 X25.009 Y91.882 E107.74753
G1 X25.203 Y91.445 E107.76502
G1 X25.467 Y91.047 E107.7825
G1 X25.688 Y90.799 E107.79465
G1 X25.817 Y90.67 E107.80133
G1 X26.182 Y90.361 E107.81882
G1 X26.379 Y90.244 E107.82721
G0 F810 X26.593 Y90.118
G0 X27.039 Y89.946
M204 S5000
M205 X30 Y30
G0 F7200 X27.264 Y90.341
M204 S500
M205 X20 Y20
G1 F6000 E107.8538
G1 F900 X27.839 Y90.272 E107.87499
G1 X32.947 Y90.271 E108.06187
G1 X116.972 Y71.893 E111.2087
G1 X117.408 Y71.838 E111.22478
G1 X118.006 Y71.893 E111.24675
G1 X202.077 Y90.271 E114.39521
G1 X207.161 Y90.272 E114.58122
G1 X207.599 Y90.312 E114.59731
G1 X208.022 Y90.431 E114.61339
G1 X208.417 Y90.624 E114.62947
G1 X208.872 Y90.981 E114.65063
G1 X209.001 Y91.11 E114.6573
G1 X209.282 Y91.448 E114.67339
G1 X209.498 Y91.831 E114.68947
G1 X209.641 Y92.246 E114.70553
G1 X209.71 Y92.821 E114.72672
G1 X209.71 Y142.447 E116.54234
G1 X209.67 Y142.885 E116.55844
G1 X209.552 Y143.308 E116.5745
G1 X209.359 Y143.703 E116.59059
G1 X209.001 Y144.158 E116.61177
G1 X208.872 Y144.287 E116.61844
G1 X208.534 Y144.568 E116.63453
G1 X208.151 Y144.784 E116.65061
G1 X207.736 Y144.927 E116.66667
G1 X207.161 Y144.996 E116.68786
G1 X202.076 Y144.997 E116.8739
G1 X118.046 Y163.109 E120.01884
G1 X117.61 Y163.162 E120.03491
G1 X117.026 Y163.109 E120.05636
G1 X32.948 Y144.997 E123.20302
G1 X27.839 Y144.996 E123.38993
G1 X27.401 Y144.956 E123.40603
G1 X26.978 Y144.837 E123.4221
G1 X26.583 Y144.644 E123.43819
G1 X26.128 Y144.287 E123.45935
G1 X25.999 Y144.158 E123.46602
G1 X25.718 Y143.82 E123.4821
G1 X25.502 Y143.437 E123.49819
G1 X25.359 Y143.022 E123.51425
G1 X25.29 Y142.447 E123.53544
G1 X25.29 Y92.821 E125.35106
G1 X25.33 Y92.383 E125.36715
G1 X25.448 Y91.96 E125.38322
G1 X25.641 Y91.565 E125.3993
G1 X25.999 Y91.11 E125.42048
G1 X26.128 Y90.981 E125.42716
G1 X26.466 Y90.7 E125.44324
G1 X26.597 Y90.626 E125.44875
G0 F810 X26.849 Y90.484
G0 X27.264 Y90.341
M204 S5000
M205 X30 Y30
G0 F7200 X27.48 Y90.745
M204 S500
M205 X20 Y20
G1 F6000 E125.47534
G1 F900 X27.839 Y90.712 E125.48853
G1 X32.995 Y90.711 E125.67717
G1 X117.066 Y72.323 E128.82572
G1 X117.461 Y72.277 E128.84027
G1 X117.912 Y72.323 E128.85685
G1 X202.029 Y90.711 E132.00704
G1 X207.161 Y90.712 E132.1948
G1 X207.557 Y90.752 E132.20937
G1 X207.936 Y90.87 E132.22389
G1 X208.285 Y91.062 E132.23846
G1 X208.561 Y91.292 E132.25161
G1 X208.69 Y91.421 E132.25828
G1 X208.942 Y91.729 E132.27284
G1 X209.126 Y92.081 E132.28737
G1 X209.237 Y92.462 E132.30189
G1 X209.27 Y92.821 E132.31508
G1 X209.27 Y142.447 E134.1307
G1 X209.23 Y142.842 E134.14523
G1 X209.112 Y143.222 E134.15979
G1 X208.92 Y143.57 E134.17433
G1 X208.69 Y143.847 E134.1875
G1 X208.561 Y143.976 E134.19418
G1 X208.253 Y144.228 E134.20874
G1 X207.901 Y144.412 E134.22327
G1 X207.52 Y144.523 E134.23779
G1 X207.161 Y144.556 E134.25098
G1 X202.029 Y144.557 E134.43874
G1 X117.953 Y162.679 E137.5854
G1 X117.558 Y162.723 E137.59994
G1 X117.119 Y162.679 E137.61608
G1 X32.995 Y144.557 E140.76445
G1 X27.839 Y144.556 E140.95309
G1 X27.443 Y144.516 E140.96765
G1 X27.064 Y144.398 E140.98218
G1 X26.715 Y144.206 E140.99675
G1 X26.439 Y143.976 E141.0099
G1 X26.31 Y143.847 E141.01657
G1 X26.058 Y143.539 E141.03113
G1 X25.874 Y143.187 E141.04566
G1 X25.763 Y142.806 E141.06018
G1 X25.73 Y142.447 E141.07337
G1 X25.73 Y92.821 E142.88899
G1 X25.77 Y92.426 E142.90352
G1 X25.888 Y92.046 E142.91808
G1 X26.08 Y91.698 E142.93262
G1 X26.31 Y91.421 E142.94579
G1 X26.439 Y91.292 E142.95247
G1 X26.747 Y91.04 E142.96702
G1 X26.806 Y91.009 E142.96946
