;FLAVOR:Marlin
;TIME:5373
;Filament used: 4.17454m
;Layer height: 0.2
;Generated with Cura_SteamEngine 3.6.0
M140 S70
M105
M190 S70
M104 S215
M105
M109 S215
M82 ;absolute extrusion mode
G28 ; home all axes
M117 Purge extruder
G92 E0 ; reset extruder
G1 Z1.0 F3000 ; move z up little to prevent scratching of surface
G1 X0.1 Y20 Z0.3 F5000.0 ; move to start-line position G1 X0.1 Y200.0 Z0.3 F1500.0 E15 ; draw 1st line
G1 X0.4 Y200.0 Z0.3 F5000.0 ; move to side a little
G1 X0.4 Y20 Z0.3 F1500.0 E30 ; draw 2nd line
G92 E0 ; reset extruder
G1 Z1.0 F3000 ; move z up little to prevent scratching of surface
M117 All systems go!
G92 E0
G1 F6000 E-5
;LAYER_COUNT:18
;LAYER:0
M107
M204 S5000
M205 X30 Y30
G0 F7200 X57.852 Y101.661 Z0.2
M204 S500
M205 X20 Y20
;TYPE:SKIRT
G1 F6000 E0
G1 F900 X58.419 Y101.373 E0.02327
G1 X59.017 Y101.157 E0.04653
G1 X59.638 Y101.019 E0.0698
G1 X60.427 Y100.957 E0.09876
G1 X64.567 Y100.957 E0.25023
G1 X70.277 Y95.172 E0.54761
G1 X70.751 Y94.748 E0.57088
G1 X71.275 Y94.387 E0.59416
G1 X71.839 Y94.095 E0.61739
G1 X72.436 Y93.876 E0.64066
G1 X73.056 Y93.733 E0.66394
G1 X73.838 Y93.666 E0.69265
G1 X88.86 Y93.547 E1.24227
G1 X146.14 Y93.547 E3.33792
G1 X160.901 Y93.666 E3.87799
G1 X161.535 Y93.711 E3.90124
G1 X162.159 Y93.836 E3.92453
G1 X162.762 Y94.037 E3.94778
G1 X163.335 Y94.313 E3.97105
G1 X163.869 Y94.658 E3.99431
G1 X164.461 Y95.172 E4.02299
G1 X170.171 Y100.957 E4.32038
G1 X174.573 Y100.957 E4.48143
G1 X175.208 Y100.997 E4.50471
G1 X175.832 Y101.116 E4.52795
G1 X176.437 Y101.313 E4.55123
G1 X177.012 Y101.584 E4.57449
G1 X177.549 Y101.925 E4.59776
G1 X178.151 Y102.439 E4.62672
G1 X178.28 Y102.568 E4.63339
G1 X178.7 Y103.045 E4.65665
G1 X179.058 Y103.571 E4.67993
G1 X179.346 Y104.138 E4.70319
G1 X179.562 Y104.736 E4.72645
G1 X179.7 Y105.357 E4.74973
G1 X179.762 Y106.146 E4.77868
G1 X179.762 Y128.856 E5.60956
G1 X179.722 Y129.491 E5.63283
G1 X179.603 Y130.115 E5.65607
G1 X179.406 Y130.72 E5.67935
G1 X179.135 Y131.295 E5.70261
G1 X178.794 Y131.832 E5.72588
G1 X178.28 Y132.434 E5.75484
G1 X178.151 Y132.563 E5.76152
G1 X177.674 Y132.983 E5.78477
G1 X177.148 Y133.341 E5.80805
G1 X176.581 Y133.629 E5.83132
G1 X175.983 Y133.845 E5.85458
G1 X175.362 Y133.983 E5.87785
G1 X174.573 Y134.045 E5.90681
G1 X170.171 Y134.045 E6.06786
G1 X164.461 Y139.829 E6.36522
G1 X163.987 Y140.252 E6.38846
G1 X163.463 Y140.613 E6.41174
G1 X162.898 Y140.905 E6.43501
G1 X162.301 Y141.124 E6.45828
G1 X161.681 Y141.267 E6.48156
G1 X160.901 Y141.334 E6.5102
G1 X146.139 Y141.453 E7.0503
G1 X88.848 Y141.453 E9.14636
G1 X73.748 Y141.3 E9.69884
G1 X73.114 Y141.253 E9.7221
G1 X72.49 Y141.128 E9.74538
G1 X71.887 Y140.925 E9.76866
G1 X71.315 Y140.648 E9.79191
G1 X70.782 Y140.302 E9.81516
G1 X70.187 Y139.783 E9.84405
G1 X64.558 Y134.045 E10.13813
G1 X60.427 Y134.045 E10.28926
G1 X59.792 Y134.005 E10.31254
G1 X59.168 Y133.886 E10.33578
G1 X58.563 Y133.689 E10.35906
G1 X57.988 Y133.418 E10.38232
G1 X57.451 Y133.077 E10.40559
G1 X56.849 Y132.563 E10.43455
G1 X56.72 Y132.434 E10.44123
G1 X56.3 Y131.957 E10.46448
G1 X55.942 Y131.431 E10.48776
G1 X55.654 Y130.864 E10.51102
G1 X55.438 Y130.266 E10.53429
G1 X55.3 Y129.645 E10.55756
G1 X55.238 Y128.856 E10.58652
G1 X55.238 Y106.146 E11.41739
G1 X55.278 Y105.511 E11.44067
G1 X55.397 Y104.887 E11.46391
G1 X55.594 Y104.282 E11.48719
G1 X55.865 Y103.707 E11.51044
G1 X56.206 Y103.17 E11.53372
G1 X56.72 Y102.568 E11.56268
G1 X56.849 Y102.439 E11.56935
G1 X57.258 Y102.079 E11.58929
G0 F810 X57.326 Y102.019
G0 X57.852 Y101.661
M204 S5000
M205 X30 Y30
G0 F7200 X58.123 Y102.013
M204 S500
M205 X20 Y20
G1 F6000 E11.61588
G1 F900 X58.668 Y101.745 E11.6381
G1 X59.244 Y101.551 E11.66034
G1 X59.84 Y101.434 E11.68256
G1 X60.427 Y101.397 E11.70408
G1 X64.751 Y101.397 E11.86228
G1 X70.59 Y95.481 E12.16639
G1 X71.044 Y95.077 E12.18863
G1 X71.548 Y94.737 E12.21087
G1 X72.091 Y94.466 E12.23307
G1 X72.666 Y94.268 E12.25532
G1 X73.261 Y94.147 E12.27754
G1 X73.841 Y94.106 E12.29881
G1 X88.863 Y93.987 E12.84842
G1 X146.136 Y93.987 E14.94382
G1 X160.897 Y94.106 E15.48389
G1 X161.503 Y94.151 E15.50612
G1 X162.098 Y94.275 E15.52836
G1 X162.671 Y94.476 E15.55057
G1 X163.214 Y94.75 E15.57282
G1 X163.715 Y95.094 E15.59506
G1 X164.148 Y95.481 E15.61631
G1 X169.987 Y101.397 E15.92042
G1 X174.573 Y101.397 E16.0882
G1 X175.179 Y101.437 E16.11042
G1 X175.775 Y101.556 E16.13266
G1 X176.35 Y101.752 E16.15488
G1 X176.894 Y102.023 E16.17712
G1 X177.399 Y102.362 E16.19937
G1 X177.84 Y102.75 E16.22086
G1 X177.969 Y102.879 E16.22754
G1 X178.369 Y103.336 E16.24976
G1 X178.706 Y103.842 E16.272
G1 X178.974 Y104.387 E16.29422
G1 X179.168 Y104.963 E16.31645
G1 X179.285 Y105.559 E16.33868
G1 X179.322 Y106.146 E16.3602
G1 X179.322 Y128.856 E17.19107
G1 X179.282 Y129.462 E17.21329
G1 X179.163 Y130.058 E17.23552
G1 X178.967 Y130.633 E17.25775
G1 X178.696 Y131.177 E17.27998
G1 X178.357 Y131.682 E17.30224
G1 X177.969 Y132.123 E17.32373
G1 X177.84 Y132.252 E17.3304
G1 X177.383 Y132.652 E17.35262
G1 X176.877 Y132.989 E17.37486
G1 X176.332 Y133.257 E17.39708
G1 X175.756 Y133.451 E17.41932
G1 X175.16 Y133.568 E17.44154
G1 X174.573 Y133.605 E17.46306
G1 X169.988 Y133.605 E17.63081
G1 X164.148 Y139.52 E17.93492
G1 X163.693 Y139.923 E17.95716
G1 X163.19 Y140.263 E17.97937
G1 X162.646 Y140.535 E18.00162
G1 X162.072 Y140.732 E18.02382
G1 X161.476 Y140.853 E18.04607
G1 X160.897 Y140.894 E18.06731
G1 X146.135 Y141.013 E18.60741
G1 X88.852 Y141.013 E20.70318
G1 X73.752 Y140.86 E21.25566
G1 X73.146 Y140.814 E21.27789
G1 X72.552 Y140.688 E21.30011
G1 X71.979 Y140.486 E21.32234
G1 X71.437 Y140.211 E21.34457
G1 X70.937 Y139.866 E21.3668
G1 X70.501 Y139.475 E21.38822
G1 X64.743 Y133.605 E21.68906
G1 X60.427 Y133.605 E21.84696
G1 X59.821 Y133.565 E21.86918
G1 X59.225 Y133.446 E21.89142
G1 X58.65 Y133.25 E21.91364
G1 X58.106 Y132.979 E21.93588
G1 X57.601 Y132.64 E21.95813
G1 X57.16 Y132.252 E21.97962
G1 X57.031 Y132.123 E21.9863
G1 X56.631 Y131.666 E22.00852
G1 X56.294 Y131.16 E22.03076
G1 X56.026 Y130.615 E22.05298
G1 X55.832 Y130.039 E22.07522
G1 X55.715 Y129.443 E22.09744
G1 X55.678 Y128.856 E22.11896
G1 X55.678 Y106.146 E22.94983
G1 X55.718 Y105.54 E22.97205
G1 X55.837 Y104.944 E22.99428
G1 X56.033 Y104.369 E23.01651
G1 X56.304 Y103.825 E23.03874
G1 X56.643 Y103.32 E23.061
G1 X57.031 Y102.879 E23.08249
G1 X57.16 Y102.75 E23.08916
G1 X57.527 Y102.429 E23.107
G0 F810 X57.617 Y102.35
G0 X58.123 Y102.013
M204 S5000
M205 X30 Y30
G0 F7200 X58.391 Y102.366
M204 S500
M205 X20 Y20
G1 F6000 E23.1336
G1 F900 X58.914 Y102.12 E23.15474
G1 X59.466 Y101.949 E23.17589
G1 X60.037 Y101.855 E23.19706
G1 X60.427 Y101.837 E23.21134
G1 X64.935 Y101.837 E23.37627
G1 X70.903 Y95.79 E23.68711
G1 X71.336 Y95.407 E23.70826
G1 X71.818 Y95.089 E23.72939
G1 X72.34 Y94.839 E23.75056
G1 X72.891 Y94.664 E23.77171
G1 X73.46 Y94.567 E23.79283
G1 X73.845 Y94.546 E23.80694
G1 X88.867 Y94.427 E24.35655
G1 X146.133 Y94.427 E26.4517
G1 X160.894 Y94.546 E26.99176
G1 X161.47 Y94.591 E27.0129
G1 X162.034 Y94.714 E27.03402
G1 X162.577 Y94.915 E27.0552
G1 X163.086 Y95.188 E27.07633
G1 X163.553 Y95.529 E27.09749
G1 X163.835 Y95.79 E27.11155
G1 X169.803 Y101.837 E27.42239
G1 X174.573 Y101.837 E27.5969
G1 X175.15 Y101.877 E27.61806
G1 X175.715 Y101.996 E27.63919
G1 X176.259 Y102.192 E27.66034
G1 X176.77 Y102.461 E27.68147
G1 X177.24 Y102.798 E27.70263
G1 X177.529 Y103.061 E27.71693
G1 X177.658 Y103.19 E27.7236
G1 X178.037 Y103.626 E27.74474
G1 X178.353 Y104.11 E27.76588
G1 X178.599 Y104.633 E27.78703
G1 X178.77 Y105.185 E27.80817
G1 X178.864 Y105.756 E27.82934
G1 X178.882 Y106.146 E27.84363
G1 X178.882 Y128.856 E28.6745
G1 X178.842 Y129.433 E28.69566
G1 X178.723 Y129.998 E28.71679
G1 X178.527 Y130.542 E28.73794
G1 X178.258 Y131.053 E28.75907
G1 X177.921 Y131.523 E28.78023
G1 X177.658 Y131.812 E28.79452
G1 X177.529 Y131.941 E28.8012
G1 X177.093 Y132.32 E28.82233
G1 X176.609 Y132.636 E28.84348
G1 X176.086 Y132.882 E28.86463
G1 X175.534 Y133.053 E28.88577
G1 X174.963 Y133.147 E28.90694
G1 X174.573 Y133.165 E28.92123
G1 X169.804 Y133.165 E29.0957
G1 X163.835 Y139.211 E29.40654
G1 X163.401 Y139.593 E29.4277
G1 X162.919 Y139.912 E29.44884
G1 X162.398 Y140.161 E29.46997
G1 X161.847 Y140.336 E29.49112
G1 X161.277 Y140.433 E29.51227
G1 X160.894 Y140.454 E29.52631
G1 X146.132 Y140.573 E30.06641
G1 X88.857 Y140.573 E32.16188
G1 X73.757 Y140.42 E32.71436
G1 X73.181 Y140.374 E32.7355
G1 X72.616 Y140.249 E32.75667
G1 X72.075 Y140.048 E32.77779
G1 X71.566 Y139.773 E32.79895
G1 X71.1 Y139.432 E32.82008
G1 X70.815 Y139.167 E32.83432
G1 X64.927 Y133.165 E33.14193
G1 X60.427 Y133.165 E33.30657
G1 X59.85 Y133.125 E33.32773
G1 X59.285 Y133.006 E33.34885
G1 X58.741 Y132.81 E33.37001
G1 X58.23 Y132.541 E33.39114
G1 X57.76 Y132.204 E33.4123
G1 X57.471 Y131.941 E33.42659
G1 X57.342 Y131.812 E33.43327
G1 X56.963 Y131.376 E33.4544
G1 X56.647 Y130.892 E33.47555
G1 X56.401 Y130.369 E33.4967
G1 X56.23 Y129.817 E33.51784
G1 X56.136 Y129.246 E33.53901
G1 X56.118 Y128.856 E33.55329
G1 X56.118 Y106.146 E34.38417
G1 X56.158 Y105.569 E34.40533
G1 X56.277 Y105.004 E34.42645
G1 X56.473 Y104.46 E34.44761
G1 X56.742 Y103.949 E34.46873
G1 X57.079 Y103.479 E34.48989
G1 X57.342 Y103.19 E34.50419
G1 X57.471 Y103.061 E34.51086
G1 X57.795 Y102.779 E34.52658
G0 F810 X57.907 Y102.682
G0 X58.391 Y102.366
M204 S5000
M205 X30 Y30
G0 F7200 X58.658 Y102.722
M204 S500
M205 X20 Y20
G1 F6000 E34.55318
G1 F900 X59.157 Y102.499 E34.57317
G1 X59.683 Y102.352 E34.59315
G1 X60.427 Y102.277 E34.62051
G1 X65.118 Y102.277 E34.79214
G1 X71.216 Y96.099 E35.10973
G1 X71.628 Y95.739 E35.12975
G1 X72.087 Y95.443 E35.14973
G1 X72.585 Y95.217 E35.16974
G1 X73.11 Y95.066 E35.18972
G1 X73.848 Y94.986 E35.21688
G1 X88.87 Y94.867 E35.7665
G1 X146.129 Y94.867 E37.86138
G1 X160.89 Y94.986 E38.40145
G1 X161.435 Y95.03 E38.42145
G1 X161.968 Y95.154 E38.44147
G1 X162.476 Y95.353 E38.46143
G1 X162.951 Y95.625 E38.48146
G1 X163.522 Y96.099 E38.50861
G1 X169.62 Y102.277 E38.8262
G1 X174.573 Y102.277 E39.00741
G1 X175.118 Y102.317 E39.02741
G1 X175.652 Y102.436 E39.04742
G1 X176.162 Y102.631 E39.0674
G1 X176.639 Y102.899 E39.08742
G1 X177.218 Y103.372 E39.11477
G1 X177.347 Y103.501 E39.12144
G1 X177.704 Y103.915 E39.14144
G1 X177.997 Y104.377 E39.16146
G1 X178.22 Y104.876 E39.18146
G1 X178.367 Y105.402 E39.20144
G1 X178.442 Y106.146 E39.2288
G1 X178.442 Y128.856 E40.05967
G1 X178.402 Y129.401 E40.07966
G1 X178.283 Y129.935 E40.09968
G1 X178.088 Y130.445 E40.11965
G1 X177.82 Y130.922 E40.13967
G1 X177.347 Y131.501 E40.16702
G1 X177.218 Y131.63 E40.1737
G1 X176.804 Y131.987 E40.1937
G1 X176.342 Y132.28 E40.21371
G1 X175.843 Y132.503 E40.23371
G1 X175.317 Y132.65 E40.25369
G1 X174.573 Y132.725 E40.28105
G1 X169.62 Y132.725 E40.46226
G1 X163.522 Y138.902 E40.77983
G1 X163.11 Y139.261 E40.79982
G1 X162.651 Y139.558 E40.81982
G1 X162.153 Y139.783 E40.83982
G1 X161.627 Y139.934 E40.85984
G1 X160.89 Y140.014 E40.88696
G1 X146.128 Y140.133 E41.42706
G1 X88.861 Y140.133 E43.52224
G1 X73.761 Y139.98 E44.07472
G1 X73.216 Y139.934 E44.09473
G1 X72.684 Y139.81 E44.11472
G1 X72.176 Y139.609 E44.1347
G1 X71.702 Y139.337 E44.1547
G1 X71.129 Y138.859 E44.182
G1 X65.112 Y132.725 E44.49636
G1 X60.427 Y132.725 E44.66777
G1 X59.882 Y132.685 E44.68776
G1 X59.348 Y132.566 E44.70778
G1 X58.838 Y132.371 E44.72775
G1 X58.361 Y132.103 E44.74777
G1 X57.782 Y131.63 E44.77513
G1 X57.653 Y131.501 E44.7818
G1 X57.296 Y131.087 E44.8018
G1 X57.003 Y130.625 E44.82182
G1 X56.78 Y130.126 E44.84181
G1 X56.633 Y129.6 E44.86179
G1 X56.558 Y128.856 E44.88915
G1 X56.558 Y106.146 E45.72002
G1 X56.598 Y105.601 E45.74002
G1 X56.717 Y105.067 E45.76003
G1 X56.912 Y104.557 E45.78001
G1 X57.18 Y104.08 E45.80003
G1 X57.653 Y103.501 E45.82738
G1 X57.782 Y103.372 E45.83405
G1 X58.06 Y103.132 E45.84749
G0 F810 X58.196 Y103.015
G0 X58.658 Y102.722
M204 S5000
M205 X30 Y30
G0 F7200 X58.921 Y103.081
M204 S500
M205 X20 Y20
G1 F6000 E45.87409
G1 F900 X59.395 Y102.883 E45.89288
G1 X59.893 Y102.76 E45.91165
G1 X60.427 Y102.717 E45.93125
G1 X65.302 Y102.717 E46.10961
G1 X71.529 Y96.408 E46.43393
G1 X71.917 Y96.072 E46.4527
G1 X72.353 Y95.8 E46.47151
G1 X72.825 Y95.598 E46.49029
G1 X73.323 Y95.473 E46.50907
G1 X73.852 Y95.426 E46.5285
G1 X88.874 Y95.307 E47.07812
G1 X146.126 Y95.307 E49.17275
G1 X160.887 Y95.426 E49.71281
G1 X161.398 Y95.47 E49.73158
G1 X161.897 Y95.593 E49.75038
G1 X162.37 Y95.792 E49.76916
G1 X162.807 Y96.061 E49.78793
G1 X163.209 Y96.408 E49.80736
G1 X169.436 Y102.717 E50.13168
G1 X174.573 Y102.717 E50.31962
G1 X175.085 Y102.757 E50.33841
G1 X175.584 Y102.876 E50.35718
G1 X176.059 Y103.071 E50.37596
G1 X176.498 Y103.337 E50.39474
G1 X176.906 Y103.684 E50.41434
G1 X177.035 Y103.813 E50.42101
G1 X177.369 Y104.203 E50.4398
G1 X177.638 Y104.64 E50.45857
G1 X177.836 Y105.114 E50.47737
G1 X177.959 Y105.612 E50.49614
G1 X178.002 Y106.146 E50.51574
G1 X178.002 Y128.856 E51.34661
G1 X177.962 Y129.368 E51.3654
G1 X177.843 Y129.867 E51.38417
G1 X177.648 Y130.342 E51.40295
G1 X177.382 Y130.781 E51.42173
G1 X177.035 Y131.189 E51.44133
G1 X176.906 Y131.318 E51.448
G1 X176.516 Y131.652 E51.46679
G1 X176.079 Y131.921 E51.48556
G1 X175.605 Y132.119 E51.50436
G1 X175.107 Y132.242 E51.52312
G1 X174.573 Y132.285 E51.54272
G1 X169.435 Y132.285 E51.7307
G1 X163.208 Y138.592 E52.05497
G1 X162.82 Y138.929 E52.07377
G1 X162.385 Y139.201 E52.09254
G1 X161.912 Y139.402 E52.11134
G1 X161.415 Y139.527 E52.13009
G1 X160.887 Y139.574 E52.14949
G1 X146.125 Y139.693 E52.68959
G1 X88.866 Y139.693 E54.78448
G1 X73.766 Y139.54 E55.33695
G1 X73.254 Y139.495 E55.35576
G1 X72.756 Y139.371 E55.37454
G1 X72.283 Y139.171 E55.39332
G1 X71.847 Y138.9 E55.41211
G1 X71.443 Y138.551 E55.43164
G1 X65.296 Y132.285 E55.75278
G1 X60.427 Y132.285 E55.93092
G1 X59.915 Y132.245 E55.94971
G1 X59.416 Y132.126 E55.96848
G1 X58.941 Y131.931 E55.98726
G1 X58.502 Y131.665 E56.00604
G1 X58.094 Y131.318 E56.02564
G1 X57.965 Y131.189 E56.03231
G1 X57.631 Y130.799 E56.0511
G1 X57.362 Y130.362 E56.06987
G1 X57.164 Y129.888 E56.08867
G1 X57.041 Y129.39 E56.10743
G1 X56.998 Y128.856 E56.12703
G1 X56.998 Y106.146 E56.95791
G1 X57.038 Y105.634 E56.9767
G1 X57.157 Y105.135 E56.99546
G1 X57.352 Y104.66 E57.01425
G1 X57.618 Y104.221 E57.03303
G1 X57.965 Y103.813 E57.05262
G1 X58.094 Y103.684 E57.0593
G1 X58.322 Y103.489 E57.07028
G0 F810 X58.484 Y103.35
G0 X58.921 Y103.081
M204 S5000
M205 X30 Y30
G0 F7200 X59.181 Y103.443
M204 S500
M205 X20 Y20
G1 F6000 E57.09687
G1 F900 X59.627 Y103.271 E57.11436
G1 X60.095 Y103.176 E57.13183
G1 X60.427 Y103.157 E57.144
G1 X65.486 Y103.157 E57.32909
G1 X71.842 Y96.717 E57.66013
G1 X72.205 Y96.406 E57.67762
G1 X72.615 Y96.16 E57.69512
G1 X73.06 Y95.985 E57.71261
G1 X73.528 Y95.888 E57.7301
G1 X73.855 Y95.866 E57.74209
G1 X88.877 Y95.747 E58.2917
G1 X146.122 Y95.747 E60.38608
G1 X160.883 Y95.866 E60.92614
G1 X161.359 Y95.91 E60.94363
G1 X161.821 Y96.032 E60.96111
G1 X162.256 Y96.23 E60.9786
G1 X162.652 Y96.497 E60.99607
G1 X162.896 Y96.717 E61.00809
G1 X169.252 Y103.157 E61.33914
G1 X174.573 Y103.157 E61.53381
G1 X175.049 Y103.197 E61.55129
G1 X175.512 Y103.316 E61.56878
G1 X175.949 Y103.51 E61.58627
G1 X176.347 Y103.774 E61.60374
G1 X176.595 Y103.995 E61.6159
G1 X176.724 Y104.124 E61.62257
G1 X177.033 Y104.489 E61.64007
G1 X177.276 Y104.9 E61.65754
G1 X177.448 Y105.346 E61.67502
G1 X177.543 Y105.814 E61.6925
G1 X177.562 Y106.146 E61.70466
G1 X177.562 Y128.856 E62.53553
G1 X177.522 Y129.332 E62.55301
G1 X177.403 Y129.795 E62.5705
G1 X177.209 Y130.232 E62.58799
G1 X176.945 Y130.63 E62.60547
G1 X176.724 Y130.878 E62.61762
G1 X176.595 Y131.007 E62.62429
G1 X176.23 Y131.316 E62.64179
G1 X175.819 Y131.559 E62.65926
G1 X175.373 Y131.731 E62.67675
G1 X174.905 Y131.826 E62.69422
G1 X174.573 Y131.845 E62.70639
G1 X169.251 Y131.845 E62.9011
G1 X162.895 Y138.283 E63.23209
G1 X162.532 Y138.594 E63.24958
G1 X162.123 Y138.84 E63.26704
G1 X161.678 Y139.015 E63.28453
G1 X161.21 Y139.113 E63.30203
G1 X160.883 Y139.134 E63.31402
G1 X146.121 Y139.253 E63.85412
G1 X88.87 Y139.253 E65.94871
G1 X73.77 Y139.1 E66.50119
G1 X73.294 Y139.055 E66.51868
