;FLAVOR:Marlin
;TIME:5296
;Filament used: 4.02672m
;Layer height: 0.2
;Generated with Cura_SteamEngine 3.6.0
M140 S70
M105
M190 S70
M104 S215
M105
M109 S215
M82 ;absolute extrusion mode
G28 ; home all axes
M117 Purge extruder
G92 E0 ; reset extruder
G1 Z1.0 F3000 ; move z up little to prevent scratching of surface
G1 X0.1 Y20 Z0.3 F5000.0 ; move to start-line position G1 X0.1 Y200.0 Z0.3 F1500.0 E15 ; draw 1st line
G1 X0.4 Y200.0 Z0.3 F5000.0 ; move to side a little
G1 X0.4 Y20 Z0.3 F1500.0 E30 ; draw 2nd line
G92 E0 ; reset extruder
G1 Z1.0 F3000 ; move z up little to prevent scratching of surface
M117 All systems go!
G92 E0
G1 F6000 E-5
;LAYER_COUNT:18
;LAYER:0
M107
M204 S5000
M205 X30 Y30
G0 F7200 X57.852 Y101.66 Z0.2
M204 S500
M205 X20 Y20
;TYPE:SKIRT
G1 F6000 E0
G1 F900 X58.419 Y101.372 E0.02327
G1 X59.017 Y101.156 E0.04653
G1 X59.638 Y101.018 E0.0698
G1 X60.427 Y100.956 E0.09876
G1 X64.567 Y100.956 E0.25023
G1 X70.278 Y95.17 E0.54766
G1 X70.752 Y94.747 E0.57091
G1 X71.276 Y94.386 E0.59419
G1 X71.841 Y94.094 E0.61745
G1 X72.438 Y93.875 E0.64072
G1 X73.057 Y93.732 E0.66396
G1 X73.839 Y93.665 E0.69268
G1 X88.861 Y93.546 E1.24229
G1 X146.141 Y93.546 E3.33795
G1 X160.902 Y93.665 E3.87801
G1 X161.536 Y93.71 E3.90127
G1 X162.16 Y93.835 E3.92455
G1 X162.763 Y94.036 E3.94781
G1 X163.336 Y94.312 E3.97107
G1 X163.87 Y94.657 E3.99433
G1 X164.462 Y95.171 E4.02302
G1 X170.172 Y100.956 E4.3204
G1 X174.573 Y100.956 E4.48142
G1 X175.208 Y100.996 E4.5047
G1 X175.832 Y101.115 E4.52794
G1 X176.437 Y101.312 E4.55122
G1 X177.012 Y101.583 E4.57447
G1 X177.549 Y101.924 E4.59775
G1 X178.151 Y102.438 E4.62671
G1 X178.28 Y102.567 E4.63338
G1 X178.7 Y103.044 E4.65663
G1 X179.058 Y103.57 E4.67991
G1 X179.346 Y104.137 E4.70318
G1 X179.562 Y104.735 E4.72644
G1 X179.7 Y105.356 E4.74972
G1 X179.762 Y106.145 E4.77867
G1 X179.762 Y128.855 E5.60954
G1 X179.722 Y129.49 E5.63282
G1 X179.603 Y130.114 E5.65606
G1 X179.406 Y130.719 E5.67934
G1 X179.135 Y131.294 E5.7026
G1 X178.794 Y131.831 E5.72587
G1 X178.28 Y132.433 E5.75483
G1 X178.151 Y132.562 E5.76151
G1 X177.674 Y132.982 E5.78476
G1 X177.148 Y133.34 E5.80804
G1 X176.581 Y133.628 E5.8313
G1 X175.983 Y133.844 E5.85457
G1 X175.362 Y133.982 E5.87784
G1 X174.573 Y134.044 E5.9068
G1 X170.172 Y134.044 E6.06781
G1 X164.462 Y139.829 E6.3652
G1 X163.988 Y140.253 E6.38846
G1 X163.464 Y140.614 E6.41174
G1 X162.9 Y140.906 E6.43498
G1 X162.303 Y141.125 E6.45825
G1 X161.683 Y141.268 E6.48153
G1 X160.902 Y141.335 E6.5102
G1 X146.14 Y141.454 E7.05031
G1 X88.849 Y141.454 E9.14636
G1 X73.749 Y141.301 E9.69884
G1 X73.115 Y141.254 E9.7221
G1 X72.491 Y141.129 E9.74538
G1 X71.888 Y140.926 E9.76866
G1 X71.316 Y140.649 E9.79192
G1 X70.783 Y140.303 E9.81516
G1 X70.188 Y139.784 E9.84405
G1 X64.558 Y134.044 E10.13821
G1 X60.427 Y134.044 E10.28935
G1 X59.792 Y134.004 E10.31263
G1 X59.168 Y133.885 E10.33587
G1 X58.563 Y133.688 E10.35914
G1 X57.988 Y133.417 E10.3824
G1 X57.451 Y133.076 E10.40567
G1 X56.849 Y132.562 E10.43464
G1 X56.72 Y132.433 E10.44131
G1 X56.3 Y131.956 E10.46456
G1 X55.942 Y131.43 E10.48784
G1 X55.654 Y130.863 E10.51111
G1 X55.438 Y130.265 E10.53437
G1 X55.3 Y129.644 E10.55764
G1 X55.238 Y128.855 E10.5866
G1 X55.238 Y106.145 E11.41747
G1 X55.278 Y105.51 E11.44075
G1 X55.397 Y104.886 E11.46399
G1 X55.594 Y104.281 E11.48727
G1 X55.865 Y103.706 E11.51053
G1 X56.206 Y103.169 E11.5338
G1 X56.72 Y102.567 E11.56276
G1 X56.849 Y102.438 E11.56943
G1 X57.258 Y102.078 E11.58937
G0 F810 X57.326 Y102.018
G0 X57.852 Y101.66
M204 S5000
M205 X30 Y30
G0 F7200 X58.123 Y102.012
M204 S500
M205 X20 Y20
G1 F6000 E11.61597
G1 F900 X58.668 Y101.744 E11.63819
G1 X59.244 Y101.55 E11.66042
G1 X59.84 Y101.433 E11.68265
G1 X60.427 Y101.396 E11.70416
G1 X64.75 Y101.396 E11.86233
G1 X70.591 Y95.479 E12.16652
G1 X71.045 Y95.076 E12.18873
G1 X71.549 Y94.736 E12.21097
G1 X72.092 Y94.464 E12.23319
G1 X72.667 Y94.267 E12.25543
G1 X73.263 Y94.146 E12.27768
G1 X73.842 Y94.105 E12.29891
G1 X88.864 Y93.986 E12.84853
G1 X146.137 Y93.986 E14.94392
G1 X160.898 Y94.105 E15.48399
G1 X161.504 Y94.15 E15.50622
G1 X162.099 Y94.274 E15.52846
G1 X162.672 Y94.475 E15.55068
G1 X163.215 Y94.749 E15.57293
G1 X163.716 Y95.093 E15.59516
G1 X164.149 Y95.48 E15.61641
G1 X169.988 Y101.396 E15.92052
G1 X174.573 Y101.396 E16.08827
G1 X175.179 Y101.436 E16.11049
G1 X175.775 Y101.555 E16.13272
G1 X176.35 Y101.751 E16.15495
G1 X176.894 Y102.022 E16.17719
G1 X177.399 Y102.361 E16.19944
G1 X177.84 Y102.749 E16.22093
G1 X177.969 Y102.878 E16.2276
G1 X178.369 Y103.335 E16.24982
G1 X178.706 Y103.841 E16.27207
G1 X178.974 Y104.386 E16.29429
G1 X179.168 Y104.962 E16.31652
G1 X179.285 Y105.558 E16.33874
G1 X179.322 Y106.145 E16.36026
G1 X179.322 Y128.855 E17.19113
G1 X179.282 Y129.461 E17.21335
G1 X179.163 Y130.057 E17.23559
G1 X178.967 Y130.632 E17.25781
G1 X178.696 Y131.176 E17.28005
G1 X178.357 Y131.681 E17.3023
G1 X177.969 Y132.122 E17.32379
G1 X177.84 Y132.251 E17.33047
G1 X177.383 Y132.651 E17.35269
G1 X176.877 Y132.988 E17.37493
G1 X176.332 Y133.256 E17.39715
G1 X175.756 Y133.45 E17.41939
G1 X175.16 Y133.567 E17.44161
G1 X174.573 Y133.604 E17.46313
G1 X169.988 Y133.604 E17.63087
G1 X164.149 Y139.52 E17.93499
G1 X163.695 Y139.924 E17.95722
G1 X163.191 Y140.264 E17.97946
G1 X162.648 Y140.535 E18.00167
G1 X162.073 Y140.733 E18.02392
G1 X161.478 Y140.854 E18.04613
G1 X160.898 Y140.895 E18.0674
G1 X146.136 Y141.014 E18.60751
G1 X88.853 Y141.014 E20.70327
G1 X73.753 Y140.861 E21.25575
G1 X73.147 Y140.815 E21.27798
G1 X72.553 Y140.689 E21.3002
G1 X71.98 Y140.487 E21.32243
G1 X71.438 Y140.212 E21.34466
G1 X70.938 Y139.867 E21.36689
G1 X70.502 Y139.476 E21.38832
G1 X64.742 Y133.604 E21.68925
G1 X60.427 Y133.604 E21.84712
G1 X59.821 Y133.564 E21.86934
G1 X59.225 Y133.445 E21.89158
G1 X58.65 Y133.249 E21.9138
G1 X58.106 Y132.978 E21.93604
G1 X57.601 Y132.639 E21.95829
G1 X57.16 Y132.251 E21.97978
G1 X57.031 Y132.122 E21.98646
G1 X56.631 Y131.665 E22.00868
G1 X56.294 Y131.159 E22.03092
G1 X56.026 Y130.614 E22.05314
G1 X55.832 Y130.038 E22.07538
G1 X55.715 Y129.442 E22.0976
G1 X55.678 Y128.855 E22.11912
G1 X55.678 Y106.145 E22.94999
G1 X55.718 Y105.539 E22.97221
G1 X55.837 Y104.943 E22.99444
G1 X56.033 Y104.368 E23.01667
G1 X56.304 Y103.824 E23.0389
G1 X56.643 Y103.319 E23.06116
G1 X57.031 Y102.878 E23.08265
G1 X57.16 Y102.749 E23.08932
G1 X57.527 Y102.428 E23.10716
G0 F810 X57.617 Y102.349
G0 X58.123 Y102.012
M204 S5000
M205 X30 Y30
G0 F7200 X58.391 Y102.365
M204 S500
M205 X20 Y20
G1 F6000 E23.13376
G1 F900 X58.914 Y102.119 E23.1549
G1 X59.466 Y101.948 E23.17605
G1 X60.037 Y101.854 E23.19722
G1 X60.427 Y101.836 E23.2115
G1 X64.935 Y101.836 E23.37643
G1 X70.904 Y95.789 E23.6873
G1 X71.338 Y95.406 E23.70847
G1 X71.82 Y95.087 E23.72962
G1 X72.341 Y94.838 E23.75075
G1 X72.892 Y94.663 E23.7719
G1 X73.462 Y94.566 E23.79305
G1 X73.846 Y94.545 E23.80712
G1 X88.868 Y94.426 E24.35674
G1 X146.134 Y94.426 E26.45188
G1 X160.895 Y94.545 E26.99195
G1 X161.471 Y94.59 E27.01308
G1 X162.035 Y94.713 E27.0342
G1 X162.578 Y94.914 E27.05539
G1 X163.087 Y95.187 E27.07652
G1 X163.554 Y95.528 E27.09767
G1 X163.836 Y95.789 E27.11173
G1 X169.804 Y101.836 E27.42257
G1 X174.573 Y101.836 E27.59705
G1 X175.15 Y101.876 E27.61821
G1 X175.715 Y101.995 E27.63934
G1 X176.259 Y102.191 E27.66049
G1 X176.77 Y102.46 E27.68162
G1 X177.24 Y102.797 E27.70278
G1 X177.529 Y103.06 E27.71707
G1 X177.658 Y103.189 E27.72375
G1 X178.037 Y103.625 E27.74488
G1 X178.353 Y104.109 E27.76603
G1 X178.599 Y104.632 E27.78718
G1 X178.77 Y105.184 E27.80832
G1 X178.864 Y105.755 E27.82949
G1 X178.882 Y106.145 E27.84378
G1 X178.882 Y128.855 E28.67465
G1 X178.842 Y129.432 E28.69581
G1 X178.723 Y129.997 E28.71693
G1 X178.527 Y130.541 E28.73809
G1 X178.258 Y131.052 E28.75922
G1 X177.921 Y131.522 E28.78037
G1 X177.658 Y131.811 E28.79467
G1 X177.529 Y131.94 E28.80135
G1 X177.093 Y132.319 E28.82248
G1 X176.609 Y132.635 E28.84363
G1 X176.086 Y132.881 E28.86477
G1 X175.534 Y133.052 E28.88592
G1 X174.963 Y133.146 E28.90709
G1 X174.573 Y133.164 E28.92137
G1 X169.804 Y133.164 E29.09585
G1 X163.836 Y139.211 E29.40669
G1 X163.403 Y139.594 E29.42784
G1 X162.921 Y139.912 E29.44897
G1 X162.399 Y140.162 E29.47014
G1 X161.848 Y140.337 E29.49129
G1 X161.279 Y140.434 E29.51241
G1 X160.895 Y140.455 E29.52648
G1 X146.133 Y140.574 E30.06658
G1 X88.858 Y140.574 E32.16205
G1 X73.758 Y140.421 E32.71453
G1 X73.182 Y140.375 E32.73567
G1 X72.617 Y140.25 E32.75685
G1 X72.076 Y140.049 E32.77796
G1 X71.567 Y139.774 E32.79913
G1 X71.101 Y139.433 E32.82025
G1 X70.816 Y139.168 E32.83449
G1 X64.927 Y133.164 E33.14218
G1 X60.427 Y133.164 E33.30682
G1 X59.85 Y133.124 E33.32798
G1 X59.285 Y133.005 E33.3491
G1 X58.741 Y132.809 E33.37026
G1 X58.23 Y132.54 E33.39139
G1 X57.76 Y132.203 E33.41255
G1 X57.471 Y131.94 E33.42684
G1 X57.342 Y131.811 E33.43352
G1 X56.963 Y131.375 E33.45465
G1 X56.647 Y130.891 E33.4758
G1 X56.401 Y130.368 E33.49695
G1 X56.23 Y129.816 E33.51809
G1 X56.136 Y129.245 E33.53926
G1 X56.118 Y128.855 E33.55354
G1 X56.118 Y106.145 E34.38442
G1 X56.158 Y105.568 E34.40558
G1 X56.277 Y105.003 E34.4267
G1 X56.473 Y104.459 E34.44786
G1 X56.742 Y103.948 E34.46898
G1 X57.079 Y103.478 E34.49014
G1 X57.342 Y103.189 E34.50444
G1 X57.471 Y103.06 E34.51111
G1 X57.795 Y102.778 E34.52683
G0 F810 X57.907 Y102.681
G0 X58.391 Y102.365
M204 S5000
M205 X30 Y30
G0 F7200 X58.658 Y102.721
M204 S500
M205 X20 Y20
G1 F6000 E34.55343
G1 F900 X59.157 Y102.498 E34.57342
G1 X59.683 Y102.351 E34.59341
G1 X60.427 Y102.276 E34.62076
G1 X65.119 Y102.276 E34.79243
G1 X71.217 Y96.098 E35.11002
G1 X71.629 Y95.738 E35.13003
G1 X72.088 Y95.442 E35.15002
G1 X72.586 Y95.216 E35.17002
G1 X73.111 Y95.065 E35.19001
G1 X73.849 Y94.985 E35.21717
G1 X88.871 Y94.866 E35.76678
G1 X146.13 Y94.866 E37.86167
G1 X160.891 Y94.985 E38.40174
G1 X161.436 Y95.029 E38.42174
G1 X161.969 Y95.153 E38.44176
G1 X162.477 Y95.352 E38.46172
G1 X162.952 Y95.624 E38.48175
G1 X163.523 Y96.098 E38.5089
G1 X169.621 Y102.276 E38.82649
G1 X174.573 Y102.276 E39.00766
G1 X175.118 Y102.316 E39.02766
G1 X175.652 Y102.435 E39.04767
G1 X176.162 Y102.63 E39.06765
G1 X176.639 Y102.898 E39.08767
G1 X177.218 Y103.371 E39.11502
G1 X177.347 Y103.5 E39.1217
G1 X177.704 Y103.914 E39.1417
G1 X177.997 Y104.376 E39.16171
G1 X178.22 Y104.875 E39.18171
G1 X178.367 Y105.401 E39.20169
G1 X178.442 Y106.145 E39.22905
G1 X178.442 Y128.855 E40.05992
G1 X178.402 Y129.4 E40.07991
G1 X178.283 Y129.934 E40.09993
G1 X178.088 Y130.444 E40.1199
G1 X177.82 Y130.921 E40.13992
G1 X177.347 Y131.5 E40.16728
G1 X177.218 Y131.629 E40.17395
G1 X176.804 Y131.986 E40.19395
G1 X176.342 Y132.279 E40.21397
G1 X175.843 Y132.502 E40.23396
G1 X175.317 Y132.649 E40.25394
G1 X174.573 Y132.724 E40.2813
G1 X169.621 Y132.724 E40.46248
G1 X163.523 Y138.902 E40.78007
G1 X163.111 Y139.262 E40.80008
G1 X162.652 Y139.558 E40.82007
G1 X162.154 Y139.784 E40.84008
G1 X161.629 Y139.935 E40.86006
G1 X160.891 Y140.015 E40.88722
G1 X146.129 Y140.134 E41.42732
G1 X88.862 Y140.134 E43.5225
G1 X73.762 Y139.981 E44.07498
G1 X73.217 Y139.935 E44.09499
G1 X72.685 Y139.811 E44.11498
G1 X72.177 Y139.61 E44.13496
G1 X71.703 Y139.338 E44.15496
G1 X71.13 Y138.86 E44.18226
G1 X65.112 Y132.724 E44.4967
G1 X60.427 Y132.724 E44.66811
G1 X59.882 Y132.684 E44.6881
G1 X59.348 Y132.565 E44.70812
G1 X58.838 Y132.37 E44.72809
G1 X58.361 Y132.102 E44.74811
G1 X57.782 Y131.629 E44.77546
G1 X57.653 Y131.5 E44.78214
G1 X57.296 Y131.086 E44.80214
G1 X57.003 Y130.624 E44.82215
G1 X56.78 Y130.125 E44.84215
G1 X56.633 Y129.599 E44.86213
G1 X56.558 Y128.855 E44.88949
G1 X56.558 Y106.145 E45.72036
G1 X56.598 Y105.6 E45.74036
G1 X56.717 Y105.066 E45.76037
G1 X56.912 Y104.556 E45.78035
G1 X57.18 Y104.079 E45.80037
G1 X57.653 Y103.5 E45.82772
G1 X57.782 Y103.371 E45.83439
G1 X58.06 Y103.131 E45.84783
G0 F810 X58.196 Y103.014
G0 X58.658 Y102.721
M204 S5000
M205 X30 Y30
G0 F7200 X58.921 Y103.08
M204 S500
M205 X20 Y20
G1 F6000 E45.87443
G1 F900 X59.395 Y102.882 E45.89322
G1 X59.893 Y102.759 E45.91199
G1 X60.427 Y102.716 E45.93159
G1 X65.302 Y102.716 E46.10995
G1 X71.53 Y96.407 E46.43429
G1 X71.918 Y96.071 E46.45307
G1 X72.354 Y95.799 E46.47187
G1 X72.826 Y95.597 E46.49065
G1 X73.324 Y95.472 E46.50944
G1 X73.853 Y95.425 E46.52887
G1 X88.875 Y95.306 E47.07848
G1 X146.127 Y95.306 E49.17311
G1 X160.888 Y95.425 E49.71318
G1 X161.399 Y95.469 E49.73194
G1 X161.898 Y95.592 E49.75075
G1 X162.371 Y95.791 E49.76952
G1 X162.808 Y96.06 E49.7883
G1 X163.21 Y96.407 E49.80773
G1 X169.437 Y102.716 E50.13204
G1 X174.573 Y102.716 E50.31995
G1 X175.085 Y102.756 E50.33874
G1 X175.584 Y102.875 E50.35751
G1 X176.059 Y103.07 E50.37629
G1 X176.498 Y103.336 E50.39507
G1 X176.906 Y103.683 E50.41467
G1 X177.035 Y103.812 E50.42134
G1 X177.369 Y104.202 E50.44013
G1 X177.638 Y104.639 E50.4589
G1 X177.836 Y105.113 E50.4777
G1 X177.959 Y105.611 E50.49646
G1 X178.002 Y106.145 E50.51606
G1 X178.002 Y128.855 E51.34694
G1 X177.962 Y129.367 E51.36572
G1 X177.843 Y129.866 E51.38449
G1 X177.648 Y130.341 E51.40328
G1 X177.382 Y130.78 E51.42206
G1 X177.035 Y131.188 E51.44165
G1 X176.906 Y131.317 E51.44833
G1 X176.516 Y131.651 E51.46712
G1 X176.079 Y131.92 E51.48589
G1 X175.605 Y132.118 E51.50468
G1 X175.107 Y132.241 E51.52345
G1 X174.573 Y132.284 E51.54305
G1 X169.437 Y132.284 E51.73096
G1 X163.21 Y138.593 E52.05527
G1 X162.822 Y138.929 E52.07405
G1 X162.386 Y139.201 E52.09285
G1 X161.914 Y139.403 E52.11164
G1 X161.416 Y139.528 E52.13042
G1 X160.888 Y139.575 E52.14982
G1 X146.126 Y139.694 E52.68992
G1 X88.867 Y139.694 E54.78481
G1 X73.767 Y139.541 E55.33728
G1 X73.255 Y139.496 E55.35609
G1 X72.757 Y139.372 E55.37487
G1 X72.284 Y139.172 E55.39365
G1 X71.848 Y138.901 E55.41244
G1 X71.444 Y138.552 E55.43197
G1 X65.296 Y132.284 E55.75319
G1 X60.427 Y132.284 E55.93133
G1 X59.915 Y132.244 E55.95012
G1 X59.416 Y132.125 E55.96888
G1 X58.941 Y131.93 E55.98767
G1 X58.502 Y131.664 E56.00645
G1 X58.094 Y131.317 E56.02605
G1 X57.965 Y131.188 E56.03272
G1 X57.631 Y130.798 E56.05151
G1 X57.362 Y130.361 E56.07028
G1 X57.164 Y129.887 E56.08907
G1 X57.041 Y129.389 E56.10784
G1 X56.998 Y128.855 E56.12744
G1 X56.998 Y106.145 E56.95831
G1 X57.038 Y105.633 E56.9771
G1 X57.157 Y105.134 E56.99587
G1 X57.352 Y104.659 E57.01466
G1 X57.618 Y104.22 E57.03344
G1 X57.965 Y103.812 E57.05303
G1 X58.094 Y103.683 E57.05971
G1 X58.322 Y103.488 E57.07068
G0 F810 X58.484 Y103.349
G0 X58.921 Y103.08
M204 S5000
M205 X30 Y30
G0 F7200 X59.181 Y103.442
M204 S500
M205 X20 Y20
G1 F6000 E57.09728
G1 F900 X59.627 Y103.27 E57.11477
G1 X60.095 Y103.175 E57.13224
G1 X60.427 Y103.156 E57.14441
G1 X65.487 Y103.156 E57.32953
G1 X71.844 Y96.716 E57.6606
G1 X72.207 Y96.405 E57.67809
G1 X72.616 Y96.159 E57.69555
G1 X73.061 Y95.984 E57.71305
G1 X73.529 Y95.887 E57.73053
G1 X73.856 Y95.865 E57.74253
G1 X88.878 Y95.746 E58.29214
G1 X146.123 Y95.746 E60.38651
G1 X160.884 Y95.865 E60.92658
G1 X161.36 Y95.909 E60.94407
G1 X161.822 Y96.031 E60.96155
G1 X162.257 Y96.229 E60.97904
G1 X162.653 Y96.496 E60.99651
G1 X162.897 Y96.716 E61.00853
G1 X169.253 Y103.156 E61.33957
G1 X174.573 Y103.156 E61.53421
G1 X175.049 Y103.196 E61.55169
G1 X175.512 Y103.315 E61.56918
G1 X175.949 Y103.509 E61.58667
G1 X176.347 Y103.773 E61.60415
G1 X176.595 Y103.994 E61.6163
G1 X176.724 Y104.123 E61.62297
G1 X177.033 Y104.488 E61.64047
G1 X177.276 Y104.899 E61.65794
G1 X177.448 Y105.345 E61.67543
G1 X177.543 Y105.813 E61.6929
G1 X177.562 Y106.145 E61.70507
G1 X177.562 Y128.855 E62.53594
G1 X177.522 Y129.331 E62.55341
G1 X177.403 Y129.794 E62.5709
G1 X177.209 Y130.231 E62.5884
G1 X176.945 Y130.629 E62.60587
G1 X176.724 Y130.877 E62.61802
G1 X176.595 Y131.006 E62.6247
G1 X176.23 Y131.315 E62.64219
G1 X175.819 Y131.558 E62.65966
G1 X175.373 Y131.73 E62.67715
G1 X174.905 Y131.825 E62.69462
G1 X174.573 Y131.844 E62.70679
G1 X169.253 Y131.844 E62.90143
G1 X162.897 Y138.284 E63.23247
G1 X162.534 Y138.595 E63.24996
G1 X162.124 Y138.841 E63.26745
G1 X161.679 Y139.016 E63.28495
G1 X161.211 Y139.113 E63.30243
G1 X160.884 Y139.135 E63.31442
G1 X146.122 Y139.254 E63.85453
G1 X88.871 Y139.254 E65.94912
G1 X73.771 Y139.101 E66.5016
