;FLAVOR:Marlin
;TIME:7642
;Filament used: 5.00019m
;Layer height: 0.16
;Generated with Cura_SteamEngine 3.6.0
M140 S70
M105
M190 S70
M104 S215
M105
M109 S215
M82 ;absolute extrusion mode
G28 ; home all axes
M117 Purge extruder
G92 E0 ; reset extruder
G1 Z1.0 F3000 ; move z up little to prevent scratching of surface
G1 X0.1 Y20 Z0.3 F5000.0 ; move to start-line position G1 X0.1 Y200.0 Z0.3 F1500.0 E15 ; draw 1st line
G1 X0.4 Y200.0 Z0.3 F5000.0 ; move to side a little
G1 X0.4 Y20 Z0.3 F1500.0 E30 ; draw 2nd line
G92 E0 ; reset extruder
G1 Z1.0 F3000 ; move z up little to prevent scratching of surface
M117 All systems go!
G92 E0
G1 F6000 E-5
;LAYER_COUNT:44
;LAYER:0
M107
M204 S5000
M205 X30 Y30
G0 F7200 X93.067 Y55.19 Z0.2
M204 S500
M205 X20 Y20
;TYPE:SKIRT
G1 F6000 E0
G1 F900 X93.408 Y54.653 E0.02327
G1 X93.922 Y54.051 E0.05223
G1 X94.051 Y53.922 E0.05891
G1 X94.528 Y53.502 E0.08216
G1 X95.054 Y53.144 E0.10544
G1 X95.621 Y52.856 E0.12871
G1 X96.219 Y52.64 E0.15197
G1 X96.84 Y52.502 E0.17524
G1 X97.629 Y52.44 E0.2042
G1 X137.371 Y52.44 E1.65821
G1 X138.006 Y52.48 E1.68148
G1 X138.63 Y52.599 E1.70472
G1 X139.235 Y52.796 E1.728
G1 X139.81 Y53.067 E1.75126
G1 X140.347 Y53.408 E1.77453
G1 X140.949 Y53.922 E1.80349
G1 X141.078 Y54.051 E1.81017
G1 X141.498 Y54.528 E1.83342
G1 X141.856 Y55.054 E1.8567
G1 X142.144 Y55.621 E1.87997
G1 X142.36 Y56.219 E1.90323
G1 X142.498 Y56.84 E1.9265
G1 X142.56 Y57.629 E1.95546
G1 X142.56 Y177.371 E6.33636
G1 X142.52 Y178.006 E6.35963
G1 X142.401 Y178.63 E6.38288
G1 X142.204 Y179.235 E6.40615
G1 X141.933 Y179.81 E6.42941
G1 X141.592 Y180.347 E6.45268
G1 X141.078 Y180.949 E6.48165
G1 X140.949 Y181.078 E6.48832
G1 X140.472 Y181.498 E6.51157
G1 X139.946 Y181.856 E6.53485
G1 X139.379 Y182.144 E6.55812
G1 X138.781 Y182.36 E6.58138
G1 X138.16 Y182.498 E6.60465
G1 X137.371 Y182.56 E6.63361
G1 X97.629 Y182.56 E8.08762
G1 X96.994 Y182.52 E8.11089
G1 X96.37 Y182.401 E8.13414
G1 X95.765 Y182.204 E8.15741
G1 X95.19 Y181.933 E8.18067
G1 X94.653 Y181.592 E8.20394
G1 X94.051 Y181.078 E8.2329
G1 X93.922 Y180.949 E8.23958
G1 X93.502 Y180.472 E8.26283
G1 X93.144 Y179.946 E8.28611
G1 X92.856 Y179.379 E8.30938
G1 X92.64 Y178.781 E8.33264
G1 X92.502 Y178.16 E8.35591
G1 X92.44 Y177.371 E8.38487
G1 X92.44 Y57.629 E12.76577
G1 X92.48 Y56.994 E12.78905
G1 X92.599 Y56.37 E12.81229
G1 X92.768 Y55.852 E12.83222
G0 F810 X92.796 Y55.765
G0 X93.067 Y55.19
M204 S5000
M205 X30 Y30
G0 F7200 X93.506 Y55.308
M204 S500
M205 X20 Y20
G1 F6000 E12.85882
G1 F900 X93.845 Y54.803 E12.88107
G1 X94.233 Y54.362 E12.90256
G1 X94.362 Y54.233 E12.90924
G1 X94.819 Y53.833 E12.93146
G1 X95.325 Y53.496 E12.9537
G1 X95.87 Y53.228 E12.97592
G1 X96.446 Y53.034 E12.99816
G1 X97.042 Y52.917 E13.02038
G1 X97.629 Y52.88 E13.0419
G1 X137.371 Y52.88 E14.4959
G1 X137.977 Y52.92 E14.51812
G1 X138.573 Y53.039 E14.54036
G1 X139.148 Y53.235 E14.56258
G1 X139.692 Y53.506 E14.58482
G1 X140.197 Y53.845 E14.60707
G1 X140.638 Y54.233 E14.62856
G1 X140.767 Y54.362 E14.63524
G1 X141.167 Y54.819 E14.65746
G1 X141.504 Y55.325 E14.6797
G1 X141.772 Y55.87 E14.70192
G1 X141.966 Y56.446 E14.72416
G1 X142.083 Y57.042 E14.74638
G1 X142.12 Y57.629 E14.7679
G1 X142.12 Y177.371 E19.1488
G1 X142.08 Y177.977 E19.17102
G1 X141.961 Y178.573 E19.19325
G1 X141.765 Y179.148 E19.21548
G1 X141.494 Y179.692 E19.23771
G1 X141.155 Y180.197 E19.25997
G1 X140.767 Y180.638 E19.28146
G1 X140.638 Y180.767 E19.28813
G1 X140.181 Y181.167 E19.31035
G1 X139.675 Y181.504 E19.33259
G1 X139.13 Y181.772 E19.35481
G1 X138.554 Y181.966 E19.37705
G1 X137.958 Y182.083 E19.39927
G1 X137.371 Y182.12 E19.42079
G1 X97.629 Y182.12 E20.8748
G1 X97.023 Y182.08 E20.89702
G1 X96.427 Y181.961 E20.91925
G1 X95.852 Y181.765 E20.94148
G1 X95.308 Y181.494 E20.96371
G1 X94.803 Y181.155 E20.98597
G1 X94.362 Y180.767 E21.00746
G1 X94.233 Y180.638 E21.01413
G1 X93.833 Y180.181 E21.03635
G1 X93.496 Y179.675 E21.05859
G1 X93.228 Y179.13 E21.08081
G1 X93.034 Y178.554 E21.10305
G1 X92.917 Y177.958 E21.12527
G1 X92.88 Y177.371 E21.14679
G1 X92.88 Y57.629 E25.52769
G1 X92.92 Y57.023 E25.54991
G1 X93.039 Y56.427 E25.57214
G1 X93.197 Y55.965 E25.59001
G0 F810 X93.235 Y55.852
G0 X93.506 Y55.308
M204 S5000
M205 X30 Y30
G0 F7200 X93.944 Y55.432
M204 S500
M205 X20 Y20
G1 F6000 E25.61661
G1 F900 X94.281 Y54.962 E25.63776
G1 X94.544 Y54.673 E25.65206
G1 X94.673 Y54.544 E25.65874
G1 X95.109 Y54.165 E25.67987
G1 X95.593 Y53.849 E25.70102
G1 X96.116 Y53.603 E25.72216
G1 X96.668 Y53.432 E25.74331
G1 X97.239 Y53.338 E25.76448
G1 X97.629 Y53.32 E25.77876
G1 X137.371 Y53.32 E27.23277
G1 X137.948 Y53.36 E27.25393
G1 X138.513 Y53.479 E27.27505
G1 X139.057 Y53.675 E27.29621
G1 X139.568 Y53.944 E27.31734
G1 X140.038 Y54.281 E27.3385
G1 X140.327 Y54.544 E27.35279
G1 X140.456 Y54.673 E27.35947
G1 X140.835 Y55.109 E27.3806
G1 X141.151 Y55.593 E27.40175
G1 X141.397 Y56.116 E27.4229
G1 X141.568 Y56.668 E27.44404
G1 X141.662 Y57.239 E27.46521
G1 X141.68 Y57.629 E27.47949
G1 X141.68 Y177.371 E31.86039
G1 X141.64 Y177.948 E31.88155
G1 X141.521 Y178.513 E31.90268
G1 X141.325 Y179.057 E31.92383
G1 X141.056 Y179.568 E31.94496
G1 X140.719 Y180.038 E31.96612
G1 X140.456 Y180.327 E31.98042
G1 X140.327 Y180.456 E31.98709
G1 X139.891 Y180.835 E32.00823
G1 X139.407 Y181.151 E32.02937
G1 X138.884 Y181.397 E32.05052
G1 X138.332 Y181.568 E32.07166
G1 X137.761 Y181.662 E32.09283
G1 X137.371 Y181.68 E32.10712
G1 X97.629 Y181.68 E33.56113
G1 X97.052 Y181.64 E33.58229
G1 X96.487 Y181.521 E33.60341
G1 X95.943 Y181.325 E33.62457
G1 X95.432 Y181.056 E33.64569
G1 X94.962 Y180.719 E33.66685
G1 X94.673 Y180.456 E33.68115
G1 X94.544 Y180.327 E33.68782
G1 X94.165 Y179.891 E33.70896
G1 X93.849 Y179.407 E33.73011
G1 X93.603 Y178.884 E33.75125
G1 X93.432 Y178.332 E33.7724
G1 X93.338 Y177.761 E33.79357
G1 X93.32 Y177.371 E33.80785
G1 X93.32 Y57.629 E38.18875
G1 X93.36 Y57.052 E38.20991
G1 X93.479 Y56.487 E38.23103
G1 X93.625 Y56.084 E38.24672
G0 F810 X93.675 Y55.943
G0 X93.944 Y55.432
M204 S5000
M205 X30 Y30
G0 F7200 X94.114 Y56.04
M204 S500
M205 X20 Y20
G1 F6000 E38.27331
G1 F900 X94.382 Y55.563 E38.29333
G1 X94.855 Y54.984 E38.32069
G1 X94.984 Y54.855 E38.32736
G1 X95.398 Y54.498 E38.34736
G1 X95.86 Y54.205 E38.36738
G1 X96.359 Y53.982 E38.38737
G1 X96.885 Y53.835 E38.40735
G1 X97.629 Y53.76 E38.43471
G1 X137.371 Y53.76 E39.88872
G1 X137.916 Y53.8 E39.90871
G1 X138.45 Y53.919 E39.92873
G1 X138.96 Y54.114 E39.9487
G1 X139.437 Y54.382 E39.96872
G1 X140.016 Y54.855 E39.99608
G1 X140.145 Y54.984 E40.00275
G1 X140.502 Y55.398 E40.02275
G1 X140.795 Y55.86 E40.04277
G1 X141.018 Y56.359 E40.06276
G1 X141.165 Y56.885 E40.08274
G1 X141.24 Y57.629 E40.1101
G1 X141.24 Y177.371 E44.491
G1 X141.2 Y177.916 E44.51099
G1 X141.081 Y178.45 E44.53101
G1 X140.886 Y178.96 E44.55099
G1 X140.618 Y179.437 E44.571
G1 X140.145 Y180.016 E44.59836
G1 X140.016 Y180.145 E44.60503
G1 X139.602 Y180.502 E44.62503
G1 X139.14 Y180.795 E44.64505
G1 X138.641 Y181.018 E44.66504
G1 X138.115 Y181.165 E44.68503
G1 X137.371 Y181.24 E44.71238
G1 X97.629 Y181.24 E46.16639
G1 X97.084 Y181.2 E46.18638
G1 X96.55 Y181.081 E46.2064
G1 X96.04 Y180.886 E46.22638
G1 X95.563 Y180.618 E46.24639
G1 X94.984 Y180.145 E46.27375
G1 X94.855 Y180.016 E46.28042
G1 X94.498 Y179.602 E46.30042
G1 X94.205 Y179.14 E46.32044
G1 X93.982 Y178.641 E46.34043
G1 X93.835 Y178.115 E46.36042
G1 X93.76 Y177.371 E46.38777
G1 X93.76 Y57.629 E50.76867
G1 X93.8 Y57.084 E50.78867
G1 X93.88 Y56.726 E50.80209
G0 F810 X93.919 Y56.55
G0 X94.114 Y56.04
M204 S5000
M205 X30 Y30
G0 F7200 X94.554 Y56.143
M204 S500
M205 X20 Y20
G1 F6000 E50.82868
G1 F900 X94.82 Y55.704 E50.84746
G1 X95.167 Y55.296 E50.86706
G1 X95.296 Y55.167 E50.87373
G1 X95.686 Y54.833 E50.89252
G1 X96.123 Y54.564 E50.9113
G1 X96.597 Y54.366 E50.93009
G1 X97.095 Y54.243 E50.94886
G1 X97.629 Y54.2 E50.96846
G1 X137.371 Y54.2 E52.42246
G1 X137.883 Y54.24 E52.44125
G1 X138.382 Y54.359 E52.46002
G1 X138.857 Y54.554 E52.47881
G1 X139.296 Y54.82 E52.49759
G1 X139.704 Y55.167 E52.51718
G1 X139.833 Y55.296 E52.52386
G1 X140.167 Y55.686 E52.54264
G1 X140.436 Y56.123 E52.56142
G1 X140.634 Y56.597 E52.58021
G1 X140.757 Y57.095 E52.59898
G1 X140.8 Y57.629 E52.61858
G1 X140.8 Y177.371 E56.99948
G1 X140.76 Y177.883 E57.01827
G1 X140.641 Y178.382 E57.03704
G1 X140.446 Y178.857 E57.05582
G1 X140.18 Y179.296 E57.0746
G1 X139.833 Y179.704 E57.0942
G1 X139.704 Y179.833 E57.10087
G1 X139.314 Y180.167 E57.11966
G1 X138.877 Y180.436 E57.13843
G1 X138.403 Y180.634 E57.15723
G1 X137.905 Y180.757 E57.17599
G1 X137.371 Y180.8 E57.19559
G1 X97.629 Y180.8 E58.6496
G1 X97.117 Y180.76 E58.66839
G1 X96.618 Y180.641 E58.68716
G1 X96.143 Y180.446 E58.70594
G1 X95.704 Y180.18 E58.72472
G1 X95.296 Y179.833 E58.74432
G1 X95.167 Y179.704 E58.75099
G1 X94.833 Y179.314 E58.76978
G1 X94.564 Y178.877 E58.78855
G1 X94.366 Y178.403 E58.80735
G1 X94.243 Y177.905 E58.82612
G1 X94.2 Y177.371 E58.84572
G1 X94.2 Y57.629 E63.22661
G1 X94.24 Y57.117 E63.2454
G1 X94.31 Y56.826 E63.25635
G0 F810 X94.359 Y56.618
G0 X94.554 Y56.143
M204 S5000
M205 X30 Y30
G0 F7200 X94.993 Y56.253
M204 S500
M205 X20 Y20
G1 F6000 E63.28295
G1 F900 X95.257 Y55.855 E63.30043
G1 X95.478 Y55.607 E63.31258
G1 X95.607 Y55.478 E63.31925
G1 X95.972 Y55.169 E63.33675
G1 X96.383 Y54.926 E63.35422
G1 X96.829 Y54.754 E63.37171
G1 X97.297 Y54.659 E63.38918
G1 X97.629 Y54.64 E63.40135
G1 X137.371 Y54.64 E64.85535
G1 X137.847 Y54.68 E64.87283
G1 X138.31 Y54.799 E64.89032
G1 X138.747 Y54.993 E64.90781
G1 X139.145 Y55.257 E64.92528
G1 X139.393 Y55.478 E64.93744
G1 X139.522 Y55.607 E64.94411
G1 X139.831 Y55.972 E64.96161
G1 X140.074 Y56.383 E64.97908
G1 X140.246 Y56.829 E64.99657
G1 X140.341 Y57.297 E65.01404
G1 X140.36 Y57.629 E65.0262
G1 X140.36 Y177.371 E69.4071
G1 X140.32 Y177.847 E69.42458
G1 X140.201 Y178.31 E69.44207
G1 X140.007 Y178.747 E69.45956
G1 X139.743 Y179.145 E69.47704
G1 X139.522 Y179.393 E69.48919
G1 X139.393 Y179.522 E69.49586
G1 X139.028 Y179.831 E69.51336
G1 X138.617 Y180.074 E69.53083
G1 X138.171 Y180.246 E69.54832
G1 X137.703 Y180.341 E69.56579
G1 X137.371 Y180.36 E69.57796
G1 X97.629 Y180.36 E71.03196
G1 X97.153 Y180.32 E71.04944
G1 X96.69 Y180.201 E71.06693
G1 X96.253 Y180.007 E71.08442
G1 X95.855 Y179.743 E71.10189
G1 X95.607 Y179.522 E71.11405
G1 X95.478 Y179.393 E71.12072
G1 X95.169 Y179.028 E71.13822
G1 X94.926 Y178.617 E71.15569
G1 X94.754 Y178.171 E71.17318
G1 X94.659 Y177.703 E71.19065
G1 X94.64 Y177.371 E71.20281
G1 X94.64 Y57.629 E75.58371
G1 X94.68 Y57.153 E75.60119
G1 X94.738 Y56.931 E75.60958
G0 F810 X94.799 Y56.69
G0 X94.993 Y56.253
M204 S5000
M205 X30 Y30
G0 F7200 X95.431 Y56.373
M204 S500
M205 X20 Y20
G1 F6000 E75.63618
G1 F900 X95.789 Y55.918 E75.65736
G1 X95.918 Y55.789 E75.66404
G1 X96.256 Y55.508 E75.68012
G1 X96.639 Y55.292 E75.69621
G1 X97.054 Y55.149 E75.71227
G1 X97.629 Y55.08 E75.73345
G1 X137.371 Y55.08 E77.18746
G1 X137.809 Y55.12 E77.20355
G1 X138.232 Y55.238 E77.21962
G1 X138.627 Y55.431 E77.2357
G1 X139.082 Y55.789 E77.25689
G1 X139.211 Y55.918 E77.26356
G1 X139.492 Y56.256 E77.27964
G1 X139.708 Y56.639 E77.29573
G1 X139.851 Y57.054 E77.31179
G1 X139.92 Y57.629 E77.33298
G1 X139.92 Y177.371 E81.71387
G1 X139.88 Y177.809 E81.72997
G1 X139.762 Y178.232 E81.74603
G1 X139.569 Y178.627 E81.76212
G1 X139.211 Y179.082 E81.7833
G1 X139.082 Y179.211 E81.78997
G1 X138.744 Y179.492 E81.80606
G1 X138.361 Y179.708 E81.82214
G1 X137.946 Y179.851 E81.8382
G1 X137.371 Y179.92 E81.85939
G1 X97.629 Y179.92 E83.3134
G1 X97.191 Y179.88 E83.32949
G1 X96.768 Y179.762 E83.34555
G1 X96.373 Y179.569 E83.36164
G1 X95.918 Y179.211 E83.38282
G1 X95.789 Y179.082 E83.3895
G1 X95.508 Y178.744 E83.40558
G1 X95.292 Y178.361 E83.42166
G1 X95.149 Y177.946 E83.43772
G1 X95.08 Y177.371 E83.45891
G1 X95.08 Y57.629 E87.83981
G1 X95.12 Y57.191 E87.8559
G1 X95.161 Y57.045 E87.86145
G0 F810 X95.238 Y56.768
G0 X95.431 Y56.373
M204 S5000
M205 X30 Y30
G0 F7200 X95.678 Y56.854
M204 S500
M205 X20 Y20
G1 F6000 E87.88805
G1 F900 X95.87 Y56.506 E87.90259
G1 X96.1 Y56.229 E87.91576
G1 X96.229 Y56.1 E87.92244
G1 X96.537 Y55.848 E87.937
G1 X96.889 Y55.664 E87.95153
G1 X97.27 Y55.553 E87.96605
G1 X97.629 Y55.52 E87.97924
G1 X137.371 Y55.52 E89.43324
G1 X137.766 Y55.56 E89.44777
G1 X138.146 Y55.678 E89.46233
G1 X138.494 Y55.87 E89.47687
G1 X138.771 Y56.1 E89.49004
G1 X138.9 Y56.229 E89.49671
G1 X139.152 Y56.537 E89.51127
G1 X139.336 Y56.889 E89.52581
G1 X139.447 Y57.27 E89.54032
G1 X139.48 Y57.629 E89.55351
G1 X139.48 Y177.371 E93.93441
G1 X139.44 Y177.766 E93.94894
G1 X139.322 Y178.146 E93.9635
G1 X139.13 Y178.494 E93.97804
G1 X138.9 Y178.771 E93.99121
G1 X138.771 Y178.9 E93.99788
G1 X138.463 Y179.152 E94.01244
G1 X138.111 Y179.336 E94.02698
G1 X137.73 Y179.447 E94.04149
G1 X137.371 Y179.48 E94.05468
G1 X97.629 Y179.48 E95.50869
G1 X97.234 Y179.44 E95.52322
G1 X96.854 Y179.322 E95.53777
G1 X96.506 Y179.13 E95.55231
G1 X96.229 Y178.9 E95.56549
G1 X96.1 Y178.771 E95.57216
G1 X95.848 Y178.463 E95.58672
G1 X95.664 Y178.111 E95.60125
G1 X95.553 Y177.73 E95.61577
G1 X95.52 Y177.371 E95.62896
G1 X95.52 Y57.629 E100.00986
G1 X95.527 Y57.562 E100.01233
G0 F810 X95.56 Y57.234
G0 X95.678 Y56.854
M204 S5000
M205 X30 Y30
G0 F7200 X96.117 Y56.951
M204 S500
M205 X20 Y20
G1 F6000 E100.03892
G1 F900 X96.411 Y56.54 E100.05741
G1 X96.54 Y56.411 E100.06409
G1 X96.814 Y56.193 E100.0769
G1 X97.131 Y56.043 E100.08973
G1 X97.629 Y55.96 E100.1082
G1 X137.371 Y55.96 E101.5622
G1 X137.719 Y56 E101.57502
G1 X138.049 Y56.117 E101.58783
G1 X138.46 Y56.411 E101.60632
G1 X138.589 Y56.54 E101.61299
G1 X138.807 Y56.814 E101.6258
G1 X138.957 Y57.131 E101.63863
G1 X139.04 Y57.629 E101.65711
G1 X139.04 Y177.371 E106.038
G1 X139 Y177.719 E106.05082
G1 X138.883 Y178.049 E106.06363
G1 X138.589 Y178.46 E106.08212
G1 X138.46 Y178.589 E106.08879
G1 X138.186 Y178.807 E106.1016
G1 X137.869 Y178.957 E106.11443
G1 X137.371 Y179.04 E106.1329
G1 X97.629 Y179.04 E107.58691
G1 X97.281 Y179 E107.59973
G1 X96.951 Y178.883 E107.61254
G1 X96.54 Y178.589 E107.63102
G1 X96.411 Y178.46 E107.6377
G1 X96.193 Y178.186 E107.65051
G1 X96.043 Y177.869 E107.66334
G1 X95.96 Y177.371 E107.68181
G1 X95.96 Y57.656 E112.06172
G0 F810 X95.96 Y57.629
G0 X96 Y57.281
G0 X96.117 Y56.951
M204 S5000
M205 X30 Y30
G0 F7200 X96.556 Y57.064
M204 S500
M205 X20 Y20
G1 F6000 E112.08832
G1 F900 X96.722 Y56.851 E112.0982
G1 X96.851 Y56.722 E112.10487
G1 X97.087 Y56.543 E112.11571
G1 X97.362 Y56.433 E112.12655
G1 X97.629 Y56.4 E112.13639
G1 X137.371 Y56.4 E113.5904
G1 X137.664 Y56.44 E113.60122
G1 X137.936 Y56.556 E113.61204
G1 X138.149 Y56.722 E113.62192
G1 X138.278 Y56.851 E113.62859
G1 X138.457 Y57.087 E113.63943
G1 X138.567 Y57.362 E113.65026
G1 X138.6 Y57.629 E113.66011
G1 X138.6 Y177.371 E118.041
G1 X138.56 Y177.664 E118.05182
G1 X138.444 Y177.936 E118.06264
G1 X138.278 Y178.149 E118.07252
G1 X138.149 Y178.278 E118.0792
G1 X137.913 Y178.457 E118.09003
G1 X137.638 Y178.567 E118.10087
G1 X137.371 Y178.6 E118.11071
G1 X97.629 Y178.6 E119.56472
G1 X97.336 Y178.56 E119.57554
G1 X97.064 Y178.444 E119.58636
G1 X96.851 Y178.278 E119.59624
G1 X96.722 Y178.149 E119.60291
G1 X96.543 Y177.913 E119.61375
G1 X96.433 Y177.638 E119.62459
G1 X96.4 Y177.371 E119.63443
G1 X96.4 Y57.766 E124.01031
G0 F810 X96.4 Y57.629
G0 X96.44 Y57.336
G0 X96.556 Y57.064
M204 S5000
M205 X30 Y30
G0 F7200 X96.88 Y57.404
M204 S500
M205 X20 Y20
G1 F6000 E124.03691
G1 F900 X97.033 Y57.162 E124.04739
G1 X97.162 Y57.033 E124.05406
G1 X97.35 Y56.902 E124.06245
G1 X97.629 Y56.84 E124.0729
G1 X137.371 Y56.84 E125.52691
G1 X137.596 Y56.88 E125.53527
G1 X137.838 Y57.033 E125.54574
G1 X137.967 Y57.162 E125.55242
G1 X138.098 Y57.35 E125.5608
G1 X138.16 Y57.629 E125.57126
G1 X138.16 Y177.371 E129.95216
G1 X138.12 Y177.596 E129.96052
G1 X137.967 Y177.838 E129.97099
G1 X137.838 Y177.967 E129.97767
G1 X137.65 Y178.098 E129.98605
G1 X137.371 Y178.16 E129.99651
G1 X97.629 Y178.16 E131.45051
G1 X97.404 Y178.12 E131.45888
G1 X97.162 Y177.967 E131.46935
G1 X97.033 Y177.838 E131.47602
G1 X96.902 Y177.65 E131.48441
G1 X96.84 Y177.371 E131.49486
G1 X96.84 Y58.128 E135.85751
G0 F810 X96.84 Y57.629
