;FLAVOR:Marlin
;TIME:6350
;Filament used: 4.17658m
;Layer height: 0.16
;Generated with Cura_SteamEngine 3.6.0
M140 S70
M105
M190 S70
M104 S215
M105
M109 S215
M82 ;absolute extrusion mode
G28 ; home all axes
M117 Purge extruder
G92 E0 ; reset extruder
G1 Z1.0 F3000 ; move z up little to prevent scratching of surface
G1 X0.1 Y20 Z0.3 F5000.0 ; move to start-line position G1 X0.1 Y200.0 Z0.3 F1500.0 E15 ; draw 1st line
G1 X0.4 Y200.0 Z0.3 F5000.0 ; move to side a little
G1 X0.4 Y20 Z0.3 F1500.0 E30 ; draw 2nd line
G92 E0 ; reset extruder
G1 Z1.0 F3000 ; move z up little to prevent scratching of surface
M117 All systems go!
G92 E0
G1 F6000 E-5
;LAYER_COUNT:44
;LAYER:0
M107
M204 S5000
M205 X30 Y30
G0 F7200 X93.408 Y64.653 Z0.2
M204 S500
M205 X20 Y20
;TYPE:SKIRT
G1 F6000 E0
G1 F900 X93.922 Y64.051 E0.02896
G1 X94.051 Y63.922 E0.03564
G1 X94.528 Y63.502 E0.05889
G1 X95.054 Y63.144 E0.08217
G1 X95.621 Y62.856 E0.10543
G1 X96.219 Y62.64 E0.1287
G1 X96.84 Y62.502 E0.15197
G1 X97.629 Y62.44 E0.18093
G1 X137.371 Y62.44 E1.63493
G1 X138.006 Y62.48 E1.65821
G1 X138.63 Y62.599 E1.68145
G1 X139.235 Y62.796 E1.70473
G1 X139.81 Y63.067 E1.72799
G1 X140.347 Y63.408 E1.75126
G1 X140.949 Y63.922 E1.78022
G1 X141.078 Y64.051 E1.78689
G1 X141.498 Y64.528 E1.81015
G1 X141.856 Y65.054 E1.83343
G1 X142.144 Y65.621 E1.85669
G1 X142.36 Y66.219 E1.87996
G1 X142.498 Y66.84 E1.90323
G1 X142.56 Y67.629 E1.93218
G1 X142.56 Y167.371 E5.58136
G1 X142.52 Y168.006 E5.60464
G1 X142.401 Y168.63 E5.62788
G1 X142.204 Y169.235 E5.65116
G1 X141.933 Y169.81 E5.67441
G1 X141.592 Y170.347 E5.69769
G1 X141.078 Y170.949 E5.72665
G1 X140.949 Y171.078 E5.73332
G1 X140.472 Y171.498 E5.75658
G1 X139.946 Y171.856 E5.77985
G1 X139.379 Y172.144 E5.80312
G1 X138.781 Y172.36 E5.82638
G1 X138.16 Y172.498 E5.84966
G1 X137.371 Y172.56 E5.87861
G1 X97.629 Y172.56 E7.33262
G1 X96.994 Y172.52 E7.3559
G1 X96.37 Y172.401 E7.37914
G1 X95.765 Y172.204 E7.40242
G1 X95.19 Y171.933 E7.42567
G1 X94.653 Y171.592 E7.44895
G1 X94.051 Y171.078 E7.47791
G1 X93.922 Y170.949 E7.48458
G1 X93.502 Y170.472 E7.50784
G1 X93.144 Y169.946 E7.53111
G1 X92.856 Y169.379 E7.55438
G1 X92.64 Y168.781 E7.57764
G1 X92.502 Y168.16 E7.60092
G1 X92.44 Y167.371 E7.62987
G1 X92.44 Y67.629 E11.27905
G1 X92.48 Y66.994 E11.30233
G1 X92.599 Y66.37 E11.32557
G1 X92.796 Y65.765 E11.34885
G1 X93.029 Y65.272 E11.3688
G0 F810 X93.067 Y65.19
G0 X93.408 Y64.653
M204 S5000
M205 X30 Y30
G0 F7200 X93.845 Y64.803
M204 S500
M205 X20 Y20
G1 F6000 E11.39539
G1 F900 X94.233 Y64.362 E11.41688
G1 X94.362 Y64.233 E11.42356
G1 X94.819 Y63.833 E11.44578
G1 X95.325 Y63.496 E11.46802
G1 X95.87 Y63.228 E11.49024
G1 X96.446 Y63.034 E11.51248
G1 X97.042 Y62.917 E11.5347
G1 X97.629 Y62.88 E11.55622
G1 X137.371 Y62.88 E13.01023
G1 X137.977 Y62.92 E13.03244
G1 X138.573 Y63.039 E13.05468
G1 X139.148 Y63.235 E13.07691
G1 X139.692 Y63.506 E13.09914
G1 X140.197 Y63.845 E13.12139
G1 X140.638 Y64.233 E13.14289
G1 X140.767 Y64.362 E13.14956
G1 X141.167 Y64.819 E13.17178
G1 X141.504 Y65.325 E13.19402
G1 X141.772 Y65.87 E13.21624
G1 X141.966 Y66.446 E13.23848
G1 X142.083 Y67.042 E13.2607
G1 X142.12 Y67.629 E13.28222
G1 X142.12 Y167.371 E16.93139
G1 X142.08 Y167.977 E16.95361
G1 X141.961 Y168.573 E16.97585
G1 X141.765 Y169.148 E16.99808
G1 X141.494 Y169.692 E17.02031
G1 X141.155 Y170.197 E17.04256
G1 X140.767 Y170.638 E17.06405
G1 X140.638 Y170.767 E17.07073
G1 X140.181 Y171.167 E17.09295
G1 X139.675 Y171.504 E17.11519
G1 X139.13 Y171.772 E17.13741
G1 X138.554 Y171.966 E17.15965
G1 X137.958 Y172.083 E17.18187
G1 X137.371 Y172.12 E17.20339
G1 X97.629 Y172.12 E18.65739
G1 X97.023 Y172.08 E18.67961
G1 X96.427 Y171.961 E18.70185
G1 X95.852 Y171.765 E18.72408
G1 X95.308 Y171.494 E18.74631
G1 X94.803 Y171.155 E18.76856
G1 X94.362 Y170.767 E18.79005
G1 X94.233 Y170.638 E18.79673
G1 X93.833 Y170.181 E18.81895
G1 X93.496 Y169.675 E18.84119
G1 X93.228 Y169.13 E18.86341
G1 X93.034 Y168.554 E18.88565
G1 X92.917 Y167.958 E18.90787
G1 X92.88 Y167.371 E18.92939
G1 X92.88 Y67.629 E22.57856
G1 X92.92 Y67.023 E22.60078
G1 X93.039 Y66.427 E22.62302
G1 X93.235 Y65.852 E22.64524
G1 X93.453 Y65.414 E22.66314
G0 F810 X93.506 Y65.308
G0 X93.845 Y64.803
M204 S5000
M205 X30 Y30
G0 F7200 X94.281 Y64.962
M204 S500
M205 X20 Y20
G1 F6000 E22.68974
G1 F900 X94.544 Y64.673 E22.70404
G1 X94.673 Y64.544 E22.71071
G1 X95.109 Y64.165 E22.73185
G1 X95.593 Y63.849 E22.753
G1 X96.116 Y63.603 E22.77414
G1 X96.668 Y63.432 E22.79528
G1 X97.239 Y63.338 E22.81646
G1 X97.629 Y63.32 E22.83074
G1 X137.371 Y63.32 E24.28475
G1 X137.948 Y63.36 E24.30591
G1 X138.513 Y63.479 E24.32703
G1 X139.057 Y63.675 E24.34819
G1 X139.568 Y63.944 E24.36932
G1 X140.038 Y64.281 E24.39047
G1 X140.327 Y64.544 E24.40477
G1 X140.456 Y64.673 E24.41145
G1 X140.835 Y65.109 E24.43258
G1 X141.151 Y65.593 E24.45373
G1 X141.397 Y66.116 E24.47487
G1 X141.568 Y66.668 E24.49602
G1 X141.662 Y67.239 E24.51719
G1 X141.68 Y67.629 E24.53147
G1 X141.68 Y167.371 E28.18065
G1 X141.64 Y167.948 E28.20181
G1 X141.521 Y168.513 E28.22293
G1 X141.325 Y169.057 E28.24409
G1 X141.056 Y169.568 E28.26522
G1 X140.719 Y170.038 E28.28638
G1 X140.456 Y170.327 E28.30067
G1 X140.327 Y170.456 E28.30735
G1 X139.891 Y170.835 E28.32848
G1 X139.407 Y171.151 E28.34963
G1 X138.884 Y171.397 E28.37078
G1 X138.332 Y171.568 E28.39192
G1 X137.761 Y171.662 E28.41309
G1 X137.371 Y171.68 E28.42737
G1 X97.629 Y171.68 E29.88138
G1 X97.052 Y171.64 E29.90254
G1 X96.487 Y171.521 E29.92367
G1 X95.943 Y171.325 E29.94482
G1 X95.432 Y171.056 E29.96595
G1 X94.962 Y170.719 E29.98711
G1 X94.673 Y170.456 E30.0014
G1 X94.544 Y170.327 E30.00808
G1 X94.165 Y169.891 E30.02921
G1 X93.849 Y169.407 E30.05036
G1 X93.603 Y168.884 E30.07151
G1 X93.432 Y168.332 E30.09265
G1 X93.338 Y167.761 E30.11382
G1 X93.32 Y167.371 E30.12811
G1 X93.32 Y67.629 E33.77728
G1 X93.36 Y67.052 E33.79844
G1 X93.479 Y66.487 E33.81957
G1 X93.675 Y65.943 E33.84072
G1 X93.875 Y65.563 E33.85643
G0 F810 X93.944 Y65.432
G0 X94.281 Y64.962
M204 S5000
M205 X30 Y30
G0 F7200 X94.382 Y65.563
M204 S500
M205 X20 Y20
G1 F6000 E33.88303
G1 F900 X94.855 Y64.984 E33.91038
G1 X94.984 Y64.855 E33.91706
G1 X95.398 Y64.498 E33.93706
G1 X95.86 Y64.205 E33.95708
G1 X96.359 Y63.982 E33.97707
G1 X96.885 Y63.835 E33.99705
G1 X97.629 Y63.76 E34.02441
G1 X137.371 Y63.76 E35.47842
G1 X137.916 Y63.8 E35.49841
G1 X138.45 Y63.919 E35.51843
G1 X138.96 Y64.114 E35.5384
G1 X139.437 Y64.382 E35.55842
G1 X140.016 Y64.855 E35.58577
G1 X140.145 Y64.984 E35.59245
G1 X140.502 Y65.398 E35.61245
G1 X140.795 Y65.86 E35.63247
G1 X141.018 Y66.359 E35.65246
G1 X141.165 Y66.885 E35.67244
G1 X141.24 Y67.629 E35.6998
G1 X141.24 Y167.371 E39.34898
G1 X141.2 Y167.916 E39.36897
G1 X141.081 Y168.45 E39.38899
G1 X140.886 Y168.96 E39.40896
G1 X140.618 Y169.437 E39.42898
G1 X140.145 Y170.016 E39.45633
G1 X140.016 Y170.145 E39.46301
G1 X139.602 Y170.502 E39.48301
G1 X139.14 Y170.795 E39.50302
G1 X138.641 Y171.018 E39.52302
G1 X138.115 Y171.165 E39.543
G1 X137.371 Y171.24 E39.57036
G1 X97.629 Y171.24 E41.02437
G1 X97.084 Y171.2 E41.04436
G1 X96.55 Y171.081 E41.06438
G1 X96.04 Y170.886 E41.08435
G1 X95.563 Y170.618 E41.10437
G1 X94.984 Y170.145 E41.13172
G1 X94.855 Y170.016 E41.1384
G1 X94.498 Y169.602 E41.1584
G1 X94.205 Y169.14 E41.17841
G1 X93.982 Y168.641 E41.19841
G1 X93.835 Y168.115 E41.21839
G1 X93.76 Y167.371 E41.24575
G1 X93.76 Y67.629 E44.89493
G1 X93.8 Y67.084 E44.91492
G1 X93.919 Y66.55 E44.93494
G1 X94.05 Y66.208 E44.94833
G0 F810 X94.114 Y66.04
G0 X94.382 Y65.563
M204 S5000
M205 X30 Y30
G0 F7200 X94.82 Y65.704
M204 S500
M205 X20 Y20
G1 F6000 E44.97493
G1 F900 X95.167 Y65.296 E44.99453
G1 X95.296 Y65.167 E45.0012
G1 X95.686 Y64.833 E45.01999
G1 X96.123 Y64.564 E45.03876
G1 X96.597 Y64.366 E45.05756
G1 X97.095 Y64.243 E45.07632
G1 X97.629 Y64.2 E45.09592
G1 X137.371 Y64.2 E46.54993
G1 X137.883 Y64.24 E46.56872
G1 X138.382 Y64.359 E46.58749
G1 X138.857 Y64.554 E46.60627
G1 X139.296 Y64.82 E46.62505
G1 X139.704 Y65.167 E46.64465
G1 X139.833 Y65.296 E46.65132
G1 X140.167 Y65.686 E46.67011
G1 X140.436 Y66.123 E46.68889
G1 X140.634 Y66.597 E46.70768
G1 X140.757 Y67.095 E46.72645
G1 X140.8 Y67.629 E46.74605
G1 X140.8 Y167.371 E50.39522
G1 X140.76 Y167.883 E50.41401
G1 X140.641 Y168.382 E50.43278
G1 X140.446 Y168.857 E50.45157
G1 X140.18 Y169.296 E50.47035
G1 X139.833 Y169.704 E50.48994
G1 X139.704 Y169.833 E50.49662
G1 X139.314 Y170.167 E50.5154
G1 X138.877 Y170.436 E50.53418
G1 X138.403 Y170.634 E50.55297
G1 X137.905 Y170.757 E50.57174
G1 X137.371 Y170.8 E50.59134
G1 X97.629 Y170.8 E52.04535
G1 X97.117 Y170.76 E52.06413
G1 X96.618 Y170.641 E52.0829
G1 X96.143 Y170.446 E52.10169
G1 X95.704 Y170.18 E52.12047
G1 X95.296 Y169.833 E52.14006
G1 X95.167 Y169.704 E52.14674
G1 X94.833 Y169.314 E52.16552
G1 X94.564 Y168.877 E52.1843
G1 X94.366 Y168.403 E52.20309
G1 X94.243 Y167.905 E52.22186
G1 X94.2 Y167.371 E52.24146
G1 X94.2 Y67.629 E55.89064
G1 X94.24 Y67.117 E55.90943
G1 X94.359 Y66.618 E55.92819
G1 X94.473 Y66.341 E55.93915
G0 F810 X94.554 Y66.143
G0 X94.82 Y65.704
M204 S5000
M205 X30 Y30
G0 F7200 X95.257 Y65.855
M204 S500
M205 X20 Y20
G1 F6000 E55.96575
G1 F900 X95.478 Y65.607 E55.9779
G1 X95.607 Y65.478 E55.98458
G1 X95.972 Y65.169 E56.00208
G1 X96.383 Y64.926 E56.01954
G1 X96.829 Y64.754 E56.03703
G1 X97.297 Y64.659 E56.0545
G1 X97.629 Y64.64 E56.06667
G1 X137.371 Y64.64 E57.52068
G1 X137.847 Y64.68 E57.53815
G1 X138.31 Y64.799 E57.55564
G1 X138.747 Y64.993 E57.57314
G1 X139.145 Y65.257 E57.59061
G1 X139.393 Y65.478 E57.60276
G1 X139.522 Y65.607 E57.60944
G1 X139.831 Y65.972 E57.62693
G1 X140.074 Y66.383 E57.6444
G1 X140.246 Y66.829 E57.66189
G1 X140.341 Y67.297 E57.67936
G1 X140.36 Y67.629 E57.69153
G1 X140.36 Y167.371 E61.34071
G1 X140.32 Y167.847 E61.35818
G1 X140.201 Y168.31 E61.37567
G1 X140.007 Y168.747 E61.39316
G1 X139.743 Y169.145 E61.41064
G1 X139.522 Y169.393 E61.42279
G1 X139.393 Y169.522 E61.42947
G1 X139.028 Y169.831 E61.44696
G1 X138.617 Y170.074 E61.46443
G1 X138.171 Y170.246 E61.48192
G1 X137.703 Y170.341 E61.49939
G1 X137.371 Y170.36 E61.51156
G1 X97.629 Y170.36 E62.96556
G1 X97.153 Y170.32 E62.98304
G1 X96.69 Y170.201 E63.00053
G1 X96.253 Y170.007 E63.01802
G1 X95.855 Y169.743 E63.0355
G1 X95.607 Y169.522 E63.04765
G1 X95.478 Y169.393 E63.05433
G1 X95.169 Y169.028 E63.07182
G1 X94.926 Y168.617 E63.08929
G1 X94.754 Y168.171 E63.10678
G1 X94.659 Y167.703 E63.12425
G1 X94.64 Y167.371 E63.13642
G1 X94.64 Y67.629 E66.78559
G1 X94.68 Y67.153 E66.80307
G1 X94.799 Y66.69 E66.82056
G1 X94.892 Y66.481 E66.82893
G0 F810 X94.993 Y66.253
G0 X95.257 Y65.855
M204 S5000
M205 X30 Y30
G0 F7200 X95.431 Y66.373
M204 S500
M205 X20 Y20
G1 F6000 E66.85553
G1 F900 X95.789 Y65.918 E66.87671
G1 X95.918 Y65.789 E66.88338
G1 X96.256 Y65.508 E66.89946
G1 X96.639 Y65.292 E66.91555
G1 X97.054 Y65.149 E66.93161
G1 X97.629 Y65.08 E66.9528
G1 X137.371 Y65.08 E68.40681
G1 X137.809 Y65.12 E68.4229
G1 X138.232 Y65.238 E68.43896
G1 X138.627 Y65.431 E68.45505
G1 X139.082 Y65.789 E68.47623
G1 X139.211 Y65.918 E68.4829
G1 X139.492 Y66.256 E68.49899
G1 X139.708 Y66.639 E68.51507
G1 X139.851 Y67.054 E68.53113
G1 X139.92 Y67.629 E68.55232
G1 X139.92 Y167.371 E72.2015
G1 X139.88 Y167.809 E72.21759
G1 X139.762 Y168.232 E72.23365
G1 X139.569 Y168.627 E72.24974
G1 X139.211 Y169.082 E72.27092
G1 X139.082 Y169.211 E72.2776
G1 X138.744 Y169.492 E72.29368
G1 X138.361 Y169.708 E72.30976
G1 X137.946 Y169.851 E72.32582
G1 X137.371 Y169.92 E72.34701
G1 X97.629 Y169.92 E73.80102
G1 X97.191 Y169.88 E73.81711
G1 X96.768 Y169.762 E73.83318
G1 X96.373 Y169.569 E73.84926
G1 X95.918 Y169.211 E73.87044
G1 X95.789 Y169.082 E73.87712
G1 X95.508 Y168.744 E73.8932
G1 X95.292 Y168.361 E73.90929
G1 X95.149 Y167.946 E73.92534
G1 X95.08 Y167.371 E73.94653
G1 X95.08 Y67.629 E77.59571
G1 X95.12 Y67.191 E77.6118
G1 X95.161 Y67.045 E77.61735
G0 F810 X95.238 Y66.768
G0 X95.431 Y66.373
M204 S5000
M205 X30 Y30
G0 F7200 X95.87 Y66.506
M204 S500
M205 X20 Y20
G1 F6000 E77.64395
G1 F900 X96.1 Y66.229 E77.65712
G1 X96.229 Y66.1 E77.66379
G1 X96.537 Y65.848 E77.67835
G1 X96.889 Y65.664 E77.69288
G1 X97.27 Y65.553 E77.7074
G1 X97.629 Y65.52 E77.72059
G1 X137.371 Y65.52 E79.1746
G1 X137.766 Y65.56 E79.18913
G1 X138.146 Y65.678 E79.20368
G1 X138.494 Y65.87 E79.21822
G1 X138.771 Y66.1 E79.2314
G1 X138.9 Y66.229 E79.23807
G1 X139.152 Y66.537 E79.25263
G1 X139.336 Y66.889 E79.26716
G1 X139.447 Y67.27 E79.28168
G1 X139.48 Y67.629 E79.29487
G1 X139.48 Y167.371 E82.94405
G1 X139.44 Y167.766 E82.95857
G1 X139.322 Y168.146 E82.97313
G1 X139.13 Y168.494 E82.98767
G1 X138.9 Y168.771 E83.00084
G1 X138.771 Y168.9 E83.00752
G1 X138.463 Y169.152 E83.02208
G1 X138.111 Y169.336 E83.03661
G1 X137.73 Y169.447 E83.05113
G1 X137.371 Y169.48 E83.06432
G1 X97.629 Y169.48 E84.51832
G1 X97.234 Y169.44 E84.53285
G1 X96.854 Y169.322 E84.54741
G1 X96.506 Y169.13 E84.56195
G1 X96.229 Y168.9 E84.57512
G1 X96.1 Y168.771 E84.5818
G1 X95.848 Y168.463 E84.59636
G1 X95.664 Y168.111 E84.61089
G1 X95.553 Y167.73 E84.62541
G1 X95.52 Y167.371 E84.6386
G1 X95.52 Y67.629 E88.28777
G1 X95.56 Y67.234 E88.3023
G1 X95.58 Y67.169 E88.30479
G0 F810 X95.678 Y66.854
G0 X95.87 Y66.506
M204 S5000
M205 X30 Y30
G0 F7200 X96.411 Y66.54
M204 S500
M205 X20 Y20
G1 F6000 E88.33138
G1 F900 X96.54 Y66.411 E88.33806
G1 X96.814 Y66.193 E88.35087
G1 X97.131 Y66.043 E88.3637
G1 X97.629 Y65.96 E88.38217
G1 X137.371 Y65.96 E89.83618
G1 X137.719 Y66 E89.84899
G1 X138.049 Y66.117 E89.8618
G1 X138.46 Y66.411 E89.88029
G1 X138.589 Y66.54 E89.88696
G1 X138.807 Y66.814 E89.89978
G1 X138.957 Y67.131 E89.91261
G1 X139.04 Y67.629 E89.93108
G1 X139.04 Y167.371 E93.58025
G1 X139 Y167.719 E93.59307
G1 X138.883 Y168.049 E93.60588
G1 X138.589 Y168.46 E93.62437
G1 X138.46 Y168.589 E93.63104
G1 X138.186 Y168.807 E93.64385
G1 X137.869 Y168.957 E93.65668
G1 X137.371 Y169.04 E93.67515
G1 X97.629 Y169.04 E95.12916
G1 X97.281 Y169 E95.14198
G1 X96.951 Y168.883 E95.15479
G1 X96.54 Y168.589 E95.17327
G1 X96.411 Y168.46 E95.17995
G1 X96.193 Y168.186 E95.19276
G1 X96.043 Y167.869 E95.20559
G1 X95.96 Y167.371 E95.22406
G1 X95.96 Y67.629 E98.87324
G1 X96 Y67.281 E98.88605
G1 X96.043 Y67.16 E98.89075
G0 F810 X96.117 Y66.951
G0 X96.411 Y66.54
M204 S5000
M205 X30 Y30
G0 F7200 X96.556 Y67.064
M204 S500
M205 X20 Y20
G1 F6000 E98.91735
G1 F900 X96.722 Y66.851 E98.92723
G1 X96.851 Y66.722 E98.9339
G1 X97.087 Y66.543 E98.94474
G1 X97.362 Y66.433 E98.95558
G1 X97.629 Y66.4 E98.96542
G1 X137.371 Y66.4 E100.41943
G1 X137.664 Y66.44 E100.43024
G1 X137.936 Y66.556 E100.44106
G1 X138.149 Y66.722 E100.45094
G1 X138.278 Y66.851 E100.45762
G1 X138.457 Y67.087 E100.46845
G1 X138.567 Y67.362 E100.47929
G1 X138.6 Y67.629 E100.48913
G1 X138.6 Y167.371 E104.13831
G1 X138.56 Y167.664 E104.14913
G1 X138.444 Y167.936 E104.15995
G1 X138.278 Y168.149 E104.16983
G1 X138.149 Y168.278 E104.1765
G1 X137.913 Y168.457 E104.18734
G1 X137.638 Y168.567 E104.19817
G1 X137.371 Y168.6 E104.20802
G1 X97.629 Y168.6 E105.66202
G1 X97.336 Y168.56 E105.67284
G1 X97.064 Y168.444 E105.68366
G1 X96.851 Y168.278 E105.69354
G1 X96.722 Y168.149 E105.70022
G1 X96.543 Y167.913 E105.71105
G1 X96.433 Y167.638 E105.72189
G1 X96.4 Y167.371 E105.73173
G1 X96.4 Y67.766 E109.3759
G0 F810 X96.4 Y67.629
G0 X96.44 Y67.336
G0 X96.556 Y67.064
M204 S5000
M205 X30 Y30
G0 F7200 X97.033 Y67.162
M204 S500
M205 X20 Y20
G1 F6000 E109.40249
G1 F900 X97.162 Y67.033 E109.40917
G1 X97.35 Y66.902 E109.41755
G1 X97.629 Y66.84 E109.42801
G1 X137.371 Y66.84 E110.88202
G1 X137.596 Y66.88 E110.89038
G1 X137.838 Y67.033 E110.90085
G1 X137.967 Y67.162 E110.90753
G1 X138.098 Y67.35 E110.91591
G1 X138.16 Y67.629 E110.92637
G1 X138.16 Y167.371 E114.57554
G1 X138.12 Y167.596 E114.5839
G1 X137.967 Y167.838 E114.59438
G1 X137.838 Y167.967 E114.60105
G1 X137.65 Y168.098 E114.60944
G1 X137.371 Y168.16 E114.61989
G1 X97.629 Y168.16 E116.0739
G1 X97.404 Y168.12 E116.08226
G1 X97.162 Y167.967 E116.09273
G1 X97.033 Y167.838 E116.09941
G1 X96.902 Y167.65 E116.10779
G1 X96.84 Y167.371 E116.11825
G1 X96.84 Y67.842 E119.75963
G0 F810 X96.84 Y67.629
G0 X96.88 Y67.404
G0 X97.033 Y67.162
M204 S5000
