;FLAVOR:Marlin
;TIME:7952
;Filament used: 9.2223m
;Layer height: 0.2
;Generated with Cura_SteamEngine 3.6.0
M140 S70
M105
M190 S70
M104 S215
M105
M109 S215
M82 ;absolute extrusion mode
G28 ; home all axes
M117 Purge extruder
G92 E0 ; reset extruder
G1 Z1.0 F3000 ; move z up little to prevent scratching of surface
G1 X0.1 Y20 Z0.3 F5000.0 ; move to start-line position G1 X0.1 Y200.0 Z0.3 F1500.0 E15 ; draw 1st line
G1 X0.4 Y200.0 Z0.3 F5000.0 ; move to side a little
G1 X0.4 Y20 Z0.3 F1500.0 E30 ; draw 2nd line
G92 E0 ; reset extruder
G1 Z1.0 F3000 ; move z up little to prevent scratching of surface
M117 All systems go!
G92 E0
G1 F6000 E-5
;LAYER_COUNT:51
;LAYER:0
M107
M204 S5000
M205 X30 Y30
G0 F7200 X59.251 Y103.718 Z0.2
M204 S500
M205 X20 Y20
;TYPE:SKIRT
G1 F6000 E0
G1 F900 X60.038 Y103.343 E0.03189
G1 X62.062 Y102.585 E0.11097
G1 X62.89 Y102.353 E0.14243
G1 X64.307 Y102.083 E0.1952
G1 X65.002 Y102 E0.22081
G1 X66.445 Y101.928 E0.27367
G1 X66.698 Y101.922 E0.28293
G1 X169.213 Y101.946 E4.03356
G1 X169.899 Y101.993 E4.05872
G1 X171.323 Y102.188 E4.1113
G1 X171.997 Y102.327 E4.13648
G1 X173.376 Y102.712 E4.18886
G1 X174.029 Y102.944 E4.21421
G1 X175.347 Y103.516 E4.26678
G1 X175.961 Y103.834 E4.29208
G1 X177.198 Y104.586 E4.34504
G1 X177.763 Y104.985 E4.37035
G1 X178.863 Y105.88 E4.42223
G1 X179.365 Y106.348 E4.44734
G1 X180.356 Y107.407 E4.5004
G1 X180.798 Y107.951 E4.52605
G1 X181.621 Y109.12 E4.57835
G1 X181.976 Y109.703 E4.60333
G1 X182.64 Y110.983 E4.65608
G1 X182.916 Y111.618 E4.68141
G1 X183.397 Y112.971 E4.73395
G1 X183.583 Y113.636 E4.75921
G1 X183.872 Y115.026 E4.81116
G1 X183.966 Y115.704 E4.8362
G1 X184.066 Y117.136 E4.88872
G1 X184.066 Y117.831 E4.91415
G1 X183.968 Y119.272 E4.96699
G1 X183.875 Y119.954 E4.99217
G1 X183.586 Y121.351 E5.04436
G1 X183.401 Y122.016 E5.06962
G1 X182.922 Y123.368 E5.12209
G1 X182.646 Y124.004 E5.14746
G1 X181.982 Y125.287 E5.20031
G1 X181.628 Y125.871 E5.2253
G1 X180.807 Y127.039 E5.27753
G1 X180.365 Y127.582 E5.30315
G1 X179.378 Y128.639 E5.35606
G1 X178.877 Y129.108 E5.38117
G1 X177.773 Y130.008 E5.43328
G1 X177.209 Y130.407 E5.45855
G1 X175.973 Y131.16 E5.51151
G1 X175.354 Y131.481 E5.53702
G1 X174.036 Y132.053 E5.58958
G1 X173.39 Y132.283 E5.61467
G1 X172.012 Y132.67 E5.66704
G1 X171.331 Y132.811 E5.69248
G1 X169.907 Y133.006 E5.74506
G1 X169.221 Y133.053 E5.77022
G1 X66.504 Y133.078 E9.52824
G1 X66.154 Y133.066 E9.54105
G1 X64.707 Y132.966 E9.59412
G1 X64.019 Y132.871 E9.61953
G1 X62.606 Y132.575 E9.67235
G1 X61.936 Y132.385 E9.69783
G1 X60.577 Y131.898 E9.75064
G1 X59.945 Y131.622 E9.77588
G1 X58.671 Y130.958 E9.82844
G1 X58.076 Y130.593 E9.85398
G1 X56.886 Y129.746 E9.90742
G1 X56.35 Y129.307 E9.93276
G1 X55.31 Y128.327 E9.98504
G1 X54.838 Y127.816 E10.0105
G1 X53.932 Y126.69 E10.06337
G1 X53.537 Y126.125 E10.08859
G1 X52.785 Y124.874 E10.14199
G1 X52.464 Y124.243 E10.1679
G1 X51.904 Y122.923 E10.22036
G1 X51.679 Y122.275 E10.24545
G1 X51.3 Y120.881 E10.2983
G1 X51.189 Y120.369 E10.31747
G1 X51.072 Y119.653 E10.34402
G1 X51.015 Y119.133 E10.36315
G1 X50.931 Y117.701 E10.41564
G1 X50.953 Y116.844 E10.447
G1 X51.193 Y114.693 E10.52619
G1 X51.365 Y113.835 E10.5582
G1 X51.77 Y112.449 E10.61103
G1 X52.083 Y111.643 E10.64266
G1 X53.035 Y109.699 E10.72186
G1 X53.486 Y108.949 E10.75388
G1 X54.34 Y107.774 E10.80702
G1 X54.784 Y107.244 E10.83232
G1 X55.784 Y106.203 E10.88513
G1 X56.297 Y105.737 E10.91048
G1 X57.425 Y104.846 E10.96307
G1 X57.999 Y104.453 E10.98853
G1 X58.624 Y104.086 E11.01504
G0 F810 X59.251 Y103.718
M204 S5000
M205 X30 Y30
G0 F7200 X59.474 Y104.098
M204 S500
M205 X20 Y20
G1 F6000 E11.04164
G1 F900 X60.193 Y103.755 E11.07079
G1 X62.217 Y102.997 E11.14986
G1 X62.972 Y102.786 E11.17854
G1 X64.389 Y102.516 E11.23132
G1 X65.024 Y102.44 E11.25471
G1 X66.467 Y102.368 E11.30757
G1 X66.698 Y102.362 E11.31603
G1 X169.213 Y102.386 E15.06666
G1 X169.839 Y102.429 E15.08961
G1 X171.263 Y102.624 E15.1422
G1 X171.878 Y102.751 E15.16517
G1 X173.257 Y103.136 E15.21755
G1 X173.854 Y103.348 E15.24073
G1 X175.172 Y103.92 E15.2933
G1 X175.733 Y104.21 E15.3164
G1 X176.97 Y104.962 E15.36937
G1 X177.486 Y105.326 E15.39247
G1 X178.586 Y106.221 E15.44435
G1 X179.043 Y106.648 E15.46724
G1 X180.034 Y107.707 E15.5203
G1 X180.439 Y108.204 E15.54376
G1 X181.262 Y109.373 E15.59606
G1 X181.585 Y109.906 E15.61886
G1 X182.249 Y111.186 E15.67162
G1 X182.501 Y111.765 E15.69472
G1 X182.982 Y113.118 E15.74726
G1 X183.152 Y113.726 E15.77036
G1 X183.441 Y115.116 E15.8223
G1 X183.527 Y115.734 E15.84513
G1 X183.627 Y117.166 E15.89764
G1 X183.627 Y117.801 E15.92088
G1 X183.529 Y119.242 E15.97372
G1 X183.444 Y119.865 E15.99672
G1 X183.155 Y121.262 E16.04892
G1 X182.986 Y121.869 E16.07197
G1 X182.507 Y123.221 E16.12445
G1 X182.255 Y123.801 E16.14758
G1 X181.591 Y125.084 E16.20044
G1 X181.268 Y125.618 E16.22327
G1 X180.447 Y126.786 E16.2755
G1 X180.044 Y127.282 E16.29888
G1 X179.057 Y128.339 E16.35179
G1 X178.599 Y128.767 E16.37473
G1 X177.495 Y129.667 E16.42684
G1 X176.98 Y130.031 E16.44991
G1 X175.744 Y130.784 E16.50287
G1 X175.179 Y131.077 E16.52615
G1 X173.861 Y131.649 E16.57872
G1 X173.271 Y131.859 E16.60163
G1 X171.893 Y132.246 E16.65399
G1 X171.271 Y132.375 E16.67724
G1 X169.847 Y132.57 E16.72982
G1 X169.221 Y132.613 E16.75278
G1 X66.504 Y132.638 E20.5108
G1 X66.184 Y132.627 E20.52251
G1 X64.737 Y132.527 E20.57558
G1 X64.109 Y132.44 E20.59877
G1 X62.696 Y132.144 E20.65159
G1 X62.084 Y131.971 E20.67486
G1 X60.725 Y131.484 E20.72768
G1 X60.149 Y131.232 E20.75068
G1 X58.875 Y130.568 E20.80324
G1 X58.331 Y130.235 E20.82658
G1 X57.141 Y129.388 E20.88002
G1 X56.652 Y128.986 E20.90318
G1 X55.612 Y128.006 E20.95546
G1 X55.181 Y127.54 E20.97868
G1 X54.275 Y126.414 E21.03156
G1 X53.914 Y125.898 E21.0546
G1 X53.162 Y124.647 E21.108
G1 X52.869 Y124.071 E21.13164
G1 X52.309 Y122.751 E21.1841
G1 X52.104 Y122.159 E21.20702
G1 X51.725 Y120.765 E21.25987
G1 X51.623 Y120.298 E21.27736
G1 X51.506 Y119.582 E21.30391
G1 X51.454 Y119.108 E21.32135
G1 X51.37 Y117.676 E21.37383
G1 X51.39 Y116.893 E21.40249
G1 X51.63 Y114.742 E21.48167
G1 X51.787 Y113.958 E21.51093
G1 X52.192 Y112.572 E21.56376
G1 X52.478 Y111.836 E21.59265
G1 X53.43 Y109.892 E21.67184
G1 X53.842 Y109.208 E21.70105
G1 X54.696 Y108.033 E21.7542
G1 X55.101 Y107.548 E21.77731
G1 X56.101 Y106.507 E21.83013
G1 X56.569 Y106.083 E21.85323
G1 X57.697 Y105.192 E21.90582
G1 X58.222 Y104.833 E21.92909
G1 X58.847 Y104.466 E21.95561
G0 F810 X59.474 Y104.098
M204 S5000
M205 X30 Y30
G0 F7200 X59.697 Y104.477
M204 S500
M205 X20 Y20
G1 F6000 E21.98221
G1 F900 X60.347 Y104.168 E22.00854
G1 X62.371 Y103.41 E22.08761
G1 X63.055 Y103.218 E22.1136
G1 X64.472 Y102.948 E22.16638
G1 X65.046 Y102.879 E22.18753
G1 X66.489 Y102.807 E22.24039
G1 X66.698 Y102.802 E22.24804
G1 X169.213 Y102.826 E25.99867
G1 X169.779 Y102.865 E26.01942
G1 X171.203 Y103.06 E26.07201
G1 X171.76 Y103.175 E26.09282
G1 X173.139 Y103.56 E26.1452
G1 X173.679 Y103.752 E26.16617
G1 X174.997 Y104.324 E26.21873
G1 X175.504 Y104.586 E26.23961
G1 X176.741 Y105.338 E26.29258
G1 X177.208 Y105.668 E26.3135
G1 X178.308 Y106.563 E26.36538
G1 X178.722 Y106.949 E26.38609
G1 X179.713 Y108.008 E26.43915
G1 X180.079 Y108.458 E26.46037
G1 X180.902 Y109.627 E26.51268
G1 X181.194 Y110.108 E26.53327
G1 X181.858 Y111.388 E26.58602
G1 X182.087 Y111.913 E26.60698
G1 X182.568 Y113.266 E26.65951
G1 X182.721 Y113.815 E26.68037
G1 X183.01 Y115.205 E26.73231
G1 X183.088 Y115.765 E26.75299
G1 X183.188 Y117.197 E26.80551
G1 X183.188 Y117.772 E26.82655
G1 X183.09 Y119.213 E26.87939
G1 X183.013 Y119.776 E26.90018
G1 X182.724 Y121.173 E26.95238
G1 X182.571 Y121.722 E26.97323
G1 X182.092 Y123.074 E27.0257
G1 X181.864 Y123.599 E27.04664
G1 X181.2 Y124.882 E27.0995
G1 X180.908 Y125.365 E27.12015
G1 X180.087 Y126.533 E27.17238
G1 X179.722 Y126.982 E27.19355
G1 X178.735 Y128.039 E27.24646
G1 X178.321 Y128.426 E27.26719
G1 X177.217 Y129.326 E27.31931
G1 X176.751 Y129.656 E27.3402
G1 X175.515 Y130.409 E27.39315
G1 X175.004 Y130.673 E27.41419
G1 X173.686 Y131.245 E27.46676
G1 X173.152 Y131.435 E27.4875
G1 X171.774 Y131.822 E27.53986
G1 X171.211 Y131.939 E27.5609
G1 X169.787 Y132.134 E27.61348
G1 X169.221 Y132.173 E27.63424
G1 X66.504 Y132.198 E31.39226
G1 X66.215 Y132.188 E31.40284
G1 X64.768 Y132.088 E31.45591
G1 X64.199 Y132.009 E31.47692
G1 X62.786 Y131.713 E31.52974
G1 X62.233 Y131.557 E31.55076
G1 X60.874 Y131.07 E31.60358
G1 X60.352 Y130.842 E31.62442
G1 X59.078 Y130.178 E31.67698
G1 X58.586 Y129.876 E31.6981
G1 X57.396 Y129.029 E31.75154
G1 X56.953 Y128.666 E31.7725
G1 X55.913 Y127.686 E31.82478
G1 X55.523 Y127.264 E31.8458
G1 X54.617 Y126.138 E31.89868
G1 X54.291 Y125.672 E31.91948
G1 X53.539 Y124.421 E31.97289
G1 X53.274 Y123.899 E31.9943
G1 X52.714 Y122.579 E32.04676
G1 X52.528 Y122.044 E32.06749
G1 X52.149 Y120.65 E32.12034
G1 X52.058 Y120.227 E32.13617
G1 X51.941 Y119.511 E32.16271
G1 X51.893 Y119.082 E32.17851
G1 X51.809 Y117.65 E32.23099
G1 X51.828 Y116.941 E32.25694
G1 X52.068 Y114.79 E32.33612
G1 X52.21 Y114.082 E32.36254
G1 X52.615 Y112.696 E32.41537
G1 X52.873 Y112.03 E32.4415
G1 X53.825 Y110.086 E32.52069
G1 X54.198 Y109.466 E32.54717
G1 X55.052 Y108.291 E32.60031
G1 X55.419 Y107.853 E32.62122
G1 X56.419 Y106.812 E32.67403
G1 X56.842 Y106.428 E32.69493
G1 X57.97 Y105.537 E32.74752
G1 X58.445 Y105.212 E32.76858
G1 X59.07 Y104.845 E32.79509
G0 F810 X59.697 Y104.477
M204 S5000
M205 X30 Y30
G0 F7200 X59.92 Y104.857
M204 S500
M205 X20 Y20
G1 F6000 E32.82169
G1 F900 X60.501 Y104.58 E32.84524
G1 X62.525 Y103.822 E32.92431
G1 X63.137 Y103.65 E32.94757
G1 X64.554 Y103.38 E33.00035
G1 X65.068 Y103.319 E33.01929
G1 X66.511 Y103.247 E33.07214
G1 X66.698 Y103.242 E33.07899
G1 X169.213 Y103.266 E36.82962
G1 X169.719 Y103.301 E36.84817
G1 X171.143 Y103.496 E36.90076
G1 X171.642 Y103.599 E36.9194
G1 X173.021 Y103.984 E36.97178
G1 X173.504 Y104.155 E36.99053
G1 X174.822 Y104.727 E37.04309
G1 X175.276 Y104.962 E37.0618
G1 X176.513 Y105.714 E37.11476
G1 X176.93 Y106.009 E37.13345
G1 X178.03 Y106.904 E37.18533
G1 X178.401 Y107.25 E37.20389
G1 X179.392 Y108.309 E37.25696
G1 X179.719 Y108.711 E37.27592
G1 X180.542 Y109.88 E37.32822
G1 X180.804 Y110.311 E37.34667
G1 X181.468 Y111.591 E37.39943
G1 X181.672 Y112.06 E37.41814
G1 X182.153 Y113.413 E37.47068
G1 X182.291 Y113.905 E37.48937
G1 X182.58 Y115.295 E37.54132
G1 X182.649 Y115.795 E37.55978
G1 X182.749 Y117.227 E37.6123
G1 X182.749 Y117.742 E37.63114
G1 X182.651 Y119.183 E37.68399
G1 X182.582 Y119.687 E37.7026
G1 X182.293 Y121.084 E37.75479
G1 X182.156 Y121.575 E37.77344
G1 X181.677 Y122.927 E37.82592
G1 X181.474 Y123.397 E37.84465
G1 X180.81 Y124.68 E37.8975
G1 X180.548 Y125.112 E37.91599
G1 X179.727 Y126.28 E37.96822
G1 X179.401 Y126.682 E37.98716
G1 X178.414 Y127.739 E38.04007
G1 X178.043 Y128.085 E38.05863
G1 X176.939 Y128.985 E38.11074
G1 X176.522 Y129.28 E38.12943
G1 X175.286 Y130.033 E38.18238
G1 X174.829 Y130.27 E38.20121
G1 X173.511 Y130.842 E38.25378
G1 X173.033 Y131.012 E38.27234
G1 X171.655 Y131.399 E38.32471
G1 X171.151 Y131.503 E38.34353
G1 X169.727 Y131.698 E38.39612
G1 X169.221 Y131.733 E38.41467
G1 X66.504 Y131.758 E42.17269
G1 X66.245 Y131.749 E42.18218
G1 X64.798 Y131.649 E42.23524
G1 X64.289 Y131.579 E42.25404
G1 X62.876 Y131.283 E42.30686
G1 X62.381 Y131.143 E42.32568
G1 X61.022 Y130.656 E42.3785
G1 X60.555 Y130.452 E42.39714
G1 X59.281 Y129.788 E42.4497
G1 X58.841 Y129.518 E42.46859
G1 X57.651 Y128.671 E42.52203
G1 X57.255 Y128.346 E42.54077
G1 X56.215 Y127.366 E42.59305
G1 X55.866 Y126.989 E42.61185
G1 X54.96 Y125.863 E42.66472
G1 X54.669 Y125.445 E42.68336
G1 X53.917 Y124.194 E42.73676
G1 X53.679 Y123.728 E42.7559
G1 X53.119 Y122.408 E42.80836
G1 X52.953 Y121.928 E42.82695
G1 X52.574 Y120.534 E42.8798
G1 X52.492 Y120.156 E42.89395
G1 X52.375 Y119.44 E42.92049
G1 X52.332 Y119.056 E42.93463
G1 X52.248 Y117.624 E42.98711
G1 X52.265 Y116.99 E43.01032
G1 X52.505 Y114.839 E43.0895
G1 X52.632 Y114.205 E43.11316
G1 X53.037 Y112.819 E43.16599
G1 X53.268 Y112.223 E43.18937
G1 X54.22 Y110.279 E43.26857
G1 X54.554 Y109.725 E43.29223
G1 X55.408 Y108.55 E43.34538
G1 X55.736 Y108.158 E43.36408
G1 X56.736 Y107.117 E43.41689
G1 X57.115 Y106.773 E43.43561
G1 X58.243 Y105.882 E43.48821
G1 X58.668 Y105.592 E43.50703
G1 X59.293 Y105.225 E43.53355
G0 F810 X59.92 Y104.857
M204 S5000
M205 X30 Y30
G0 F7200 X60.142 Y105.236
M204 S500
M205 X20 Y20
G1 F6000 E43.56014
G1 F900 X60.656 Y104.992 E43.58096
G1 X62.68 Y104.234 E43.66003
G1 X63.219 Y104.082 E43.68052
G1 X64.636 Y103.812 E43.7333
G1 X65.09 Y103.758 E43.75003
G1 X66.533 Y103.686 E43.80289
G1 X66.698 Y103.682 E43.80892
G1 X169.213 Y103.706 E47.55955
G1 X169.66 Y103.737 E47.57595
G1 X171.084 Y103.932 E47.62853
G1 X171.523 Y104.023 E47.64493
G1 X172.902 Y104.408 E47.69732
G1 X173.329 Y104.559 E47.71389
G1 X174.647 Y105.131 E47.76645
G1 X175.047 Y105.338 E47.78293
G1 X176.284 Y106.09 E47.83589
G1 X176.653 Y106.35 E47.85241
G1 X177.753 Y107.245 E47.90429
G1 X178.08 Y107.55 E47.92065
G1 X179.071 Y108.609 E47.97371
G1 X179.359 Y108.964 E47.99044
G1 X180.182 Y110.133 E48.04274
G1 X180.413 Y110.513 E48.05901
G1 X181.077 Y111.793 E48.11177
G1 X181.257 Y112.208 E48.12832
G1 X181.738 Y113.561 E48.18086
G1 X181.86 Y113.994 E48.19732
G1 X182.149 Y115.384 E48.24926
G1 X182.21 Y115.826 E48.26558
G1 X182.31 Y117.258 E48.3181
G1 X182.31 Y117.712 E48.33471
G1 X182.212 Y119.153 E48.38755
G1 X182.152 Y119.598 E48.40398
G1 X181.863 Y120.995 E48.45617
G1 X181.742 Y121.428 E48.47262
G1 X181.263 Y122.78 E48.5251
G1 X181.083 Y123.195 E48.54165
G1 X180.419 Y124.478 E48.5945
G1 X180.188 Y124.859 E48.61081
G1 X179.367 Y126.027 E48.66304
G1 X179.079 Y126.381 E48.67974
G1 X178.092 Y127.438 E48.73265
G1 X177.765 Y127.744 E48.74903
G1 X176.661 Y128.644 E48.80114
G1 X176.293 Y128.904 E48.81763
G1 X175.057 Y129.657 E48.87058
G1 X174.654 Y129.866 E48.88719
G1 X173.336 Y130.438 E48.93975
G1 X172.914 Y130.588 E48.95614
G1 X171.536 Y130.975 E49.00851
G1 X171.092 Y131.067 E49.02509
G1 X169.668 Y131.262 E49.07768
G1 X169.221 Y131.293 E49.09407
G1 X66.504 Y131.318 E52.85209
G1 X66.275 Y131.31 E52.86048
G1 X64.828 Y131.21 E52.91354
G1 X64.379 Y131.148 E52.93013
G1 X62.966 Y130.852 E52.98294
G1 X62.53 Y130.729 E52.99952
G1 X61.171 Y130.242 E53.05233
G1 X60.759 Y130.061 E53.0688
G1 X59.485 Y129.397 E53.12136
G1 X59.096 Y129.16 E53.13803
G1 X57.906 Y128.313 E53.19147
G1 X57.557 Y128.026 E53.208
G1 X56.517 Y127.046 E53.26028
G1 X56.209 Y126.713 E53.27687
G1 X55.303 Y125.587 E53.32975
G1 X55.046 Y125.218 E53.3462
G1 X54.294 Y123.967 E53.3996
G1 X54.084 Y123.556 E53.41649
G1 X53.524 Y122.236 E53.46895
G1 X53.378 Y121.813 E53.48532
G1 X52.999 Y120.419 E53.53817
G1 X52.926 Y120.085 E53.55068
G1 X52.809 Y119.369 E53.57722
G1 X52.772 Y119.03 E53.5897
G1 X52.688 Y117.598 E53.64218
G1 X52.702 Y117.039 E53.66264
G1 X52.942 Y114.888 E53.74183
G1 X53.054 Y114.328 E53.76272
G1 X53.459 Y112.942 E53.81555
G1 X53.663 Y112.417 E53.83616
G1 X54.615 Y110.473 E53.91535
G1 X54.91 Y109.984 E53.93624
G1 X55.764 Y108.809 E53.98939
G1 X56.053 Y108.463 E54.00588
G1 X57.053 Y107.422 E54.05869
G1 X57.388 Y107.118 E54.07524
G1 X58.516 Y106.227 E54.12783
G1 X58.89 Y105.971 E54.14442
G1 X59.515 Y105.604 E54.17093
G0 F810 X60.142 Y105.236
M204 S5000
M205 X30 Y30
G0 F7200 X60.365 Y105.616
M204 S500
M205 X20 Y20
G1 F6000 E54.19753
G1 F900 X60.81 Y105.404 E54.21557
G1 X62.834 Y104.646 E54.29464
G1 X63.302 Y104.515 E54.31242
G1 X64.719 Y104.245 E54.36519
G1 X65.111 Y104.198 E54.37964
G1 X66.554 Y104.126 E54.4325
G1 X66.698 Y104.122 E54.43777
G1 X169.213 Y104.146 E58.1884
G1 X169.6 Y104.172 E58.20259
G1 X171.024 Y104.367 E58.25517
G1 X171.405 Y104.446 E58.26941
G1 X172.784 Y104.831 E58.32179
G1 X173.154 Y104.962 E58.33615
G1 X174.472 Y105.534 E58.38872
G1 X174.819 Y105.714 E58.40302
G1 X176.056 Y106.466 E58.45598
G1 X176.375 Y106.692 E58.47029
G1 X177.475 Y107.587 E58.52217
G1 X177.758 Y107.851 E58.53633
G1 X178.749 Y108.91 E58.58939
G1 X179 Y109.218 E58.60393
G1 X179.823 Y110.387 E58.65623
G1 X180.023 Y110.716 E58.67032
G1 X180.687 Y111.996 E58.72308
G1 X180.843 Y112.355 E58.7374
