;FLAVOR:Marlin
;TIME:8850
;Filament used: 8.62983m
;Layer height: 0.2
;Generated with Cura_SteamEngine 3.6.0
M140 S70
M105
M190 S70
M104 S215
M105
M109 S215
M82 ;absolute extrusion mode
G28 ; home all axes
M117 Purge extruder
G92 E0 ; reset extruder
G1 Z1.0 F3000 ; move z up little to prevent scratching of surface
G1 X0.1 Y20 Z0.3 F5000.0 ; move to start-line position G1 X0.1 Y200.0 Z0.3 F1500.0 E15 ; draw 1st line
G1 X0.4 Y200.0 Z0.3 F5000.0 ; move to side a little
G1 X0.4 Y20 Z0.3 F1500.0 E30 ; draw 2nd line
G92 E0 ; reset extruder
G1 Z1.0 F3000 ; move z up little to prevent scratching of surface
M117 All systems go!
G92 E0
G1 F6000 E-5
;LAYER_COUNT:121
;LAYER:0
M107
M204 S5000
M205 X30 Y30
G0 F7200 X84.408 Y71.107 Z0.2
M204 S500
M205 X20 Y20
;TYPE:SKIRT
G1 F6000 E0
G1 F900 X84.922 Y70.505 E0.02896
G1 X85.051 Y70.376 E0.03564
G1 X85.528 Y69.956 E0.05889
G1 X86.054 Y69.598 E0.08217
G1 X86.621 Y69.31 E0.10543
G1 X87.219 Y69.094 E0.1287
G1 X87.84 Y68.956 E0.15197
G1 X88.629 Y68.894 E0.18093
G1 X96.371 Y68.894 E0.46418
G1 X97.006 Y68.934 E0.48745
G1 X97.63 Y69.053 E0.51069
G1 X98.235 Y69.25 E0.53397
G1 X98.81 Y69.521 E0.55723
G1 X99.347 Y69.862 E0.5805
G1 X99.949 Y70.376 E0.60946
G1 X100.078 Y70.505 E0.61614
G1 X100.498 Y70.982 E0.63939
G1 X100.856 Y71.508 E0.66267
G1 X101.144 Y72.075 E0.68594
G1 X101.36 Y72.673 E0.7092
G1 X101.498 Y73.294 E0.73247
G1 X101.56 Y74.083 E0.76143
G1 X101.56 Y103.152 E1.82495
G1 X133.44 Y103.152 E2.99132
G1 X133.44 Y74.083 E4.05484
G1 X133.48 Y73.448 E4.07812
G1 X133.599 Y72.824 E4.10136
G1 X133.796 Y72.219 E4.12464
G1 X134.067 Y71.644 E4.14789
G1 X134.408 Y71.107 E4.17117
G1 X134.922 Y70.505 E4.20013
G1 X135.051 Y70.376 E4.2068
G1 X135.528 Y69.956 E4.23006
G1 X136.054 Y69.598 E4.25333
G1 X136.621 Y69.31 E4.2766
G1 X137.219 Y69.094 E4.29986
G1 X137.84 Y68.956 E4.32314
G1 X138.629 Y68.894 E4.35209
G1 X146.371 Y68.894 E4.63534
G1 X147.006 Y68.934 E4.65862
G1 X147.63 Y69.053 E4.68186
G1 X148.235 Y69.25 E4.70514
G1 X148.81 Y69.521 E4.7284
G1 X149.347 Y69.862 E4.75167
G1 X149.949 Y70.376 E4.78063
G1 X150.078 Y70.505 E4.78731
G1 X150.498 Y70.982 E4.81056
G1 X150.856 Y71.508 E4.83384
G1 X151.144 Y72.075 E4.8571
G1 X151.36 Y72.673 E4.88037
G1 X151.498 Y73.294 E4.90364
G1 X151.56 Y74.083 E4.9326
G1 X151.56 Y149.825 E7.7037
G1 X151.52 Y150.46 E7.72698
G1 X151.401 Y151.084 E7.75022
G1 X151.204 Y151.689 E7.7735
G1 X150.933 Y152.264 E7.79676
G1 X150.592 Y152.801 E7.82003
G1 X150.078 Y153.403 E7.84899
G1 X149.949 Y153.532 E7.85567
G1 X149.472 Y153.952 E7.87892
G1 X148.946 Y154.31 E7.9022
G1 X148.379 Y154.598 E7.92546
G1 X147.781 Y154.814 E7.94873
G1 X147.16 Y154.952 E7.972
G1 X146.371 Y155.014 E8.00096
G1 X88.629 Y155.014 E10.11351
G1 X87.994 Y154.974 E10.13679
G1 X87.37 Y154.855 E10.16003
G1 X86.765 Y154.658 E10.18331
G1 X86.19 Y154.387 E10.20657
G1 X85.653 Y154.046 E10.22984
G1 X85.051 Y153.532 E10.2588
G1 X84.922 Y153.403 E10.26548
G1 X84.502 Y152.926 E10.28873
G1 X84.144 Y152.4 E10.31201
G1 X83.856 Y151.833 E10.33528
G1 X83.64 Y151.235 E10.35854
G1 X83.502 Y150.614 E10.38181
G1 X83.44 Y149.825 E10.41077
G1 X83.44 Y74.083 E13.18187
G1 X83.48 Y73.448 E13.20515
G1 X83.599 Y72.824 E13.22839
G1 X83.796 Y72.219 E13.25167
G1 X84.029 Y71.726 E13.27162
G0 F810 X84.067 Y71.644
G0 X84.408 Y71.107
M204 S5000
M205 X30 Y30
G0 F7200 X84.845 Y71.257
M204 S500
M205 X20 Y20
G1 F6000 E13.29822
G1 F900 X85.233 Y70.816 E13.31971
G1 X85.362 Y70.687 E13.32639
G1 X85.819 Y70.287 E13.34861
G1 X86.325 Y69.95 E13.37085
G1 X86.87 Y69.682 E13.39307
G1 X87.446 Y69.488 E13.4153
G1 X88.042 Y69.371 E13.43753
G1 X88.629 Y69.334 E13.45904
G1 X96.371 Y69.334 E13.74229
G1 X96.977 Y69.374 E13.76451
G1 X97.573 Y69.493 E13.78675
G1 X98.148 Y69.689 E13.80898
G1 X98.692 Y69.96 E13.83121
G1 X99.197 Y70.299 E13.85346
G1 X99.638 Y70.687 E13.87495
G1 X99.767 Y70.816 E13.88163
G1 X100.167 Y71.273 E13.90385
G1 X100.504 Y71.779 E13.92609
G1 X100.772 Y72.324 E13.94831
G1 X100.966 Y72.9 E13.97055
G1 X101.083 Y73.496 E13.99277
G1 X101.12 Y74.083 E14.01429
G1 X101.12 Y103.592 E15.09391
G1 X133.88 Y103.592 E16.29247
G1 X133.88 Y74.083 E17.37209
G1 X133.92 Y73.477 E17.39431
G1 X134.039 Y72.881 E17.41655
G1 X134.235 Y72.306 E17.43877
G1 X134.506 Y71.762 E17.46101
G1 X134.845 Y71.257 E17.48326
G1 X135.233 Y70.816 E17.50475
G1 X135.362 Y70.687 E17.51143
G1 X135.819 Y70.287 E17.53365
G1 X136.325 Y69.95 E17.55589
G1 X136.87 Y69.682 E17.57811
G1 X137.446 Y69.488 E17.60035
G1 X138.042 Y69.371 E17.62257
G1 X138.629 Y69.334 E17.64409
G1 X146.371 Y69.334 E17.92734
G1 X146.977 Y69.374 E17.94955
G1 X147.573 Y69.493 E17.97179
G1 X148.148 Y69.689 E17.99402
G1 X148.692 Y69.96 E18.01625
G1 X149.197 Y70.299 E18.0385
G1 X149.638 Y70.687 E18.06
G1 X149.767 Y70.816 E18.06667
G1 X150.167 Y71.273 E18.08889
G1 X150.504 Y71.779 E18.11113
G1 X150.772 Y72.324 E18.13335
G1 X150.966 Y72.9 E18.15559
G1 X151.083 Y73.496 E18.17781
G1 X151.12 Y74.083 E18.19933
G1 X151.12 Y149.825 E20.97044
G1 X151.08 Y150.431 E20.99266
G1 X150.961 Y151.027 E21.01489
G1 X150.765 Y151.602 E21.03712
G1 X150.494 Y152.146 E21.05935
G1 X150.155 Y152.651 E21.08161
G1 X149.767 Y153.092 E21.1031
G1 X149.638 Y153.221 E21.10977
G1 X149.181 Y153.621 E21.13199
G1 X148.675 Y153.958 E21.15423
G1 X148.13 Y154.226 E21.17645
G1 X147.554 Y154.42 E21.19869
G1 X146.958 Y154.537 E21.22091
G1 X146.371 Y154.574 E21.24243
G1 X88.629 Y154.574 E23.35499
G1 X88.023 Y154.534 E23.37721
G1 X87.427 Y154.415 E23.39944
G1 X86.852 Y154.219 E23.42167
G1 X86.308 Y153.948 E23.4439
G1 X85.803 Y153.609 E23.46616
G1 X85.362 Y153.221 E23.48765
G1 X85.233 Y153.092 E23.49432
G1 X84.833 Y152.635 E23.51654
G1 X84.496 Y152.129 E23.53878
G1 X84.228 Y151.584 E23.561
G1 X84.034 Y151.008 E23.58324
G1 X83.917 Y150.412 E23.60546
G1 X83.88 Y149.825 E23.62698
G1 X83.88 Y74.083 E26.39809
G1 X83.92 Y73.477 E26.42031
G1 X84.039 Y72.881 E26.44254
G1 X84.235 Y72.306 E26.46477
G1 X84.453 Y71.868 E26.48267
G0 F810 X84.506 Y71.762
G0 X84.845 Y71.257
M204 S5000
M205 X30 Y30
G0 F7200 X85.281 Y71.416
M204 S500
M205 X20 Y20
G1 F6000 E26.50927
G1 F900 X85.544 Y71.127 E26.52356
G1 X85.673 Y70.998 E26.53024
G1 X86.109 Y70.619 E26.55138
G1 X86.593 Y70.303 E26.57252
G1 X87.116 Y70.057 E26.59367
G1 X87.668 Y69.886 E26.61481
G1 X88.239 Y69.792 E26.63598
G1 X88.629 Y69.774 E26.65027
G1 X96.371 Y69.774 E26.93352
G1 X96.948 Y69.814 E26.95468
G1 X97.513 Y69.933 E26.9758
G1 X98.057 Y70.129 E26.99696
G1 X98.568 Y70.398 E27.01808
G1 X99.038 Y70.735 E27.03924
G1 X99.327 Y70.998 E27.05354
G1 X99.456 Y71.127 E27.06021
G1 X99.835 Y71.563 E27.08135
G1 X100.151 Y72.047 E27.1025
G1 X100.397 Y72.57 E27.12364
G1 X100.568 Y73.122 E27.14479
G1 X100.662 Y73.693 E27.16596
G1 X100.68 Y74.083 E27.18024
G1 X100.68 Y104.032 E28.27596
G1 X134.32 Y104.032 E29.50672
G1 X134.32 Y74.083 E30.60244
G1 X134.36 Y73.506 E30.6236
G1 X134.479 Y72.941 E30.64472
G1 X134.675 Y72.397 E30.66588
G1 X134.944 Y71.886 E30.68701
G1 X135.281 Y71.416 E30.70816
G1 X135.544 Y71.127 E30.72246
G1 X135.673 Y70.998 E30.72914
G1 X136.109 Y70.619 E30.75027
G1 X136.593 Y70.303 E30.77142
G1 X137.116 Y70.057 E30.79256
G1 X137.668 Y69.886 E30.81371
G1 X138.239 Y69.792 E30.83488
G1 X138.629 Y69.774 E30.84916
G1 X146.371 Y69.774 E31.13241
G1 X146.948 Y69.814 E31.15357
G1 X147.513 Y69.933 E31.1747
G1 X148.057 Y70.129 E31.19585
G1 X148.568 Y70.398 E31.21698
G1 X149.038 Y70.735 E31.23814
G1 X149.327 Y70.998 E31.25244
G1 X149.456 Y71.127 E31.25911
G1 X149.835 Y71.563 E31.28025
G1 X150.151 Y72.047 E31.30139
G1 X150.397 Y72.57 E31.32254
G1 X150.568 Y73.122 E31.34368
G1 X150.662 Y73.693 E31.36485
G1 X150.68 Y74.083 E31.37914
G1 X150.68 Y149.825 E34.15025
G1 X150.64 Y150.402 E34.17141
G1 X150.521 Y150.967 E34.19253
G1 X150.325 Y151.511 E34.21369
G1 X150.056 Y152.022 E34.23481
G1 X149.719 Y152.492 E34.25597
G1 X149.456 Y152.781 E34.27027
G1 X149.327 Y152.91 E34.27694
G1 X148.891 Y153.289 E34.29808
G1 X148.407 Y153.605 E34.31923
G1 X147.884 Y153.851 E34.34037
G1 X147.332 Y154.022 E34.36152
G1 X146.761 Y154.116 E34.38269
G1 X146.371 Y154.134 E34.39697
G1 X88.629 Y154.134 E36.50953
G1 X88.052 Y154.094 E36.53069
G1 X87.487 Y153.975 E36.55181
G1 X86.943 Y153.779 E36.57297
G1 X86.432 Y153.51 E36.5941
G1 X85.962 Y153.173 E36.61526
G1 X85.673 Y152.91 E36.62955
G1 X85.544 Y152.781 E36.63623
G1 X85.165 Y152.345 E36.65736
G1 X84.849 Y151.861 E36.67851
G1 X84.603 Y151.338 E36.69966
G1 X84.432 Y150.786 E36.7208
G1 X84.338 Y150.215 E36.74197
G1 X84.32 Y149.825 E36.75625
G1 X84.32 Y74.083 E39.52736
G1 X84.36 Y73.506 E39.54852
G1 X84.479 Y72.941 E39.56965
G1 X84.675 Y72.397 E39.5908
G1 X84.875 Y72.017 E39.60651
G0 F810 X84.944 Y71.886
G0 X85.281 Y71.416
M204 S5000
M205 X30 Y30
G0 F7200 X85.382 Y72.017
M204 S500
M205 X20 Y20
G1 F6000 E39.63311
G1 F900 X85.855 Y71.438 E39.66047
G1 X85.984 Y71.309 E39.66714
G1 X86.398 Y70.952 E39.68714
G1 X86.86 Y70.659 E39.70716
G1 X87.359 Y70.436 E39.72715
G1 X87.885 Y70.289 E39.74713
G1 X88.629 Y70.214 E39.77449
G1 X96.371 Y70.214 E40.05774
G1 X96.916 Y70.254 E40.07774
G1 X97.45 Y70.373 E40.09775
G1 X97.96 Y70.568 E40.11773
G1 X98.437 Y70.836 E40.13775
G1 X99.016 Y71.309 E40.1651
G1 X99.145 Y71.438 E40.17177
G1 X99.502 Y71.852 E40.19177
G1 X99.795 Y72.314 E40.21179
G1 X100.018 Y72.813 E40.23179
G1 X100.165 Y73.339 E40.25177
G1 X100.24 Y74.083 E40.27913
G1 X100.24 Y104.472 E41.39094
G1 X134.76 Y104.472 E42.6539
G1 X134.76 Y74.083 E43.76571
G1 X134.8 Y73.538 E43.78571
G1 X134.919 Y73.004 E43.80572
G1 X135.114 Y72.494 E43.8257
G1 X135.382 Y72.017 E43.84572
G1 X135.855 Y71.438 E43.87307
G1 X135.984 Y71.309 E43.87974
G1 X136.398 Y70.952 E43.89974
G1 X136.86 Y70.659 E43.91976
G1 X137.359 Y70.436 E43.93976
G1 X137.885 Y70.289 E43.95974
G1 X138.629 Y70.214 E43.9871
G1 X146.371 Y70.214 E44.27035
G1 X146.916 Y70.254 E44.29034
G1 X147.45 Y70.373 E44.31035
G1 X147.96 Y70.568 E44.33033
G1 X148.437 Y70.836 E44.35035
G1 X149.016 Y71.309 E44.3777
G1 X149.145 Y71.438 E44.38438
G1 X149.502 Y71.852 E44.40438
G1 X149.795 Y72.314 E44.42439
G1 X150.018 Y72.813 E44.44439
G1 X150.165 Y73.339 E44.46437
G1 X150.24 Y74.083 E44.49173
G1 X150.24 Y149.825 E47.26284
G1 X150.2 Y150.37 E47.28283
G1 X150.081 Y150.904 E47.30285
G1 X149.886 Y151.414 E47.32282
G1 X149.618 Y151.891 E47.34284
G1 X149.145 Y152.47 E47.37019
G1 X149.016 Y152.599 E47.37687
G1 X148.602 Y152.956 E47.39687
G1 X148.14 Y153.249 E47.41688
G1 X147.641 Y153.472 E47.43688
G1 X147.115 Y153.619 E47.45686
G1 X146.371 Y153.694 E47.48422
G1 X88.629 Y153.694 E49.59678
G1 X88.084 Y153.654 E49.61677
G1 X87.55 Y153.535 E49.63679
G1 X87.04 Y153.34 E49.65676
G1 X86.563 Y153.072 E49.67678
G1 X85.984 Y152.599 E49.70413
G1 X85.855 Y152.47 E49.71081
G1 X85.498 Y152.056 E49.73081
G1 X85.205 Y151.594 E49.75082
G1 X84.982 Y151.095 E49.77082
G1 X84.835 Y150.569 E49.7908
G1 X84.76 Y149.825 E49.81816
G1 X84.76 Y74.083 E52.58927
G1 X84.8 Y73.538 E52.60926
G1 X84.919 Y73.004 E52.62928
G1 X85.05 Y72.662 E52.64268
G0 F810 X85.114 Y72.494
G0 X85.382 Y72.017
M204 S5000
M205 X30 Y30
G0 F7200 X85.82 Y72.158
M204 S500
M205 X20 Y20
G1 F6000 E52.66927
G1 F900 X86.167 Y71.75 E52.68887
G1 X86.296 Y71.621 E52.69555
G1 X86.686 Y71.287 E52.71433
G1 X87.123 Y71.018 E52.73311
G1 X87.597 Y70.82 E52.7519
G1 X88.095 Y70.697 E52.77067
G1 X88.629 Y70.654 E52.79027
G1 X96.371 Y70.654 E53.07352
G1 X96.883 Y70.694 E53.09231
G1 X97.382 Y70.813 E53.11107
G1 X97.857 Y71.008 E53.12986
G1 X98.296 Y71.274 E53.14864
G1 X98.704 Y71.621 E53.16824
G1 X98.833 Y71.75 E53.17491
G1 X99.167 Y72.14 E53.1937
G1 X99.436 Y72.577 E53.21247
G1 X99.634 Y73.051 E53.23127
G1 X99.757 Y73.549 E53.25003
G1 X99.8 Y74.083 E53.26963
G1 X99.8 Y104.912 E54.39755
G1 X135.2 Y104.912 E55.6927
G1 X135.2 Y74.083 E56.82061
G1 X135.24 Y73.571 E56.8394
G1 X135.359 Y73.072 E56.85817
G1 X135.554 Y72.597 E56.87695
G1 X135.82 Y72.158 E56.89573
G1 X136.167 Y71.75 E56.91533
G1 X136.296 Y71.621 E56.922
G1 X136.686 Y71.287 E56.94079
G1 X137.123 Y71.018 E56.95957
G1 X137.597 Y70.82 E56.97836
G1 X138.095 Y70.697 E56.99713
G1 X138.629 Y70.654 E57.01673
G1 X146.371 Y70.654 E57.29998
G1 X146.883 Y70.694 E57.31877
G1 X147.382 Y70.813 E57.33753
G1 X147.857 Y71.008 E57.35632
G1 X148.296 Y71.274 E57.3751
G1 X148.704 Y71.621 E57.3947
G1 X148.833 Y71.75 E57.40137
G1 X149.167 Y72.14 E57.42016
G1 X149.436 Y72.577 E57.43893
G1 X149.634 Y73.051 E57.45772
G1 X149.757 Y73.549 E57.47649
G1 X149.8 Y74.083 E57.49609
G1 X149.8 Y149.825 E60.2672
G1 X149.76 Y150.337 E60.28599
G1 X149.641 Y150.836 E60.30476
G1 X149.446 Y151.311 E60.32354
G1 X149.18 Y151.75 E60.34232
G1 X148.833 Y152.158 E60.36192
G1 X148.704 Y152.287 E60.36859
G1 X148.314 Y152.621 E60.38738
G1 X147.877 Y152.89 E60.40615
G1 X147.403 Y153.088 E60.42495
G1 X146.905 Y153.211 E60.44372
G1 X146.371 Y153.254 E60.46332
G1 X88.629 Y153.254 E62.57587
G1 X88.117 Y153.214 E62.59466
G1 X87.618 Y153.095 E62.61343
G1 X87.143 Y152.9 E62.63222
G1 X86.704 Y152.634 E62.651
G1 X86.296 Y152.287 E62.67059
G1 X86.167 Y152.158 E62.67727
G1 X85.833 Y151.768 E62.69605
G1 X85.564 Y151.331 E62.71483
G1 X85.366 Y150.857 E62.73362
G1 X85.243 Y150.359 E62.75239
G1 X85.2 Y149.825 E62.77199
G1 X85.2 Y74.083 E65.5431
G1 X85.24 Y73.571 E65.56189
G1 X85.359 Y73.072 E65.58065
G1 X85.473 Y72.795 E65.59161
G0 F810 X85.554 Y72.597
G0 X85.82 Y72.158
M204 S5000
M205 X30 Y30
G0 F7200 X86.257 Y72.309
M204 S500
M205 X20 Y20
G1 F6000 E65.61821
G1 F900 X86.478 Y72.061 E65.63037
G1 X86.607 Y71.932 E65.63704
G1 X86.972 Y71.623 E65.65454
G1 X87.383 Y71.38 E65.672
G1 X87.829 Y71.208 E65.68949
G1 X88.297 Y71.113 E65.70697
G1 X88.629 Y71.094 E65.71913
G1 X96.371 Y71.094 E66.00238
G1 X96.847 Y71.134 E66.01986
G1 X97.31 Y71.253 E66.03735
G1 X97.747 Y71.447 E66.05484
G1 X98.145 Y71.711 E66.07231
G1 X98.393 Y71.932 E66.08447
G1 X98.522 Y72.061 E66.09114
G1 X98.831 Y72.426 E66.10864
G1 X99.074 Y72.837 E66.12611
G1 X99.246 Y73.283 E66.1436
G1 X99.341 Y73.751 E66.16107
G1 X99.36 Y74.083 E66.17323
G1 X99.36 Y105.352 E67.31725
G1 X135.64 Y105.352 E68.64459
G1 X135.64 Y74.083 E69.7886
G1 X135.68 Y73.607 E69.80608
G1 X135.799 Y73.144 E69.82357
G1 X135.993 Y72.707 E69.84106
G1 X136.257 Y72.309 E69.85854
G1 X136.478 Y72.061 E69.87069
G1 X136.607 Y71.932 E69.87736
G1 X136.972 Y71.623 E69.89486
G1 X137.383 Y71.38 E69.91233
G1 X137.829 Y71.208 E69.92982
G1 X138.297 Y71.113 E69.94729
G1 X138.629 Y71.094 E69.95946
G1 X146.371 Y71.094 E70.24271
G1 X146.847 Y71.134 E70.26018
G1 X147.31 Y71.253 E70.27767
G1 X147.747 Y71.447 E70.29517
G1 X148.145 Y71.711 E70.31264
G1 X148.393 Y71.932 E70.32479
G1 X148.522 Y72.061 E70.33147
G1 X148.831 Y72.426 E70.34896
G1 X149.074 Y72.837 E70.36643
G1 X149.246 Y73.283 E70.38392
G1 X149.341 Y73.751 E70.40139
G1 X149.36 Y74.083 E70.41356
G1 X149.36 Y149.825 E73.18467
G1 X149.32 Y150.301 E73.20214
G1 X149.201 Y150.764 E73.21963
G1 X149.007 Y151.201 E73.23713
G1 X148.743 Y151.599 E73.2546
G1 X148.522 Y151.847 E73.26675
G1 X148.393 Y151.976 E73.27343
G1 X148.028 Y152.285 E73.29092
G1 X147.617 Y152.528 E73.30839
G1 X147.171 Y152.7 E73.32588
G1 X146.703 Y152.795 E73.34335
G1 X146.371 Y152.814 E73.35552
G1 X88.629 Y152.814 E75.46808
G1 X88.153 Y152.774 E75.48555
G1 X87.69 Y152.655 E75.50304
G1 X87.253 Y152.461 E75.52054
G1 X86.855 Y152.197 E75.53801
G1 X86.607 Y151.976 E75.55016
G1 X86.478 Y151.847 E75.55684
G1 X86.169 Y151.482 E75.57433
G1 X85.926 Y151.071 E75.5918
G1 X85.754 Y150.625 E75.60929
G1 X85.659 Y150.157 E75.62676
G1 X85.64 Y149.825 E75.63893
G1 X85.64 Y74.083 E78.41004
G1 X85.68 Y73.607 E78.42751
G1 X85.799 Y73.144 E78.445
G1 X85.892 Y72.935 E78.45337
G0 F810 X85.993 Y72.707
G0 X86.257 Y72.309
M204 S5000
M205 X30 Y30
G0 F7200 X86.431 Y72.827
M204 S500
M205 X20 Y20
G1 F6000 E78.47997
G1 F900 X86.789 Y72.372 E78.50115
G1 X86.918 Y72.243 E78.50783
G1 X87.256 Y71.962 E78.52391
G1 X87.639 Y71.746 E78.54
G1 X88.054 Y71.603 E78.55606
G1 X88.629 Y71.534 E78.57724
G1 X96.371 Y71.534 E78.86049
G1 X96.809 Y71.574 E78.87658
G1 X97.232 Y71.692 E78.89265
G1 X97.627 Y71.885 E78.90874
G1 X98.082 Y72.243 E78.92992
G1 X98.211 Y72.372 E78.93659
G1 X98.492 Y72.71 E78.95267
G1 X98.708 Y73.093 E78.96876
G1 X98.851 Y73.508 E78.98482
G1 X98.92 Y74.083 E79.00601
