;FLAVOR:Marlin
;TIME:1474
;Filament used: 0.775042m
;Layer height: 0.2
;Generated with Cura_SteamEngine 3.6.0
M140 S70
M105
M190 S70
M104 S215
M105
M109 S215
M82 ;absolute extrusion mode
G28 ; home all axes
M117 Purge extruder
G92 E0 ; reset extruder
G1 Z1.0 F3000 ; move z up little to prevent scratching of surface
G1 X0.1 Y20 Z0.3 F5000.0 ; move to start-line position G1 X0.1 Y200.0 Z0.3 F1500.0 E15 ; draw 1st line
G1 X0.4 Y200.0 Z0.3 F5000.0 ; move to side a little
G1 X0.4 Y20 Z0.3 F1500.0 E30 ; draw 2nd line
G92 E0 ; reset extruder
G1 Z1.0 F3000 ; move z up little to prevent scratching of surface
M117 All systems go!
G92 E0
G1 F6000 E-5
;LAYER_COUNT:117
;LAYER:0
M107
M204 S5000
M205 X30 Y30
G0 F7200 X106.284 Y107.687 Z0.2
M204 S500
M205 X20 Y20
;TYPE:SKIRT
G1 F6000 E0
G1 F900 X107.237 Y106.865 E0.04186
G1 X108.24 Y106.105 E0.08371
G1 X109.29 Y105.41 E0.12559
G1 X110.381 Y104.784 E0.16743
G1 X111.51 Y104.228 E0.20929
G1 X112.672 Y103.745 E0.25114
G1 X113.443 Y103.471 E0.27836
G1 X113.78 Y103.359 E0.29017
G1 X114.987 Y103 E0.33205
G1 X116.213 Y102.718 E0.37389
G1 X117.455 Y102.515 E0.41575
G1 X118.707 Y102.392 E0.45759
G1 X119.965 Y102.348 E0.49946
G1 X121.223 Y102.384 E0.54132
G1 X122.476 Y102.5 E0.58317
G1 X123.719 Y102.696 E0.62502
G1 X124.947 Y102.97 E0.66687
G1 X126.156 Y103.321 E0.70874
G1 X127.339 Y103.749 E0.75059
G1 X128.493 Y104.25 E0.79243
G1 X129.613 Y104.824 E0.83429
G1 X130.694 Y105.468 E0.87614
G1 X131.732 Y106.18 E0.918
G1 X132.723 Y106.956 E0.95987
G1 X133.801 Y107.926 E1.0081
G1 X133.992 Y108.111 E1.01694
G1 X134.867 Y109.014 E1.05877
G1 X135.684 Y109.972 E1.10064
G1 X136.438 Y110.98 E1.14251
G1 X137.126 Y112.033 E1.18435
G1 X137.746 Y113.128 E1.2262
G1 X138.296 Y114.26 E1.26806
G1 X138.772 Y115.425 E1.30992
G1 X139.173 Y116.618 E1.35178
G1 X139.498 Y117.833 E1.39361
G1 X139.745 Y119.067 E1.43547
G1 X139.913 Y120.315 E1.47735
G1 X140.001 Y121.57 E1.51919
G1 X140.01 Y122.828 E1.56103
G1 X139.938 Y124.085 E1.60291
G1 X139.787 Y125.334 E1.64476
G1 X139.557 Y126.571 E1.6866
G1 X139.249 Y127.791 E1.72845
G1 X138.864 Y128.989 E1.77031
G1 X138.403 Y130.16 E1.81216
G1 X138.142 Y130.741 E1.83335
G1 X138.036 Y130.967 E1.84165
G1 X137.466 Y132.089 E1.88351
G1 X136.825 Y133.172 E1.92537
G1 X136.118 Y134.212 E1.96719
G1 X135.345 Y135.206 E2.00907
G1 X134.511 Y136.148 E2.05092
G1 X133.618 Y137.035 E2.09278
G1 X132.672 Y137.864 E2.13462
G1 X131.674 Y138.631 E2.17648
G1 X130.63 Y139.333 E2.21833
G1 X129.543 Y139.968 E2.2602
G1 X128.418 Y140.532 E2.30205
G1 X127.259 Y141.023 E2.34392
G1 X126.072 Y141.44 E2.38576
G1 X124.861 Y141.781 E2.42761
G1 X123.63 Y142.044 E2.46947
G1 X122.385 Y142.228 E2.51133
G1 X121.131 Y142.333 E2.55319
G1 X120.456 Y142.356 E2.57565
G1 X120.113 Y142.362 E2.58706
G1 X118.855 Y142.344 E2.62891
G1 X117.6 Y142.246 E2.67077
G1 X116.355 Y142.069 E2.7126
G1 X115.123 Y141.813 E2.75445
G1 X113.909 Y141.479 E2.79633
G1 X112.72 Y141.068 E2.83817
G1 X111.558 Y140.583 E2.88005
G1 X110.43 Y140.025 E2.92191
G1 X109.34 Y139.397 E2.96375
G1 X108.292 Y138.701 E3.00559
G1 X107.29 Y137.939 E3.04746
G1 X106.339 Y137.116 E3.08929
G1 X105.441 Y136.233 E3.13118
G1 X104.602 Y135.296 E3.17301
G1 X103.824 Y134.306 E3.21489
G1 X103.11 Y133.27 E3.25674
G1 X102.464 Y132.19 E3.29859
G1 X101.888 Y131.072 E3.34042
G1 X101.383 Y129.919 E3.38229
G1 X100.953 Y128.736 E3.42416
G1 X100.6 Y127.53 E3.46595
G1 X100.521 Y127.225 E3.47643
G1 X100.244 Y125.997 E3.5183
G1 X100.046 Y124.754 E3.56016
G1 X99.927 Y123.502 E3.60199
G1 X99.888 Y122.244 E3.64385
G1 X99.929 Y120.986 E3.68572
G1 X100.05 Y119.733 E3.72759
G1 X100.25 Y118.491 E3.76943
G1 X100.529 Y117.264 E3.81128
G1 X100.885 Y116.057 E3.85313
G1 X101.317 Y114.875 E3.89499
G1 X101.823 Y113.723 E3.93684
G1 X102.401 Y112.605 E3.9787
G1 X103.05 Y111.527 E4.02055
G1 X103.765 Y110.491 E4.06242
G1 X104.545 Y109.504 E4.10426
G1 X105.386 Y108.567 E4.14614
G1 X105.713 Y108.247 E4.16135
G0 F810 X106.284 Y107.687
M204 S5000
M205 X30 Y30
G0 F7200 X106.714 Y107.836
M204 S500
M205 X20 Y20
G1 F6000 E4.18796
G1 F900 X107.667 Y107.033 E4.22941
G1 X108.669 Y106.293 E4.27084
G1 X109.716 Y105.619 E4.31225
G1 X110.804 Y105.013 E4.35368
G1 X111.93 Y104.479 E4.39513
G1 X113.57 Y103.85 E4.45355
G1 X113.907 Y103.738 E4.46536
G1 X115.101 Y103.383 E4.50679
G1 X116.315 Y103.106 E4.5482
G1 X117.545 Y102.907 E4.58965
G1 X118.785 Y102.788 E4.63108
G1 X120.03 Y102.748 E4.67251
G1 X121.275 Y102.788 E4.71394
G1 X122.514 Y102.908 E4.75534
G1 X123.744 Y103.108 E4.79679
G1 X124.958 Y103.386 E4.83821
G1 X126.152 Y103.741 E4.87964
G1 X127.321 Y104.172 E4.92108
G1 X128.459 Y104.677 E4.96249
G1 X129.563 Y105.255 E5.00394
G1 X130.628 Y105.902 E5.04538
G1 X131.648 Y106.615 E5.08678
G1 X132.621 Y107.393 E5.12821
G1 X133.522 Y108.213 E5.16873
G1 X133.713 Y108.398 E5.17758
G1 X134.58 Y109.293 E5.21902
G1 X135.387 Y110.242 E5.26045
G1 X136.132 Y111.24 E5.30188
G1 X136.811 Y112.284 E5.3433
G1 X137.421 Y113.37 E5.38473
G1 X137.961 Y114.493 E5.42617
G1 X138.428 Y115.648 E5.46761
G1 X138.819 Y116.83 E5.50902
G1 X139.134 Y118.035 E5.55044
G1 X139.371 Y119.258 E5.59188
G1 X139.529 Y120.494 E5.63332
G1 X139.607 Y121.737 E5.67474
G1 X139.605 Y122.983 E5.71619
G1 X139.523 Y124.226 E5.75762
G1 X139.362 Y125.461 E5.79904
G1 X139.122 Y126.683 E5.84046
G1 X138.804 Y127.887 E5.88188
G1 X138.409 Y129.069 E5.92333
G1 X137.78 Y130.571 E5.97749
G1 X137.674 Y130.797 E5.98579
G1 X137.109 Y131.907 E6.02722
G1 X136.474 Y132.979 E6.06866
G1 X135.772 Y134.008 E6.11009
G1 X135.005 Y134.989 E6.15151
G1 X134.176 Y135.919 E6.19295
G1 X133.29 Y136.794 E6.23436
G1 X132.349 Y137.611 E6.27581
G1 X131.358 Y138.365 E6.31723
G1 X130.321 Y139.055 E6.35866
G1 X129.241 Y139.676 E6.40009
G1 X128.124 Y140.227 E6.44152
G1 X126.973 Y140.704 E6.48296
G1 X125.795 Y141.107 E6.52437
G1 X124.593 Y141.434 E6.5658
G1 X123.372 Y141.683 E6.60724
G1 X122.138 Y141.853 E6.64868
G1 X120.449 Y141.956 E6.70496
G1 X120.106 Y141.962 E6.71637
G1 X118.861 Y141.944 E6.75778
G1 X117.619 Y141.846 E6.79922
G1 X116.386 Y141.668 E6.84065
G1 X115.167 Y141.412 E6.88208
G1 X113.967 Y141.078 E6.92351
G1 X112.791 Y140.667 E6.96494
G1 X111.644 Y140.182 E7.00636
G1 X110.53 Y139.625 E7.04779
G1 X109.454 Y138.997 E7.08923
G1 X108.421 Y138.301 E7.13065
G1 X107.434 Y137.541 E7.17209
G1 X106.499 Y136.718 E7.21352
G1 X105.618 Y135.838 E7.25493
G1 X104.795 Y134.902 E7.29639
G1 X104.034 Y133.916 E7.33781
G1 X103.338 Y132.883 E7.37924
G1 X102.71 Y131.807 E7.42068
G1 X102.152 Y130.694 E7.46209
G1 X101.667 Y129.546 E7.50354
G1 X101.256 Y128.371 E7.54494
G1 X100.987 Y127.429 E7.57752
G1 X100.908 Y127.124 E7.588
G1 X100.634 Y125.909 E7.62943
G1 X100.439 Y124.679 E7.67085
G1 X100.324 Y123.439 E7.71227
G1 X100.288 Y122.193 E7.75373
G1 X100.332 Y120.949 E7.79513
G1 X100.456 Y119.709 E7.83658
G1 X100.66 Y118.48 E7.87802
G1 X100.942 Y117.267 E7.91944
G1 X101.301 Y116.074 E7.96087
G1 X101.736 Y114.907 E8.0023
G1 X102.244 Y113.77 E8.04372
G1 X102.825 Y112.668 E8.08515
G1 X103.476 Y111.606 E8.12658
G1 X104.193 Y110.587 E8.16802
G1 X104.974 Y109.617 E8.20944
G1 X105.815 Y108.699 E8.25085
G1 X106.137 Y108.39 E8.26569
G0 F810 X106.714 Y107.836
M204 S5000
M205 X30 Y30
G0 F7200 X107.144 Y107.989
M204 S500
M205 X20 Y20
G1 F6000 E8.2923
G1 F900 X108.096 Y107.206 E8.3333
G1 X109.097 Y106.486 E8.37431
G1 X110.142 Y105.832 E8.41531
G1 X111.227 Y105.248 E8.4563
G1 X112.348 Y104.735 E8.4973
G1 X113.696 Y104.23 E8.54518
G1 X114.033 Y104.118 E8.55699
G1 X115.215 Y103.767 E8.598
G1 X116.417 Y103.494 E8.639
G1 X117.634 Y103.299 E8.67999
G1 X118.861 Y103.184 E8.72098
G1 X120.093 Y103.148 E8.76197
G1 X121.325 Y103.193 E8.80298
G1 X122.552 Y103.317 E8.84399
G1 X123.768 Y103.52 E8.885
G1 X124.968 Y103.802 E8.926
G1 X126.147 Y104.161 E8.96699
G1 X127.3 Y104.596 E9.00798
G1 X128.423 Y105.105 E9.04899
G1 X129.511 Y105.685 E9.08999
G1 X130.558 Y106.335 E9.13098
G1 X131.561 Y107.051 E9.17197
G1 X132.516 Y107.831 E9.21298
G1 X133.244 Y108.5 E9.24587
G1 X133.435 Y108.685 E9.25471
G1 X134.292 Y109.571 E9.29571
G1 X135.09 Y110.511 E9.33672
G1 X135.825 Y111.5 E9.3777
G1 X136.495 Y112.535 E9.41871
G1 X137.096 Y113.612 E9.45973
G1 X137.626 Y114.724 E9.5007
G1 X138.083 Y115.869 E9.54171
G1 X138.464 Y117.042 E9.58273
G1 X138.769 Y118.236 E9.62372
G1 X138.996 Y119.448 E9.66473
G1 X139.143 Y120.672 E9.70573
G1 X139.211 Y121.903 E9.74674
G1 X139.199 Y123.135 E9.78771
G1 X139.107 Y124.364 E9.82871
G1 X138.936 Y125.585 E9.86971
G1 X138.685 Y126.792 E9.91072
G1 X138.357 Y127.981 E9.95174
G1 X137.953 Y129.145 E9.99272
G1 X137.418 Y130.401 E10.03813
G1 X137.312 Y130.627 E10.04643
G1 X136.753 Y131.726 E10.08744
G1 X136.123 Y132.786 E10.12845
G1 X135.426 Y133.802 E10.16943
G1 X134.665 Y134.772 E10.21044
G1 X133.842 Y135.69 E10.25144
G1 X132.962 Y136.553 E10.29244
G1 X132.027 Y137.357 E10.33345
G1 X131.043 Y138.098 E10.37442
G1 X130.012 Y138.775 E10.41545
G1 X128.94 Y139.383 E10.45644
G1 X127.83 Y139.92 E10.49745
G1 X126.688 Y140.384 E10.53845
G1 X125.518 Y140.773 E10.57946
G1 X124.326 Y141.085 E10.62044
G1 X123.116 Y141.32 E10.66143
G1 X121.893 Y141.475 E10.70244
G1 X120.442 Y141.556 E10.75077
G1 X120.099 Y141.562 E10.76218
G1 X118.867 Y141.544 E10.80316
G1 X117.638 Y141.445 E10.84417
G1 X116.418 Y141.268 E10.88517
G1 X115.212 Y141.011 E10.92619
G1 X114.026 Y140.677 E10.96717
G1 X112.863 Y140.266 E11.00819
G1 X111.73 Y139.782 E11.04917
G1 X110.631 Y139.224 E11.09017
G1 X109.57 Y138.597 E11.13116
G1 X108.551 Y137.902 E11.17218
G1 X107.581 Y137.142 E11.21317
G1 X106.661 Y136.321 E11.25418
G1 X105.796 Y135.442 E11.2952
G1 X104.991 Y134.509 E11.33618
G1 X104.247 Y133.526 E11.37719
G1 X103.569 Y132.496 E11.4182
G1 X102.959 Y131.425 E11.45919
G1 X102.42 Y130.317 E11.50018
G1 X101.954 Y129.175 E11.5412
G1 X101.563 Y128.006 E11.5822
G1 X101.374 Y127.329 E11.60558
G1 X101.295 Y127.024 E11.61605
G1 X101.025 Y125.821 E11.65706
G1 X100.833 Y124.604 E11.69804
G1 X100.721 Y123.376 E11.73905
G1 X100.688 Y122.144 E11.78004
G1 X100.736 Y120.912 E11.82105
G1 X100.863 Y119.686 E11.86205
G1 X101.07 Y118.471 E11.90304
G1 X101.355 Y117.271 E11.94406
G1 X101.717 Y116.093 E11.98505
G1 X102.154 Y114.94 E12.02606
G1 X102.666 Y113.819 E12.06705
G1 X103.249 Y112.733 E12.10805
G1 X103.902 Y111.687 E12.14906
G1 X104.62 Y110.685 E12.19006
G1 X105.403 Y109.733 E12.23106
G1 X106.245 Y108.833 E12.27205
G1 X106.561 Y108.536 E12.28647
G0 F810 X107.144 Y107.989
M204 S5000
M205 X30 Y30
G0 F7200 X106.675 Y108.97
M204 S500
M205 X20 Y20
G1 F6000 E12.31308
G1 F900 X107.574 Y108.146 E12.35364
G1 X108.525 Y107.382 E12.39422
G1 X109.524 Y106.683 E12.43477
G1 X110.567 Y106.05 E12.47535
G1 X111.649 Y105.487 E12.51592
G1 X112.765 Y104.996 E12.55647
G1 X113.822 Y104.609 E12.59391
G1 X114.159 Y104.497 E12.60572
G1 X115.328 Y104.151 E12.64627
G1 X116.518 Y103.882 E12.68684
G1 X117.723 Y103.691 E12.72742
G1 X118.937 Y103.58 E12.76797
G1 X120.156 Y103.548 E12.80853
G1 X121.375 Y103.597 E12.8491
G1 X122.588 Y103.725 E12.88967
G1 X123.79 Y103.933 E12.93024
G1 X124.976 Y104.219 E12.97082
G1 X126.14 Y104.582 E13.01138
G1 X127.278 Y105.02 E13.05193
G1 X128.385 Y105.533 E13.09251
G1 X129.456 Y106.116 E13.13307
G1 X130.486 Y106.769 E13.17363
G1 X131.472 Y107.488 E13.21422
G1 X132.408 Y108.269 E13.25477
G1 X132.966 Y108.788 E13.28011
G1 X133.157 Y108.973 E13.28896
G1 X134.004 Y109.849 E13.32948
G1 X134.793 Y110.78 E13.37007
G1 X135.519 Y111.76 E13.41064
G1 X136.179 Y112.786 E13.45121
G1 X136.77 Y113.853 E13.49178
G1 X137.29 Y114.956 E13.53234
G1 X137.737 Y116.091 E13.57291
G1 X138.109 Y117.252 E13.61346
G1 X138.403 Y118.436 E13.65404
G1 X138.619 Y119.636 E13.69459
G1 X138.757 Y120.848 E13.73516
G1 X138.814 Y122.067 E13.77575
G1 X138.792 Y123.286 E13.8163
G1 X138.689 Y124.501 E13.85686
G1 X138.507 Y125.707 E13.89742
G1 X138.247 Y126.899 E13.938
G1 X137.909 Y128.071 E13.97857
G1 X137.495 Y129.218 E14.01913
G1 X137.056 Y130.231 E14.05585
G1 X136.95 Y130.457 E14.06415
G1 X136.396 Y131.544 E14.10473
G1 X135.772 Y132.592 E14.1453
G1 X135.081 Y133.597 E14.18586
G1 X134.325 Y134.554 E14.22643
G1 X133.508 Y135.46 E14.267
G1 X132.634 Y136.311 E14.30758
G1 X131.706 Y137.102 E14.34813
G1 X130.728 Y137.831 E14.3887
G1 X129.704 Y138.494 E14.42928
G1 X128.639 Y139.088 E14.46984
G1 X127.538 Y139.612 E14.51039
G1 X126.404 Y140.062 E14.55097
G1 X125.243 Y140.437 E14.59155
G1 X124.061 Y140.735 E14.63209
G1 X122.861 Y140.954 E14.67267
G1 X121.65 Y141.095 E14.71322
G1 X120.435 Y141.156 E14.75368
G1 X120.092 Y141.162 E14.76509
G1 X118.873 Y141.143 E14.80564
G1 X117.657 Y141.045 E14.84621
G1 X116.45 Y140.867 E14.88679
G1 X115.258 Y140.61 E14.92735
G1 X114.085 Y140.276 E14.96791
G1 X112.937 Y139.865 E15.00847
G1 X111.817 Y139.381 E15.04905
G1 X110.733 Y138.823 E15.0896
G1 X109.686 Y138.196 E15.13019
G1 X108.684 Y137.502 E15.17073
G1 X107.728 Y136.744 E15.21131
G1 X106.825 Y135.924 E15.25188
G1 X105.977 Y135.047 E15.29245
G1 X105.189 Y134.117 E15.333
G1 X104.463 Y133.136 E15.37359
G1 X103.803 Y132.111 E15.41414
G1 X103.212 Y131.044 E15.4547
G1 X102.692 Y129.941 E15.49526
G1 X102.245 Y128.806 E15.53583
G1 X101.761 Y127.229 E15.5907
G1 X101.682 Y126.924 E15.60118
G1 X101.415 Y125.734 E15.64174
G1 X101.227 Y124.529 E15.68231
G1 X101.118 Y123.314 E15.72288
G1 X101.089 Y122.095 E15.76344
G1 X101.14 Y120.876 E15.80402
G1 X101.27 Y119.663 E15.84459
G1 X101.48 Y118.462 E15.88514
G1 X101.768 Y117.277 E15.9257
G1 X102.133 Y116.113 E15.96628
G1 X102.574 Y114.976 E16.00684
G1 X103.088 Y113.87 E16.0474
G1 X103.674 Y112.8 E16.08798
G1 X104.328 Y111.77 E16.12856
G1 X105.048 Y110.786 E16.16911
G1 X105.832 Y109.852 E16.20967
G1 X106.123 Y109.548 E16.22367
G0 F810 X106.675 Y108.97
M204 S5000
M205 X30 Y30
G0 F7200 X107.105 Y109.111
M204 S500
M205 X20 Y20
G1 F6000 E16.25028
G1 F900 X108.004 Y108.306 E16.29041
G1 X108.954 Y107.562 E16.33055
G1 X109.951 Y106.884 E16.37065
G1 X110.991 Y106.272 E16.41078
G1 X112.07 Y105.731 E16.45093
G1 X113.181 Y105.263 E16.49102
G1 X113.948 Y104.989 E16.51811
G1 X114.285 Y104.877 E16.52993
G1 X115.442 Y104.534 E16.57006
G1 X116.619 Y104.27 E16.61018
G1 X117.811 Y104.083 E16.65031
G1 X119.013 Y103.976 E16.69045
G1 X120.219 Y103.949 E16.73057
G1 X121.424 Y104.002 E16.77069
G1 X122.623 Y104.134 E16.81081
G1 X123.811 Y104.346 E16.85095
G1 X124.982 Y104.636 E16.89107
G1 X126.132 Y105.003 E16.93122
G1 X127.254 Y105.445 E16.97133
G1 X128.345 Y105.961 E17.01147
G1 X129.399 Y106.548 E17.0516
G1 X130.412 Y107.203 E17.09172
G1 X131.379 Y107.924 E17.13184
G1 X132.687 Y109.075 E17.18979
G1 X132.878 Y109.26 E17.19863
G1 X133.717 Y110.128 E17.23878
G1 X134.496 Y111.049 E17.2789
G1 X135.212 Y112.02 E17.31903
G1 X135.862 Y113.036 E17.35915
G1 X136.444 Y114.093 E17.39928
G1 X136.954 Y115.186 E17.4394
G1 X137.391 Y116.311 E17.47954
G1 X137.752 Y117.462 E17.51966
G1 X138.036 Y118.635 E17.5598
G1 X138.242 Y119.823 E17.5999
G1 X138.369 Y121.023 E17.64004
G1 X138.416 Y122.229 E17.68018
G1 X138.383 Y123.435 E17.72031
G1 X138.27 Y124.636 E17.76043
G1 X138.077 Y125.827 E17.80056
G1 X137.807 Y127.003 E17.84069
G1 X137.459 Y128.158 E17.88081
G1 X137.035 Y129.288 E17.92095
G1 X136.694 Y130.061 E17.94905
G1 X136.588 Y130.287 E17.95736
G1 X136.039 Y131.362 E17.9975
G1 X135.421 Y132.398 E18.03763
G1 X134.736 Y133.391 E18.07775
G1 X133.986 Y134.336 E18.11788
G1 X133.175 Y135.23 E18.15802
G1 X132.307 Y136.067 E18.19813
G1 X131.385 Y136.846 E18.23827
G1 X130.414 Y137.561 E18.27838
G1 X129.397 Y138.211 E18.31852
G1 X128.34 Y138.792 E18.35864
G1 X127.246 Y139.302 E18.39879
G1 X126.121 Y139.738 E18.43892
G1 X124.97 Y140.098 E18.47903
G1 X123.797 Y140.382 E18.51917
G1 X122.608 Y140.587 E18.5593
G1 X121.408 Y140.713 E18.59943
G1 X120.428 Y140.756 E18.63206
G1 X120.085 Y140.762 E18.64347
G1 X118.879 Y140.743 E18.68358
G1 X117.677 Y140.645 E18.7237
G1 X116.483 Y140.466 E18.76385
G1 X115.304 Y140.209 E18.80399
G1 X114.145 Y139.875 E18.8441
G1 X113.011 Y139.465 E18.88421
G1 X111.906 Y138.98 E18.92435
G1 X110.836 Y138.423 E18.96447
G1 X109.805 Y137.796 E19.0046
G1 X108.817 Y137.103 E19.04474
G1 X107.878 Y136.345 E19.08488
G1 X106.991 Y135.527 E19.12501
G1 X106.161 Y134.653 E19.1651
G1 X105.39 Y133.725 E19.20523
G1 X104.682 Y132.747 E19.24538
