;FLAVOR:Marlin
;TIME:1511
;Filament used: 0.791551m
;Layer height: 0.2
;Generated with Cura_SteamEngine 3.6.0
M140 S70
M105
M190 S70
M104 S215
M105
M109 S215
M82 ;absolute extrusion mode
G28 ; home all axes
M117 Purge extruder
G92 E0 ; reset extruder
G1 Z1.0 F3000 ; move z up little to prevent scratching of surface
G1 X0.1 Y20 Z0.3 F5000.0 ; move to start-line position G1 X0.1 Y200.0 Z0.3 F1500.0 E15 ; draw 1st line
G1 X0.4 Y200.0 Z0.3 F5000.0 ; move to side a little
G1 X0.4 Y20 Z0.3 F1500.0 E30 ; draw 2nd line
G92 E0 ; reset extruder
G1 Z1.0 F3000 ; move z up little to prevent scratching of surface
M117 All systems go!
G92 E0
G1 F6000 E-5
;LAYER_COUNT:119
;LAYER:0
M107
M204 S5000
M205 X30 Y30
G0 F7200 X100.166 Y106.439 Z0.2
M204 S500
M205 X20 Y20
;TYPE:SKIRT
G1 F6000 E0
G1 F900 X101.105 Y105.601 E0.04186
G1 X102.095 Y104.824 E0.08372
G1 X103.133 Y104.112 E0.12558
G1 X104.213 Y103.467 E0.16742
G1 X105.333 Y102.892 E0.2093
G1 X106.092 Y102.552 E0.23696
G1 X106.576 Y102.347 E0.25444
G1 X107.75 Y101.893 E0.29631
G1 X108.95 Y101.515 E0.33815
G1 X110.172 Y101.214 E0.38001
G1 X111.41 Y100.991 E0.42185
G1 X112.66 Y100.847 E0.4637
G1 X114.4 Y100.779 E0.52162
G1 X114.595 Y100.78 E0.5281
G1 X115.852 Y100.827 E0.56994
G1 X117.104 Y100.953 E0.61179
G1 X118.346 Y101.158 E0.65366
G1 X119.572 Y101.442 E0.69552
G1 X120.777 Y101.804 E0.73736
G1 X121.957 Y102.241 E0.77922
G1 X123.107 Y102.752 E0.82107
G1 X124.222 Y103.335 E0.86292
G1 X125.298 Y103.988 E0.90478
G1 X126.33 Y104.708 E0.94663
G1 X127.314 Y105.492 E0.98848
G1 X128.233 Y106.323 E1.02969
G1 X128.51 Y106.59 E1.04249
G1 X128.593 Y106.659 E1.04608
G1 X129.507 Y107.524 E1.08793
G1 X130.195 Y108.253 E1.12127
G1 X130.29 Y108.359 E1.126
G1 X131.1 Y109.323 E1.16788
G1 X131.846 Y110.335 E1.2097
G1 X132.527 Y111.394 E1.25158
G1 X133.14 Y112.493 E1.29343
G1 X133.681 Y113.629 E1.33528
G1 X134.149 Y114.797 E1.37713
G1 X134.542 Y115.993 E1.419
G1 X134.858 Y117.211 E1.46085
G1 X135.096 Y118.446 E1.50269
G1 X135.258 Y119.716 E1.54527
G1 X135.309 Y120.257 E1.56334
G1 X135.387 Y121.513 E1.6052
G1 X135.385 Y122.771 E1.64704
G1 X135.303 Y124.027 E1.6889
G1 X135.142 Y125.275 E1.73075
G1 X134.902 Y126.51 E1.7726
G1 X134.584 Y127.728 E1.81447
G1 X134.189 Y128.923 E1.85633
G1 X133.719 Y130.09 E1.89817
G1 X133.176 Y131.225 E1.94002
G1 X132.867 Y131.798 E1.96167
G1 X132.622 Y132.235 E1.97834
G1 X131.972 Y133.312 E2.02018
G1 X131.255 Y134.346 E2.06203
G1 X130.473 Y135.333 E2.10391
G1 X129.631 Y136.268 E2.14576
G1 X128.731 Y137.147 E2.1876
G1 X127.777 Y137.968 E2.22946
G1 X126.772 Y138.726 E2.27133
G1 X125.453 Y139.581 E2.32361
G1 X125.013 Y139.842 E2.34063
G1 X123.91 Y140.45 E2.38252
G1 X122.772 Y140.986 E2.42436
G1 X121.602 Y141.448 E2.46619
G1 X120.404 Y141.836 E2.50808
G1 X119.185 Y142.146 E2.54991
G1 X117.948 Y142.379 E2.59178
G1 X116.699 Y142.532 E2.63363
G1 X115.443 Y142.606 E2.67548
G1 X114.184 Y142.6 E2.71735
G1 X112.918 Y142.512 E2.75956
G1 X112.226 Y142.442 E2.7827
G1 X110.979 Y142.276 E2.82454
G1 X109.745 Y142.031 E2.86638
G1 X108.528 Y141.708 E2.90826
G1 X107.432 Y141.34 E2.94671
G1 X107.358 Y141.317 E2.94929
G1 X106.185 Y140.861 E2.99115
G1 X105.043 Y140.332 E3.03301
G1 X103.938 Y139.73 E3.07486
G1 X103.353 Y139.374 E3.09764
G1 X102.966 Y139.129 E3.11287
G1 X101.925 Y138.423 E3.15471
G1 X100.93 Y137.652 E3.19657
G1 X99.987 Y136.819 E3.23842
G1 X99.099 Y135.927 E3.28029
G1 X98.268 Y134.982 E3.32214
G1 X97.874 Y134.487 E3.34318
G1 X97.548 Y134.064 E3.36095
G1 X96.812 Y133.043 E3.40281
G1 X96.142 Y131.978 E3.44466
G1 X95.541 Y130.872 E3.48652
G1 X95.012 Y129.73 E3.52838
G1 X94.556 Y128.557 E3.57024
G1 X94.176 Y127.358 E3.61208
G1 X93.873 Y126.136 E3.65395
G1 X93.648 Y124.898 E3.6958
G1 X93.502 Y123.648 E3.73766
G1 X93.435 Y122.392 E3.77949
G1 X93.449 Y121.133 E3.82137
G1 X93.507 Y120.245 E3.85097
G1 X93.543 Y119.835 E3.86466
G1 X93.693 Y118.586 E3.9065
G1 X93.922 Y117.348 E3.94837
G1 X94.229 Y116.128 E3.99021
G1 X94.613 Y114.929 E4.03209
G1 X95.072 Y113.758 E4.07392
G1 X95.62 Y112.588 E4.11689
G1 X95.879 Y112.079 E4.13589
G1 X96.485 Y110.976 E4.17775
G1 X97.16 Y109.914 E4.2196
G1 X97.901 Y108.896 E4.26148
G1 X98.705 Y107.928 E4.30333
G1 X99.598 Y107.003 E4.34609
G0 F810 X99.878 Y106.713
G0 X100.166 Y106.439
M204 S5000
M205 X30 Y30
G0 F7200 X100.442 Y106.729
M204 S500
M205 X20 Y20
G1 F6000 E4.3727
G1 F900 X101.372 Y105.9 E4.41414
G1 X102.352 Y105.132 E4.45555
G1 X103.381 Y104.429 E4.497
G1 X104.452 Y103.793 E4.53843
G1 X105.561 Y103.227 E4.57984
G1 X106.248 Y102.92 E4.60487
G1 X106.732 Y102.715 E4.62235
G1 X107.894 Y102.267 E4.66377
G1 X109.082 Y101.893 E4.7052
G1 X110.292 Y101.597 E4.74663
G1 X111.518 Y101.379 E4.78804
G1 X112.756 Y101.24 E4.82948
G1 X114.397 Y101.179 E4.8841
G1 X114.592 Y101.18 E4.89058
G1 X115.837 Y101.227 E4.93202
G1 X117.076 Y101.353 E4.97344
G1 X118.305 Y101.558 E5.01488
G1 X119.518 Y101.842 E5.05632
G1 X120.71 Y102.203 E5.09774
G1 X121.877 Y102.64 E5.13919
G1 X123.013 Y103.151 E5.18062
G1 X124.114 Y103.734 E5.22206
G1 X125.175 Y104.386 E5.26348
G1 X126.192 Y105.105 E5.3049
G1 X127.161 Y105.887 E5.34632
G1 X127.955 Y106.611 E5.38206
G1 X128.269 Y106.914 E5.39657
G1 X128.412 Y107.034 E5.40278
G1 X129.312 Y107.896 E5.44423
G1 X129.897 Y108.52 E5.47268
G1 X129.992 Y108.626 E5.47741
G1 X130.793 Y109.58 E5.51884
G1 X131.531 Y110.583 E5.56026
G1 X132.204 Y111.632 E5.60171
G1 X132.807 Y112.721 E5.64311
G1 X133.34 Y113.848 E5.68458
G1 X133.799 Y115.005 E5.72598
G1 X134.183 Y116.19 E5.76741
G1 X134.49 Y117.398 E5.80886
G1 X134.719 Y118.622 E5.85028
G1 X134.859 Y119.753 E5.88819
G1 X134.91 Y120.294 E5.90626
G1 X134.987 Y121.537 E5.94768
G1 X134.984 Y122.783 E5.98912
G1 X134.902 Y124.026 E6.03056
G1 X134.739 Y125.261 E6.07199
G1 X134.498 Y126.483 E6.11341
G1 X134.179 Y127.687 E6.15484
G1 X133.783 Y128.868 E6.19627
G1 X133.312 Y130.021 E6.2377
G1 X132.518 Y131.602 E6.29654
G1 X132.273 Y132.039 E6.3132
G1 X131.629 Y133.106 E6.35465
G1 X130.918 Y134.128 E6.39606
G1 X130.143 Y135.104 E6.43751
G1 X129.307 Y136.027 E6.47893
G1 X128.414 Y136.895 E6.52035
G1 X127.467 Y137.704 E6.56178
G1 X126.469 Y138.45 E6.60322
G1 X125.248 Y139.237 E6.65154
G1 X124.808 Y139.498 E6.66855
G1 X123.717 Y140.099 E6.70998
G1 X122.59 Y140.629 E6.7514
G1 X121.431 Y141.085 E6.79283
G1 X120.245 Y141.465 E6.83425
G1 X119.037 Y141.769 E6.87568
G1 X117.812 Y141.995 E6.91711
G1 X116.575 Y142.142 E6.95854
G1 X115.331 Y142.208 E6.99998
G1 X114.085 Y142.195 E7.04142
G1 X112.959 Y142.114 E7.07897
G1 X112.267 Y142.044 E7.1021
G1 X111.032 Y141.879 E7.14355
G1 X109.81 Y141.635 E7.18499
G1 X108.607 Y141.314 E7.2264
G1 X107.427 Y140.915 E7.26783
G1 X107.411 Y140.909 E7.2684
G1 X107.288 Y140.868 E7.27271
G1 X106.132 Y140.403 E7.31416
G1 X105.009 Y139.865 E7.35557
G1 X103.567 Y139.036 E7.41089
G1 X103.18 Y138.791 E7.42613
G1 X102.149 Y138.092 E7.46756
G1 X101.166 Y137.327 E7.50899
G1 X100.234 Y136.501 E7.55041
G1 X99.356 Y135.617 E7.59185
G1 X98.191 Y134.242 E7.65179
G1 X97.865 Y133.819 E7.66955
G1 X97.137 Y132.809 E7.71096
G1 X96.475 Y131.754 E7.75239
G1 X95.882 Y130.658 E7.79383
G1 X95.36 Y129.527 E7.83526
G1 X94.913 Y128.365 E7.87667
G1 X94.541 Y127.176 E7.91811
G1 X94.245 Y125.966 E7.95954
G1 X94.029 Y124.739 E8.00098
G1 X93.891 Y123.501 E8.04241
G1 X93.833 Y122.257 E8.08383
G1 X93.855 Y121.011 E8.12528
G1 X93.905 Y120.28 E8.14965
G1 X93.941 Y119.87 E8.16334
G1 X94.09 Y118.633 E8.20478
G1 X94.318 Y117.409 E8.24619
G1 X94.624 Y116.201 E8.28764
G1 X95.007 Y115.016 E8.32906
G1 X95.465 Y113.858 E8.37047
G1 X95.977 Y112.769 E8.4105
G1 X96.236 Y112.26 E8.42949
G1 X96.836 Y111.169 E8.47091
G1 X97.505 Y110.118 E8.51234
G1 X98.24 Y109.112 E8.55378
G1 X99.038 Y108.156 E8.5952
G1 X99.874 Y107.292 E8.63519
G0 F810 X100.154 Y107.003
G0 X100.442 Y106.729
M204 S5000
M205 X30 Y30
G0 F7200 X100.718 Y107.019
M204 S500
M205 X20 Y20
G1 F6000 E8.6618
G1 F900 X101.638 Y106.198 E8.70281
G1 X102.609 Y105.439 E8.7438
G1 X103.628 Y104.745 E8.7848
G1 X104.689 Y104.118 E8.82579
G1 X105.789 Y103.562 E8.86679
G1 X106.404 Y103.289 E8.88917
G1 X106.888 Y103.084 E8.90665
G1 X108.038 Y102.64 E8.94765
G1 X109.214 Y102.272 E8.98864
G1 X110.412 Y101.981 E9.02964
G1 X111.626 Y101.768 E9.07063
G1 X112.852 Y101.634 E9.11165
G1 X114.395 Y101.579 E9.16301
G1 X114.59 Y101.58 E9.16949
G1 X115.822 Y101.627 E9.2105
G1 X117.049 Y101.753 E9.25152
G1 X118.264 Y101.958 E9.29251
G1 X119.464 Y102.242 E9.33352
G1 X120.642 Y102.603 E9.3745
G1 X121.795 Y103.039 E9.4155
G1 X122.917 Y103.55 E9.45651
G1 X124.004 Y104.132 E9.49752
G1 X125.05 Y104.783 E9.53849
G1 X126.053 Y105.501 E9.57952
G1 X127.006 Y106.282 E9.6205
G1 X127.678 Y106.899 E9.65084
G1 X128.009 Y107.218 E9.66613
G1 X128.025 Y107.234 E9.66689
G1 X128.23 Y107.409 E9.67585
G1 X129.115 Y108.267 E9.71685
G1 X129.599 Y108.787 E9.74048
G1 X129.694 Y108.893 E9.74521
G1 X130.487 Y109.837 E9.78622
G1 X131.216 Y110.831 E9.82721
G1 X131.88 Y111.87 E9.86823
G1 X132.475 Y112.95 E9.90924
G1 X132.998 Y114.065 E9.9502
G1 X133.449 Y115.213 E9.99122
G1 X133.823 Y116.387 E10.0322
G1 X134.121 Y117.584 E10.07323
G1 X134.341 Y118.797 E10.11423
G1 X134.461 Y119.791 E10.14753
G1 X134.512 Y120.332 E10.16561
G1 X134.588 Y121.562 E10.2066
G1 X134.584 Y122.795 E10.24761
G1 X134.5 Y124.025 E10.28861
G1 X134.336 Y125.247 E10.32962
G1 X134.094 Y126.455 E10.3706
G1 X133.773 Y127.646 E10.41162
G1 X133.376 Y128.813 E10.45262
G1 X132.905 Y129.952 E10.49362
G1 X132.169 Y131.407 E10.54785
G1 X131.924 Y131.844 E10.56451
G1 X131.287 Y132.899 E10.6055
G1 X130.582 Y133.91 E10.6465
G1 X129.814 Y134.874 E10.68749
G1 X128.984 Y135.786 E10.7285
G1 X128.097 Y136.642 E10.7695
G1 X127.157 Y137.439 E10.81049
G1 X126.167 Y138.173 E10.85148
G1 X125.044 Y138.893 E10.89585
G1 X124.604 Y139.154 E10.91287
G1 X123.524 Y139.748 E10.95386
G1 X122.408 Y140.271 E10.99486
G1 X121.26 Y140.721 E11.03587
G1 X120.085 Y141.095 E11.07688
G1 X118.889 Y141.392 E11.11787
G1 X117.676 Y141.611 E11.15886
G1 X116.451 Y141.75 E11.19987
G1 X115.22 Y141.81 E11.24086
G1 X113.987 Y141.791 E11.28188
G1 X112.999 Y141.717 E11.31483
G1 X112.307 Y141.647 E11.33796
G1 X111.085 Y141.483 E11.37897
G1 X109.876 Y141.24 E11.41999
G1 X108.686 Y140.92 E11.46097
G1 X107.519 Y140.523 E11.50197
G1 X107.445 Y140.492 E11.50464
G1 X107.222 Y140.416 E11.51247
G1 X106.084 Y139.943 E11.55346
G1 X104.978 Y139.397 E11.59449
G1 X103.781 Y138.698 E11.64059
G1 X103.394 Y138.453 E11.65583
G1 X102.374 Y137.761 E11.69682
G1 X101.402 Y137.003 E11.73782
G1 X100.48 Y136.184 E11.77884
G1 X99.614 Y135.307 E11.81983
G1 X98.508 Y133.998 E11.87683
G1 X98.182 Y133.575 E11.89459
G1 X97.461 Y132.575 E11.93559
G1 X96.807 Y131.53 E11.9766
G1 X96.222 Y130.445 E12.01759
G1 X95.709 Y129.324 E12.0586
G1 X95.269 Y128.172 E12.09961
G1 X94.906 Y126.995 E12.14058
G1 X94.619 Y125.796 E12.18158
G1 X94.41 Y124.581 E12.22259
G1 X94.281 Y123.355 E12.26359
G1 X94.232 Y122.123 E12.3046
G1 X94.304 Y120.315 E12.36478
G1 X94.34 Y119.905 E12.37847
G1 X94.487 Y118.681 E12.41947
G1 X94.714 Y117.47 E12.46045
G1 X95.019 Y116.275 E12.50147
G1 X95.4 Y115.103 E12.54246
G1 X95.857 Y113.958 E12.58347
G1 X96.333 Y112.95 E12.62054
G1 X96.592 Y112.441 E12.63954
G1 X97.187 Y111.361 E12.68055
G1 X97.85 Y110.322 E12.72154
G1 X98.579 Y109.328 E12.76254
G1 X99.371 Y108.384 E12.80353
G1 X100.15 Y107.582 E12.84071
G0 F810 X100.43 Y107.293
G0 X100.718 Y107.019
M204 S5000
M205 X30 Y30
G0 F7200 X100.993 Y107.308
M204 S500
M205 X20 Y20
G1 F6000 E12.86732
G1 F900 X101.904 Y106.497 E12.90789
G1 X102.866 Y105.747 E12.94846
G1 X103.875 Y105.062 E12.98902
G1 X104.927 Y104.444 E13.0296
G1 X106.56 Y103.657 E13.08989
G1 X107.044 Y103.452 E13.10738
G1 X108.182 Y103.013 E13.14795
G1 X109.346 Y102.65 E13.1885
G1 X110.532 Y102.364 E13.22908
G1 X111.734 Y102.157 E13.26964
G1 X112.947 Y102.028 E13.31022
G1 X114.393 Y101.979 E13.35834
G1 X114.588 Y101.98 E13.36482
G1 X115.807 Y102.026 E13.4054
G1 X117.02 Y102.153 E13.44596
G1 X118.223 Y102.358 E13.48655
G1 X119.409 Y102.641 E13.5271
G1 X120.574 Y103.002 E13.56767
G1 X121.713 Y103.438 E13.60823
G1 X122.821 Y103.948 E13.6488
G1 X123.893 Y104.53 E13.68937
G1 X124.925 Y105.181 E13.72996
G1 X125.911 Y105.897 E13.77049
G1 X126.849 Y106.677 E13.81106
G1 X127.4 Y107.187 E13.83603
G1 X127.731 Y107.506 E13.85132
G1 X127.759 Y107.535 E13.85266
G1 X128.047 Y107.783 E13.8653
G1 X129.301 Y109.054 E13.92469
G1 X129.396 Y109.16 E13.92942
G1 X130.18 Y110.095 E13.97001
G1 X130.901 Y111.078 E14.01055
G1 X131.556 Y112.107 E14.05112
G1 X132.142 Y113.177 E14.0917
G1 X132.656 Y114.283 E14.13226
G1 X133.097 Y115.42 E14.17283
G1 X133.463 Y116.584 E14.21341
G1 X133.752 Y117.769 E14.25398
G1 X133.962 Y118.97 E14.29453
G1 X134.063 Y119.828 E14.32326
G1 X134.114 Y120.369 E14.34134
G1 X134.188 Y121.587 E14.38192
G1 X134.183 Y122.806 E14.42247
G1 X134.098 Y124.023 E14.46304
G1 X133.933 Y125.232 E14.50363
G1 X133.689 Y126.427 E14.54419
G1 X133.368 Y127.603 E14.58474
G1 X132.97 Y128.756 E14.62531
G1 X132.497 Y129.88 E14.66587
G1 X131.82 Y131.211 E14.71553
G1 X131.575 Y131.648 E14.7322
G1 X130.944 Y132.692 E14.77277
G1 X130.246 Y133.692 E14.81333
G1 X129.484 Y134.644 E14.85389
G1 X128.661 Y135.544 E14.89445
G1 X127.781 Y136.389 E14.93503
G1 X126.847 Y137.174 E14.97561
G1 X125.864 Y137.896 E15.01618
G1 X124.84 Y138.549 E15.05657
G1 X124.4 Y138.81 E15.07358
G1 X123.331 Y139.398 E15.11416
G1 X122.226 Y139.914 E15.15473
G1 X121.09 Y140.357 E15.19528
G1 X119.927 Y140.724 E15.23584
G1 X118.742 Y141.014 E15.27642
G1 X117.541 Y141.226 E15.31698
G1 X116.329 Y141.359 E15.35753
G1 X115.11 Y141.412 E15.39812
G1 X113.891 Y141.385 E15.43867
G1 X113.039 Y141.319 E15.46709
G1 X112.347 Y141.249 E15.49023
G1 X111.138 Y141.086 E15.5308
G1 X109.943 Y140.845 E15.57135
G1 X108.766 Y140.526 E15.61191
G1 X108.343 Y140.381 E15.62678
G1 X108.308 Y140.371 E15.62799
G1 X108.127 Y140.307 E15.63438
G1 X107.612 Y140.13 E15.65249
G1 X107.513 Y140.089 E15.65605
G1 X107.159 Y139.963 E15.66855
G1 X106.038 Y139.481 E15.70914
G1 X104.952 Y138.927 E15.74968
G1 X103.995 Y138.36 E15.78668
G1 X103.608 Y138.115 E15.80192
G1 X102.599 Y137.43 E15.84248
G1 X101.638 Y136.679 E15.88304
G1 X100.728 Y135.867 E15.92361
G1 X99.873 Y134.998 E15.96416
G1 X98.825 Y133.754 E16.01826
G1 X98.499 Y133.331 E16.03602
G1 X97.786 Y132.341 E16.0766
G1 X97.14 Y131.307 E16.11715
G1 X96.563 Y130.232 E16.15773
G1 X96.058 Y129.122 E16.19829
G1 X95.627 Y127.981 E16.23886
G1 X95.271 Y126.814 E16.27944
G1 X94.993 Y125.627 E16.31998
G1 X94.793 Y124.424 E16.36054
G1 X94.672 Y123.21 E16.40112
G1 X94.631 Y121.991 E16.44169
G1 X94.702 Y120.35 E16.49632
G1 X94.738 Y119.94 E16.51001
G1 X94.885 Y118.729 E16.55058
G1 X95.11 Y117.531 E16.59113
G1 X95.414 Y116.349 E16.63172
G1 X95.794 Y115.19 E16.67229
G1 X96.25 Y114.059 E16.71285
G1 X96.69 Y113.132 E16.74697
G1 X96.949 Y112.623 E16.76597
G1 X97.537 Y111.554 E16.80655
G1 X98.194 Y110.527 E16.8471
G1 X98.918 Y109.545 E16.88768
G1 X99.703 Y108.612 E16.92823
G1 X100.424 Y107.871 E16.96262
G0 F810 X100.705 Y107.582
G0 X100.993 Y107.308
M204 S5000
M205 X30 Y30
G0 F7200 X101.269 Y107.598
M204 S500
M205 X20 Y20
G1 F6000 E16.98923
G1 F900 X102.17 Y106.796 E17.02935
G1 X103.123 Y106.055 E17.0695
G1 X104.122 Y105.379 E17.10962
G1 X105.164 Y104.771 E17.14974
G1 X106.716 Y104.025 E17.20702
G1 X107.2 Y103.82 E17.2245
G1 X108.326 Y103.387 E17.26462
G1 X109.478 Y103.029 E17.30475
G1 X110.651 Y102.748 E17.34486
G1 X111.841 Y102.546 E17.38501
G1 X113.041 Y102.422 E17.42513
G1 X114.391 Y102.379 E17.47006
G1 X114.586 Y102.38 E17.47654
G1 X115.792 Y102.426 E17.51668
G1 X116.992 Y102.552 E17.55682
G1 X118.181 Y102.758 E17.59695
G1 X119.353 Y103.041 E17.63705
G1 X120.505 Y103.402 E17.67721
G1 X121.63 Y103.838 E17.71733
G1 X122.723 Y104.347 E17.75744
G1 X123.781 Y104.928 E17.79758
G1 X124.797 Y105.578 E17.8377
G1 X125.769 Y106.294 E17.87785
G1 X127.123 Y107.475 E17.93761
G1 X127.454 Y107.794 E17.9529
G1 X127.499 Y107.84 E17.95504
G1 X127.862 Y108.157 E17.97107
G1 X129.003 Y109.321 E18.02528
G1 X129.098 Y109.427 E18.03002
G1 X129.873 Y110.352 E18.07015
G1 X130.585 Y111.326 E18.11028
G1 X131.231 Y112.345 E18.15041
G1 X131.808 Y113.404 E18.19052
G1 X132.314 Y114.5 E18.23067
G1 X132.746 Y115.626 E18.27078
