;FLAVOR:Marlin
;TIME:1042
;Filament used: 0.586276m
;Layer height: 0.2
;Generated with Cura_SteamEngine 3.6.0
M140 S70
M105
M190 S70
M104 S215
M105
M109 S215
M82 ;absolute extrusion mode
G28 ; home all axes
M117 Purge extruder
G92 E0 ; reset extruder
G1 Z1.0 F3000 ; move z up little to prevent scratching of surface
G1 X0.1 Y20 Z0.3 F5000.0 ; move to start-line position G1 X0.1 Y200.0 Z0.3 F1500.0 E15 ; draw 1st line
G1 X0.4 Y200.0 Z0.3 F5000.0 ; move to side a little
G1 X0.4 Y20 Z0.3 F1500.0 E30 ; draw 2nd line
G92 E0 ; reset extruder
G1 Z1.0 F3000 ; move z up little to prevent scratching of surface
M117 All systems go!
G92 E0
G1 F6000 E-5
;LAYER_COUNT:67
;LAYER:0
M107
M204 S5000
M205 X30 Y30
G0 F7200 X102.5 Y99.864 Z0.2
M204 S500
M205 X20 Y20
;TYPE:SKIRT
G1 F6000 E0
G1 F900 X103.399 Y98.984 E0.04184
G1 X104.351 Y98.162 E0.08368
G1 X105.355 Y97.402 E0.12556
G1 X106.341 Y96.747 E0.16493
G1 X106.566 Y96.607 E0.17374
G1 X107.655 Y95.976 E0.2156
G1 X108.782 Y95.416 E0.25746
G1 X109.942 Y94.929 E0.2993
G1 X111.131 Y94.516 E0.34117
G1 X112.343 Y94.18 E0.383
G1 X113.575 Y93.921 E0.42487
G1 X114.82 Y93.741 E0.46671
G1 X116.075 Y93.641 E0.50858
G1 X117.333 Y93.62 E0.55043
G1 X118.501 Y93.676 E0.58932
G1 X118.645 Y93.676 E0.59411
G1 X119.901 Y93.759 E0.63598
G1 X121.149 Y93.921 E0.67784
G1 X122.384 Y94.162 E0.71969
G1 X123.601 Y94.481 E0.76153
G1 X124.796 Y94.876 E0.80339
G1 X125.963 Y95.347 E0.84525
G1 X127.097 Y95.891 E0.88708
G1 X128.195 Y96.506 E0.92894
G1 X129.252 Y97.189 E0.9708
G1 X130.263 Y97.939 E1.01267
G1 X131.225 Y98.751 E1.05454
G1 X132.133 Y99.622 E1.09638
G1 X133.123 Y100.713 E1.14538
G1 X133.304 Y100.928 E1.15473
G1 X134.084 Y101.916 E1.1966
G1 X134.799 Y102.952 E1.23847
G1 X135.447 Y104.031 E1.28033
G1 X136.025 Y105.148 E1.32216
G1 X136.53 Y106.301 E1.36403
G1 X136.962 Y107.483 E1.40588
G1 X137.318 Y108.69 E1.44774
G1 X137.596 Y109.917 E1.48958
G1 X137.796 Y111.159 E1.53142
G1 X137.916 Y112.412 E1.57329
G1 X137.957 Y113.67 E1.61515
G1 X137.925 Y114.715 E1.64993
G1 X138.245 Y115.525 E1.67889
G1 X138.632 Y116.722 E1.72073
G1 X138.942 Y117.942 E1.7626
G1 X139.094 Y118.697 E1.78822
G1 X139.138 Y118.941 E1.79646
G1 X139.322 Y120.186 E1.83832
G1 X139.426 Y121.44 E1.88017
G1 X139.451 Y122.698 E1.92202
G1 X139.395 Y123.956 E1.9639
G1 X139.26 Y125.207 E2.00575
G1 X139.045 Y126.447 E2.04761
G1 X138.753 Y127.671 E2.08946
G1 X138.383 Y128.873 E2.13129
G1 X137.937 Y130.05 E2.17316
G1 X137.418 Y131.196 E2.215
G1 X136.827 Y132.307 E2.25686
G1 X136.166 Y133.379 E2.29874
G1 X135.439 Y134.405 E2.34057
G1 X134.648 Y135.384 E2.38243
G1 X133.796 Y136.311 E2.42431
G1 X132.888 Y137.181 E2.46613
G1 X132.261 Y137.721 E2.49365
G1 X132.014 Y137.925 E2.50431
G1 X131.018 Y138.695 E2.54618
G1 X129.976 Y139.401 E2.58804
G1 X128.891 Y140.039 E2.62991
G1 X127.768 Y140.606 E2.67175
G1 X126.611 Y141.101 E2.71361
G1 X125.425 Y141.522 E2.75546
G1 X124.215 Y141.866 E2.7973
G1 X122.985 Y142.133 E2.83917
G1 X121.741 Y142.321 E2.88101
G1 X120.487 Y142.429 E2.92287
G1 X119.229 Y142.458 E2.96473
G1 X117.972 Y142.407 E3.00657
G1 X117.5 Y142.358 E3.02235
G1 X116.875 Y142.42 E3.04324
G1 X115.618 Y142.465 E3.08508
G1 X114.36 Y142.43 E3.12693
G1 X113.106 Y142.315 E3.16882
G1 X111.863 Y142.121 E3.21066
G1 X110.635 Y141.848 E3.2525
G1 X109.426 Y141.497 E3.29437
G1 X108.242 Y141.071 E3.33622
G1 X107.088 Y140.57 E3.37807
G1 X105.967 Y139.997 E3.41994
G1 X104.886 Y139.354 E3.46177
G1 X103.847 Y138.643 E3.50365
G1 X102.856 Y137.868 E3.54549
G1 X101.915 Y137.032 E3.58736
G1 X101.093 Y136.205 E3.62614
G1 X100.914 Y136.014 E3.63484
G1 X100.083 Y135.068 E3.67672
G1 X99.314 Y134.072 E3.71858
G1 X98.609 Y133.03 E3.76042
G1 X97.973 Y131.944 E3.80228
G1 X97.406 Y130.82 E3.84415
G1 X96.912 Y129.663 E3.88599
G1 X96.493 Y128.477 E3.92783
G1 X96.15 Y127.266 E3.96969
G1 X95.884 Y126.036 E4.01155
G1 X95.697 Y124.791 E4.05342
G1 X95.59 Y123.538 E4.09525
G1 X95.563 Y122.76 E4.12114
G1 X95.56 Y122.552 E4.12806
G1 X95.582 Y121.293 E4.16994
G1 X95.684 Y120.039 E4.21179
G1 X95.865 Y118.794 E4.25363
G1 X96.125 Y117.562 E4.29551
G1 X96.462 Y116.35 E4.33735
G1 X96.876 Y115.162 E4.37919
G1 X97.039 Y114.775 E4.39316
G1 X97.001 Y113.54 E4.43426
G1 X97.042 Y112.283 E4.47609
G1 X97.163 Y111.03 E4.51795
G1 X97.363 Y109.788 E4.5598
G1 X97.642 Y108.56 E4.60168
G1 X97.998 Y107.353 E4.64353
G1 X98.43 Y106.172 E4.68536
G1 X98.937 Y105.02 E4.72722
G1 X99.515 Y103.902 E4.76908
G1 X100.163 Y102.823 E4.81094
G1 X100.879 Y101.788 E4.8528
G1 X101.659 Y100.801 E4.89464
G1 X101.966 Y100.459 E4.90993
G0 F810 X102.5 Y99.864
M204 S5000
M205 X30 Y30
G0 F7200 X102.947 Y99.977
M204 S500
M205 X20 Y20
G1 F6000 E4.93654
G1 F900 X103.847 Y99.116 E4.97796
G1 X104.801 Y98.315 E5.0194
G1 X105.804 Y97.576 E5.06083
G1 X106.552 Y97.086 E5.09057
G1 X106.777 Y96.946 E5.09939
G1 X107.855 Y96.323 E5.1408
G1 X108.971 Y95.769 E5.18224
G1 X110.12 Y95.289 E5.22366
G1 X111.298 Y94.883 E5.2651
G1 X112.499 Y94.554 E5.30652
G1 X113.719 Y94.302 E5.34795
G1 X114.953 Y94.129 E5.38939
G1 X116.195 Y94.036 E5.43082
G1 X117.441 Y94.022 E5.47226
G1 X118.459 Y94.077 E5.50617
G1 X118.695 Y94.078 E5.51402
G1 X119.937 Y94.164 E5.55543
G1 X121.172 Y94.33 E5.59688
G1 X122.393 Y94.575 E5.6383
G1 X123.596 Y94.897 E5.67972
G1 X124.776 Y95.296 E5.72115
G1 X125.928 Y95.77 E5.76258
G1 X127.048 Y96.317 E5.80403
G1 X128.129 Y96.934 E5.84543
G1 X129.169 Y97.62 E5.88687
G1 X130.163 Y98.371 E5.92831
G1 X131.107 Y99.184 E5.96974
G1 X131.996 Y100.056 E6.01116
G1 X132.817 Y100.971 E6.05205
G1 X132.998 Y101.186 E6.0614
G1 X133.769 Y102.164 E6.10282
G1 X134.476 Y103.19 E6.14426
G1 X135.116 Y104.259 E6.1857
G1 X135.685 Y105.366 E6.2271
G1 X136.183 Y106.508 E6.26854
G1 X136.606 Y107.68 E6.30998
G1 X136.953 Y108.876 E6.3514
G1 X137.222 Y110.092 E6.39282
G1 X137.413 Y111.323 E6.43425
G1 X137.525 Y112.564 E6.4757
G1 X137.557 Y113.809 E6.51712
G1 X137.519 Y114.773 E6.54921
G1 X137.894 Y115.731 E6.58342
G1 X138.272 Y116.918 E6.62486
G1 X138.573 Y118.127 E6.6663
G1 X138.7 Y118.768 E6.68803
G1 X138.744 Y119.012 E6.69628
G1 X138.926 Y120.244 E6.7377
G1 X139.028 Y121.486 E6.77915
G1 X139.05 Y122.731 E6.82056
G1 X138.992 Y123.976 E6.86201
G1 X138.855 Y125.214 E6.90344
G1 X138.638 Y126.44 E6.94485
G1 X138.343 Y127.651 E6.98631
G1 X137.971 Y128.839 E7.02771
G1 X137.524 Y130.002 E7.06915
G1 X137.003 Y131.133 E7.11057
G1 X136.41 Y132.229 E7.15202
G1 X135.748 Y133.284 E7.19344
G1 X135.02 Y134.295 E7.23488
G1 X134.229 Y135.257 E7.2763
G1 X133.377 Y136.166 E7.31774
G1 X132.006 Y137.413 E7.37938
G1 X131.759 Y137.617 E7.39004
G1 X130.774 Y138.379 E7.43146
G1 X129.741 Y139.076 E7.4729
G1 X128.666 Y139.706 E7.51435
G1 X127.553 Y140.265 E7.55577
G1 X126.407 Y140.751 E7.59717
G1 X125.231 Y141.163 E7.63862
G1 X124.032 Y141.499 E7.68003
G1 X122.813 Y141.757 E7.72148
G1 X121.58 Y141.937 E7.76292
G1 X120.339 Y142.037 E7.80433
G1 X119.093 Y142.056 E7.84578
G1 X117.849 Y141.997 E7.8872
G1 X117.493 Y141.957 E7.89911
G1 X116.798 Y142.024 E7.92234
G1 X115.553 Y142.065 E7.96377
G1 X114.308 Y142.026 E8.0052
G1 X113.068 Y141.907 E8.04663
G1 X111.838 Y141.709 E8.08807
G1 X110.624 Y141.432 E8.12948
G1 X109.429 Y141.077 E8.17094
G1 X108.26 Y140.647 E8.21237
G1 X107.121 Y140.143 E8.2538
G1 X106.017 Y139.567 E8.29521
G1 X104.952 Y138.921 E8.33664
G1 X103.931 Y138.208 E8.37806
G1 X102.957 Y137.431 E8.4195
G1 X102.035 Y136.593 E8.46094
G1 X101.385 Y135.931 E8.4918
G1 X101.206 Y135.74 E8.50051
G1 X100.384 Y134.804 E8.54194
G1 X99.623 Y133.818 E8.58337
G1 X98.928 Y132.784 E8.6248
G1 X98.3 Y131.708 E8.66624
G1 X97.742 Y130.594 E8.70768
G1 X97.258 Y129.447 E8.74909
G1 X96.847 Y128.271 E8.79052
G1 X96.513 Y127.071 E8.83195
G1 X96.257 Y125.852 E8.87338
G1 X96.08 Y124.619 E8.91481
G1 X95.982 Y123.377 E8.95625
G1 X95.963 Y122.754 E8.97698
G1 X95.96 Y122.546 E8.9839
G1 X95.982 Y121.3 E9.02534
G1 X96.084 Y120.059 E9.06676
G1 X96.265 Y118.827 E9.10818
G1 X96.525 Y117.608 E9.14963
G1 X96.863 Y116.409 E9.19107
G1 X97.277 Y115.235 E9.23247
G1 X97.447 Y114.837 E9.24686
G1 X97.435 Y114.71 E9.25111
G1 X97.401 Y113.465 E9.29253
G1 X97.447 Y112.22 E9.33397
G1 X97.573 Y110.981 E9.37539
G1 X97.778 Y109.752 E9.41683
G1 X98.061 Y108.539 E9.45826
G1 X98.422 Y107.347 E9.49968
G1 X98.859 Y106.18 E9.54113
G1 X99.369 Y105.044 E9.58255
G1 X99.951 Y103.943 E9.62397
G1 X100.603 Y102.881 E9.66542
G1 X101.322 Y101.864 E9.70684
G1 X102.104 Y100.895 E9.74826
G1 X102.406 Y100.566 E9.76311
G0 F810 X102.947 Y99.977
M204 S5000
M205 X30 Y30
G0 F7200 X103.395 Y100.094
M204 S500
M205 X20 Y20
G1 F6000 E9.78972
G1 F900 X104.296 Y99.253 E9.83071
G1 X105.25 Y98.472 E9.87172
G1 X106.763 Y97.426 E9.9329
G1 X106.988 Y97.286 E9.94171
G1 X108.055 Y96.669 E9.9827
G1 X109.16 Y96.123 E10.0237
G1 X110.299 Y95.649 E10.06473
G1 X111.465 Y95.25 E10.10572
G1 X112.655 Y94.928 E10.14672
G1 X113.863 Y94.683 E10.18772
G1 X115.085 Y94.517 E10.22874
G1 X116.314 Y94.431 E10.26971
G1 X117.547 Y94.425 E10.31072
G1 X118.436 Y94.479 E10.34035
G1 X118.744 Y94.481 E10.35059
G1 X119.973 Y94.57 E10.39158
G1 X121.194 Y94.74 E10.43258
G1 X122.402 Y94.988 E10.47359
G1 X123.59 Y95.313 E10.51456
G1 X124.756 Y95.716 E10.55559
G1 X125.892 Y96.193 E10.59657
G1 X126.996 Y96.742 E10.63758
G1 X128.061 Y97.363 E10.67858
G1 X129.084 Y98.05 E10.71957
G1 X130.06 Y98.803 E10.76057
G1 X130.986 Y99.618 E10.8016
G1 X131.856 Y100.49 E10.84257
G1 X132.511 Y101.229 E10.87541
G1 X132.692 Y101.444 E10.88476
G1 X133.455 Y102.412 E10.92575
G1 X134.153 Y103.428 E10.96675
G1 X134.785 Y104.486 E11.00774
G1 X135.346 Y105.584 E11.04875
G1 X135.835 Y106.716 E11.08977
G1 X136.249 Y107.877 E11.13076
G1 X136.587 Y109.062 E11.17175
G1 X136.848 Y110.267 E11.21275
G1 X137.03 Y111.486 E11.25375
G1 X137.132 Y112.715 E11.29477
G1 X137.155 Y113.947 E11.33575
G1 X137.114 Y114.829 E11.36512
G1 X137.542 Y115.937 E11.40462
G1 X137.911 Y117.113 E11.44562
G1 X138.306 Y118.839 E11.50451
G1 X138.35 Y119.083 E11.51275
G1 X138.53 Y120.303 E11.55377
G1 X138.63 Y121.531 E11.59475
G1 X138.649 Y122.764 E11.63576
G1 X138.589 Y123.995 E11.67676
G1 X138.45 Y125.22 E11.71776
G1 X138.231 Y126.433 E11.75876
G1 X137.934 Y127.63 E11.79978
G1 X137.56 Y128.804 E11.84076
G1 X137.11 Y129.952 E11.88177
G1 X136.587 Y131.068 E11.92276
G1 X135.993 Y132.148 E11.96376
G1 X135.33 Y133.188 E12.00478
G1 X134.601 Y134.182 E12.04578
G1 X133.809 Y135.127 E12.08679
G1 X132.958 Y136.018 E12.12777
G1 X131.751 Y137.105 E12.18179
G1 X131.504 Y137.309 E12.19245
G1 X130.529 Y138.062 E12.23342
G1 X129.507 Y138.751 E12.27442
G1 X128.442 Y139.372 E12.31542
G1 X127.339 Y139.923 E12.35643
G1 X126.203 Y140.401 E12.39742
G1 X125.038 Y140.805 E12.43843
G1 X123.849 Y141.132 E12.47945
G1 X122.642 Y141.381 E12.52044
G1 X121.421 Y141.552 E12.56144
G1 X120.192 Y141.643 E12.60243
G1 X118.959 Y141.654 E12.64344
G1 X117.728 Y141.585 E12.68445
G1 X117.487 Y141.556 E12.69253
G1 X116.721 Y141.628 E12.71812
G1 X115.489 Y141.665 E12.75911
G1 X114.257 Y141.622 E12.80011
G1 X113.03 Y141.498 E12.84113
G1 X111.814 Y141.296 E12.88213
G1 X110.614 Y141.015 E12.92312
G1 X109.434 Y140.657 E12.96413
G1 X108.28 Y140.223 E13.00514
G1 X107.157 Y139.716 E13.04612
G1 X106.069 Y139.136 E13.08713
G1 X105.021 Y138.487 E13.12813
G1 X104.017 Y137.772 E13.16912
G1 X103.062 Y136.993 E13.21011
G1 X102.159 Y136.154 E13.25111
G1 X101.677 Y135.657 E13.27414
G1 X101.498 Y135.466 E13.28285
G1 X100.684 Y134.54 E13.32385
G1 X99.933 Y133.563 E13.36484
G1 X99.246 Y132.539 E13.40585
G1 X98.627 Y131.473 E13.44685
G1 X98.079 Y130.369 E13.48784
G1 X97.603 Y129.232 E13.52884
G1 X97.203 Y128.066 E13.56984
G1 X96.878 Y126.877 E13.61084
G1 X96.632 Y125.669 E13.65184
G1 X96.464 Y124.448 E13.69283
G1 X96.363 Y122.748 E13.74948
G1 X96.36 Y122.54 E13.7564
G1 X96.382 Y121.307 E13.79741
G1 X96.484 Y120.079 E13.8384
G1 X96.666 Y118.86 E13.87939
G1 X96.926 Y117.655 E13.92039
G1 X97.264 Y116.469 E13.96141
G1 X97.678 Y115.308 E14.0024
G1 X97.855 Y114.897 E14.01729
G1 X97.831 Y114.622 E14.02647
G1 X97.802 Y113.39 E14.06746
G1 X97.853 Y112.158 E14.10847
G1 X97.983 Y110.933 E14.14944
G1 X98.193 Y109.718 E14.19045
G1 X98.481 Y108.519 E14.23146
G1 X98.847 Y107.342 E14.27246
G1 X99.287 Y106.191 E14.31344
G1 X99.802 Y105.071 E14.35445
G1 X100.388 Y103.986 E14.39546
G1 X101.043 Y102.942 E14.43645
G1 X101.765 Y101.942 E14.47747
G1 X102.55 Y100.992 E14.51846
G1 X102.847 Y100.676 E14.53289
G0 F810 X103.395 Y100.094
M204 S5000
M205 X30 Y30
G0 F7200 X102.996 Y101.093
M204 S500
M205 X20 Y20
G1 F6000 E14.5595
G1 F900 X103.843 Y100.215 E14.60007
G1 X104.745 Y99.394 E14.64064
G1 X105.699 Y98.634 E14.68121
G1 X106.975 Y97.766 E14.73253
G1 X107.2 Y97.626 E14.74135
G1 X108.256 Y97.015 E14.78193
G1 X109.35 Y96.476 E14.82249
G1 X110.476 Y96.009 E14.86303
G1 X111.631 Y95.617 E14.9036
G1 X112.81 Y95.302 E14.94419
G1 X114.006 Y95.065 E14.98474
G1 X115.215 Y94.906 E15.0253
G1 X116.432 Y94.827 E15.06586
G1 X117.652 Y94.829 E15.10644
G1 X118.395 Y94.878 E15.13121
G1 X118.792 Y94.883 E15.14441
G1 X120.008 Y94.976 E15.18498
G1 X121.215 Y95.149 E15.22553
G1 X122.409 Y95.401 E15.26612
G1 X123.583 Y95.73 E15.30667
G1 X124.733 Y96.136 E15.34723
G1 X125.855 Y96.616 E15.38782
G1 X126.942 Y97.169 E15.42839
G1 X127.991 Y97.791 E15.46895
G1 X128.996 Y98.481 E15.50949
G1 X129.955 Y99.236 E15.55009
G1 X130.862 Y100.051 E15.59065
G1 X131.713 Y100.925 E15.63122
G1 X132.205 Y101.486 E15.65604
G1 X132.386 Y101.701 E15.66538
G1 X133.141 Y102.659 E15.70595
G1 X133.831 Y103.665 E15.74653
G1 X134.453 Y104.714 E15.78709
G1 X135.006 Y105.801 E15.82765
G1 X135.486 Y106.922 E15.86821
G1 X135.892 Y108.073 E15.90881
G1 X136.221 Y109.247 E15.94936
G1 X136.473 Y110.44 E15.98991
G1 X136.646 Y111.648 E16.0305
G1 X136.739 Y112.864 E16.07106
G1 X136.753 Y114.083 E16.11161
G1 X136.708 Y114.901 E16.13886
G1 X136.755 Y115.003 E16.14259
G1 X137.19 Y116.142 E16.18315
G1 X137.55 Y117.308 E16.22373
G1 X137.913 Y118.91 E16.27837
G1 X137.957 Y119.154 E16.28661
G1 X138.134 Y120.361 E16.32719
G1 X138.231 Y121.577 E16.36776
G1 X138.249 Y122.796 E16.40831
G1 X138.187 Y124.014 E16.44887
G1 X138.044 Y125.226 E16.48946
G1 X137.823 Y126.425 E16.53001
G1 X137.524 Y127.608 E16.5706
G1 X137.148 Y128.768 E16.61116
G1 X136.697 Y129.901 E16.65171
G1 X136.172 Y131.002 E16.69228
G1 X135.576 Y132.066 E16.73285
G1 X134.912 Y133.089 E16.77341
G1 X134.182 Y134.066 E16.81397
G1 X133.39 Y134.994 E16.85455
G1 X132.539 Y135.867 E16.8951
G1 X131.496 Y136.796 E16.94156
G1 X131.249 Y137 E16.95221
G1 X130.284 Y137.746 E16.99278
G1 X129.272 Y138.426 E17.03333
G1 X128.217 Y139.039 E17.07392
G1 X127.125 Y139.581 E17.11446
G1 X125.999 Y140.051 E17.15505
G1 X124.845 Y140.446 E17.19561
G1 X123.668 Y140.764 E17.23617
G1 X122.472 Y141.004 E17.27674
G1 X121.263 Y141.166 E17.31731
G1 X120.046 Y141.248 E17.35788
G1 X118.827 Y141.25 E17.39842
G1 X117.609 Y141.172 E17.43902
G1 X117.479 Y141.155 E17.44338
G1 X116.644 Y141.232 E17.47127
G1 X115.425 Y141.265 E17.51183
G1 X114.206 Y141.217 E17.5524
G1 X112.993 Y141.09 E17.59297
G1 X111.791 Y140.883 E17.63353
G1 X110.605 Y140.598 E17.6741
G1 X109.441 Y140.236 E17.71465
G1 X108.302 Y139.799 E17.75522
G1 X107.195 Y139.288 E17.79577
G1 X106.123 Y138.705 E17.83636
G1 X105.092 Y138.053 E17.87693
G1 X104.106 Y137.336 E17.91748
G1 X103.169 Y136.555 E17.95805
G1 X101.968 Y135.384 E18.01384
G1 X101.789 Y135.193 E18.02255
G1 X100.985 Y134.276 E18.06311
G1 X100.242 Y133.309 E18.10367
G1 X99.565 Y132.294 E18.14425
G1 X98.955 Y131.238 E18.18481
G1 X98.416 Y130.144 E18.22538
G1 X97.95 Y129.017 E18.26594
G1 X97.558 Y127.862 E18.30651
G1 X97.244 Y126.683 E18.34709
G1 X97.007 Y125.487 E18.38764
G1 X96.849 Y124.278 E18.42819
G1 X96.763 Y122.742 E18.47936
G1 X96.76 Y122.534 E18.48628
G1 X96.782 Y121.315 E18.52683
G1 X96.885 Y120.099 E18.56742
G1 X97.066 Y118.893 E18.60798
G1 X97.327 Y117.702 E18.64853
G1 X97.665 Y116.53 E18.6891
G1 X98.079 Y115.383 E18.72966
G1 X98.263 Y114.961 E18.74497
G1 X98.227 Y114.536 E18.75916
G1 X98.203 Y113.316 E18.79974
G1 X98.258 Y112.098 E18.8403
G1 X98.394 Y110.886 E18.88086
G1 X98.609 Y109.685 E18.92144
G1 X98.902 Y108.501 E18.96201
G1 X99.272 Y107.339 E19.00257
G1 X99.717 Y106.203 E19.04315
G1 X100.236 Y105.099 E19.08372
G1 X100.826 Y104.032 E19.12428
