;FLAVOR:Marlin
;TIME:14006
;Filament used: 14.6662m
;Layer height: 0.25
;Generated with Cura_SteamEngine 3.6.0
M140 S70
M105
M190 S70
M104 S215
M105
M109 S215
M82 ;absolute extrusion mode
; Ender 3 Custom Start G-code
G28 ; Home all axes
G92 E0 ; Reset Extruder
G1 Z2.0 F3000 ; Move Z Axis up little to prevent scratching of Heat Bed
G1 X0.1 Y20 Z0.3 F5000.0 ; Move to start position
G1 X0.1 Y200.0 Z0.3 F1500.0 E15 ; Draw the first line
G1 X0.4 Y200.0 Z0.3 F5000.0 ; Move to side a little
G1 X0.4 Y20 Z0.3 F1500.0 E30 ; Draw the second line
G92 E0 ; Reset Extruder
G1 Z2.0 F3000 ; Move Z Axis up little to prevent scratching of Heat Bed
; End of custom start GCode
G92 E0
G1 F6000 E-5
;LAYER_COUNT:97
;LAYER:0
M107
M204 S5000
M205 X30 Y30
G0 F7200 X12.913 Y13.151 Z0.25
M204 S500
M205 X20 Y20
;TYPE:SKIRT
G1 F6000 E0
G1 F900 X13.565 Y12.555 E0.04591
G1 X14.268 Y12.021 E0.09179
G1 X15.016 Y11.553 E0.13764
G1 X15.804 Y11.155 E0.18352
G1 X16.625 Y10.829 E0.22943
G1 X17.472 Y10.579 E0.27532
G1 X18.338 Y10.406 E0.32122
G1 X19.216 Y10.313 E0.3671
G1 X19.807 Y10.295 E0.39783
G1 X214.515 Y10.295 E10.5166
G1 X215.397 Y10.335 E10.56248
G1 X216.272 Y10.455 E10.60838
G1 X217.132 Y10.653 E10.65424
G1 X217.971 Y10.928 E10.70013
G1 X218.782 Y11.278 E10.74603
G1 X219.557 Y11.7 E10.79189
G1 X220.292 Y12.191 E10.83783
G1 X220.979 Y12.745 E10.88369
G1 X221.409 Y13.151 E10.91443
G1 X221.555 Y13.297 E10.92516
G1 X222.151 Y13.949 E10.97107
G1 X222.685 Y14.652 E11.01694
G1 X223.153 Y15.4 E11.0628
G1 X223.551 Y16.188 E11.10868
G1 X223.877 Y17.009 E11.15458
G1 X224.127 Y17.856 E11.20048
G1 X224.3 Y18.722 E11.24637
G1 X224.393 Y19.6 E11.29226
G1 X224.411 Y20.191 E11.32299
G1 X224.411 Y129.899 E17.0244
G1 X224.371 Y130.781 E17.07028
G1 X224.251 Y131.656 E17.11618
G1 X224.053 Y132.516 E17.16204
G1 X223.778 Y133.355 E17.20793
G1 X223.428 Y134.166 E17.25383
G1 X223.006 Y134.941 E17.29969
G1 X222.515 Y135.676 E17.34563
G1 X221.961 Y136.363 E17.39149
G1 X221.555 Y136.793 E17.42222
G1 X221.409 Y136.939 E17.43295
G1 X220.757 Y137.535 E17.47886
G1 X220.054 Y138.069 E17.52474
G1 X219.306 Y138.537 E17.5706
G1 X218.518 Y138.935 E17.61647
G1 X217.697 Y139.261 E17.66238
G1 X216.85 Y139.511 E17.70828
G1 X215.984 Y139.684 E17.75417
G1 X215.106 Y139.777 E17.80005
G1 X214.515 Y139.795 E17.83078
G1 X19.807 Y139.795 E27.94955
G1 X18.925 Y139.755 E27.99544
G1 X18.05 Y139.635 E28.04134
G1 X17.19 Y139.437 E28.0872
G1 X16.351 Y139.162 E28.13308
G1 X15.54 Y138.812 E28.17899
G1 X14.765 Y138.39 E28.22485
G1 X14.03 Y137.899 E28.27078
G1 X13.343 Y137.345 E28.31665
G1 X12.913 Y136.939 E28.34738
G1 X12.767 Y136.793 E28.35811
G1 X12.171 Y136.141 E28.40402
G1 X11.637 Y135.438 E28.4499
G1 X11.169 Y134.69 E28.49575
G1 X10.771 Y133.902 E28.54163
G1 X10.445 Y133.081 E28.58754
G1 X10.195 Y132.234 E28.63343
G1 X10.022 Y131.368 E28.67933
G1 X9.929 Y130.49 E28.72521
G1 X9.911 Y129.899 E28.75594
G1 X9.911 Y20.191 E34.45735
G1 X9.951 Y19.309 E34.50324
G1 X10.071 Y18.434 E34.54913
G1 X10.269 Y17.574 E34.595
G1 X10.544 Y16.735 E34.64088
G1 X10.894 Y15.924 E34.68678
G1 X11.316 Y15.149 E34.73264
G1 X11.807 Y14.414 E34.77858
G1 X12.361 Y13.727 E34.82445
G1 X12.557 Y13.519 E34.8393
G0 F810 X12.767 Y13.297
G0 X12.913 Y13.151
M204 S5000
M205 X30 Y30
G0 F7200 X13.266 Y13.504
M204 S500
M205 X20 Y20
G1 F6000 E34.86591
G1 F900 X13.902 Y12.925 E34.9106
G1 X14.589 Y12.407 E34.95532
G1 X15.321 Y11.956 E35
G1 X16.091 Y11.574 E35.04467
G1 X16.894 Y11.266 E35.08937
G1 X17.722 Y11.033 E35.13407
G1 X18.568 Y10.878 E35.17876
G1 X19.807 Y10.795 E35.2433
G1 X214.515 Y10.795 E45.36207
G1 X215.374 Y10.835 E45.40676
G1 X216.226 Y10.955 E45.45147
G1 X217.063 Y11.153 E45.49617
G1 X217.877 Y11.428 E45.54083
G1 X218.663 Y11.777 E45.58552
G1 X219.413 Y12.198 E45.63022
G1 X220.121 Y12.687 E45.67493
G1 X221.056 Y13.504 E45.73946
G1 X221.202 Y13.65 E45.75019
G1 X221.781 Y14.286 E45.79489
G1 X222.299 Y14.973 E45.8396
G1 X222.75 Y15.705 E45.88428
G1 X223.132 Y16.475 E45.92895
G1 X223.44 Y17.278 E45.97365
G1 X223.673 Y18.106 E46.01835
G1 X223.828 Y18.952 E46.06305
G1 X223.911 Y20.191 E46.12758
G1 X223.911 Y129.899 E51.82899
G1 X223.871 Y130.758 E51.87368
G1 X223.751 Y131.61 E51.9184
G1 X223.553 Y132.447 E51.9631
G1 X223.278 Y133.261 E52.00775
G1 X222.929 Y134.047 E52.05244
G1 X222.508 Y134.797 E52.09714
G1 X222.019 Y135.505 E52.14186
G1 X221.202 Y136.44 E52.20638
G1 X221.056 Y136.586 E52.21711
G1 X220.42 Y137.165 E52.26181
G1 X219.733 Y137.683 E52.30653
G1 X219.001 Y138.134 E52.35121
G1 X218.231 Y138.516 E52.39588
G1 X217.428 Y138.824 E52.44057
G1 X216.6 Y139.057 E52.48527
G1 X215.754 Y139.212 E52.52997
G1 X214.515 Y139.295 E52.59451
G1 X19.807 Y139.295 E62.71328
G1 X18.948 Y139.255 E62.75797
G1 X18.096 Y139.135 E62.80268
G1 X17.259 Y138.937 E62.84738
G1 X16.445 Y138.662 E62.89203
G1 X15.659 Y138.313 E62.93673
G1 X14.909 Y137.892 E62.98142
G1 X14.201 Y137.403 E63.02614
G1 X13.266 Y136.586 E63.09067
G1 X13.12 Y136.44 E63.1014
G1 X12.541 Y135.804 E63.1461
G1 X12.023 Y135.117 E63.19081
G1 X11.572 Y134.385 E63.23549
G1 X11.19 Y133.615 E63.28016
G1 X10.882 Y132.812 E63.32486
G1 X10.649 Y131.984 E63.36956
G1 X10.494 Y131.138 E63.41426
G1 X10.411 Y129.899 E63.47879
G1 X10.411 Y20.191 E69.1802
G1 X10.451 Y19.332 E69.22489
G1 X10.571 Y18.48 E69.26961
G1 X10.769 Y17.643 E69.3143
G1 X11.044 Y16.829 E69.35896
G1 X11.393 Y16.043 E69.40365
G1 X11.814 Y15.293 E69.44835
G1 X12.303 Y14.585 E69.49306
G1 X12.919 Y13.88 E69.54172
G0 F810 X13.12 Y13.65
G0 X13.266 Y13.504
M204 S5000
M205 X30 Y30
G0 F7200 X13.62 Y13.858
M204 S500
M205 X20 Y20
G1 F6000 E69.56833
G1 F900 X14.239 Y13.295 E69.61181
G1 X14.909 Y12.795 E69.65526
G1 X15.623 Y12.36 E69.69871
G1 X16.376 Y11.996 E69.74217
G1 X17.161 Y11.705 E69.78568
G1 X17.969 Y11.49 E69.82913
G1 X18.794 Y11.354 E69.87258
G1 X19.807 Y11.295 E69.92532
G1 X214.515 Y11.295 E80.04409
G1 X215.35 Y11.335 E80.08753
G1 X216.178 Y11.455 E80.13101
G1 X216.991 Y11.653 E80.1745
G1 X217.781 Y11.927 E80.21795
G1 X218.541 Y12.276 E80.26142
G1 X219.264 Y12.696 E80.30487
G1 X219.944 Y13.183 E80.34834
G1 X220.702 Y13.858 E80.40108
G1 X220.848 Y14.004 E80.41181
G1 X221.411 Y14.623 E80.4553
G1 X221.911 Y15.293 E80.49875
G1 X222.346 Y16.007 E80.5422
G1 X222.71 Y16.76 E80.58566
G1 X223.001 Y17.545 E80.62917
G1 X223.216 Y18.353 E80.67262
G1 X223.352 Y19.178 E80.71607
G1 X223.411 Y20.191 E80.76881
G1 X223.411 Y129.899 E86.47022
G1 X223.371 Y130.734 E86.51366
G1 X223.251 Y131.562 E86.55714
G1 X223.053 Y132.375 E86.60063
G1 X222.779 Y133.165 E86.64408
G1 X222.43 Y133.925 E86.68754
G1 X222.01 Y134.648 E86.731
G1 X221.523 Y135.328 E86.77446
G1 X220.848 Y136.086 E86.82721
G1 X220.702 Y136.232 E86.83794
G1 X220.083 Y136.795 E86.88143
G1 X219.413 Y137.295 E86.92487
G1 X218.699 Y137.73 E86.96832
G1 X217.946 Y138.094 E87.01179
G1 X217.161 Y138.385 E87.0553
G1 X216.353 Y138.6 E87.09875
G1 X215.528 Y138.736 E87.1422
G1 X214.515 Y138.795 E87.19494
G1 X19.807 Y138.795 E97.31371
G1 X18.972 Y138.755 E97.35715
G1 X18.144 Y138.635 E97.40063
G1 X17.331 Y138.437 E97.44412
G1 X16.541 Y138.163 E97.48757
G1 X15.781 Y137.814 E97.53103
G1 X15.058 Y137.394 E97.57449
G1 X14.378 Y136.907 E97.61795
G1 X13.62 Y136.232 E97.6707
G1 X13.474 Y136.086 E97.68143
G1 X12.911 Y135.467 E97.72492
G1 X12.411 Y134.797 E97.76836
G1 X11.976 Y134.083 E97.81181
G1 X11.612 Y133.33 E97.85528
G1 X11.321 Y132.545 E97.89879
G1 X11.106 Y131.737 E97.94224
G1 X10.97 Y130.912 E97.98569
G1 X10.911 Y129.899 E98.03842
G1 X10.911 Y20.191 E103.73984
G1 X10.951 Y19.356 E103.78328
G1 X11.071 Y18.528 E103.82676
G1 X11.269 Y17.715 E103.87024
G1 X11.543 Y16.925 E103.9137
G1 X11.892 Y16.165 E103.95716
G1 X12.312 Y15.442 E104.00061
G1 X12.799 Y14.762 E104.04408
G1 X13.271 Y14.232 E104.08096
G0 F810 X13.474 Y14.004
G0 X13.62 Y13.858
M204 S5000
M205 X30 Y30
G0 F7200 X13.973 Y14.211
M204 S500
M205 X20 Y20
G1 F6000 E104.10757
G1 F900 X14.575 Y13.666 E104.14977
G1 X15.228 Y13.183 E104.19198
G1 X15.925 Y12.766 E104.23419
G1 X16.659 Y12.419 E104.27639
G1 X17.424 Y12.147 E104.31858
G1 X18.212 Y11.951 E104.36078
G1 X19.016 Y11.833 E104.40301
G1 X19.807 Y11.795 E104.44417
G1 X214.515 Y11.795 E114.56294
G1 X215.326 Y11.835 E114.60514
G1 X216.129 Y11.955 E114.64733
G1 X216.917 Y12.152 E114.68954
G1 X217.682 Y12.427 E114.73179
G1 X218.415 Y12.775 E114.77396
G1 X219.111 Y13.194 E114.81618
G1 X219.762 Y13.679 E114.85837
G1 X220.349 Y14.211 E114.89954
G1 X220.495 Y14.357 E114.91027
G1 X221.04 Y14.959 E114.95247
G1 X221.523 Y15.612 E114.99468
G1 X221.94 Y16.309 E115.03689
G1 X222.287 Y17.043 E115.07908
G1 X222.559 Y17.808 E115.12128
G1 X222.755 Y18.596 E115.16348
G1 X222.873 Y19.4 E115.20571
G1 X222.911 Y20.191 E115.24686
G1 X222.911 Y129.899 E120.94827
G1 X222.871 Y130.71 E120.99047
G1 X222.751 Y131.513 E121.03266
G1 X222.554 Y132.301 E121.07488
G1 X222.279 Y133.066 E121.11712
G1 X221.931 Y133.799 E121.15929
G1 X221.512 Y134.495 E121.20151
G1 X221.027 Y135.146 E121.2437
G1 X220.495 Y135.733 E121.28487
G1 X220.349 Y135.879 E121.2956
G1 X219.747 Y136.424 E121.3378
G1 X219.094 Y136.907 E121.38001
G1 X218.397 Y137.324 E121.42222
G1 X217.663 Y137.671 E121.46441
G1 X216.898 Y137.943 E121.50661
G1 X216.11 Y138.139 E121.54881
G1 X215.306 Y138.257 E121.59104
G1 X214.515 Y138.295 E121.63219
G1 X19.807 Y138.295 E131.75097
G1 X18.996 Y138.255 E131.79316
G1 X18.193 Y138.135 E131.83536
G1 X17.405 Y137.938 E131.87757
G1 X16.64 Y137.663 E131.91982
G1 X15.907 Y137.315 E131.96199
G1 X15.211 Y136.896 E132.0042
G1 X14.56 Y136.411 E132.04639
G1 X13.973 Y135.879 E132.08756
G1 X13.827 Y135.733 E132.09829
G1 X13.282 Y135.131 E132.1405
G1 X12.799 Y134.478 E132.18271
G1 X12.382 Y133.781 E132.22492
G1 X12.035 Y133.047 E132.26711
G1 X11.763 Y132.282 E132.3093
G1 X11.567 Y131.494 E132.3515
G1 X11.449 Y130.69 E132.39373
G1 X11.411 Y129.899 E132.43489
G1 X11.411 Y20.191 E138.1363
G1 X11.451 Y19.38 E138.1785
G1 X11.571 Y18.577 E138.22069
G1 X11.768 Y17.789 E138.2629
G1 X12.043 Y17.024 E138.30515
G1 X12.391 Y16.291 E138.34732
G1 X12.81 Y15.595 E138.38954
G1 X13.295 Y14.944 E138.43173
G1 X13.622 Y14.583 E138.45704
G0 F810 X13.827 Y14.357
G0 X13.973 Y14.211
M204 S5000
M205 X30 Y30
G0 F7200 X14.327 Y14.565
M204 S500
M205 X20 Y20
G1 F6000 E138.48365
G1 F900 X14.911 Y14.037 E138.52456
G1 X15.546 Y13.572 E138.56547
G1 X16.224 Y13.173 E138.60635
G1 X16.94 Y12.845 E138.64728
G1 X17.685 Y12.591 E138.68818
G1 X18.452 Y12.414 E138.72909
G1 X19.233 Y12.316 E138.77
G1 X19.807 Y12.295 E138.79985
G1 X214.515 Y12.295 E148.91862
G1 X215.301 Y12.335 E148.95952
G1 X216.079 Y12.454 E149.00042
G1 X216.841 Y12.652 E149.04134
G1 X217.579 Y12.926 E149.08225
G1 X218.285 Y13.274 E149.12315
G1 X218.953 Y13.691 E149.16408
G1 X219.574 Y14.174 E149.20496
G1 X219.995 Y14.565 E149.23482
G1 X220.141 Y14.711 E149.24555
G1 X220.669 Y15.295 E149.28647
G1 X221.134 Y15.93 E149.32737
G1 X221.533 Y16.608 E149.36825
G1 X221.861 Y17.324 E149.40918
G1 X222.115 Y18.069 E149.45009
G1 X222.292 Y18.836 E149.49099
G1 X222.39 Y19.617 E149.5319
G1 X222.411 Y20.191 E149.56175
G1 X222.411 Y129.899 E155.26316
G1 X222.371 Y130.685 E155.30406
G1 X222.252 Y131.463 E155.34496
G1 X222.054 Y132.225 E155.38588
G1 X221.78 Y132.963 E155.42679
G1 X221.432 Y133.669 E155.4677
G1 X221.015 Y134.337 E155.50862
G1 X220.532 Y134.958 E155.5495
G1 X220.141 Y135.379 E155.57936
G1 X219.995 Y135.525 E155.59009
G1 X219.411 Y136.053 E155.63101
G1 X218.776 Y136.518 E155.67191
G1 X218.098 Y136.917 E155.7128
G1 X217.382 Y137.245 E155.75372
G1 X216.637 Y137.499 E155.79463
G1 X215.87 Y137.676 E155.83554
G1 X215.089 Y137.774 E155.87644
G1 X214.515 Y137.795 E155.90629
G1 X19.807 Y137.795 E166.02507
G1 X19.021 Y137.755 E166.06597
G1 X18.243 Y137.636 E166.10687
G1 X17.481 Y137.438 E166.14778
G1 X16.743 Y137.164 E166.18869
G1 X16.037 Y136.816 E166.2296
G1 X15.369 Y136.399 E166.27052
G1 X14.748 Y135.916 E166.31141
G1 X14.327 Y135.525 E166.34127
G1 X14.181 Y135.379 E166.352
G1 X13.653 Y134.795 E166.39291
G1 X13.188 Y134.16 E166.43382
G1 X12.789 Y133.482 E166.4747
G1 X12.461 Y132.766 E166.51563
G1 X12.207 Y132.021 E166.55653
G1 X12.03 Y131.254 E166.59744
G1 X11.932 Y130.473 E166.63835
G1 X11.911 Y129.899 E166.6682
G1 X11.911 Y20.191 E172.36961
G1 X11.951 Y19.405 E172.41051
G1 X12.07 Y18.627 E172.45141
G1 X12.268 Y17.865 E172.49233
G1 X12.542 Y17.127 E172.53324
G1 X12.89 Y16.421 E172.57414
G1 X13.307 Y15.753 E172.61507
G1 X13.79 Y15.132 E172.65595
G1 X13.973 Y14.935 E172.66992
G0 F810 X14.181 Y14.711
G0 X14.327 Y14.565
M204 S5000
M205 X30 Y30
G0 F7200 X14.68 Y14.918
M204 S500
M205 X20 Y20
G1 F6000 E172.69653
G1 F900 X15.246 Y14.409 E172.73609
G1 X15.862 Y13.962 E172.77565
G1 X16.522 Y13.582 E172.81522
G1 X17.218 Y13.273 E172.8548
G1 X17.942 Y13.039 E172.89434
G1 X18.687 Y12.882 E172.93391
G1 X19.807 Y12.795 E172.99229
G1 X214.515 Y12.795 E183.11106
G1 X215.275 Y12.835 E183.15061
G1 X216.027 Y12.954 E183.19018
G1 X216.762 Y13.152 E183.22974
G1 X217.473 Y13.426 E183.26934
G1 X218.151 Y13.772 E183.30889
G1 X218.788 Y14.188 E183.34843
G1 X219.642 Y14.918 E183.40682
G1 X219.788 Y15.064 E183.41755
G1 X220.297 Y15.63 E183.45711
G1 X220.744 Y16.246 E183.49666
G1 X221.124 Y16.906 E183.53624
G1 X221.433 Y17.602 E183.57582
G1 X221.667 Y18.326 E183.61536
G1 X221.824 Y19.071 E183.65492
G1 X221.911 Y20.191 E183.7133
G1 X221.911 Y129.899 E189.41472
G1 X221.871 Y130.659 E189.45427
G1 X221.752 Y131.411 E189.49383
G1 X221.554 Y132.146 E189.53339
G1 X221.28 Y132.857 E189.57299
G1 X220.934 Y133.535 E189.61255
G1 X220.518 Y134.172 E189.65209
G1 X219.788 Y135.026 E189.71047
G1 X219.642 Y135.172 E189.7212
G1 X219.076 Y135.681 E189.76076
G1 X218.46 Y136.128 E189.80032
G1 X217.8 Y136.508 E189.83989
G1 X217.104 Y136.817 E189.87947
G1 X216.38 Y137.051 E189.91901
G1 X215.635 Y137.208 E189.95858
G1 X214.515 Y137.295 E190.01696
G1 X19.807 Y137.295 E200.13573
G1 X19.047 Y137.255 E200.17528
G1 X18.295 Y137.136 E200.21485
G1 X17.56 Y136.938 E200.25441
G1 X16.849 Y136.664 E200.29401
G1 X16.171 Y136.318 E200.33357
G1 X15.534 Y135.902 E200.3731
G1 X14.68 Y135.172 E200.43149
G1 X14.534 Y135.026 E200.44222
G1 X14.025 Y134.46 E200.48178
G1 X13.578 Y133.844 E200.52133
G1 X13.198 Y133.184 E200.56091
G1 X12.889 Y132.488 E200.60049
G1 X12.655 Y131.764 E200.64003
G1 X12.498 Y131.019 E200.6796
G1 X12.411 Y129.899 E200.73798
G1 X12.411 Y20.191 E206.43939
G1 X12.451 Y19.431 E206.47894
G1 X12.57 Y18.679 E206.5185
G1 X12.768 Y17.944 E206.55806
G1 X13.042 Y17.233 E206.59766
G1 X13.388 Y16.555 E206.63722
G1 X13.804 Y15.918 E206.67676
G1 X14.336 Y15.296 E206.71929
G0 F810 X14.534 Y15.064
G0 X14.68 Y14.918
M204 S5000
M205 X30 Y30
G0 F7200 X15.034 Y15.272
M204 S500
M205 X20 Y20
G1 F6000 E206.7459
G1 F900 X15.581 Y14.782 E206.78407
G1 X16.178 Y14.354 E206.82224
G1 X16.818 Y13.993 E206.86043
G1 X17.493 Y13.704 E206.89859
G1 X18.196 Y13.49 E206.93678
G1 X18.918 Y13.354 E206.97496
G1 X19.807 Y13.295 E207.02126
G1 X214.515 Y13.295 E217.14003
G1 X215.248 Y13.335 E217.17818
G1 X215.973 Y13.454 E217.21636
G1 X216.681 Y13.652 E217.25457
G1 X217.363 Y13.925 E217.29275
G1 X218.011 Y14.271 E217.33092
G1 X218.618 Y14.685 E217.36911
G1 X219.288 Y15.272 E217.4154
G1 X219.434 Y15.418 E217.42613
G1 X219.924 Y15.965 E217.46429
G1 X220.352 Y16.562 E217.50247
G1 X220.713 Y17.202 E217.54066
G1 X221.002 Y17.877 E217.57881
G1 X221.216 Y18.58 E217.617
G1 X221.352 Y19.302 E217.65518
G1 X221.411 Y20.191 E217.70149
G1 X221.411 Y129.899 E223.4029
G1 X221.371 Y130.632 E223.44105
G1 X221.252 Y131.357 E223.47923
G1 X221.054 Y132.065 E223.51744
G1 X220.781 Y132.747 E223.55561
G1 X220.435 Y133.395 E223.59379
G1 X220.021 Y134.002 E223.63197
G1 X219.434 Y134.672 E223.67826
G1 X219.288 Y134.818 E223.68899
G1 X218.741 Y135.308 E223.72716
G1 X218.144 Y135.736 E223.76533
G1 X217.504 Y136.097 E223.80352
G1 X216.829 Y136.386 E223.84168
G1 X216.126 Y136.6 E223.87987
G1 X215.404 Y136.736 E223.91805
G1 X214.515 Y136.795 E223.96435
G1 X19.807 Y136.795 E234.08312
G1 X19.074 Y136.755 E234.12127
G1 X18.349 Y136.636 E234.15946
G1 X17.641 Y136.438 E234.19766
G1 X16.959 Y136.165 E234.23584
G1 X16.311 Y135.819 E234.27401
G1 X15.704 Y135.405 E234.3122
G1 X15.034 Y134.818 E234.35849
G1 X14.888 Y134.672 E234.36922
