;FLAVOR:Marlin
;TIME:2050
;Filament used: 2.48533m
;Layer height: 0.25
;Generated with Cura_SteamEngine 3.6.0
M140 S70
M105
M190 S70
M104 S215
M105
M109 S215
M82 ;absolute extrusion mode
; Ender 3 Custom Start G-code
G28 ; Home all axes
G92 E0 ; Reset Extruder
G1 Z2.0 F3000 ; Move Z Axis up little to prevent scratching of Heat Bed
G1 X0.1 Y20 Z0.3 F5000.0 ; Move to start position
G1 X0.1 Y200.0 Z0.3 F1500.0 E15 ; Draw the first line
G1 X0.4 Y200.0 Z0.3 F5000.0 ; Move to side a little
G1 X0.4 Y20 Z0.3 F1500.0 E30 ; Draw the second line
G92 E0 ; Reset Extruder
G1 Z2.0 F3000 ; Move Z Axis up little to prevent scratching of Heat Bed
; End of custom start GCode
G92 E0
G1 F6000 E-5
;LAYER_COUNT:65
;LAYER:0
M107
M204 S5000
M205 X30 Y30
G0 F7200 X84.545 Y20.257 Z0.25
M204 S500
M205 X20 Y20
;TYPE:SKIRT
G1 F6000 E0
G1 F900 X84.819 Y19.418 E0.04587
G1 X85.167 Y18.607 E0.09173
G1 X85.524 Y17.937 E0.13118
G1 X85.878 Y17.331 E0.16766
G1 X86.358 Y16.59 E0.21354
G1 X86.902 Y15.895 E0.25941
G1 X87.507 Y15.252 E0.30529
G1 X88.08 Y14.738 E0.34529
G1 X88.614 Y14.296 E0.38132
G1 X89.319 Y13.765 E0.42719
G1 X90.069 Y13.299 E0.47307
G1 X90.859 Y12.903 E0.519
G1 X91.559 Y12.622 E0.5582
G1 X92.213 Y12.389 E0.59428
G1 X93.057 Y12.131 E0.64014
G1 X93.921 Y11.95 E0.68602
G1 X94.798 Y11.848 E0.7319
G1 X95.473 Y11.824 E0.767
G1 X116.878 Y11.798 E1.8794
G1 X117.76 Y11.837 E1.92528
G1 X118.635 Y11.955 E1.97117
G1 X118.838 Y12.002 E1.982
G1 X119.57 Y11.884 E2.02053
G1 X120.663 Y11.821 E2.07742
G1 X141.813 Y11.795 E3.17657
G1 X142.695 Y11.834 E3.22245
G1 X143.546 Y11.948 E3.26707
G1 X144.232 Y12.071 E3.30329
G1 X145.093 Y12.266 E3.34917
G1 X145.933 Y12.538 E3.39505
G1 X146.745 Y12.885 E3.44094
G1 X147.439 Y13.255 E3.48182
G1 X148.04 Y13.607 E3.51801
G1 X148.78 Y14.087 E3.56385
G1 X149.475 Y14.632 E3.60975
G1 X150.117 Y15.238 E3.65563
G1 X150.609 Y15.786 E3.6939
G1 X151.053 Y16.32 E3.72999
G1 X151.586 Y17.024 E3.77588
G1 X152.054 Y17.773 E3.82178
G1 X152.451 Y18.562 E3.86768
G1 X152.733 Y19.26 E3.90681
G1 X152.967 Y19.912 E3.94281
G1 X153.227 Y20.756 E3.9887
G1 X153.41 Y21.62 E4.0346
G1 X153.514 Y22.497 E4.0805
G1 X153.54 Y23.194 E4.11674
G1 X153.569 Y46.538 E5.32991
G1 X153.53 Y47.42 E5.37579
G1 X153.411 Y48.297 E5.42178
G1 X153.285 Y48.989 E5.45834
G1 X153.088 Y49.849 E5.50419
G1 X152.814 Y50.688 E5.55006
G1 X152.464 Y51.499 E5.59596
G1 X152.094 Y52.19 E5.6367
G1 X151.74 Y52.791 E5.67294
G1 X151.258 Y53.531 E5.71884
G1 X150.711 Y54.224 E5.76472
G1 X150.103 Y54.865 E5.81064
G1 X149.556 Y55.354 E5.84877
G1 X149.028 Y55.791 E5.88438
G1 X148.323 Y56.323 E5.93028
G1 X147.572 Y56.788 E5.97619
G1 X146.783 Y57.184 E6.02207
G1 X146.117 Y57.452 E6.05937
G1 X145.465 Y57.687 E6.09539
G1 X144.622 Y57.949 E6.14127
G1 X143.758 Y58.133 E6.18718
G1 X142.881 Y58.238 E6.23308
G1 X142.171 Y58.265 E6.27
G1 X120.761 Y58.292 E7.38266
G1 X119.879 Y58.253 E7.42854
G1 X119.004 Y58.135 E7.47443
G1 X118.804 Y58.089 E7.48509
G1 X118.051 Y58.208 E7.52471
G1 X116.975 Y58.269 E7.58072
G1 X95.826 Y58.294 E8.67981
G1 X94.943 Y58.255 E8.72574
G1 X94.074 Y58.137 E8.77132
G1 X93.385 Y58.012 E8.80771
G1 X92.524 Y57.816 E8.8536
G1 X91.684 Y57.542 E8.89952
G1 X90.873 Y57.193 E8.9454
G1 X90.191 Y56.829 E8.98558
G1 X89.591 Y56.477 E9.02173
G1 X88.851 Y55.996 E9.0676
G1 X88.157 Y55.45 E9.11349
G1 X87.515 Y54.844 E9.15937
G1 X87.027 Y54.299 E9.19738
G1 X86.584 Y53.766 E9.2334
G1 X86.051 Y53.062 E9.27929
G1 X85.584 Y52.313 E9.32516
G1 X85.186 Y51.525 E9.37104
G1 X84.896 Y50.802 E9.41152
G1 X84.663 Y50.147 E9.44765
G1 X84.405 Y49.302 E9.49357
G1 X84.224 Y48.438 E9.53944
G1 X84.123 Y47.561 E9.58532
G1 X84.099 Y46.892 E9.62011
G1 X84.069 Y23.553 E10.83302
G1 X84.108 Y22.67 E10.87895
G1 X84.225 Y21.803 E10.92441
G1 X84.349 Y21.118 E10.96059
G1 X84.432 Y20.756 E10.97989
G0 F810 X84.545 Y20.257
M204 S5000
M205 X30 Y30
G0 F7200 X85.033 Y20.369
M204 S500
M205 X20 Y20
G1 F6000 E11.0065
G1 F900 X85.303 Y19.552 E11.05122
G1 X85.647 Y18.764 E11.0959
G1 X85.956 Y18.189 E11.12983
G1 X86.31 Y17.583 E11.1663
G1 X86.778 Y16.862 E11.21097
G1 X87.311 Y16.187 E11.25567
G1 X87.904 Y15.564 E11.30037
G1 X88.399 Y15.123 E11.33482
G1 X88.933 Y14.681 E11.37084
G1 X89.62 Y14.164 E11.41553
G1 X90.353 Y13.713 E11.46025
G1 X91.124 Y13.332 E11.50495
G1 X91.727 Y13.093 E11.53865
G1 X92.381 Y12.86 E11.57473
G1 X93.203 Y12.61 E11.61938
G1 X94.046 Y12.437 E11.66411
G1 X94.901 Y12.342 E11.70881
G1 X95.474 Y12.324 E11.73861
G1 X116.879 Y12.298 E12.851
G1 X117.738 Y12.337 E12.89569
G1 X118.59 Y12.455 E12.94039
G1 X118.824 Y12.51 E12.95288
G1 X118.887 Y12.495 E12.95625
G1 X119.738 Y12.369 E13.00096
G1 X120.664 Y12.321 E13.04914
G1 X141.814 Y12.295 E14.14829
G1 X142.673 Y12.334 E14.19298
G1 X143.457 Y12.44 E14.23409
G1 X144.143 Y12.563 E14.27031
G1 X144.982 Y12.754 E14.31503
G1 X145.799 Y13.022 E14.35971
G1 X146.588 Y13.365 E14.40442
G1 X147.186 Y13.686 E14.43969
G1 X147.787 Y14.038 E14.47589
G1 X148.508 Y14.507 E14.52059
G1 X149.182 Y15.041 E14.56528
G1 X149.804 Y15.634 E14.60994
G1 X150.225 Y16.106 E14.64281
G1 X150.669 Y16.64 E14.6789
G1 X151.187 Y17.326 E14.72357
G1 X151.64 Y18.058 E14.76831
G1 X152.022 Y18.828 E14.81298
G1 X152.262 Y19.429 E14.84661
G1 X152.496 Y20.081 E14.88261
G1 X152.749 Y20.903 E14.92731
G1 X152.924 Y21.745 E14.972
G1 X153.02 Y22.6 E15.01671
G1 X153.04 Y23.195 E15.04765
G1 X153.069 Y46.539 E16.26082
G1 X153.03 Y47.398 E16.3055
G1 X152.919 Y48.207 E16.34794
G1 X152.793 Y48.899 E16.38449
G1 X152.6 Y49.737 E16.42918
G1 X152.33 Y50.553 E16.47385
G1 X151.985 Y51.341 E16.51856
G1 X151.663 Y51.937 E16.55376
G1 X151.309 Y52.538 E16.59001
G1 X150.839 Y53.257 E16.63465
G1 X150.303 Y53.931 E16.6794
G1 X149.708 Y54.551 E16.72406
G1 X149.237 Y54.969 E16.75679
G1 X148.709 Y55.406 E16.79241
G1 X148.021 Y55.923 E16.83713
G1 X147.289 Y56.374 E16.88181
G1 X146.518 Y56.755 E16.92651
G1 X145.947 Y56.982 E16.95844
G1 X145.295 Y57.217 E16.99446
G1 X144.474 Y57.471 E17.03912
G1 X143.632 Y57.647 E17.08382
G1 X142.778 Y57.744 E17.12849
G1 X142.171 Y57.765 E17.16005
G1 X120.761 Y57.792 E18.27271
G1 X119.902 Y57.753 E18.3174
G1 X119.05 Y57.635 E18.3621
G1 X118.813 Y57.579 E18.37475
G1 X118.735 Y57.598 E18.37892
G1 X117.884 Y57.723 E18.42362
G1 X116.974 Y57.769 E18.47098
G1 X95.825 Y57.794 E19.57007
G1 X94.966 Y57.755 E19.61476
G1 X94.163 Y57.645 E19.65688
G1 X93.474 Y57.52 E19.69327
G1 X92.636 Y57.328 E19.73795
G1 X91.819 Y57.058 E19.78266
G1 X91.031 Y56.714 E19.82735
G1 X90.444 Y56.397 E19.86202
G1 X89.844 Y56.045 E19.89817
G1 X89.124 Y55.576 E19.94282
G1 X88.45 Y55.042 E19.98751
G1 X87.828 Y54.448 E20.03221
G1 X87.411 Y53.98 E20.06479
G1 X86.968 Y53.447 E20.1008
G1 X86.45 Y52.76 E20.14552
G1 X85.998 Y52.029 E20.19018
G1 X85.615 Y51.259 E20.23488
G1 X85.367 Y50.634 E20.26982
G1 X85.134 Y49.979 E20.30595
G1 X84.884 Y49.156 E20.35065
G1 X84.711 Y48.314 E20.39532
G1 X84.617 Y47.459 E20.44002
G1 X84.599 Y46.891 E20.46956
G1 X84.569 Y23.552 E21.68246
G1 X84.608 Y22.693 E21.72715
G1 X84.717 Y21.892 E21.76916
G1 X84.841 Y21.207 E21.80534
G1 X84.919 Y20.868 E21.82341
G0 F810 X85.033 Y20.369
M204 S5000
M205 X30 Y30
G0 F7200 X85.521 Y20.481
M204 S500
M205 X20 Y20
G1 F6000 E21.85002
G1 F900 X85.786 Y19.688 E21.89347
G1 X86.126 Y18.924 E21.93693
G1 X86.388 Y18.441 E21.96549
G1 X86.742 Y17.835 E22.00196
G1 X87.198 Y17.134 E22.04542
G1 X87.718 Y16.48 E22.08884
G1 X88.299 Y15.878 E22.13232
G1 X88.718 Y15.508 E22.16137
G1 X89.252 Y15.066 E22.1974
G1 X89.921 Y14.565 E22.24083
G1 X90.635 Y14.129 E22.28431
G1 X91.387 Y13.763 E22.32777
G1 X91.894 Y13.564 E22.35608
G1 X92.548 Y13.331 E22.39216
G1 X93.349 Y13.089 E22.43564
G1 X94.169 Y12.924 E22.47911
G1 X95.001 Y12.837 E22.52259
G1 X95.474 Y12.824 E22.54718
G1 X116.879 Y12.798 E23.65957
G1 X117.715 Y12.837 E23.70307
G1 X118.543 Y12.956 E23.74654
G1 X118.832 Y13.026 E23.76199
G1 X119.074 Y12.969 E23.77491
G1 X119.902 Y12.855 E23.81835
G1 X120.664 Y12.821 E23.85799
G1 X141.814 Y12.795 E24.95713
G1 X142.65 Y12.834 E25.00063
G1 X143.369 Y12.932 E25.03834
G1 X144.055 Y13.055 E25.07456
G1 X144.871 Y13.242 E25.11806
G1 X145.664 Y13.506 E25.1615
G1 X146.429 Y13.844 E25.20496
G1 X146.933 Y14.118 E25.23477
G1 X147.534 Y14.47 E25.27097
G1 X148.235 Y14.926 E25.31443
G1 X148.889 Y15.448 E25.35792
G1 X149.49 Y16.03 E25.40139
G1 X149.84 Y16.426 E25.42886
G1 X150.284 Y16.96 E25.46495
G1 X150.788 Y17.628 E25.50844
G1 X151.225 Y18.341 E25.5519
G1 X151.592 Y19.092 E25.59534
G1 X151.792 Y19.598 E25.62361
G1 X152.026 Y20.25 E25.65961
G1 X152.27 Y21.05 E25.70308
G1 X152.437 Y21.87 E25.74657
G1 X152.525 Y22.701 E25.79
G1 X152.54 Y23.195 E25.81568
G1 X152.569 Y46.539 E27.02885
G1 X152.53 Y47.375 E27.07234
G1 X152.427 Y48.117 E27.11127
G1 X152.301 Y48.809 E27.14782
G1 X152.112 Y49.624 E27.1913
G1 X151.847 Y50.417 E27.23475
G1 X151.506 Y51.181 E27.27823
G1 X151.232 Y51.683 E27.30796
G1 X150.878 Y52.284 E27.3442
G1 X150.42 Y52.983 E27.38763
G1 X149.897 Y53.636 E27.43111
G1 X149.314 Y54.236 E27.47459
G1 X148.918 Y54.584 E27.50199
G1 X148.39 Y55.021 E27.5376
G1 X147.721 Y55.523 E27.58107
G1 X147.007 Y55.958 E27.62452
G1 X146.255 Y56.324 E27.66799
G1 X145.778 Y56.512 E27.69463
G1 X145.126 Y56.747 E27.73065
G1 X144.326 Y56.992 E27.77413
G1 X143.507 Y57.161 E27.81759
G1 X142.675 Y57.25 E27.86107
G1 X142.17 Y57.265 E27.88733
G1 X120.76 Y57.292 E28.99999
G1 X119.925 Y57.253 E29.04343
G1 X119.097 Y57.135 E29.08689
G1 X118.804 Y57.064 E29.10256
G1 X118.549 Y57.124 E29.11617
G1 X117.72 Y57.236 E29.15965
G1 X116.973 Y57.269 E29.19851
G1 X95.824 Y57.294 E30.2976
G1 X94.989 Y57.255 E30.34104
G1 X94.252 Y57.153 E30.37971
G1 X93.563 Y57.028 E30.4161
G1 X92.748 Y56.84 E30.45956
G1 X91.955 Y56.575 E30.50302
G1 X91.191 Y56.235 E30.54647
G1 X90.697 Y55.966 E30.57571
G1 X90.097 Y55.614 E30.61186
G1 X89.397 Y55.157 E30.6553
G1 X88.743 Y54.635 E30.69879
G1 X88.143 Y54.053 E30.74223
G1 X87.796 Y53.66 E30.76947
G1 X87.353 Y53.127 E30.80549
G1 X86.85 Y52.459 E30.84895
G1 X86.412 Y51.746 E30.89244
G1 X86.045 Y50.994 E30.93592
G1 X85.838 Y50.467 E30.96535
G1 X85.605 Y49.812 E31.00148
G1 X85.363 Y49.011 E31.04496
G1 X85.198 Y48.191 E31.08843
G1 X85.112 Y47.359 E31.1319
G1 X85.099 Y46.89 E31.15628
G1 X85.069 Y23.551 E32.36919
G1 X85.108 Y22.716 E32.41263
G1 X85.209 Y21.981 E32.45118
G1 X85.333 Y21.296 E32.48736
G1 X85.406 Y20.98 E32.50422
G0 F810 X85.521 Y20.481
M204 S5000
M205 X30 Y30
G0 F7200 X86.009 Y20.594
M204 S500
M205 X20 Y20
G1 F6000 E32.53082
G1 F900 X86.269 Y19.825 E32.57301
G1 X86.605 Y19.085 E32.61525
G1 X86.819 Y18.694 E32.63841
G1 X87.173 Y18.088 E32.67488
G1 X87.617 Y17.407 E32.71713
G1 X88.125 Y16.774 E32.75931
G1 X88.694 Y16.194 E32.80154
G1 X89.037 Y15.894 E32.82522
G1 X89.571 Y15.452 E32.86124
G1 X90.221 Y14.965 E32.90345
G1 X90.916 Y14.545 E32.94565
G1 X91.649 Y14.195 E32.98787
G1 X92.062 Y14.035 E33.01088
G1 X92.716 Y13.802 E33.04696
G1 X93.494 Y13.568 E33.08919
G1 X94.291 Y13.411 E33.1314
G1 X95.475 Y13.324 E33.1931
G1 X116.88 Y13.298 E34.30549
G1 X117.691 Y13.337 E34.34769
G1 X118.495 Y13.456 E34.38993
G1 X118.831 Y13.54 E34.40793
G1 X119.258 Y13.444 E34.43067
G1 X120.064 Y13.344 E34.47288
G1 X120.665 Y13.321 E34.50414
G1 X141.815 Y13.295 E35.60328
G1 X142.626 Y13.334 E35.64548
G1 X143.281 Y13.424 E35.67984
G1 X143.967 Y13.547 E35.71605
G1 X144.758 Y13.73 E35.75825
G1 X145.528 Y13.989 E35.80047
G1 X146.268 Y14.323 E35.84266
G1 X146.68 Y14.549 E35.86708
G1 X147.281 Y14.901 E35.90328
G1 X147.961 Y15.346 E35.94551
G1 X148.594 Y15.855 E35.98772
G1 X149.174 Y16.424 E36.02995
G1 X149.456 Y16.745 E36.05215
G1 X149.9 Y17.279 E36.08824
G1 X150.388 Y17.929 E36.13048
G1 X150.809 Y18.623 E36.17267
G1 X151.161 Y19.355 E36.21488
G1 X151.321 Y19.767 E36.23785
G1 X151.555 Y20.419 E36.27385
G1 X151.791 Y21.196 E36.31605
G1 X151.95 Y21.993 E36.35828
G1 X152.04 Y23.196 E36.42098
G1 X152.069 Y46.54 E37.63414
G1 X152.03 Y47.351 E37.67634
G1 X151.936 Y48.028 E37.71186
G1 X151.81 Y48.72 E37.74841
G1 X151.625 Y49.511 E37.79063
G1 X151.363 Y50.28 E37.83285
G1 X151.028 Y51.019 E37.87502
G1 X150.802 Y51.429 E37.89935
G1 X150.448 Y52.03 E37.93559
G1 X150.001 Y52.709 E37.97784
G1 X149.491 Y53.34 E38.02001
G1 X148.92 Y53.918 E38.06223
G1 X148.599 Y54.199 E38.0844
G1 X148.071 Y54.636 E38.12002
G1 X147.421 Y55.122 E38.1622
G1 X146.726 Y55.542 E38.2044
G1 X145.993 Y55.892 E38.24661
G1 X145.608 Y56.041 E38.26807
G1 X144.956 Y56.276 E38.30408
G1 X144.18 Y56.514 E38.34626
G1 X143.383 Y56.674 E38.38851
G1 X142.169 Y56.765 E38.45178
G1 X120.759 Y56.792 E39.56443
G1 X119.948 Y56.753 E39.60663
G1 X119.145 Y56.635 E39.64881
G1 X118.807 Y56.55 E39.66692
G1 X118.366 Y56.649 E39.69041
G1 X117.56 Y56.747 E39.73261
G1 X116.973 Y56.769 E39.76313
G1 X95.824 Y56.794 E40.86223
G1 X95.013 Y56.755 E40.90442
G1 X94.341 Y56.661 E40.93968
G1 X93.652 Y56.536 E40.97607
G1 X92.861 Y56.352 E41.01828
G1 X92.092 Y56.091 E41.06048
G1 X91.353 Y55.756 E41.10265
G1 X90.95 Y55.535 E41.12654
G1 X90.35 Y55.183 E41.16269
G1 X89.671 Y54.738 E41.20488
G1 X89.039 Y54.228 E41.24708
G1 X88.459 Y53.659 E41.28931
G1 X88.18 Y53.34 E41.31133
G1 X87.737 Y52.807 E41.34735
G1 X87.25 Y52.158 E41.38952
G1 X86.828 Y51.464 E41.43173
G1 X86.477 Y50.731 E41.47396
G1 X86.309 Y50.299 E41.49805
G1 X86.076 Y49.644 E41.53418
G1 X85.842 Y48.866 E41.5764
G1 X85.685 Y48.069 E41.61862
G1 X85.599 Y46.89 E41.68005
G1 X85.569 Y23.551 E42.89296
G1 X85.608 Y22.739 E42.9352
G1 X85.701 Y22.07 E42.9703
G1 X85.825 Y21.385 E43.00648
G1 X85.893 Y21.092 E43.02211
G0 F810 X86.009 Y20.594
M204 S5000
M205 X30 Y30
G0 F7200 X86.496 Y20.708
M204 S500
M205 X20 Y20
G1 F6000 E43.04872
G1 F900 X86.752 Y19.964 E43.08961
G1 X87.251 Y18.946 E43.14853
G1 X87.605 Y18.34 E43.185
G1 X88.036 Y17.681 E43.22592
G1 X88.532 Y17.07 E43.26682
G1 X89.355 Y16.279 E43.32614
G1 X89.889 Y15.837 E43.36217
G1 X90.52 Y15.366 E43.40309
G1 X91.196 Y14.962 E43.44402
G1 X92.23 Y14.506 E43.50275
G1 X92.884 Y14.273 E43.53883
G1 X93.638 Y14.047 E43.57973
G1 X94.411 Y13.899 E43.62064
G1 X95.476 Y13.824 E43.67612
G1 X116.881 Y13.798 E44.78852
G1 X117.667 Y13.837 E44.82941
G1 X118.445 Y13.956 E44.87032
G1 X118.821 Y14.053 E44.8905
G1 X119.439 Y13.92 E44.92335
G1 X120.222 Y13.834 E44.96428
G1 X120.665 Y13.821 E44.98732
G1 X141.815 Y13.795 E46.08646
G1 X142.602 Y13.834 E46.12741
G1 X143.193 Y13.917 E46.15843
G1 X143.879 Y14.04 E46.19464
G1 X144.646 Y14.218 E46.23556
G1 X145.39 Y14.473 E46.27644
G1 X146.428 Y14.981 E46.33649
G1 X147.029 Y15.333 E46.37269
G1 X147.687 Y15.764 E46.41357
G1 X148.298 Y16.261 E46.4545
G1 X149.071 Y17.065 E46.51246
G1 X149.515 Y17.599 E46.54855
G1 X149.987 Y18.229 E46.58946
G1 X150.393 Y18.904 E46.6304
G1 X150.85 Y19.936 E46.68905
G1 X151.084 Y20.588 E46.72505
G1 X151.312 Y21.341 E46.76594
G1 X151.463 Y22.114 E46.80687
G1 X151.54 Y23.196 E46.86325
G1 X151.569 Y46.54 E48.07641
G1 X151.53 Y47.327 E48.11736
G1 X151.444 Y47.938 E48.14943
G1 X151.318 Y48.63 E48.18598
G1 X151.137 Y49.397 E48.22693
G1 X150.881 Y50.141 E48.26782
G1 X150.371 Y51.175 E48.32774
G1 X150.017 Y51.776 E48.36399
G1 X149.583 Y52.433 E48.40491
G1 X149.085 Y53.043 E48.44583
G1 X148.28 Y53.813 E48.50373
G1 X147.752 Y54.25 E48.53934
G1 X147.121 Y54.721 E48.58026
G1 X146.446 Y55.125 E48.62115
G1 X145.439 Y55.571 E48.67838
G1 X144.787 Y55.806 E48.7144
G1 X144.034 Y56.035 E48.7553
G1 X143.261 Y56.186 E48.79623
G1 X142.169 Y56.265 E48.85313
G1 X120.759 Y56.292 E49.96579
G1 X119.973 Y56.253 E50.00669
G1 X119.194 Y56.134 E50.04764
G1 X118.82 Y56.038 E50.06771
G1 X118.185 Y56.172 E50.10143
G1 X117.403 Y56.257 E50.14231
G1 X116.972 Y56.269 E50.16472
G1 X95.823 Y56.294 E51.26381
G1 X95.037 Y56.255 E51.30471
G1 X94.431 Y56.17 E51.33651
G1 X93.742 Y56.045 E51.3729
G1 X92.975 Y55.865 E51.41385
G1 X92.231 Y55.608 E51.45475
G1 X91.203 Y55.104 E51.51425
G1 X90.603 Y54.752 E51.5504
G1 X89.946 Y54.319 E51.5913
G1 X89.335 Y53.823 E51.63219
G1 X88.565 Y53.021 E51.68997
G1 X88.122 Y52.488 E51.72599
G1 X87.65 Y51.858 E51.7669
G1 X87.245 Y51.183 E51.80781
G1 X86.78 Y50.131 E51.86758
G1 X86.547 Y49.476 E51.90371
G1 X86.321 Y48.722 E51.94462
G1 X86.173 Y47.949 E51.98552
G1 X86.099 Y46.889 E52.04074
G1 X86.069 Y23.55 E53.25365
G1 X86.108 Y22.764 E53.29454
G1 X86.193 Y22.16 E53.32624
