;FLAVOR:Marlin
;TIME:244
;Filament used: 0.14097m
;Layer height: 0.16
;Generated with Cura_SteamEngine 3.6.0
M140 S70
M105
M190 S70
M104 S215
M105
M109 S215
M82 ;absolute extrusion mode
G28 ; home all axes
M117 Purge extruder
G92 E0 ; reset extruder
G1 Z1.0 F3000 ; move z up little to prevent scratching of surface
G1 X0.1 Y20 Z0.3 F5000.0 ; move to start-line position G1 X0.1 Y200.0 Z0.3 F1500.0 E15 ; draw 1st line
G1 X0.4 Y200.0 Z0.3 F5000.0 ; move to side a little
G1 X0.4 Y20 Z0.3 F1500.0 E30 ; draw 2nd line
G92 E0 ; reset extruder
G1 Z1.0 F3000 ; move z up little to prevent scratching of surface
M117 All systems go!
G92 E0
G1 F6000 E-5
;LAYER_COUNT:7
;LAYER:0
M107
M204 S5000
M205 X30 Y30
G0 F7200 X94.968 Y96.114 Z0.2
M204 S500
M205 X20 Y20
;TYPE:SKIRT
G1 F6000 E0
G1 F900 X96.616 Y94.503 E0.08432
G1 X96.949 Y94.204 E0.10069
G1 X98.718 Y92.757 E0.18431
G1 X99.078 Y92.489 E0.20073
G1 X100.994 Y91.187 E0.28548
G1 X101.371 Y90.954 E0.30169
G1 X103.37 Y89.838 E0.38545
G1 X103.772 Y89.637 E0.4019
G1 X105.877 Y88.696 E0.48626
G1 X106.298 Y88.53 E0.50281
G1 X108.469 Y87.784 E0.5868
G1 X108.892 Y87.659 E0.60294
G1 X111.136 Y87.101 E0.68754
G1 X111.579 Y87.011 E0.70408
G1 X113.835 Y86.66 E0.78761
G1 X114.276 Y86.611 E0.80384
G1 X116.586 Y86.457 E0.88854
G1 X117.036 Y86.447 E0.90501
G1 X119.317 Y86.498 E0.98848
G1 X119.763 Y86.528 E1.00484
G1 X122.05 Y86.782 E1.08903
G1 X122.491 Y86.851 E1.10536
G1 X124.754 Y87.307 E1.18981
G1 X125.189 Y87.415 E1.20621
G1 X127.383 Y88.064 E1.28992
G1 X127.805 Y88.209 E1.30625
G1 X129.949 Y89.055 E1.39057
G1 X130.358 Y89.238 E1.40697
G1 X132.421 Y90.271 E1.49138
G1 X132.81 Y90.487 E1.50766
G1 X134.762 Y91.69 E1.59155
G1 X135.138 Y91.946 E1.60819
G1 X136.979 Y93.323 E1.6923
G1 X137.323 Y93.605 E1.70857
G1 X139.039 Y95.141 E1.79283
G1 X139.357 Y95.452 E1.80911
G1 X140.929 Y97.13 E1.89323
G1 X141.222 Y97.472 E1.90971
G1 X142.634 Y99.278 E1.99358
G1 X142.893 Y99.641 E2.00989
G1 X144.153 Y101.583 E2.09459
G1 X144.379 Y101.968 E2.11092
G1 X145.45 Y103.989 E2.1946
G1 X145.642 Y104.394 E2.211
G1 X146.535 Y106.514 E2.29516
G1 X146.692 Y106.937 E2.31167
G1 X147.394 Y109.133 E2.39602
G1 X147.51 Y109.56 E2.41221
G1 X148.018 Y111.811 E2.49663
G1 X148.097 Y112.255 E2.51313
G1 X148.4 Y114.523 E2.59685
G1 X148.44 Y114.969 E2.61323
G1 X148.542 Y117.27 E2.6975
G1 X148.542 Y117.716 E2.71382
G1 X148.441 Y120.018 E2.79812
G1 X148.401 Y120.466 E2.81457
G1 X148.098 Y122.734 E2.89829
G1 X148.02 Y123.173 E2.9146
G1 X147.514 Y125.426 E2.99908
G1 X147.397 Y125.857 E3.01542
G1 X146.696 Y128.051 E3.09969
G1 X146.54 Y128.474 E3.11618
G1 X145.647 Y130.596 E3.20042
G1 X145.455 Y131.001 E3.21681
G1 X144.386 Y133.02 E3.3004
G1 X144.161 Y133.403 E3.31665
G1 X142.902 Y135.347 E3.40138
G1 X142.641 Y135.713 E3.41783
G1 X141.228 Y137.52 E3.50175
G1 X140.937 Y137.86 E3.51813
G1 X139.366 Y139.539 E3.60225
G1 X139.047 Y139.851 E3.61858
G1 X137.332 Y141.387 E3.70281
G1 X136.988 Y141.669 E3.71908
G1 X135.148 Y143.046 E3.80317
G1 X134.773 Y143.301 E3.81976
G1 X132.82 Y144.506 E3.90372
G1 X132.431 Y144.723 E3.92001
G1 X130.369 Y145.757 E4.00441
G1 X129.958 Y145.941 E4.02088
G1 X127.814 Y146.787 E4.10521
G1 X127.395 Y146.931 E4.12142
G1 X125.202 Y147.581 E4.2051
G1 X124.768 Y147.689 E4.22146
G1 X122.505 Y148.147 E4.30594
G1 X122.059 Y148.217 E4.32245
G1 X119.771 Y148.471 E4.40668
G1 X119.328 Y148.501 E4.42292
G1 X117.038 Y148.553 E4.50673
G1 X116.586 Y148.543 E4.52327
G1 X114.276 Y148.389 E4.60797
G1 X113.835 Y148.34 E4.6242
G1 X111.579 Y147.989 E4.70773
G1 X111.136 Y147.899 E4.72427
G1 X108.892 Y147.341 E4.80887
G1 X108.469 Y147.216 E4.82501
G1 X106.298 Y146.47 E4.909
G1 X105.877 Y146.304 E4.92555
G1 X103.772 Y145.363 E5.00991
G1 X103.37 Y145.162 E5.02636
G1 X101.371 Y144.046 E5.11012
G1 X100.994 Y143.813 E5.12633
G1 X99.078 Y142.511 E5.21108
G1 X98.718 Y142.243 E5.2275
G1 X96.949 Y140.796 E5.31112
G1 X96.616 Y140.497 E5.32749
G1 X94.968 Y138.886 E5.41181
G1 X94.659 Y138.557 E5.42832
G1 X93.165 Y136.81 E5.51242
G1 X92.894 Y136.462 E5.52856
G1 X91.556 Y134.589 E5.61278
G1 X91.308 Y134.208 E5.62941
G1 X90.145 Y132.225 E5.71352
G1 X89.938 Y131.833 E5.72973
G1 X88.948 Y129.745 E5.81428
G1 X88.774 Y129.333 E5.83064
G1 X87.98 Y127.187 E5.91436
G1 X87.844 Y126.761 E5.93072
G1 X87.241 Y124.547 E6.01467
G1 X87.142 Y124.105 E6.03124
G1 X86.735 Y121.823 E6.11605
G1 X86.676 Y121.384 E6.13225
G1 X86.473 Y119.107 E6.21589
G1 X86.453 Y118.658 E6.23233
G1 X86.453 Y116.344 E6.31699
G1 X86.473 Y115.895 E6.33344
G1 X86.676 Y113.616 E6.41715
G1 X86.735 Y113.175 E6.43343
G1 X87.143 Y110.891 E6.51831
G1 X87.242 Y110.452 E6.53478
G1 X87.844 Y108.24 E6.61865
G1 X87.98 Y107.813 E6.63504
G1 X88.774 Y105.667 E6.71876
G1 X88.948 Y105.255 E6.73512
G1 X89.938 Y103.167 E6.81967
G1 X90.145 Y102.775 E6.83588
G1 X91.308 Y100.792 E6.91999
G1 X91.556 Y100.411 E6.93662
G1 X92.894 Y98.538 E7.02084
G1 X93.165 Y98.19 E7.03698
G1 X94.659 Y96.443 E7.12108
G1 X94.968 Y96.114 E7.13759
M204 S5000
M205 X30 Y30
G0 F7200 X95.275 Y96.428
M204 S500
M205 X20 Y20
G1 F900 X96.923 Y94.817 E7.22191
G1 X97.228 Y94.545 E7.23686
G1 X98.997 Y93.098 E7.32047
G1 X99.325 Y92.853 E7.33545
G1 X101.241 Y91.551 E7.4202
G1 X101.586 Y91.338 E7.43504
G1 X103.585 Y90.222 E7.5188
G1 X103.952 Y90.038 E7.53382
G1 X106.057 Y89.097 E7.61818
G1 X106.441 Y88.946 E7.63327
G1 X108.612 Y88.2 E7.71726
G1 X108.998 Y88.086 E7.73199
G1 X111.242 Y87.528 E7.81659
G1 X111.647 Y87.446 E7.8317
G1 X113.903 Y87.095 E7.91524
G1 X114.306 Y87.05 E7.93007
G1 X116.616 Y86.896 E8.01477
G1 X117.026 Y86.887 E8.02978
G1 X119.307 Y86.938 E8.11325
G1 X119.714 Y86.965 E8.12817
G1 X122.001 Y87.219 E8.21236
G1 X122.404 Y87.282 E8.22728
G1 X124.667 Y87.738 E8.31174
G1 X125.064 Y87.837 E8.32671
G1 X127.258 Y88.486 E8.41042
G1 X127.644 Y88.618 E8.42535
G1 X129.788 Y89.464 E8.50967
G1 X130.161 Y89.631 E8.52462
G1 X132.224 Y90.664 E8.60903
G1 X132.579 Y90.862 E8.62391
G1 X134.531 Y92.065 E8.7078
G1 X134.874 Y92.298 E8.72297
G1 X136.715 Y93.675 E8.80708
G1 X137.029 Y93.933 E8.82195
G1 X138.745 Y95.469 E8.90621
G1 X139.036 Y95.752 E8.92106
G1 X140.608 Y97.43 E9.00518
G1 X140.876 Y97.743 E9.02026
G1 X142.288 Y99.549 E9.10413
G1 X142.524 Y99.88 E9.119
G1 X143.784 Y101.822 E9.2037
G1 X143.99 Y102.174 E9.21862
G1 X145.061 Y104.195 E9.3023
G1 X145.237 Y104.565 E9.31729
G1 X146.13 Y106.685 E9.40145
G1 X146.273 Y107.071 E9.41651
G1 X146.975 Y109.267 E9.50086
G1 X147.081 Y109.657 E9.51565
G1 X147.589 Y111.908 E9.60007
G1 X147.661 Y112.313 E9.61512
G1 X147.964 Y114.581 E9.69884
G1 X148 Y114.988 E9.71379
G1 X148.102 Y117.289 E9.79805
G1 X148.103 Y117.697 E9.81298
G1 X148.002 Y119.999 E9.89728
G1 X147.965 Y120.408 E9.91231
G1 X147.662 Y122.676 E9.99602
G1 X147.591 Y123.076 E10.01089
G1 X147.085 Y125.329 E10.09537
G1 X146.978 Y125.723 E10.1103
G1 X146.277 Y127.917 E10.19457
G1 X146.134 Y128.303 E10.20963
G1 X145.241 Y130.425 E10.29386
G1 X145.066 Y130.795 E10.30884
G1 X143.997 Y132.814 E10.39242
G1 X143.792 Y133.163 E10.40723
G1 X142.533 Y135.107 E10.49196
G1 X142.294 Y135.442 E10.50702
G1 X140.881 Y137.249 E10.59094
G1 X140.616 Y137.56 E10.60589
G1 X139.045 Y139.239 E10.69002
G1 X138.753 Y139.523 E10.70492
G1 X137.038 Y141.059 E10.78915
G1 X136.724 Y141.317 E10.80402
G1 X134.884 Y142.694 E10.8881
G1 X134.542 Y142.927 E10.90324
G1 X132.589 Y144.132 E10.9872
G1 X132.234 Y144.33 E11.00207
G1 X130.172 Y145.364 E11.08647
G1 X129.797 Y145.532 E11.1015
G1 X127.653 Y146.378 E11.18583
G1 X127.27 Y146.51 E11.20065
G1 X125.077 Y147.16 E11.28433
G1 X124.68 Y147.258 E11.29929
G1 X122.417 Y147.716 E11.38377
G1 X122.011 Y147.78 E11.39881
G1 X119.723 Y148.034 E11.48303
G1 X119.318 Y148.061 E11.49788
G1 X117.028 Y148.113 E11.58168
G1 X116.616 Y148.104 E11.59676
G1 X114.306 Y147.95 E11.68146
G1 X113.903 Y147.905 E11.6963
G1 X111.647 Y147.554 E11.77983
G1 X111.242 Y147.472 E11.79495
G1 X108.998 Y146.914 E11.87955
G1 X108.612 Y146.8 E11.89427
G1 X106.441 Y146.054 E11.97826
G1 X106.057 Y145.903 E11.99335
G1 X103.952 Y144.962 E12.07771
G1 X103.585 Y144.778 E12.09273
G1 X101.586 Y143.662 E12.17649
G1 X101.241 Y143.449 E12.19133
G1 X99.325 Y142.147 E12.27608
G1 X98.997 Y141.902 E12.29106
G1 X97.228 Y140.455 E12.37467
G1 X96.923 Y140.183 E12.38963
G1 X95.275 Y138.572 E12.47394
G1 X94.994 Y138.271 E12.48901
G1 X93.5 Y136.524 E12.57311
G1 X93.252 Y136.207 E12.58783
G1 X91.914 Y134.334 E12.67205
G1 X91.688 Y133.985 E12.68726
G1 X90.525 Y132.002 E12.77137
G1 X90.335 Y131.644 E12.7862
G1 X89.345 Y129.556 E12.87074
G1 X89.187 Y129.18 E12.88566
G1 X88.393 Y127.034 E12.96938
G1 X88.268 Y126.645 E12.98433
G1 X87.665 Y124.431 E13.06828
G1 X87.575 Y124.028 E13.08339
G1 X87.168 Y121.746 E13.16819
G1 X87.114 Y121.345 E13.183
G1 X86.911 Y119.068 E13.26663
G1 X86.893 Y118.658 E13.28165
G1 X86.893 Y116.344 E13.36631
G1 X86.911 Y115.934 E13.38132
G1 X87.114 Y113.655 E13.46503
G1 X87.168 Y113.253 E13.47987
G1 X87.576 Y110.969 E13.56476
G1 X87.666 Y110.568 E13.57979
G1 X88.268 Y108.356 E13.66367
G1 X88.393 Y107.966 E13.67865
G1 X89.187 Y105.82 E13.76237
G1 X89.345 Y105.444 E13.77729
G1 X90.335 Y103.356 E13.86183
G1 X90.525 Y102.998 E13.87666
G1 X91.688 Y101.015 E13.96077
G1 X91.914 Y100.666 E13.97598
G1 X93.252 Y98.793 E14.06019
G1 X93.5 Y98.476 E14.07492
G1 X94.994 Y96.729 E14.15902
G1 X95.275 Y96.428 E14.17408
M204 S5000
M205 X30 Y30
G0 F7200 X95.583 Y96.743
M204 S500
M205 X20 Y20
G1 F900 X97.231 Y95.132 E14.2584
G1 X97.506 Y94.886 E14.2719
G1 X99.275 Y93.439 E14.35552
G1 X99.573 Y93.217 E14.36911
G1 X101.489 Y91.915 E14.45386
G1 X101.8 Y91.722 E14.46725
G1 X103.799 Y90.606 E14.55102
G1 X104.131 Y90.44 E14.5646
G1 X106.236 Y89.499 E14.64895
G1 X106.584 Y89.362 E14.66264
G1 X108.755 Y88.616 E14.74662
G1 X109.104 Y88.513 E14.75994
G1 X111.348 Y87.955 E14.84454
G1 X111.714 Y87.881 E14.8582
G1 X113.97 Y87.53 E14.94173
G1 X114.335 Y87.489 E14.95517
G1 X116.645 Y87.335 E15.03987
G1 X117.016 Y87.327 E15.05345
G1 X119.297 Y87.378 E15.13692
G1 X119.665 Y87.403 E15.15041
G1 X121.952 Y87.657 E15.2346
G1 X122.317 Y87.713 E15.24811
G1 X124.58 Y88.169 E15.33257
G1 X124.94 Y88.259 E15.34615
G1 X127.134 Y88.908 E15.42986
G1 X127.482 Y89.028 E15.44332
G1 X129.626 Y89.874 E15.52765
G1 X129.964 Y90.024 E15.54118
G1 X132.027 Y91.057 E15.62559
G1 X132.348 Y91.237 E15.63905
G1 X134.3 Y92.44 E15.72294
G1 X134.611 Y92.651 E15.73669
G1 X136.452 Y94.028 E15.8208
G1 X136.736 Y94.26 E15.83422
G1 X138.452 Y95.796 E15.91848
G1 X138.714 Y96.053 E15.93191
G1 X140.286 Y97.731 E16.01603
G1 X140.529 Y98.014 E16.02968
G1 X141.941 Y99.82 E16.11355
G1 X142.155 Y100.12 E16.12703
G1 X143.415 Y102.062 E16.21173
G1 X143.601 Y102.38 E16.22521
G1 X144.672 Y104.401 E16.30889
G1 X144.831 Y104.735 E16.32242
G1 X145.724 Y106.855 E16.40658
G1 X145.854 Y107.205 E16.42024
G1 X146.556 Y109.401 E16.50459
G1 X146.651 Y109.754 E16.51797
G1 X147.159 Y112.005 E16.60239
G1 X147.225 Y112.371 E16.616
G1 X147.528 Y114.639 E16.69971
G1 X147.561 Y115.008 E16.71327
G1 X147.663 Y117.309 E16.79754
G1 X147.663 Y117.677 E16.811
G1 X147.562 Y119.979 E16.8953
G1 X147.529 Y120.35 E16.90893
G1 X147.226 Y122.618 E16.99264
G1 X147.161 Y122.98 E17.0061
G1 X146.655 Y125.233 E17.09058
G1 X146.559 Y125.589 E17.10407
G1 X145.858 Y127.783 E17.18834
G1 X145.729 Y128.132 E17.20195
G1 X144.836 Y130.254 E17.28618
G1 X144.677 Y130.589 E17.29975
G1 X143.608 Y132.608 E17.38333
G1 X143.422 Y132.924 E17.39675
G1 X142.163 Y134.868 E17.48148
G1 X141.948 Y135.171 E17.49508
G1 X140.535 Y136.978 E17.579
G1 X140.294 Y137.259 E17.59254
G1 X138.723 Y138.938 E17.67667
G1 X138.46 Y139.196 E17.69015
G1 X136.745 Y140.732 E17.77438
G1 X136.461 Y140.965 E17.78782
G1 X134.621 Y142.342 E17.8719
G1 X134.311 Y142.552 E17.8856
G1 X132.358 Y143.757 E17.96956
G1 X132.037 Y143.937 E17.98302
G1 X129.975 Y144.971 E18.06742
G1 X129.635 Y145.122 E18.08103
G1 X127.491 Y145.968 E18.16536
G1 X127.145 Y146.088 E18.17875
G1 X124.952 Y146.738 E18.26244
G1 X124.593 Y146.827 E18.27597
G1 X122.33 Y147.285 E18.36044
G1 X121.962 Y147.342 E18.37407
G1 X119.674 Y147.596 E18.45829
G1 X119.308 Y147.621 E18.47171
G1 X117.018 Y147.673 E18.55552
G1 X116.645 Y147.665 E18.56917
G1 X114.335 Y147.511 E18.65387
G1 X113.97 Y147.47 E18.66731
G1 X111.714 Y147.119 E18.75084
G1 X111.348 Y147.045 E18.7645
G1 X109.104 Y146.487 E18.8491
G1 X108.755 Y146.384 E18.86241
G1 X106.584 Y145.638 E18.9464
G1 X106.236 Y145.501 E18.96008
G1 X104.131 Y144.56 E19.04444
G1 X103.799 Y144.394 E19.05802
G1 X101.8 Y143.278 E19.14178
G1 X101.489 Y143.085 E19.15517
G1 X99.573 Y141.783 E19.23993
G1 X99.275 Y141.561 E19.25352
G1 X97.506 Y140.114 E19.33714
G1 X97.231 Y139.868 E19.35063
G1 X95.583 Y138.257 E19.43495
G1 X95.328 Y137.985 E19.44859
G1 X93.834 Y136.238 E19.53269
G1 X93.61 Y135.951 E19.54601
G1 X92.272 Y134.078 E19.63023
G1 X92.067 Y133.763 E19.64398
G1 X90.904 Y131.78 E19.72809
G1 X90.733 Y131.456 E19.74149
G1 X89.743 Y129.368 E19.82603
G1 X89.6 Y129.027 E19.83956
G1 X88.806 Y126.881 E19.92328
G1 X88.693 Y126.529 E19.9368
G1 X88.09 Y124.315 E20.02075
G1 X88.008 Y123.951 E20.03441
G1 X87.601 Y121.669 E20.11921
G1 X87.553 Y121.306 E20.13261
G1 X87.35 Y119.029 E20.21625
G1 X87.333 Y118.658 E20.22983
G1 X87.333 Y116.344 E20.31449
G1 X87.349 Y115.973 E20.32808
G1 X87.552 Y113.694 E20.41179
G1 X87.601 Y113.33 E20.42523
G1 X88.009 Y111.046 E20.51011
G1 X88.091 Y110.683 E20.52373
G1 X88.693 Y108.471 E20.6076
G1 X88.806 Y108.119 E20.62113
G1 X89.6 Y105.973 E20.70484
G1 X89.743 Y105.632 E20.71837
G1 X90.733 Y103.544 E20.80291
G1 X90.904 Y103.22 E20.81632
G1 X92.067 Y101.237 E20.90042
G1 X92.272 Y100.922 E20.91417
G1 X93.61 Y99.049 E20.99839
G1 X93.834 Y98.762 E21.01171
G1 X95.328 Y97.015 E21.09581
G1 X95.583 Y96.743 E21.10945
M204 S5000
M205 X30 Y30
G0 F7200 X95.891 Y97.058
M204 S500
M205 X20 Y20
G1 F900 X97.539 Y95.447 E21.19377
G1 X97.785 Y95.226 E21.20587
G1 X99.554 Y93.779 E21.28948
G1 X99.82 Y93.581 E21.30161
G1 X101.736 Y92.279 E21.38637
G1 X102.015 Y92.106 E21.39838
G1 X104.014 Y90.99 E21.48214
G1 X104.311 Y90.842 E21.49428
G1 X106.416 Y89.901 E21.57864
G1 X106.727 Y89.778 E21.59087
G1 X108.898 Y89.032 E21.67486
G1 X109.21 Y88.94 E21.68676
G1 X111.454 Y88.382 E21.77136
G1 X111.782 Y88.315 E21.78361
G1 X114.038 Y87.964 E21.86714
G1 X114.364 Y87.928 E21.87914
G1 X116.674 Y87.774 E21.96384
G1 X117.007 Y87.767 E21.97603
G1 X119.288 Y87.818 E22.0595
G1 X119.617 Y87.84 E22.07156
G1 X121.904 Y88.094 E22.15575
G1 X122.23 Y88.145 E22.16782
G1 X124.493 Y88.601 E22.25228
G1 X124.815 Y88.681 E22.26442
G1 X127.009 Y89.33 E22.34813
G1 X127.321 Y89.437 E22.3602
G1 X129.465 Y90.283 E22.44452
G1 X129.767 Y90.418 E22.45663
G1 X131.83 Y91.451 E22.54104
G1 X132.117 Y91.611 E22.55306
G1 X134.069 Y92.814 E22.63695
G1 X134.347 Y93.003 E22.64925
G1 X136.188 Y94.38 E22.73336
G1 X136.442 Y94.588 E22.74537
G1 X138.158 Y96.124 E22.82963
G1 X138.393 Y96.354 E22.84166
G1 X139.965 Y98.032 E22.92578
G1 X140.182 Y98.285 E22.93798
G1 X141.594 Y100.091 E23.02185
G1 X141.785 Y100.359 E23.03389
G1 X143.045 Y102.301 E23.11858
G1 X143.213 Y102.586 E23.13069
G1 X144.284 Y104.607 E23.21437
G1 X144.426 Y104.906 E23.22648
G1 X145.319 Y107.026 E23.31064
G1 X145.434 Y107.339 E23.32284
G1 X146.136 Y109.535 E23.40719
G1 X146.222 Y109.851 E23.41917
G1 X146.73 Y112.102 E23.5036
G1 X146.789 Y112.43 E23.51579
G1 X147.092 Y114.698 E23.59951
G1 X147.121 Y115.027 E23.61159
G1 X147.223 Y117.328 E23.69586
G1 X147.223 Y117.658 E23.70793
G1 X147.122 Y119.96 E23.79223
G1 X147.093 Y120.291 E23.80439
G1 X146.79 Y122.559 E23.8881
G1 X146.732 Y122.884 E23.90018
G1 X146.226 Y125.137 E23.98466
G1 X146.14 Y125.455 E23.99672
G1 X145.439 Y127.649 E24.08098
G1 X145.323 Y127.962 E24.0932
G1 X144.43 Y130.084 E24.17743
G1 X144.288 Y130.383 E24.18954
G1 X143.219 Y132.402 E24.27312
G1 X143.053 Y132.685 E24.28512
G1 X141.794 Y134.629 E24.36986
G1 X141.601 Y134.9 E24.38203
G1 X140.188 Y136.707 E24.46596
G1 X139.973 Y136.958 E24.47805
G1 X138.402 Y138.637 E24.56217
G1 X138.166 Y138.868 E24.57425
G1 X136.451 Y140.404 E24.65849
G1 X136.197 Y140.612 E24.6705
G1 X134.357 Y141.989 E24.75458
G1 X134.08 Y142.178 E24.76685
G1 X132.127 Y143.383 E24.85081
G1 X131.839 Y143.543 E24.86286
G1 X129.777 Y144.577 E24.94726
