;FLAVOR:Marlin
;TIME:3562
;Filament used: 7.85438m
;Layer height: 0.5
;Generated with Cura_SteamEngine 3.6.0
M140 S60
M105
M190 S60
M104 S200
M105
M109 S200
M82 ;absolute extrusion mode
; Ender 3 Custom Start G-code
G28 ; Home all axes
G92 E0 ; Reset Extruder
G1 Z2.0 F3000 ; Move Z Axis up little to prevent scratching of Heat Bed
G1 X0.1 Y20 Z0.3 F5000.0 ; Move to start position
G1 X0.1 Y200.0 Z0.3 F1500.0 E15 ; Draw the first line
G1 X0.4 Y200.0 Z0.3 F5000.0 ; Move to side a little
G1 X0.4 Y20 Z0.3 F1500.0 E30 ; Draw the second line
G92 E0 ; Reset Extruder
G1 Z2.0 F3000 ; Move Z Axis up little to prevent scratching of Heat Bed
; End of custom start GCode
G92 E0
G1 F2400 E-5
;LAYER_COUNT:17
;LAYER:0
M107
M204 S5000
M205 X30 Y30
G0 F3600 X81.115 Y59.589 Z0.5
M204 S500
M205 X20 Y20
;TYPE:SKIRT
G1 F2400 E0
G1 F1800 X81.457 Y59.17 E0.05622
G1 X82.483 Y58.012 E0.21702
G1 X82.999 Y57.489 E0.29339
G1 X83.422 Y57.136 E0.35065
G1 X84.312 Y56.452 E0.46732
G1 X84.918 Y56.037 E0.54366
G1 X85.312 Y55.815 E0.59066
G1 X86.607 Y55.142 E0.74235
G1 X87.277 Y54.839 E0.81878
G1 X87.814 Y54.656 E0.87775
G1 X89.316 Y54.214 E1.04048
G1 X90.031 Y54.045 E1.11685
G1 X90.602 Y53.968 E1.17673
G1 X91.827 Y53.855 E1.3046
G1 X92.447 Y53.826 E1.36911
G1 X114.877 Y53.826 E3.70044
G1 X114.994 Y53.827 E3.7126
G1 X122.018 Y53.949 E4.44277
G1 X126.996 Y53.756 E4.96056
G1 X127.26 Y53.751 E4.988
G1 X147.498 Y53.76 E7.0915
G1 X148.231 Y53.8 E7.1678
G1 X148.956 Y53.92 E7.24418
G1 X149.664 Y54.118 E7.32059
G1 X150.345 Y54.391 E7.39685
G1 X150.993 Y54.737 E7.4732
G1 X151.6 Y55.152 E7.54963
G1 X152.261 Y55.731 E7.64096
G1 X157.785 Y61.24 E8.45183
G1 X158.009 Y61.474 E8.4855
G1 X158.469 Y61.979 E8.5565
G1 X158.934 Y62.548 E8.63288
G1 X159.333 Y63.164 E8.70916
G1 X159.664 Y63.82 E8.78553
G1 X159.921 Y64.508 E8.86187
G1 X160.102 Y65.22 E8.93823
G1 X160.204 Y65.947 E9.01453
G1 X160.229 Y66.523 E9.07445
G1 X160.24 Y168.494 E19.67311
G1 X160.2 Y169.228 E19.74951
G1 X160.081 Y169.953 E19.82587
G1 X159.883 Y170.66 E19.90219
G1 X159.61 Y171.342 E19.97854
G1 X159.265 Y171.99 E20.05484
G1 X158.851 Y172.597 E20.13121
G1 X158.264 Y173.267 E20.22379
G1 X152.279 Y179.254 E21.10368
G1 X151.732 Y179.745 E21.18008
G1 X151.135 Y180.173 E21.25643
G1 X150.495 Y180.534 E21.3328
G1 X149.82 Y180.823 E21.40912
G1 X149.117 Y181.037 E21.4855
G1 X148.395 Y181.173 E21.56186
G1 X147.502 Y181.232 E21.65488
G1 X128.767 Y181.224 E23.60216
G1 X128.485 Y181.218 E23.63147
G1 X123.019 Y180.987 E24.20011
G1 X117.702 Y181.063 E24.7528
G1 X115.764 Y181.16 E24.95448
G1 X115.417 Y181.168 E24.99056
G1 X91.853 Y181.136 E27.43976
G1 X91.119 Y181.095 E27.51616
G1 X90.739 Y181.042 E27.55604
G1 X89.601 Y180.85 E27.676
G1 X88.884 Y180.688 E27.7524
G1 X88.467 Y180.556 E27.79786
G1 X87.001 Y180.036 E27.95953
G1 X86.324 Y179.753 E28.0358
G1 X85.881 Y179.519 E28.08787
G1 X84.974 Y178.995 E28.19675
G1 X84.167 Y178.447 E28.29814
G1 X83.32 Y177.778 E28.41032
G1 X82.769 Y177.292 E28.48668
G1 X82.464 Y176.971 E28.53271
G1 X81.5 Y175.889 E28.68333
G1 X81.042 Y175.315 E28.75965
G1 X80.706 Y174.794 E28.82409
G1 X79.871 Y173.359 E28.99665
G1 X79.536 Y172.705 E29.07303
G1 X79.272 Y172.007 E29.15059
G1 X78.829 Y170.612 E29.30272
G1 X78.645 Y169.901 E29.37906
G1 X78.572 Y169.467 E29.4248
G1 X77.311 Y160.074 E30.40985
G1 X77.285 Y159.855 E30.43277
G1 X76.151 Y148.644 E31.60396
G1 X76.133 Y148.432 E31.62608
G1 X75.349 Y137.134 E32.80319
G1 X75.338 Y136.924 E32.82505
G1 X74.916 Y125.835 E33.97845
G1 X74.911 Y125.624 E34.00039
G1 X74.834 Y114.38 E35.16909
G1 X74.836 Y114.167 E35.19123
G1 X75.116 Y102.836 E36.36931
G1 X75.125 Y102.626 E36.39116
G1 X75.747 Y91.517 E37.54761
G1 X75.762 Y91.308 E37.56939
G1 X76.734 Y80.161 E38.73238
G1 X76.755 Y79.95 E38.75442
G1 X78.08 Y68.802 E39.92128
G1 X78.121 Y68.511 E39.95182
G1 X78.724 Y64.819 E40.34065
G1 X78.882 Y64.102 E40.41696
G1 X79.076 Y63.511 E40.48161
G1 X79.466 Y62.484 E40.59579
G1 X79.763 Y61.812 E40.67216
G1 X79.973 Y61.433 E40.71719
G1 X80.706 Y60.199 E40.86637
G1 X81.115 Y59.589 E40.94271
M204 S5000
M205 X30 Y30
G0 F3600 X81.53 Y59.868
M204 S500
M205 X20 Y20
G1 F1800 X81.831 Y59.501 E40.99204
G1 X82.857 Y58.343 E41.15285
G1 X83.355 Y57.842 E41.22627
G1 X83.726 Y57.532 E41.27652
G1 X84.616 Y56.848 E41.39319
G1 X85.2 Y56.45 E41.46664
G1 X85.543 Y56.258 E41.5075
G1 X86.838 Y55.585 E41.65919
G1 X87.483 Y55.295 E41.7327
G1 X87.956 Y55.135 E41.78459
G1 X89.458 Y54.693 E41.94733
G1 X90.146 Y54.532 E42.02077
G1 X90.648 Y54.465 E42.07341
G1 X91.873 Y54.352 E42.20127
G1 X92.447 Y54.326 E42.26099
G1 X114.877 Y54.326 E44.59232
G1 X114.985 Y54.327 E44.60355
G1 X122.029 Y54.449 E45.3358
G1 X127.015 Y54.256 E45.85442
G1 X127.26 Y54.251 E45.87989
G1 X147.498 Y54.26 E47.98339
G1 X148.203 Y54.3 E48.05678
G1 X148.9 Y54.42 E48.13029
G1 X149.579 Y54.618 E48.2038
G1 X150.231 Y54.891 E48.27727
G1 X150.848 Y55.235 E48.35069
G1 X151.422 Y55.648 E48.42419
G1 X151.908 Y56.085 E48.49213
G1 X157.432 Y61.594 E49.303
G1 X157.639 Y61.81 E49.33409
G1 X158.099 Y62.315 E49.40509
G1 X158.545 Y62.864 E49.47861
G1 X158.926 Y63.459 E49.55205
G1 X159.237 Y64.094 E49.62554
G1 X159.475 Y64.76 E49.69905
G1 X159.636 Y65.448 E49.77249
G1 X159.718 Y66.15 E49.84595
G1 X159.729 Y66.523 E49.88474
G1 X159.74 Y168.494 E60.48339
G1 X159.7 Y169.2 E60.55689
G1 X159.581 Y169.897 E60.63038
G1 X159.384 Y170.575 E60.70377
G1 X159.111 Y171.228 E60.77733
G1 X158.766 Y171.845 E60.8508
G1 X158.355 Y172.419 E60.92418
G1 X157.91 Y172.914 E60.99336
G1 X151.925 Y178.901 E61.87325
G1 X151.398 Y179.372 E61.94671
G1 X150.821 Y179.78 E62.02016
G1 X150.202 Y180.12 E62.09357
G1 X149.548 Y180.389 E62.16707
G1 X148.868 Y180.582 E62.24054
G1 X148.17 Y180.696 E62.31405
G1 X147.502 Y180.732 E62.38358
G1 X128.767 Y180.724 E64.33086
G1 X128.506 Y180.718 E64.35799
G1 X123.033 Y180.487 E64.92735
G1 X117.67 Y180.563 E65.48482
G1 X115.739 Y180.66 E65.68578
G1 X115.418 Y180.668 E65.71916
G1 X91.854 Y180.636 E68.16835
G1 X90.822 Y180.549 E68.276
G1 X89.684 Y180.357 E68.39595
G1 X88.995 Y180.2 E68.4694
G1 X88.635 Y180.084 E68.50871
G1 X87.169 Y179.564 E68.67038
G1 X86.517 Y179.291 E68.74385
G1 X86.131 Y179.086 E68.78928
G1 X85.224 Y178.562 E68.89815
G1 X84.477 Y178.055 E68.99199
G1 X83.63 Y177.386 E69.10417
G1 X83.101 Y176.917 E69.17765
G1 X82.837 Y176.639 E69.2175
G1 X81.873 Y175.557 E69.36812
G1 X81.434 Y175.003 E69.44159
G1 X81.138 Y174.542 E69.49853
G1 X80.303 Y173.107 E69.6711
G1 X79.983 Y172.477 E69.74454
G1 X79.748 Y171.856 E69.81355
G1 X79.305 Y170.461 E69.96568
G1 X79.13 Y169.776 E70.03917
G1 X79.068 Y169.401 E70.07867
G1 X77.807 Y160.008 E71.06372
G1 X77.783 Y159.805 E71.08497
G1 X76.649 Y148.594 E72.25616
G1 X76.632 Y148.398 E72.27661
G1 X75.848 Y137.1 E73.45372
G1 X75.838 Y136.905 E73.47402
G1 X75.416 Y125.816 E74.62742
G1 X75.411 Y125.621 E74.64769
G1 X75.334 Y114.377 E75.8164
G1 X75.336 Y114.18 E75.83688
G1 X75.616 Y102.849 E77.01496
G1 X75.624 Y102.654 E77.03524
G1 X76.246 Y91.545 E78.1917
G1 X76.26 Y91.351 E78.21191
G1 X77.232 Y80.204 E79.3749
G1 X77.252 Y80.009 E79.39528
G1 X78.577 Y68.861 E80.56213
G1 X78.615 Y68.592 E80.59037
G1 X79.218 Y64.9 E80.97919
G1 X79.371 Y64.21 E81.05265
G1 X79.543 Y63.688 E81.10978
G1 X79.933 Y62.661 E81.22396
G1 X80.221 Y62.016 E81.29738
G1 X80.403 Y61.688 E81.33637
G1 X81.136 Y60.454 E81.48555
G1 X81.53 Y59.868 E81.55894
M204 S5000
M205 X30 Y30
G0 F3600 X81.945 Y60.148
M204 S500
M205 X20 Y20
G1 F1800 X82.205 Y59.833 E81.6014
G1 X83.231 Y58.675 E81.7622
G1 X83.71 Y58.195 E81.83268
G1 X84.031 Y57.929 E81.87601
G1 X84.921 Y57.245 E81.99268
G1 X85.773 Y56.702 E82.09769
G1 X87.068 Y56.029 E82.24938
G1 X87.687 Y55.752 E82.31987
G1 X88.097 Y55.615 E82.3648
G1 X89.599 Y55.173 E82.52753
G1 X90.259 Y55.02 E82.59795
G1 X90.694 Y54.963 E82.64355
G1 X91.919 Y54.85 E82.77142
G1 X92.447 Y54.826 E82.82635
G1 X114.877 Y54.826 E85.15768
G1 X114.977 Y54.827 E85.16807
G1 X122.022 Y54.949 E85.90043
G1 X127.035 Y54.755 E86.42186
G1 X127.26 Y54.751 E86.44525
G1 X147.498 Y54.76 E88.54874
G1 X148.174 Y54.8 E88.61913
G1 X148.842 Y54.92 E88.68967
G1 X149.49 Y55.117 E88.76007
G1 X150.111 Y55.39 E88.83057
G1 X150.695 Y55.733 E88.90097
G1 X151.235 Y56.143 E88.97144
G1 X151.555 Y56.439 E89.01675
G1 X157.079 Y61.948 E89.82762
G1 X157.27 Y62.147 E89.85629
G1 X157.73 Y62.652 E89.92729
G1 X158.156 Y63.179 E89.99772
G1 X158.517 Y63.753 E90.0682
G1 X158.808 Y64.365 E90.13864
G1 X159.025 Y65.007 E90.20907
G1 X159.165 Y65.671 E90.2796
G1 X159.229 Y66.523 E90.36841
G1 X159.24 Y168.494 E100.96706
G1 X159.2 Y169.171 E101.03755
G1 X159.081 Y169.839 E101.10808
G1 X158.884 Y170.487 E101.17847
G1 X158.612 Y171.108 E101.24894
G1 X158.269 Y171.693 E101.31942
G1 X157.859 Y172.233 E101.38989
G1 X157.557 Y172.56 E101.43616
G1 X151.572 Y178.547 E102.31604
G1 X151.065 Y178.998 E102.38657
G1 X150.509 Y179.385 E102.45698
G1 X149.911 Y179.705 E102.52747
G1 X149.279 Y179.951 E102.59796
G1 X148.623 Y180.122 E102.66843
G1 X147.952 Y180.215 E102.73883
G1 X147.503 Y180.232 E102.78554
G1 X128.768 Y180.224 E104.73281
G1 X128.527 Y180.219 E104.75787
G1 X123.029 Y179.986 E105.32983
G1 X117.666 Y180.063 E105.88731
G1 X115.714 Y180.161 E106.09045
G1 X115.418 Y180.168 E106.12122
G1 X91.854 Y180.136 E108.57042
G1 X90.905 Y180.056 E108.66941
G1 X89.767 Y179.864 E108.78936
G1 X88.802 Y179.613 E108.893
G1 X87.336 Y179.093 E109.05467
G1 X86.711 Y178.829 E109.12519
G1 X86.382 Y178.653 E109.16397
G1 X85.475 Y178.129 E109.27285
G1 X84.787 Y177.662 E109.35927
G1 X83.94 Y176.993 E109.47146
G1 X83.211 Y176.306 E109.57557
G1 X82.247 Y175.224 E109.72619
G1 X81.826 Y174.692 E109.79671
G1 X81.57 Y174.291 E109.84616
G1 X80.735 Y172.856 E110.01872
G1 X80.429 Y172.251 E110.08919
G1 X80.225 Y171.704 E110.14987
G1 X79.782 Y170.309 E110.30199
G1 X79.563 Y169.334 E110.40586
G1 X78.302 Y159.941 E111.39091
G1 X78.28 Y159.755 E111.41037
G1 X77.146 Y148.544 E112.58157
G1 X77.131 Y148.363 E112.60045
G1 X76.347 Y137.065 E113.77756
G1 X76.337 Y136.886 E113.79619
G1 X75.915 Y125.797 E114.9496
G1 X75.911 Y125.617 E114.96831
G1 X75.834 Y114.373 E116.13701
G1 X75.836 Y114.192 E116.15583
G1 X76.116 Y102.861 E117.33391
G1 X76.123 Y102.682 E117.35253
G1 X76.745 Y91.573 E118.50898
G1 X76.758 Y91.395 E118.52753
G1 X77.73 Y80.248 E119.69052
G1 X77.748 Y80.068 E119.70933
G1 X79.073 Y68.92 E120.87618
G1 X79.108 Y68.672 E120.90221
G1 X79.711 Y64.98 E121.29104
G1 X79.86 Y64.319 E121.36146
G1 X80.011 Y63.866 E121.4111
G1 X80.401 Y62.839 E121.52528
G1 X80.832 Y61.943 E121.62862
G1 X81.565 Y60.709 E121.7778
G1 X81.945 Y60.148 E121.84823
M204 S5000
M205 X30 Y30
G0 F3600 X82.36 Y60.429
M204 S500
M205 X20 Y20
G1 F1800 X82.579 Y60.164 E121.88396
G1 X83.605 Y59.006 E122.04477
G1 X84.064 Y58.549 E122.11209
G1 X84.336 Y58.325 E122.14871
G1 X85.226 Y57.641 E122.26538
G1 X86.004 Y57.146 E122.36122
G1 X87.299 Y56.473 E122.51291
G1 X87.891 Y56.21 E122.58024
G1 X88.238 Y56.095 E122.61824
G1 X89.74 Y55.653 E122.78097
G1 X90.371 Y55.508 E122.84827
G1 X90.74 Y55.461 E122.88693
G1 X91.965 Y55.348 E123.01479
G1 X92.447 Y55.326 E123.06495
G1 X114.877 Y55.326 E125.39627
G1 X114.968 Y55.327 E125.40573
G1 X122.032 Y55.449 E126.14006
G1 X127.054 Y55.255 E126.66242
G1 X127.259 Y55.251 E126.68374
G1 X147.497 Y55.26 E128.78723
G1 X148.144 Y55.3 E128.85461
G1 X148.78 Y55.42 E128.92188
G1 X149.398 Y55.617 E128.9893
G1 X149.986 Y55.888 E129.05659
G1 X150.536 Y56.23 E129.12391
G1 X151.202 Y56.793 E129.21455
G1 X156.726 Y62.302 E130.02542
G1 X156.9 Y62.484 E130.05159
G1 X157.36 Y62.989 E130.12259
G1 X157.766 Y63.494 E130.18994
G1 X158.107 Y64.045 E130.25729
G1 X158.377 Y64.633 E130.32454
G1 X158.572 Y65.251 E130.3919
G1 X158.69 Y65.888 E130.45923
G1 X158.729 Y66.523 E130.52536
G1 X158.74 Y168.494 E141.12401
G1 X158.7 Y169.141 E141.19139
G1 X158.581 Y169.778 E141.25874
G1 X158.384 Y170.395 E141.32606
G1 X158.113 Y170.983 E141.39336
G1 X157.771 Y171.533 E141.46067
G1 X157.203 Y172.207 E141.55228
G1 X151.218 Y178.194 E142.43217
G1 X150.733 Y178.623 E142.49947
G1 X150.198 Y178.989 E142.56684
G1 X149.623 Y179.286 E142.63411
G1 X149.015 Y179.51 E142.70146
G1 X148.384 Y179.658 E142.76882
G1 X147.503 Y179.732 E142.86071
G1 X128.768 Y179.724 E144.80799
G1 X128.548 Y179.719 E144.83086
G1 X123.043 Y179.486 E145.40355
G1 X117.633 Y179.564 E145.96592
G1 X115.689 Y179.661 E146.16822
G1 X115.419 Y179.668 E146.19629
G1 X91.855 Y179.636 E148.64549
G1 X90.989 Y179.563 E148.73582
G1 X89.851 Y179.371 E148.85577
G1 X88.969 Y179.142 E148.95049
G1 X87.503 Y178.622 E149.11216
G1 X86.632 Y178.22 E149.21187
G1 X85.725 Y177.696 E149.32074
G1 X85.097 Y177.27 E149.39961
G1 X84.25 Y176.601 E149.5118
G1 X83.584 Y175.973 E149.60694
G1 X82.62 Y174.891 E149.75756
G1 X82.22 Y174.382 E149.82485
G1 X82.002 Y174.039 E149.86709
G1 X81.167 Y172.604 E150.03965
G1 X80.877 Y172.025 E150.10696
G1 X80.701 Y171.553 E150.15932
G1 X80.258 Y170.158 E150.31145
G1 X80.059 Y169.268 E150.40624
G1 X78.798 Y159.875 E151.39128
G1 X78.778 Y159.704 E151.40918
G1 X77.644 Y148.493 E152.58037
G1 X77.63 Y148.328 E152.59758
G1 X76.846 Y137.03 E153.7747
G1 X76.837 Y136.867 E153.79167
G1 X76.415 Y125.778 E154.94507
G1 X76.411 Y125.614 E154.96212
G1 X76.334 Y114.37 E156.13082
G1 X76.336 Y114.204 E156.14808
G1 X76.616 Y102.873 E157.32616
G1 X76.622 Y102.71 E157.34311
G1 X77.244 Y91.601 E158.49957
G1 X77.256 Y91.438 E158.51656
G1 X78.228 Y80.291 E159.67955
G1 X78.245 Y80.127 E159.69669
G1 X79.57 Y68.979 E160.86354
G1 X79.602 Y68.753 E160.88727
G1 X80.205 Y65.061 E161.27609
G1 X80.348 Y64.429 E161.34344
G1 X80.478 Y64.043 E161.38577
G1 X80.868 Y63.016 E161.49995
G1 X81.262 Y62.199 E161.59423
G1 X81.995 Y60.965 E161.74341
G1 X82.36 Y60.429 E161.81081
M204 S5000
M205 X30 Y30
G1 F2400 E156.81081
;MESH:BAG_HOLDER_BIG.stl
G0 F3600 X86.059 Y63.131
G0 X87.214 Y63.97
G0 X92.449 Y67.72
G0 X92.514 Y67.796
M204 S500
M205 X20 Y20
;TYPE:WALL-INNER
G1 F2400 E161.81081
G1 F1800 X91.821 Y68.389 E161.90561
G1 X91.227 Y69.083 E162.00056
G1 X90.753 Y69.857 E162.09489
G1 X90.459 Y70.541 E162.17228
G1 X90.252 Y71.138 E162.23795
G1 X89.314 Y74.094 E162.56029
G1 X88.516 Y77.098 E162.88335
G1 X87.859 Y80.137 E163.20651
G1 X87.347 Y83.204 E163.5297
G1 X86.981 Y86.29 E163.8527
G1 X86.761 Y89.392 E164.17593
G1 X86.688 Y92.5 E164.49905
G1 X86.761 Y95.608 E164.82218
G1 X86.981 Y98.71 E165.14541
G1 X87.347 Y101.796 E165.46841
G1 X87.859 Y104.863 E165.7916
G1 X88.542 Y108.007 E166.126
G1 X88.8 Y109.145 E166.24728
G1 X89.231 Y111.524 E166.49858
G1 X89.515 Y113.876 E166.74481
G1 X89.66 Y116.303 E166.99752
G1 X89.66 Y118.697 E167.24635
G1 X89.515 Y121.116 E167.49823
G1 X89.231 Y123.476 E167.74529
G1 X88.802 Y125.844 E167.99542
G1 X88.513 Y127.112 E168.13059
G1 X87.859 Y130.137 E168.45227
G1 X87.347 Y133.204 E168.77546
G1 X86.981 Y136.29 E169.09846
G1 X86.761 Y139.392 E169.42169
G1 X86.688 Y142.5 E169.74481
G1 X86.761 Y145.608 E170.06794
G1 X86.981 Y148.71 E170.39117
G1 X87.347 Y151.796 E170.71417
G1 X87.859 Y154.863 E171.03736
G1 X88.516 Y157.902 E171.36052
G1 X89.314 Y160.906 E171.68358
G1 X90.252 Y163.862 E172.00592
G1 X90.459 Y164.459 E172.07159
G1 X90.753 Y165.143 E172.14897
G1 X91.227 Y165.917 E172.24331
G1 X91.821 Y166.611 E172.33826
G1 X92.514 Y167.204 E172.43306
G1 X93.292 Y167.68 E172.52785
G1 X94.135 Y168.029 E172.62269
G1 X95.022 Y168.243 E172.71752
G1 X95.901 Y168.312 E172.80917
G1 X100.634 Y168.331 E173.30111
G1 X110.048 Y168.331 E174.27958
G1 X112.532 Y168.312 E174.53777
G1 X113.41 Y168.243 E174.62931
G1 X114.298 Y168.029 E174.72425
G1 X115.14 Y167.68 E174.81898
G1 X115.917 Y167.204 E174.91369
G1 X116.611 Y166.611 E175.00857
G1 X117.204 Y165.917 E175.10345
G1 X117.68 Y165.14 E175.19816
G1 X118.029 Y164.298 E175.2929
G1 X118.243 Y163.41 E175.38784
G1 X118.312 Y162.53 E175.47958
G1 X118.331 Y156.877 E176.06715
G1 X118.331 Y78.124 E184.25257
G1 X118.312 Y72.47 E184.84024
G1 X118.243 Y71.59 E184.93198
G1 X118.029 Y70.702 E185.02692
G1 X117.68 Y69.86 E185.12166
G1 X117.204 Y69.083 E185.21637
G1 X116.611 Y68.389 E185.31125
G1 X115.917 Y67.796 E185.40613
G1 X115.14 Y67.32 E185.50084
G1 X114.298 Y66.971 E185.59557
G1 X113.41 Y66.757 E185.69051
G1 X112.53 Y66.688 E185.78226
G1 X106.661 Y66.669 E186.39227
