;FLAVOR:Marlin
;TIME:3574
;Filament used: 2.81169m
;Layer height: 0.16
;Generated with Cura_SteamEngine 3.6.0
M140 S70
M105
M190 S70
M104 S215
M105
M109 S215
M82 ;absolute extrusion mode
G28 ; home all axes
M117 Purge extruder
G92 E0 ; reset extruder
G1 Z1.0 F3000 ; move z up little to prevent scratching of surface
G1 X0.1 Y20 Z0.3 F5000.0 ; move to start-line position G1 X0.1 Y200.0 Z0.3 F1500.0 E15 ; draw 1st line
G1 X0.4 Y200.0 Z0.3 F5000.0 ; move to side a little
G1 X0.4 Y20 Z0.3 F1500.0 E30 ; draw 2nd line
G92 E0 ; reset extruder
G1 Z1.0 F3000 ; move z up little to prevent scratching of surface
M117 All systems go!
G92 E0
G1 F6000 E-5
;LAYER_COUNT:28
;LAYER:0
M107
M204 S5000
M205 X30 Y30
G0 F7200 X94.959 Y69.653 Z0.2
M204 S500
M205 X20 Y20
;TYPE:SKIRT
G1 F6000 E0
G1 F900 X95.473 Y69.051 E0.02896
G1 X95.602 Y68.922 E0.03564
G1 X96.079 Y68.502 E0.05889
G1 X96.605 Y68.144 E0.08217
G1 X97.172 Y67.856 E0.10543
G1 X97.77 Y67.64 E0.1287
G1 X98.391 Y67.502 E0.15197
G1 X99.18 Y67.44 E0.18093
G1 X107.82 Y67.44 E0.49703
G1 X108.455 Y67.48 E0.52031
G1 X109.079 Y67.599 E0.54355
G1 X109.684 Y67.796 E0.56683
G1 X110.259 Y68.067 E0.59008
G1 X110.497 Y68.218 E0.6004
G1 X110.605 Y68.144 E0.60519
G1 X111.172 Y67.856 E0.62845
G1 X111.77 Y67.64 E0.65171
G1 X112.391 Y67.502 E0.67499
G1 X113.18 Y67.44 E0.70394
G1 X121.82 Y67.44 E1.02005
G1 X122.455 Y67.48 E1.04333
G1 X123.079 Y67.599 E1.06657
G1 X123.684 Y67.796 E1.08985
G1 X124.259 Y68.067 E1.1131
G1 X124.796 Y68.408 E1.13638
G1 X125.398 Y68.922 E1.16534
G1 X125.527 Y69.051 E1.17201
G1 X125.947 Y69.528 E1.19526
G1 X126.305 Y70.054 E1.21854
G1 X126.593 Y70.621 E1.24181
G1 X126.809 Y71.219 E1.26507
G1 X126.947 Y71.84 E1.28835
G1 X127.009 Y72.629 E1.3173
G1 X127.01 Y162.371 E4.60062
G1 X126.97 Y163.006 E4.62389
G1 X126.851 Y163.63 E4.64714
G1 X126.654 Y164.235 E4.67041
G1 X126.383 Y164.81 E4.69367
G1 X126.042 Y165.347 E4.71694
G1 X125.528 Y165.949 E4.7459
G1 X125.399 Y166.078 E4.75258
G1 X124.922 Y166.498 E4.77583
G1 X124.396 Y166.856 E4.79911
G1 X123.829 Y167.144 E4.82238
G1 X123.231 Y167.36 E4.84564
G1 X122.61 Y167.498 E4.86891
G1 X121.821 Y167.56 E4.89787
G1 X113.179 Y167.56 E5.21405
G1 X112.544 Y167.52 E5.23732
G1 X111.92 Y167.401 E5.26057
G1 X111.315 Y167.204 E5.28384
G1 X110.74 Y166.933 E5.3071
G1 X110.504 Y166.783 E5.31733
G1 X110.396 Y166.856 E5.3221
G1 X109.829 Y167.144 E5.34537
G1 X109.231 Y167.36 E5.36863
G1 X108.61 Y167.498 E5.3919
G1 X107.821 Y167.56 E5.42086
G1 X99.179 Y167.56 E5.73704
G1 X98.544 Y167.52 E5.76032
G1 X97.92 Y167.401 E5.78356
G1 X97.315 Y167.204 E5.80683
G1 X96.74 Y166.933 E5.83009
G1 X96.203 Y166.592 E5.85336
G1 X95.601 Y166.078 E5.88233
G1 X95.472 Y165.949 E5.889
G1 X95.052 Y165.472 E5.91225
G1 X94.694 Y164.946 E5.93553
G1 X94.406 Y164.379 E5.9588
G1 X94.19 Y163.781 E5.98206
G1 X94.052 Y163.16 E6.00533
G1 X93.99 Y162.371 E6.03429
G1 X93.991 Y72.629 E9.3176
G1 X94.031 Y71.994 E9.34088
G1 X94.15 Y71.37 E9.36412
G1 X94.347 Y70.765 E9.3874
G1 X94.58 Y70.272 E9.40735
G0 F810 X94.618 Y70.19
G0 X94.959 Y69.653
M204 S5000
M205 X30 Y30
G0 F7200 X95.396 Y69.803
M204 S500
M205 X20 Y20
G1 F6000 E9.43395
G1 F900 X95.784 Y69.362 E9.45544
G1 X95.913 Y69.233 E9.46211
G1 X96.37 Y68.833 E9.48433
G1 X96.876 Y68.496 E9.50658
G1 X97.421 Y68.228 E9.5288
G1 X97.997 Y68.034 E9.55103
G1 X98.593 Y67.917 E9.57326
G1 X99.18 Y67.88 E9.59477
G1 X107.82 Y67.88 E9.91088
G1 X108.426 Y67.92 E9.9331
G1 X109.022 Y68.039 E9.95533
G1 X109.597 Y68.235 E9.97756
G1 X110.141 Y68.506 E9.99979
G1 X110.5 Y68.747 E10.01561
G1 X110.876 Y68.496 E10.03215
G1 X111.421 Y68.228 E10.05437
G1 X111.997 Y68.034 E10.07661
G1 X112.593 Y67.917 E10.09883
G1 X113.18 Y67.88 E10.12035
G1 X121.82 Y67.88 E10.43646
G1 X122.426 Y67.92 E10.45867
G1 X123.022 Y68.039 E10.48091
G1 X123.597 Y68.235 E10.50314
G1 X124.141 Y68.506 E10.52537
G1 X124.646 Y68.845 E10.54762
G1 X125.087 Y69.233 E10.56912
G1 X125.216 Y69.362 E10.57579
G1 X125.616 Y69.819 E10.59801
G1 X125.953 Y70.325 E10.62025
G1 X126.221 Y70.87 E10.64247
G1 X126.415 Y71.446 E10.66471
G1 X126.532 Y72.042 E10.68693
G1 X126.569 Y72.629 E10.70845
G1 X126.57 Y162.371 E13.99176
G1 X126.53 Y162.977 E14.01398
G1 X126.411 Y163.573 E14.03622
G1 X126.215 Y164.148 E14.05844
G1 X125.944 Y164.692 E14.08068
G1 X125.605 Y165.197 E14.10293
G1 X125.217 Y165.638 E14.12442
G1 X125.088 Y165.767 E14.1311
G1 X124.631 Y166.167 E14.15332
G1 X124.125 Y166.504 E14.17556
G1 X123.58 Y166.772 E14.19778
G1 X123.004 Y166.966 E14.22002
G1 X122.408 Y167.083 E14.24224
G1 X121.821 Y167.12 E14.26376
G1 X113.179 Y167.12 E14.57993
G1 X112.573 Y167.08 E14.60215
G1 X111.977 Y166.961 E14.62439
G1 X111.402 Y166.765 E14.64662
G1 X110.858 Y166.494 E14.66885
G1 X110.5 Y166.254 E14.68462
G1 X110.125 Y166.504 E14.70111
G1 X109.58 Y166.772 E14.72333
G1 X109.004 Y166.966 E14.74557
G1 X108.408 Y167.083 E14.76779
G1 X107.821 Y167.12 E14.78931
G1 X99.179 Y167.12 E15.10548
G1 X98.573 Y167.08 E15.1277
G1 X97.977 Y166.961 E15.14994
G1 X97.402 Y166.765 E15.17216
G1 X96.858 Y166.494 E15.1944
G1 X96.353 Y166.155 E15.21665
G1 X95.912 Y165.767 E15.23814
G1 X95.783 Y165.638 E15.24482
G1 X95.383 Y165.181 E15.26704
G1 X95.046 Y164.675 E15.28928
G1 X94.778 Y164.13 E15.3115
G1 X94.584 Y163.554 E15.33374
G1 X94.467 Y162.958 E15.35596
G1 X94.43 Y162.371 E15.37748
G1 X94.431 Y72.629 E18.66079
G1 X94.471 Y72.023 E18.68301
G1 X94.59 Y71.427 E18.70525
G1 X94.786 Y70.852 E18.72747
G1 X95.004 Y70.414 E18.74537
G0 F810 X95.057 Y70.308
G0 X95.396 Y69.803
M204 S5000
M205 X30 Y30
G0 F7200 X95.832 Y69.962
M204 S500
M205 X20 Y20
G1 F6000 E18.77197
G1 F900 X96.095 Y69.673 E18.78627
G1 X96.224 Y69.544 E18.79294
G1 X96.66 Y69.165 E18.81408
G1 X97.144 Y68.849 E18.83522
G1 X97.667 Y68.603 E18.85637
G1 X98.219 Y68.432 E18.87751
G1 X98.79 Y68.338 E18.89868
G1 X99.18 Y68.32 E18.91297
G1 X107.82 Y68.32 E19.22907
G1 X108.397 Y68.36 E19.25023
G1 X108.962 Y68.479 E19.27136
G1 X109.506 Y68.675 E19.29251
G1 X110.017 Y68.944 E19.31364
G1 X110.487 Y69.281 E19.3348
G1 X110.506 Y69.299 E19.33576
G1 X110.66 Y69.165 E19.34323
G1 X111.144 Y68.849 E19.36437
G1 X111.667 Y68.603 E19.38552
G1 X112.219 Y68.432 E19.40666
G1 X112.79 Y68.338 E19.42783
G1 X113.18 Y68.32 E19.44212
G1 X121.82 Y68.32 E19.75822
G1 X122.397 Y68.36 E19.77938
G1 X122.962 Y68.479 E19.80051
G1 X123.506 Y68.675 E19.82166
G1 X124.017 Y68.944 E19.84279
G1 X124.487 Y69.281 E19.86395
G1 X124.776 Y69.544 E19.87824
G1 X124.905 Y69.673 E19.88492
G1 X125.284 Y70.109 E19.90606
G1 X125.6 Y70.593 E19.9272
G1 X125.846 Y71.116 E19.94835
G1 X126.017 Y71.668 E19.96949
G1 X126.111 Y72.239 E19.99066
G1 X126.129 Y72.629 E20.00495
G1 X126.13 Y162.371 E23.28826
G1 X126.09 Y162.947 E23.30939
G1 X125.971 Y163.513 E23.33055
G1 X125.775 Y164.057 E23.3517
G1 X125.506 Y164.568 E23.37283
G1 X125.169 Y165.038 E23.39399
G1 X124.906 Y165.327 E23.40828
G1 X124.777 Y165.456 E23.41496
G1 X124.341 Y165.835 E23.43609
G1 X123.857 Y166.151 E23.45724
G1 X123.334 Y166.397 E23.47839
G1 X122.782 Y166.568 E23.49953
G1 X122.211 Y166.662 E23.5207
G1 X121.821 Y166.68 E23.53499
G1 X113.179 Y166.68 E23.85116
G1 X112.602 Y166.64 E23.87232
G1 X112.037 Y166.521 E23.89345
G1 X111.493 Y166.325 E23.9146
G1 X110.982 Y166.056 E23.93573
G1 X110.512 Y165.719 E23.95689
G1 X110.494 Y165.702 E23.9578
G1 X110.341 Y165.835 E23.96521
G1 X109.857 Y166.151 E23.98636
G1 X109.334 Y166.397 E24.00751
G1 X108.782 Y166.568 E24.02865
G1 X108.211 Y166.662 E24.04982
G1 X107.821 Y166.68 E24.0641
G1 X99.179 Y166.68 E24.38028
G1 X98.602 Y166.64 E24.40144
G1 X98.037 Y166.521 E24.42257
G1 X97.493 Y166.325 E24.44372
G1 X96.982 Y166.056 E24.46485
G1 X96.512 Y165.719 E24.48601
G1 X96.223 Y165.456 E24.50031
G1 X96.094 Y165.327 E24.50698
G1 X95.715 Y164.891 E24.52812
G1 X95.399 Y164.407 E24.54926
G1 X95.153 Y163.884 E24.57041
G1 X94.982 Y163.332 E24.59155
G1 X94.888 Y162.761 E24.61272
G1 X94.87 Y162.371 E24.62701
G1 X94.871 Y72.629 E27.91032
G1 X94.911 Y72.052 E27.93148
G1 X95.03 Y71.487 E27.95261
G1 X95.226 Y70.943 E27.97376
G1 X95.426 Y70.563 E27.98947
G0 F810 X95.495 Y70.432
G0 X95.832 Y69.962
M204 S5000
M205 X30 Y30
G0 F7200 X95.933 Y70.563
M204 S500
M205 X20 Y20
G1 F6000 E28.01607
G1 F900 X96.406 Y69.984 E28.04342
G1 X96.535 Y69.855 E28.0501
G1 X96.949 Y69.498 E28.0701
G1 X97.411 Y69.205 E28.09012
G1 X97.91 Y68.982 E28.11011
G1 X98.436 Y68.835 E28.13009
G1 X99.18 Y68.76 E28.15745
G1 X107.82 Y68.76 E28.47356
G1 X108.365 Y68.8 E28.49355
G1 X108.899 Y68.919 E28.51357
G1 X109.409 Y69.114 E28.53354
G1 X109.886 Y69.382 E28.55356
G1 X110.465 Y69.855 E28.58091
G1 X110.5 Y69.89 E28.58272
G1 X110.535 Y69.855 E28.58453
G1 X110.949 Y69.498 E28.60453
G1 X111.411 Y69.205 E28.62455
G1 X111.91 Y68.982 E28.64455
G1 X112.436 Y68.835 E28.66453
G1 X113.18 Y68.76 E28.69189
G1 X121.82 Y68.76 E29.00799
G1 X122.365 Y68.8 E29.02798
G1 X122.899 Y68.919 E29.048
G1 X123.409 Y69.114 E29.06798
G1 X123.886 Y69.382 E29.08799
G1 X124.465 Y69.855 E29.11535
G1 X124.594 Y69.984 E29.12202
G1 X124.951 Y70.398 E29.14202
G1 X125.244 Y70.86 E29.16204
G1 X125.467 Y71.359 E29.18203
G1 X125.614 Y71.885 E29.20202
G1 X125.689 Y72.629 E29.22937
G1 X125.69 Y162.371 E32.51269
G1 X125.65 Y162.916 E32.53268
G1 X125.531 Y163.45 E32.5527
G1 X125.336 Y163.96 E32.57267
G1 X125.068 Y164.437 E32.59269
G1 X124.595 Y165.016 E32.62004
G1 X124.466 Y165.145 E32.62672
G1 X124.052 Y165.502 E32.64672
G1 X123.59 Y165.795 E32.66673
G1 X123.091 Y166.018 E32.68673
G1 X122.565 Y166.165 E32.70671
G1 X121.821 Y166.24 E32.73407
G1 X113.179 Y166.24 E33.05025
G1 X112.634 Y166.2 E33.07024
G1 X112.1 Y166.081 E33.09026
G1 X111.59 Y165.886 E33.11023
G1 X111.113 Y165.618 E33.13025
G1 X110.534 Y165.145 E33.15761
G1 X110.5 Y165.111 E33.15936
G1 X110.466 Y165.145 E33.16112
G1 X110.052 Y165.502 E33.18112
G1 X109.59 Y165.795 E33.20114
G1 X109.091 Y166.018 E33.22114
G1 X108.565 Y166.165 E33.24112
G1 X107.821 Y166.24 E33.26848
G1 X99.179 Y166.24 E33.58465
G1 X98.634 Y166.2 E33.60465
G1 X98.1 Y166.081 E33.62466
G1 X97.59 Y165.886 E33.64464
G1 X97.113 Y165.618 E33.66466
G1 X96.534 Y165.145 E33.69201
G1 X96.405 Y165.016 E33.69868
G1 X96.048 Y164.602 E33.71868
G1 X95.755 Y164.14 E33.7387
G1 X95.532 Y163.641 E33.7587
G1 X95.385 Y163.115 E33.77868
G1 X95.31 Y162.371 E33.80604
G1 X95.311 Y72.629 E37.08935
G1 X95.351 Y72.084 E37.10934
G1 X95.47 Y71.55 E37.12936
G1 X95.601 Y71.208 E37.14276
G0 F810 X95.665 Y71.04
G0 X95.933 Y70.563
M204 S5000
M205 X30 Y30
G0 F7200 X96.371 Y70.704
M204 S500
M205 X20 Y20
G1 F6000 E37.16936
G1 F900 X96.718 Y70.296 E37.18895
G1 X96.847 Y70.167 E37.19563
G1 X97.237 Y69.833 E37.21441
G1 X97.674 Y69.564 E37.23319
G1 X98.148 Y69.366 E37.25198
G1 X98.646 Y69.243 E37.27075
G1 X99.18 Y69.2 E37.29035
G1 X107.82 Y69.2 E37.60645
G1 X108.332 Y69.24 E37.62524
G1 X108.831 Y69.359 E37.64401
G1 X109.306 Y69.554 E37.6628
G1 X109.745 Y69.82 E37.68158
G1 X110.153 Y70.167 E37.70117
G1 X110.282 Y70.296 E37.70785
G1 X110.501 Y70.551 E37.72015
G1 X110.718 Y70.296 E37.7324
G1 X110.847 Y70.167 E37.73907
G1 X111.237 Y69.833 E37.75786
G1 X111.674 Y69.564 E37.77663
G1 X112.148 Y69.366 E37.79542
G1 X112.646 Y69.243 E37.81419
G1 X113.18 Y69.2 E37.83379
G1 X121.82 Y69.2 E38.1499
G1 X122.332 Y69.24 E38.16869
G1 X122.831 Y69.359 E38.18745
G1 X123.306 Y69.554 E38.20624
G1 X123.745 Y69.82 E38.22502
G1 X124.153 Y70.167 E38.24462
G1 X124.282 Y70.296 E38.25129
G1 X124.616 Y70.686 E38.27008
G1 X124.885 Y71.123 E38.28885
G1 X125.083 Y71.597 E38.30764
G1 X125.206 Y72.095 E38.32641
G1 X125.249 Y72.629 E38.34601
G1 X125.25 Y162.371 E41.62933
G1 X125.21 Y162.883 E41.64812
G1 X125.091 Y163.382 E41.66688
G1 X124.896 Y163.857 E41.68567
G1 X124.63 Y164.296 E41.70445
G1 X124.283 Y164.704 E41.72405
G1 X124.154 Y164.833 E41.73072
G1 X123.764 Y165.167 E41.74951
G1 X123.327 Y165.436 E41.76828
G1 X122.853 Y165.634 E41.78707
G1 X122.355 Y165.757 E41.80584
G1 X121.821 Y165.8 E41.82544
G1 X113.179 Y165.8 E42.14162
G1 X112.667 Y165.76 E42.16041
G1 X112.168 Y165.641 E42.17918
G1 X111.693 Y165.446 E42.19796
G1 X111.254 Y165.18 E42.21674
G1 X110.846 Y164.833 E42.23634
G1 X110.717 Y164.704 E42.24301
G1 X110.499 Y164.45 E42.25526
G1 X110.283 Y164.704 E42.26746
G1 X110.154 Y164.833 E42.27413
G1 X109.764 Y165.167 E42.29292
G1 X109.327 Y165.436 E42.31169
G1 X108.853 Y165.634 E42.33049
G1 X108.355 Y165.757 E42.34925
G1 X107.821 Y165.8 E42.36885
G1 X99.179 Y165.8 E42.68503
G1 X98.667 Y165.76 E42.70382
G1 X98.168 Y165.641 E42.72259
G1 X97.693 Y165.446 E42.74138
G1 X97.254 Y165.18 E42.76016
G1 X96.846 Y164.833 E42.77975
G1 X96.717 Y164.704 E42.78643
G1 X96.383 Y164.314 E42.80521
G1 X96.114 Y163.877 E42.82399
G1 X95.916 Y163.403 E42.84278
G1 X95.793 Y162.905 E42.86155
G1 X95.75 Y162.371 E42.88115
G1 X95.751 Y72.629 E46.16446
G1 X95.791 Y72.117 E46.18325
G1 X95.91 Y71.618 E46.20202
G1 X96.024 Y71.341 E46.21298
G0 F810 X96.105 Y71.143
G0 X96.371 Y70.704
M204 S5000
M205 X30 Y30
G0 F7200 X96.808 Y70.855
M204 S500
M205 X20 Y20
G1 F6000 E46.23958
G1 F900 X97.029 Y70.607 E46.25173
G1 X97.158 Y70.478 E46.2584
G1 X97.523 Y70.169 E46.2759
G1 X97.934 Y69.926 E46.29337
G1 X98.38 Y69.754 E46.31086
G1 X98.848 Y69.659 E46.32833
G1 X99.18 Y69.64 E46.3405
G1 X107.82 Y69.64 E46.6566
G1 X108.296 Y69.68 E46.67408
G1 X108.759 Y69.799 E46.69157
G1 X109.196 Y69.993 E46.70906
G1 X109.594 Y70.257 E46.72653
G1 X109.842 Y70.478 E46.73869
G1 X109.971 Y70.607 E46.74536
G1 X110.28 Y70.972 E46.76286
G1 X110.502 Y71.348 E46.77883
G1 X110.544 Y71.253 E46.78263
G1 X110.808 Y70.855 E46.80011
G1 X111.029 Y70.607 E46.81226
G1 X111.158 Y70.478 E46.81893
G1 X111.523 Y70.169 E46.83643
G1 X111.934 Y69.926 E46.8539
G1 X112.38 Y69.754 E46.87139
G1 X112.848 Y69.659 E46.88886
G1 X113.18 Y69.64 E46.90103
G1 X121.82 Y69.64 E47.21713
G1 X122.296 Y69.68 E47.23461
G1 X122.759 Y69.799 E47.2521
G1 X123.196 Y69.993 E47.26959
G1 X123.594 Y70.257 E47.28706
G1 X123.842 Y70.478 E47.29922
G1 X123.971 Y70.607 E47.30589
G1 X124.28 Y70.972 E47.32339
G1 X124.523 Y71.383 E47.34086
G1 X124.695 Y71.829 E47.35835
G1 X124.79 Y72.297 E47.37582
G1 X124.809 Y72.629 E47.38798
G1 X124.81 Y162.371 E50.6713
G1 X124.77 Y162.847 E50.68877
G1 X124.651 Y163.31 E50.70626
G1 X124.457 Y163.747 E50.72376
G1 X124.193 Y164.145 E50.74123
G1 X123.972 Y164.393 E50.75338
G1 X123.843 Y164.522 E50.76006
G1 X123.478 Y164.831 E50.77755
G1 X123.067 Y165.074 E50.79502
G1 X122.621 Y165.246 E50.81251
G1 X122.153 Y165.341 E50.82998
G1 X121.821 Y165.36 E50.84215
G1 X113.179 Y165.36 E51.15833
G1 X112.703 Y165.32 E51.1758
G1 X112.24 Y165.201 E51.19329
G1 X111.803 Y165.007 E51.21079
G1 X111.405 Y164.743 E51.22826
G1 X111.157 Y164.522 E51.24041
G1 X111.028 Y164.393 E51.24709
G1 X110.719 Y164.028 E51.26458
G1 X110.498 Y163.654 E51.28048
G1 X110.457 Y163.747 E51.2842
G1 X110.193 Y164.145 E51.30167
G1 X109.972 Y164.393 E51.31382
G1 X109.843 Y164.522 E51.3205
G1 X109.478 Y164.831 E51.33799
G1 X109.067 Y165.074 E51.35546
G1 X108.621 Y165.246 E51.37295
G1 X108.153 Y165.341 E51.39042
G1 X107.821 Y165.36 E51.40259
G1 X99.179 Y165.36 E51.71877
G1 X98.703 Y165.32 E51.73624
G1 X98.24 Y165.201 E51.75373
G1 X97.803 Y165.007 E51.77123
G1 X97.405 Y164.743 E51.7887
G1 X97.157 Y164.522 E51.80085
G1 X97.028 Y164.393 E51.80753
G1 X96.719 Y164.028 E51.82502
G1 X96.476 Y163.617 E51.84249
G1 X96.304 Y163.171 E51.85998
G1 X96.209 Y162.703 E51.87745
G1 X96.19 Y162.371 E51.88962
G1 X96.191 Y72.629 E55.17293
G1 X96.231 Y72.153 E55.19041
G1 X96.35 Y71.69 E55.2079
G1 X96.443 Y71.481 E55.21627
G0 F810 X96.544 Y71.253
G0 X96.808 Y70.855
M204 S5000
M205 X30 Y30
G0 F7200 X96.982 Y71.373
M204 S500
M205 X20 Y20
G1 F6000 E55.24287
G1 F900 X97.34 Y70.918 E55.26405
G1 X97.469 Y70.789 E55.27072
G1 X97.807 Y70.508 E55.28681
G1 X98.19 Y70.292 E55.30289
G1 X98.605 Y70.149 E55.31895
G1 X99.18 Y70.08 E55.34014
G1 X107.82 Y70.08 E55.65624
G1 X108.258 Y70.12 E55.67234
G1 X108.681 Y70.238 E55.6884
G1 X109.076 Y70.431 E55.70449
G1 X109.531 Y70.789 E55.72567
G1 X109.66 Y70.918 E55.73234
G1 X109.941 Y71.256 E55.74842
G1 X110.157 Y71.639 E55.76451
G1 X110.3 Y72.054 E55.78057
G1 X110.369 Y72.629 E55.80176
G1 X110.37 Y162.371 E59.08507
G1 X110.33 Y162.809 E59.10116
G1 X110.212 Y163.232 E59.11723
G1 X110.019 Y163.627 E59.13332
