;FLAVOR:Marlin
;TIME:1815
;Filament used: 1.61287m
;Layer height: 0.2
;Generated with Cura_SteamEngine 3.6.0
M140 S70
M105
M190 S70
M104 S210
M105
M109 S210
M82 ;absolute extrusion mode
G28 ; home all axes
M117 Purge extruder
G92 E0 ; reset extruder
G1 Z1.0 F3000 ; move z up little to prevent scratching of surface
G1 X0.1 Y20 Z0.3 F5000.0 ; move to start-line position G1 X0.1 Y200.0 Z0.3 F1500.0 E15 ; draw 1st line
G1 X0.4 Y200.0 Z0.3 F5000.0 ; move to side a little
G1 X0.4 Y20 Z0.3 F1500.0 E30 ; draw 2nd line
G92 E0 ; reset extruder
G1 Z1.0 F3000 ; move z up little to prevent scratching of surface
M117 All systems go!
G92 E0
G1 F6000 E-5
;LAYER_COUNT:51
;LAYER:0
M107
M204 S5000
M205 X30 Y30
G0 F7200 X99.259 Y96.773 Z0.2
M204 S500
M205 X20 Y20
;TYPE:SKIRT
G1 F6000 E0
G1 F900 X99.916 Y96.173 E0.03255
G1 X100.788 Y95.523 E0.07234
G1 X101.345 Y95.154 E0.09679
G1 X102.108 Y94.696 E0.12935
G1 X102.91 Y94.309 E0.16193
G1 X103.742 Y93.995 E0.19446
G1 X104.86 Y93.702 E0.23675
G1 X105.033 Y93.667 E0.2432
G1 X105.532 Y93.22 E0.26771
G1 X106.434 Y92.563 E0.30854
G1 X106.996 Y92.2 E0.33302
G1 X107.764 Y91.751 E0.36557
G1 X108.569 Y91.373 E0.3981
G1 X109.406 Y91.069 E0.43068
G1 X110.517 Y90.79 E0.47259
G1 X111.169 Y90.666 E0.49687
G1 X112.05 Y90.54 E0.52943
G1 X112.938 Y90.492 E0.56197
G1 X113.828 Y90.525 E0.59455
G1 X114.869 Y90.666 E0.63299
G1 X115.099 Y90.71 E0.64156
G1 X115.797 Y90.468 E0.66858
G1 X116.893 Y90.21 E0.70978
G1 X117.546 Y90.095 E0.73404
G1 X118.428 Y89.98 E0.76658
G1 X119.317 Y89.945 E0.79913
G1 X120.206 Y89.99 E0.8317
G1 X121.276 Y90.152 E0.87129
G1 X121.926 Y90.287 E0.89558
G1 X122.788 Y90.507 E0.92813
G1 X123.627 Y90.803 E0.96068
G1 X124.436 Y91.174 E0.99324
G1 X125.408 Y91.745 E1.03448
G1 X125.54 Y91.833 E1.04029
G1 X126.213 Y91.87 E1.06495
G1 X127.299 Y92.041 E1.10517
G1 X127.948 Y92.18 E1.12945
G1 X128.809 Y92.405 E1.16201
G1 X129.646 Y92.706 E1.19455
G1 X130.453 Y93.082 E1.22712
G1 X131.397 Y93.643 E1.2673
G1 X131.949 Y94.014 E1.29163
G1 X132.665 Y94.543 E1.3242
G1 X133.33 Y95.134 E1.35675
G1 X133.939 Y95.783 E1.38931
G1 X134.639 Y96.702 E1.43158
G1 X134.746 Y96.861 E1.43859
G1 X135.331 Y97.139 E1.46229
G1 X136.325 Y97.746 E1.5049
G1 X136.868 Y98.123 E1.52908
G1 X137.575 Y98.663 E1.56163
G1 X138.231 Y99.264 E1.59418
G1 X138.831 Y99.921 E1.62674
G1 X139.468 Y100.777 E1.66577
G1 X139.838 Y101.334 E1.69024
G1 X140.297 Y102.097 E1.72282
G1 X140.685 Y102.897 E1.75534
G1 X141 Y103.729 E1.78789
G1 X141.293 Y104.836 E1.82979
G1 X141.334 Y105.035 E1.83722
G1 X141.775 Y105.527 E1.8614
G1 X142.428 Y106.421 E1.9019
G1 X142.792 Y106.983 E1.9264
G1 X143.242 Y107.751 E1.95896
G1 X143.621 Y108.556 E1.99152
G1 X143.926 Y109.392 E2.02407
G1 X144.205 Y110.495 E2.0657
G1 X144.33 Y111.145 E2.08992
G1 X144.458 Y112.026 E2.12249
G1 X144.507 Y112.914 E2.15502
G1 X144.477 Y113.803 E2.18757
G1 X144.337 Y114.848 E2.22614
G1 X144.289 Y115.103 E2.23564
G1 X144.515 Y115.749 E2.26067
G1 X144.774 Y116.821 E2.30102
G1 X144.893 Y117.472 E2.32524
G1 X145.013 Y118.353 E2.35777
G1 X145.054 Y119.242 E2.39033
G1 X145.015 Y120.131 E2.42288
G1 X144.863 Y121.188 E2.46195
G1 X144.733 Y121.84 E2.48628
G1 X144.52 Y122.704 E2.51883
G1 X144.23 Y123.545 E2.55138
G1 X143.866 Y124.357 E2.58394
G1 X143.277 Y125.372 E2.62687
G1 X143.167 Y125.538 E2.63416
G1 X143.13 Y126.205 E2.6586
G1 X142.963 Y127.279 E2.69836
G1 X142.825 Y127.929 E2.72267
G1 X142.601 Y128.79 E2.75522
G1 X142.301 Y129.628 E2.78779
G1 X141.927 Y130.435 E2.82033
G1 X141.358 Y131.395 E2.86116
G1 X140.987 Y131.947 E2.88549
G1 X140.458 Y132.663 E2.91806
G1 X139.867 Y133.328 E2.95061
G1 X139.218 Y133.937 E2.98317
G1 X138.309 Y134.63 E3.02499
G1 X138.138 Y134.745 E3.03253
G1 X137.861 Y135.328 E3.05614
G1 X137.266 Y136.305 E3.098
G1 X136.89 Y136.849 E3.12219
G1 X136.352 Y137.557 E3.15472
G1 X135.752 Y138.215 E3.1873
G1 X135.096 Y138.815 E3.21983
G1 X134.241 Y139.455 E3.2589
G1 X133.685 Y139.826 E3.28336
G1 X132.923 Y140.286 E3.31592
G1 X132.124 Y140.676 E3.34845
G1 X131.292 Y140.992 E3.38101
G1 X130.157 Y141.294 E3.42398
G1 X129.968 Y141.332 E3.43103
G1 X129.44 Y141.804 E3.45695
G1 X128.52 Y142.469 E3.49848
G1 X127.957 Y142.829 E3.52293
G1 X127.187 Y143.274 E3.55546
G1 X126.38 Y143.648 E3.58801
G1 X125.542 Y143.948 E3.62057
G1 X124.411 Y144.225 E3.66317
G1 X123.757 Y144.345 E3.6875
G1 X122.875 Y144.467 E3.72007
G1 X121.986 Y144.508 E3.75263
G1 X121.098 Y144.469 E3.78515
G1 X120.046 Y144.319 E3.82403
G1 X119.898 Y144.29 E3.82955
G1 X119.206 Y144.529 E3.85633
G1 X118.156 Y144.779 E3.89582
G1 X117.504 Y144.897 E3.92007
G1 X116.622 Y145.016 E3.95263
G1 X115.733 Y145.055 E3.98518
G1 X114.845 Y145.014 E4.01771
G1 X113.756 Y144.854 E4.05798
G1 X113.106 Y144.721 E4.08225
G1 X112.244 Y144.504 E4.11477
G1 X111.404 Y144.21 E4.14733
G1 X110.594 Y143.842 E4.17988
G1 X109.606 Y143.264 E4.22176
G1 X109.464 Y143.169 E4.22801
G1 X108.714 Y143.123 E4.2555
G1 X107.611 Y142.943 E4.29639
G1 X106.964 Y142.799 E4.32064
G1 X106.105 Y142.566 E4.3532
G1 X105.271 Y142.258 E4.38573
G1 X104.467 Y141.876 E4.4183
G1 X103.542 Y141.317 E4.45784
G1 X102.99 Y140.941 E4.48228
G1 X102.278 Y140.408 E4.51481
G1 X101.616 Y139.813 E4.54738
G1 X101.011 Y139.16 E4.57995
G1 X100.328 Y138.254 E4.62146
G1 X100.25 Y138.137 E4.6266
G1 X99.61 Y137.827 E4.65262
G1 X98.697 Y137.267 E4.69181
G1 X98.151 Y136.89 E4.71608
G1 X97.442 Y136.352 E4.74864
G1 X96.785 Y135.752 E4.7812
G1 X96.184 Y135.096 E4.81375
G1 X95.518 Y134.204 E4.85448
G1 X95.149 Y133.646 E4.87895
G1 X94.692 Y132.882 E4.91152
G1 X94.306 Y132.081 E4.94405
G1 X93.993 Y131.248 E4.97661
G1 X93.703 Y130.144 E5.01837
G1 X93.668 Y129.97 E5.02486
G1 X93.177 Y129.416 E5.05195
G1 X92.531 Y128.52 E5.09236
G1 X92.171 Y127.957 E5.11681
G1 X91.726 Y127.187 E5.14935
G1 X91.352 Y126.38 E5.18189
G1 X91.052 Y125.542 E5.21445
G1 X90.779 Y124.436 E5.25613
G1 X90.658 Y123.786 E5.28032
G1 X90.535 Y122.905 E5.31287
G1 X90.491 Y122.016 E5.34543
G1 X90.527 Y121.127 E5.37798
G1 X90.679 Y120.055 E5.4176
G1 X90.71 Y119.896 E5.42352
G1 X90.477 Y119.227 E5.44944
G1 X90.223 Y118.162 E5.4895
G1 X90.105 Y117.511 E5.5137
G1 X89.986 Y116.629 E5.54626
G1 X89.946 Y115.74 E5.57882
G1 X89.986 Y114.851 E5.61138
G1 X90.14 Y113.795 E5.65042
G1 X90.271 Y113.143 E5.67475
G1 X90.485 Y112.279 E5.70732
G1 X90.776 Y111.439 E5.73984
G1 X91.141 Y110.627 E5.77242
G1 X91.735 Y109.608 E5.81557
G1 X91.83 Y109.465 E5.82185
G1 X91.874 Y108.734 E5.84864
G1 X92.055 Y107.621 E5.8899
G1 X92.199 Y106.972 E5.91422
G1 X92.431 Y106.112 E5.94681
G1 X92.738 Y105.278 E5.97932
G1 X93.12 Y104.474 E6.01189
G1 X93.677 Y103.549 E6.05139
G1 X94.051 Y102.999 E6.07573
G1 X94.584 Y102.287 E6.10827
G1 X95.179 Y101.625 E6.14083
G1 X95.831 Y101.019 E6.1734
G1 X96.736 Y100.336 E6.21488
G1 X96.862 Y100.252 E6.22042
G1 X97.145 Y99.658 E6.24449
G1 X97.742 Y98.681 E6.28638
G1 X98.119 Y98.137 E6.3106
G1 X98.658 Y97.429 E6.34315
G1 X98.768 Y97.309 E6.34911
G0 F810 X99.259 Y96.773
M204 S5000
M205 X30 Y30
G0 F7200 X99.597 Y97.056
M204 S500
M205 X20 Y20
G1 F6000 E6.37571
G1 F900 X100.243 Y96.473 E6.40754
G1 X101.031 Y95.89 E6.44341
G1 X101.588 Y95.521 E6.46785
G1 X102.335 Y95.074 E6.4997
G1 X103.119 Y94.698 E6.53151
G1 X103.934 Y94.396 E6.56331
G1 X104.947 Y94.133 E6.6016
G1 X105.235 Y94.075 E6.61235
G1 X105.856 Y93.524 E6.64272
G1 X106.672 Y92.932 E6.67961
G1 X107.234 Y92.569 E6.70409
G1 X107.986 Y92.132 E6.73591
G1 X108.774 Y91.765 E6.76771
G1 X109.593 Y91.472 E6.79953
G1 X110.6 Y91.223 E6.83749
G1 X111.252 Y91.099 E6.86177
G1 X112.113 Y90.976 E6.89359
G1 X112.981 Y90.932 E6.92539
G1 X113.85 Y90.969 E6.95721
G1 X114.786 Y91.099 E6.99178
G1 X115.13 Y91.164 E7.00459
G1 X115.155 Y91.153 E7.00559
G1 X115.978 Y90.873 E7.03739
G1 X116.969 Y90.643 E7.07461
G1 X117.622 Y90.528 E7.09887
G1 X118.485 Y90.417 E7.13071
G1 X119.354 Y90.385 E7.16252
G1 X120.222 Y90.434 E7.19433
G1 X121.187 Y90.583 E7.23005
G1 X121.837 Y90.718 E7.25434
G1 X122.679 Y90.933 E7.28614
G1 X123.498 Y91.226 E7.31796
G1 X124.287 Y91.592 E7.34978
G1 X125.164 Y92.111 E7.38706
G1 X125.393 Y92.264 E7.39714
G1 X126.227 Y92.314 E7.42771
G1 X127.207 Y92.471 E7.46402
G1 X127.856 Y92.61 E7.4883
G1 X128.697 Y92.831 E7.52012
G1 X129.515 Y93.128 E7.55195
G1 X130.301 Y93.499 E7.58375
G1 X131.152 Y94.009 E7.62005
G1 X131.704 Y94.38 E7.64438
G1 X132.403 Y94.897 E7.67619
G1 X133.051 Y95.477 E7.70801
G1 X133.643 Y96.114 E7.73983
G1 X134.274 Y96.948 E7.77809
G1 X134.445 Y97.202 E7.78929
G1 X135.176 Y97.555 E7.81899
G1 X136.074 Y98.107 E7.85756
G1 X136.617 Y98.484 E7.88174
G1 X137.308 Y99.013 E7.91358
G1 X137.947 Y99.602 E7.94538
G1 X138.53 Y100.248 E7.97721
G1 X139.102 Y101.021 E8.01239
G1 X139.472 Y101.578 E8.03686
G1 X139.919 Y102.323 E8.06864
G1 X140.296 Y103.107 E8.10047
G1 X140.6 Y103.922 E8.1323
G1 X140.862 Y104.924 E8.17019
G1 X140.925 Y105.235 E8.1818
G1 X141.472 Y105.851 E8.21194
G1 X142.059 Y106.66 E8.24851
G1 X142.423 Y107.222 E8.273
G1 X142.862 Y107.973 E8.30483
G1 X143.23 Y108.761 E8.33665
G1 X143.524 Y109.58 E8.36849
G1 X143.773 Y110.579 E8.40615
G1 X143.898 Y111.229 E8.43037
G1 X144.023 Y112.089 E8.46216
G1 X144.068 Y112.958 E8.494
G1 X144.033 Y113.827 E8.52582
G1 X143.905 Y114.766 E8.56049
G1 X143.836 Y115.135 E8.57423
G1 X144.111 Y115.932 E8.60507
G1 X144.341 Y116.9 E8.64147
G1 X144.46 Y117.551 E8.66569
G1 X144.577 Y118.413 E8.69751
G1 X144.614 Y119.282 E8.72933
G1 X144.571 Y120.15 E8.76113
G1 X144.431 Y121.102 E8.79633
G1 X144.301 Y121.754 E8.82066
G1 X144.092 Y122.598 E8.85247
G1 X143.807 Y123.419 E8.88427
G1 X143.447 Y124.211 E8.91609
G1 X142.91 Y125.129 E8.95501
G1 X142.736 Y125.392 E8.96654
G1 X142.686 Y126.219 E8.99685
G1 X142.533 Y127.188 E9.03275
G1 X142.395 Y127.838 E9.05706
G1 X142.175 Y128.679 E9.08886
G1 X141.879 Y129.497 E9.12069
G1 X141.51 Y130.284 E9.15249
G1 X140.992 Y131.15 E9.18941
G1 X140.621 Y131.702 E9.21374
G1 X140.104 Y132.401 E9.24555
G1 X139.524 Y133.049 E9.27737
G1 X138.887 Y133.641 E9.30918
G1 X138.063 Y134.266 E9.34702
G1 X137.796 Y134.446 E9.3588
G1 X137.445 Y135.173 E9.38834
G1 X136.904 Y136.055 E9.42619
G1 X136.528 Y136.599 E9.45039
G1 X136.001 Y137.291 E9.48221
G1 X135.413 Y137.931 E9.51401
G1 X134.768 Y138.515 E9.54584
G1 X133.997 Y139.089 E9.58101
G1 X133.441 Y139.46 E9.60546
G1 X132.696 Y139.909 E9.63729
G1 X131.913 Y140.288 E9.66911
G1 X131.098 Y140.593 E9.70095
G1 X130.07 Y140.862 E9.73983
G1 X129.769 Y140.923 E9.75106
G1 X129.768 Y140.924 E9.75112
G1 X129.116 Y141.499 E9.78292
G1 X128.283 Y142.098 E9.82046
G1 X127.72 Y142.458 E9.84491
G1 X126.967 Y142.892 E9.87671
G1 X126.177 Y143.256 E9.90853
G1 X125.356 Y143.545 E9.94037
G1 X124.331 Y143.793 E9.97896
G1 X123.677 Y143.913 E10.00328
G1 X122.816 Y144.03 E10.03507
G1 X121.947 Y144.068 E10.0669
G1 X121.078 Y144.026 E10.09873
G1 X120.131 Y143.888 E10.13374
G1 X119.867 Y143.836 E10.14358
G1 X119.848 Y143.844 E10.14434
G1 X119.025 Y144.124 E10.17614
G1 X118.078 Y144.346 E10.21173
G1 X117.426 Y144.464 E10.23597
G1 X116.564 Y144.579 E10.26779
G1 X115.695 Y144.615 E10.29961
G1 X114.826 Y144.571 E10.33144
G1 X113.845 Y144.423 E10.36774
G1 X113.195 Y144.29 E10.39201
G1 X112.351 Y144.077 E10.42386
G1 X111.531 Y143.787 E10.45568
G1 X110.742 Y143.423 E10.48747
G1 X109.85 Y142.898 E10.52534
G1 X109.607 Y142.736 E10.53603
G1 X109.57 Y142.737 E10.53738
G1 X108.702 Y142.679 E10.56921
G1 X107.707 Y142.513 E10.60611
G1 X107.06 Y142.369 E10.63036
G1 X106.22 Y142.141 E10.66221
G1 X105.406 Y141.837 E10.694
G1 X104.622 Y141.46 E10.72583
G1 X103.789 Y140.954 E10.76149
G1 X103.237 Y140.578 E10.78592
G1 X102.542 Y140.055 E10.81774
G1 X101.897 Y139.472 E10.84955
G1 X101.309 Y138.831 E10.88138
G1 X100.694 Y138.01 E10.91891
G1 X100.551 Y137.796 E10.92832
G1 X100.549 Y137.795 E10.92841
G1 X99.768 Y137.412 E10.96023
G1 X98.947 Y136.905 E10.99553
G1 X98.401 Y136.528 E11.01981
G1 X97.709 Y136.001 E11.05163
G1 X97.068 Y135.413 E11.08346
G1 X96.484 Y134.769 E11.11526
G1 X95.885 Y133.961 E11.15206
G1 X95.516 Y133.403 E11.17654
G1 X95.07 Y132.656 E11.20837
G1 X94.695 Y131.872 E11.24016
G1 X94.393 Y131.056 E11.272
G1 X94.134 Y130.057 E11.30975
G1 X94.075 Y129.765 E11.32065
G1 X94.056 Y129.747 E11.32161
G1 X93.482 Y129.093 E11.35345
G1 X92.902 Y128.283 E11.3899
G1 X92.542 Y127.72 E11.41434
G1 X92.108 Y126.967 E11.44614
G1 X91.744 Y126.177 E11.47797
G1 X91.455 Y125.356 E11.50981
G1 X91.212 Y124.355 E11.5475
G1 X91.091 Y123.705 E11.57169
G1 X90.971 Y122.844 E11.60349
G1 X90.931 Y121.975 E11.63532
G1 X90.971 Y121.106 E11.66715
G1 X91.11 Y120.141 E11.70282
G1 X91.164 Y119.868 E11.713
G1 X90.882 Y119.045 E11.74483
G1 X90.656 Y118.083 E11.78098
G1 X90.538 Y117.432 E11.80519
G1 X90.422 Y116.57 E11.83701
G1 X90.386 Y115.701 E11.86883
G1 X90.43 Y114.833 E11.90063
G1 X90.571 Y113.882 E11.9358
G1 X90.702 Y113.23 E11.96013
G1 X90.913 Y112.386 E11.99196
G1 X91.2 Y111.565 E12.02378
G1 X91.561 Y110.773 E12.05562
G1 X92.101 Y109.852 E12.09468
G1 X92.263 Y109.609 E12.10537
G1 X92.262 Y109.59 E12.10606
G1 X92.318 Y108.722 E12.13789
G1 X92.485 Y107.716 E12.1752
G1 X92.629 Y107.067 E12.19952
G1 X92.856 Y106.227 E12.23135
G1 X93.159 Y105.412 E12.26316
G1 X93.536 Y104.628 E12.29499
G1 X94.041 Y103.797 E12.33057
G1 X94.415 Y103.247 E12.3549
G1 X94.937 Y102.551 E12.38673
G1 X95.52 Y101.905 E12.41857
G1 X96.16 Y101.317 E12.45037
G1 X96.981 Y100.701 E12.48792
G1 X97.204 Y100.552 E12.49773
G1 X97.561 Y99.814 E12.52772
G1 X98.104 Y98.932 E12.56562
G1 X98.481 Y98.388 E12.58983
G1 X99.008 Y97.696 E12.62166
G1 X99.105 Y97.591 E12.62689
G0 F810 X99.597 Y97.056
M204 S5000
M205 X30 Y30
G0 F7200 X99.936 Y97.341
M204 S500
M205 X20 Y20
G1 F6000 E12.65349
G1 F900 X100.569 Y96.775 E12.68455
G1 X101.274 Y96.256 E12.71658
G1 X101.831 Y95.887 E12.74103
G1 X102.561 Y95.452 E12.77212
G1 X103.328 Y95.088 E12.80318
G1 X104.126 Y94.797 E12.83425
G1 X105.034 Y94.564 E12.86855
G1 X105.456 Y94.479 E12.8843
G1 X105.541 Y94.389 E12.88883
G1 X106.179 Y93.828 E12.91991
G1 X106.911 Y93.302 E12.95289
G1 X107.473 Y92.939 E12.97737
G1 X108.207 Y92.512 E13.00843
G1 X108.978 Y92.157 E13.03949
G1 X109.78 Y91.875 E13.07059
G1 X110.682 Y91.655 E13.10456
G1 X111.334 Y91.531 E13.12884
G1 X112.175 Y91.412 E13.15992
G1 X113.023 Y91.372 E13.19098
G1 X113.871 Y91.412 E13.22204
G1 X114.704 Y91.531 E13.25282
G1 X115.186 Y91.623 E13.27078
G1 X115.353 Y91.549 E13.27746
G1 X116.158 Y91.28 E13.30851
G1 X117.046 Y91.077 E13.34184
G1 X117.699 Y90.962 E13.3661
G1 X118.541 Y90.854 E13.39715
G1 X119.39 Y90.826 E13.42823
G1 X120.237 Y90.878 E13.45928
G1 X121.097 Y91.013 E13.49113
G1 X121.747 Y91.148 E13.51542
G1 X122.57 Y91.36 E13.54651
G1 X123.369 Y91.648 E13.57758
G1 X124.137 Y92.01 E13.60865
G1 X124.92 Y92.477 E13.642
G1 X125.264 Y92.707 E13.65714
G1 X125.393 Y92.703 E13.66186
G1 X126.24 Y92.758 E13.69292
G1 X127.115 Y92.901 E13.72535
G1 X127.764 Y93.04 E13.74964
G1 X128.585 Y93.257 E13.78071
G1 X129.382 Y93.55 E13.81177
G1 X130.148 Y93.916 E13.84283
G1 X130.907 Y94.374 E13.87527
G1 X131.459 Y94.745 E13.8996
G1 X132.14 Y95.251 E13.93064
G1 X132.771 Y95.819 E13.9617
G1 X133.346 Y96.444 E13.99277
G1 X133.909 Y97.193 E14.02705
G1 X134.156 Y97.56 E14.04324
G1 X134.257 Y97.598 E14.04719
G1 X135.02 Y97.971 E14.07826
G1 X135.823 Y98.469 E14.11283
G1 X136.366 Y98.846 E14.13701
G1 X137.04 Y99.362 E14.16807
G1 X137.663 Y99.94 E14.19916
G1 X138.228 Y100.574 E14.23023
G1 X138.735 Y101.264 E14.26156
G1 X139.105 Y101.821 E14.28602
G1 X139.541 Y102.55 E14.3171
G1 X139.907 Y103.316 E14.34816
G1 X140.199 Y104.114 E14.37925
G1 X140.43 Y105.012 E14.41317
G1 X140.52 Y105.455 E14.42971
G1 X140.607 Y105.537 E14.43409
G1 X141.168 Y106.175 E14.46517
G1 X141.69 Y106.9 E14.49785
G1 X142.054 Y107.462 E14.52235
G1 X142.481 Y108.195 E14.55339
G1 X142.838 Y108.966 E14.58447
G1 X143.121 Y109.767 E14.61555
G1 X143.341 Y110.662 E14.64927
G1 X143.466 Y111.312 E14.67349
G1 X143.587 Y112.152 E14.70454
G1 X143.628 Y113 E14.7356
G1 X143.589 Y113.849 E14.76669
G1 X143.472 Y114.685 E14.79758
G1 X143.378 Y115.186 E14.81623
G1 X143.433 Y115.309 E14.82116
G1 X143.705 Y116.114 E14.85224
G1 X143.908 Y116.979 E14.88475
G1 X144.027 Y117.63 E14.90896
G1 X144.14 Y118.472 E14.94005
G1 X144.174 Y119.32 E14.9711
G1 X144.127 Y120.168 E15.00217
