;FLAVOR:Marlin
;TIME:3479
;Filament used: 2.45407m
;Layer height: 0.2
;Generated with Cura_SteamEngine 3.6.0
M140 S70
M105
M190 S70
M104 S210
M105
M109 S210
M82 ;absolute extrusion mode
G28 ; home all axes
M117 Purge extruder
G92 E0 ; reset extruder
G1 Z1.0 F3000 ; move z up little to prevent scratching of surface
G1 X0.1 Y20 Z0.3 F5000.0 ; move to start-line position G1 X0.1 Y200.0 Z0.3 F1500.0 E15 ; draw 1st line
G1 X0.4 Y200.0 Z0.3 F5000.0 ; move to side a little
G1 X0.4 Y20 Z0.3 F1500.0 E30 ; draw 2nd line
G92 E0 ; reset extruder
G1 Z1.0 F3000 ; move z up little to prevent scratching of surface
M117 All systems go!
G92 E0
G1 F6000 E-5
;LAYER_COUNT:221
;LAYER:0
M107
M204 S5000
M205 X30 Y30
G0 F7200 X98.943 Y99.449 Z0.2
M204 S500
M205 X20 Y20
;TYPE:SKIRT
G1 F6000 E0
G1 F900 X100.593 Y97.896 E0.0829
G1 X101.267 Y97.316 E0.11543
G1 X101.676 Y97.012 E0.13408
G1 X103.524 Y95.71 E0.21678
G1 X104.274 Y95.231 E0.24934
G1 X104.723 Y94.986 E0.26806
G1 X106.724 Y93.964 E0.35026
G1 X107.534 Y93.596 E0.38281
G1 X107.998 Y93.422 E0.40094
G1 X110.134 Y92.685 E0.48361
G1 X111.132 Y92.399 E0.52159
G1 X112.23 Y92.145 E0.56283
G1 X112.937 Y92.008 E0.58917
G1 X114.054 Y91.834 E0.63053
G1 X115.082 Y91.728 E0.66834
G1 X117.334 Y91.615 E0.75084
G1 X118.224 Y91.611 E0.7834
G1 X118.734 Y91.644 E0.8021
G1 X120.981 Y91.85 E0.88465
G1 X122.027 Y92.003 E0.92333
G1 X123.137 Y92.226 E0.96475
G1 X123.801 Y92.383 E0.98971
G1 X124.886 Y92.68 E1.03087
G1 X125.895 Y93.016 E1.06978
G1 X128.016 Y93.85 E1.15316
G1 X128.828 Y94.212 E1.18569
G1 X129.276 Y94.451 E1.20426
G1 X131.23 Y95.559 E1.28645
G1 X131.984 Y96.032 E1.31901
G1 X132.393 Y96.332 E1.33757
G1 X134.181 Y97.711 E1.42018
G1 X134.86 Y98.285 E1.45271
G1 X135.221 Y98.636 E1.47113
G1 X136.791 Y100.245 E1.55338
G1 X137.383 Y100.909 E1.58593
G1 X137.695 Y101.313 E1.6046
G1 X139.039 Y103.15 E1.68788
G1 X139.531 Y103.891 E1.72042
G1 X139.785 Y104.339 E1.73926
G1 X140.849 Y106.335 E1.82201
G1 X141.232 Y107.138 E1.85456
G1 X141.418 Y107.611 E1.87316
G1 X142.189 Y109.733 E1.95576
G1 X142.455 Y110.582 E1.98831
G1 X142.572 Y111.078 E2.00696
G1 X143.036 Y113.286 E2.0895
G1 X143.18 Y114.164 E2.12205
G1 X143.227 Y114.672 E2.14072
G1 X143.375 Y116.923 E2.22325
G1 X143.393 Y117.813 E2.25582
G1 X143.368 Y118.319 E2.27436
G1 X143.198 Y120.57 E2.35695
G1 X143.065 Y121.603 E2.39505
G1 X142.862 Y122.714 E2.43637
G1 X142.619 Y123.735 E2.47477
G1 X141.981 Y125.899 E2.55731
G1 X141.691 Y126.74 E2.58986
G1 X141.495 Y127.202 E2.60822
G1 X140.567 Y129.24 E2.69015
G1 X140.162 Y130.032 E2.72269
G1 X139.9 Y130.467 E2.74127
G1 X138.676 Y132.383 E2.82445
G1 X138.047 Y133.258 E2.86388
G1 X137.34 Y134.137 E2.90515
G1 X136.664 Y134.895 E2.94231
G1 X135.082 Y136.494 E3.0246
G1 X134.428 Y137.098 E3.05717
G1 X134.029 Y137.417 E3.07586
G1 X132.229 Y138.783 E3.15854
G1 X131.497 Y139.289 E3.19109
G1 X131.054 Y139.55 E3.2099
G1 X129.075 Y140.65 E3.29274
G1 X128.144 Y141.106 E3.33067
G1 X127.106 Y141.548 E3.37194
G1 X126.113 Y141.909 E3.4106
G1 X123.954 Y142.567 E3.49318
G1 X122.925 Y142.821 E3.53195
G1 X121.815 Y143.033 E3.5733
G1 X120.787 Y143.174 E3.61126
G1 X118.538 Y143.363 E3.69383
G1 X117.649 Y143.398 E3.72638
G1 X117.143 Y143.382 E3.74491
G1 X114.892 Y143.253 E3.8274
G1 X113.855 Y143.138 E3.86557
G1 X112.74 Y142.955 E3.90691
G1 X112.05 Y142.817 E3.93265
G1 X110.954 Y142.556 E3.97387
G1 X109.951 Y142.26 E4.01213
G1 X107.821 Y141.508 E4.09478
G1 X106.996 Y141.175 E4.12733
G1 X106.538 Y140.95 E4.146
G1 X104.537 Y139.906 E4.22857
G1 X103.767 Y139.46 E4.26112
G1 X103.351 Y139.177 E4.27953
G1 X101.514 Y137.861 E4.36221
G1 X100.814 Y137.311 E4.39478
G1 X100.439 Y136.97 E4.41332
G1 X98.814 Y135.417 E4.49556
G1 X98.199 Y134.774 E4.52811
G1 X97.875 Y134.384 E4.54666
G1 X96.48 Y132.612 E4.62917
G1 X95.962 Y131.889 E4.66171
G1 X95.689 Y131.445 E4.68078
G1 X94.542 Y129.462 E4.76459
G1 X94.132 Y128.672 E4.79716
G1 X93.928 Y128.202 E4.8159
G1 X93.085 Y126.108 E4.89849
G1 X92.79 Y125.269 E4.93103
G1 X92.656 Y124.776 E4.94972
G1 X92.117 Y122.585 E5.03227
G1 X91.943 Y121.712 E5.06484
G1 X91.88 Y121.212 E5.08327
G1 X91.654 Y118.968 E5.16579
G1 X91.605 Y118.08 E5.19833
G1 X91.612 Y117.572 E5.21691
G1 X91.704 Y115.318 E5.29945
G1 X91.78 Y114.432 E5.33198
G1 X91.86 Y113.929 E5.35062
G1 X92.269 Y111.708 E5.43324
G1 X92.469 Y110.841 E5.46579
G1 X92.615 Y110.364 E5.48405
G1 X93.322 Y108.248 E5.56567
G1 X93.698 Y107.292 E5.60325
G1 X94.163 Y106.268 E5.6444
G1 X94.652 Y105.328 E5.68316
G1 X95.798 Y103.387 E5.76563
G1 X96.284 Y102.642 E5.79818
G1 X96.583 Y102.248 E5.81627
G1 X97.988 Y100.486 E5.89872
G1 X98.438 Y99.971 E5.92374
G0 F810 X98.573 Y99.816
G0 X98.943 Y99.449
M204 S5000
M205 X30 Y30
G0 F7200 X99.244 Y99.769
M204 S500
M205 X20 Y20
G1 F6000 E5.95034
G1 F900 X100.894 Y98.216 E6.03324
G1 X101.554 Y97.65 E6.06505
G1 X101.929 Y97.372 E6.08213
G1 X103.777 Y96.07 E6.16484
G1 X104.511 Y95.602 E6.19669
G1 X104.923 Y95.378 E6.21384
G1 X106.924 Y94.356 E6.29605
G1 X107.716 Y93.997 E6.32786
G1 X108.141 Y93.838 E6.34446
G1 X110.277 Y93.101 E6.42713
G1 X111.231 Y92.827 E6.46345
G1 X112.329 Y92.573 E6.50468
G1 X113.005 Y92.443 E6.52986
G1 X114.122 Y92.269 E6.57122
G1 X115.104 Y92.168 E6.60734
G1 X117.356 Y92.055 E6.68984
G1 X118.226 Y92.051 E6.72167
G1 X118.694 Y92.083 E6.73883
G1 X120.941 Y92.289 E6.82138
G1 X121.94 Y92.434 E6.85832
G1 X123.05 Y92.657 E6.89974
G1 X123.685 Y92.808 E6.92362
G1 X124.77 Y93.105 E6.96477
G1 X125.734 Y93.425 E7.00194
G1 X127.855 Y94.259 E7.08532
G1 X128.649 Y94.614 E7.11714
G1 X129.059 Y94.834 E7.13416
G1 X131.013 Y95.942 E7.21635
G1 X131.749 Y96.405 E7.24816
G1 X132.124 Y96.68 E7.26517
G1 X133.912 Y98.059 E7.34778
G1 X134.576 Y98.621 E7.37961
G1 X134.906 Y98.943 E7.39648
G1 X136.476 Y100.552 E7.47873
G1 X137.054 Y101.202 E7.51055
G1 X137.34 Y101.573 E7.52769
G1 X138.684 Y103.41 E7.61096
G1 X139.165 Y104.135 E7.6428
G1 X139.397 Y104.546 E7.66006
G1 X140.461 Y106.542 E7.74282
G1 X140.834 Y107.327 E7.77461
G1 X141.004 Y107.761 E7.79167
G1 X141.775 Y109.883 E7.87427
G1 X142.034 Y110.714 E7.90611
G1 X142.142 Y111.169 E7.92322
G1 X142.606 Y113.377 E8.00577
G1 X142.745 Y114.235 E8.03757
G1 X142.788 Y114.701 E8.05469
G1 X142.936 Y116.952 E8.13722
G1 X142.953 Y117.822 E8.16906
G1 X142.929 Y118.285 E8.18602
G1 X142.759 Y120.536 E8.26861
G1 X142.632 Y121.524 E8.30506
G1 X142.429 Y122.635 E8.34638
G1 X142.197 Y123.61 E8.38305
G1 X141.559 Y125.774 E8.46559
G1 X141.275 Y126.596 E8.4974
G1 X141.094 Y127.019 E8.51424
G1 X140.166 Y129.057 E8.59617
G1 X139.77 Y129.831 E8.62798
G1 X139.529 Y130.23 E8.64503
G1 X138.305 Y132.146 E8.72821
G1 X137.704 Y132.982 E8.76588
G1 X136.997 Y133.861 E8.80715
G1 X136.351 Y134.585 E8.84265
G1 X134.769 Y136.184 E8.92495
G1 X134.129 Y136.774 E8.95679
G1 X133.763 Y137.067 E8.97395
G1 X131.963 Y138.433 E9.05662
G1 X131.247 Y138.926 E9.08842
G1 X130.84 Y139.166 E9.10571
G1 X128.861 Y140.266 E9.18855
G1 X127.971 Y140.701 E9.22479
G1 X126.933 Y141.143 E9.26607
G1 X125.985 Y141.488 E9.30297
G1 X123.826 Y142.146 E9.38555
G1 X122.843 Y142.389 E9.4226
G1 X121.733 Y142.601 E9.46394
G1 X120.75 Y142.736 E9.50024
G1 X118.501 Y142.925 E9.58282
G1 X117.632 Y142.958 E9.61463
G1 X117.168 Y142.943 E9.63162
G1 X114.917 Y142.814 E9.71411
G1 X113.926 Y142.704 E9.75059
G1 X112.811 Y142.521 E9.79193
G1 X112.151 Y142.389 E9.81655
G1 X111.055 Y142.128 E9.85777
G1 X110.098 Y141.845 E9.89428
G1 X107.968 Y141.093 E9.97693
G1 X107.162 Y140.766 E10.00875
G1 X106.741 Y140.56 E10.0259
G1 X104.74 Y139.516 E10.10847
G1 X103.988 Y139.079 E10.14029
G1 X103.607 Y138.819 E10.15717
G1 X101.77 Y137.503 E10.23984
G1 X101.087 Y136.965 E10.27165
G1 X100.743 Y136.652 E10.28867
G1 X99.118 Y135.099 E10.3709
G1 X98.518 Y134.47 E10.40271
G1 X98.221 Y134.112 E10.41973
G1 X96.826 Y132.34 E10.50224
G1 X96.32 Y131.632 E10.53407
G1 X96.07 Y131.225 E10.55155
G1 X94.923 Y129.242 E10.63536
G1 X94.523 Y128.469 E10.66721
G1 X94.336 Y128.038 E10.68439
G1 X93.493 Y125.944 E10.76698
G1 X93.206 Y125.123 E10.7988
G1 X93.083 Y124.671 E10.81594
G1 X92.544 Y122.48 E10.89849
G1 X92.375 Y121.627 E10.9303
G1 X92.318 Y121.168 E10.94723
G1 X92.092 Y118.924 E11.02974
G1 X92.044 Y118.056 E11.06155
G1 X92.052 Y117.59 E11.0786
G1 X92.144 Y115.336 E11.16113
G1 X92.219 Y114.47 E11.19293
G1 X92.292 Y114.009 E11.21001
G1 X92.701 Y111.788 E11.29263
G1 X92.898 Y110.941 E11.32445
G1 X93.033 Y110.503 E11.34122
G1 X93.74 Y108.387 E11.42284
G1 X94.098 Y107.474 E11.45872
G1 X94.563 Y106.45 E11.49987
G1 X95.031 Y105.551 E11.53695
G1 X96.177 Y103.61 E11.61942
G1 X96.653 Y102.883 E11.65121
G1 X96.927 Y102.522 E11.66779
G1 X98.332 Y100.76 E11.75024
G1 X98.74 Y100.293 E11.77293
G0 F810 X98.904 Y100.106
G0 X99.244 Y99.769
M204 S5000
M205 X30 Y30
G0 F7200 X99.546 Y100.09
M204 S500
M205 X20 Y20
G1 F6000 E11.79952
G1 F900 X101.196 Y98.537 E11.88243
G1 X101.841 Y97.984 E11.91351
G1 X102.183 Y97.731 E11.92907
G1 X104.031 Y96.429 E12.01178
G1 X104.747 Y95.973 E12.04284
G1 X105.123 Y95.77 E12.05847
G1 X107.124 Y94.748 E12.14068
G1 X108.285 Y94.254 E12.18684
G1 X110.421 Y93.517 E12.26951
G1 X111.33 Y93.256 E12.30411
G1 X112.428 Y93.002 E12.34534
G1 X113.073 Y92.877 E12.36938
G1 X114.19 Y92.703 E12.41074
G1 X115.126 Y92.607 E12.44516
G1 X117.378 Y92.494 E12.52766
G1 X118.227 Y92.492 E12.55872
G1 X118.653 Y92.521 E12.57434
G1 X120.9 Y92.727 E12.65689
G1 X121.854 Y92.866 E12.69216
G1 X122.964 Y93.089 E12.73359
G1 X123.568 Y93.232 E12.7563
G1 X124.653 Y93.529 E12.79745
G1 X125.573 Y93.835 E12.83292
G1 X127.694 Y94.669 E12.91631
G1 X128.842 Y95.217 E12.96285
G1 X130.796 Y96.325 E13.04503
G1 X131.856 Y97.029 E13.09159
G1 X133.644 Y98.408 E13.1742
G1 X134.591 Y99.251 E13.22058
G1 X136.161 Y100.86 E13.30283
G1 X136.725 Y101.495 E13.3339
G1 X136.985 Y101.833 E13.34951
G1 X138.329 Y103.67 E13.43278
G1 X138.797 Y104.378 E13.46383
G1 X139.009 Y104.753 E13.47959
G1 X140.073 Y106.749 E13.56235
G1 X140.591 Y107.912 E13.60893
G1 X141.362 Y110.034 E13.69153
G1 X141.614 Y110.845 E13.7226
G1 X141.711 Y111.259 E13.73815
G1 X142.175 Y113.467 E13.8207
G1 X142.311 Y114.305 E13.85176
G1 X142.349 Y114.73 E13.86737
G1 X142.497 Y116.981 E13.94991
G1 X142.49 Y118.252 E13.99641
G1 X142.32 Y120.503 E14.079
G1 X142.199 Y121.445 E14.11375
G1 X141.996 Y122.556 E14.15507
G1 X141.775 Y123.486 E14.19004
G1 X141.137 Y125.65 E14.27258
G1 X140.694 Y126.837 E14.31893
G1 X139.766 Y128.875 E14.40086
G1 X139.158 Y129.993 E14.44742
G1 X137.934 Y131.909 E14.5306
G1 X137.362 Y132.706 E14.5665
G1 X136.655 Y133.585 E14.60777
G1 X136.038 Y134.276 E14.64166
G1 X134.456 Y135.875 E14.72395
G1 X133.831 Y136.45 E14.75503
G1 X133.497 Y136.716 E14.77065
G1 X131.697 Y138.082 E14.85332
G1 X130.997 Y138.563 E14.88439
G1 X130.626 Y138.781 E14.90014
G1 X128.647 Y139.881 E14.98297
G1 X127.799 Y140.296 E15.01751
G1 X126.761 Y140.738 E15.05879
G1 X125.857 Y141.067 E15.09399
G1 X123.698 Y141.725 E15.17656
G1 X122.76 Y141.957 E15.21191
G1 X121.65 Y142.169 E15.25326
G1 X120.713 Y142.297 E15.28786
G1 X118.464 Y142.486 E15.37043
G1 X117.193 Y142.503 E15.41694
G1 X114.942 Y142.374 E15.49943
G1 X113.997 Y142.27 E15.53421
G1 X112.882 Y142.087 E15.57555
G1 X112.253 Y141.961 E15.59902
G1 X111.157 Y141.7 E15.64024
G1 X110.244 Y141.43 E15.67507
G1 X108.114 Y140.678 E15.75771
G1 X107.328 Y140.358 E15.78876
G1 X106.945 Y140.17 E15.80437
G1 X104.944 Y139.126 E15.88695
G1 X103.863 Y138.462 E15.93336
G1 X102.026 Y137.146 E16.01604
G1 X101.047 Y136.334 E16.06257
G1 X99.422 Y134.781 E16.14481
G1 X98.567 Y133.839 E16.19135
G1 X97.172 Y132.067 E16.27386
G1 X96.678 Y131.376 E16.30494
G1 X96.451 Y131.004 E16.32088
G1 X95.304 Y129.021 E16.40469
G1 X94.914 Y128.267 E16.43575
G1 X94.745 Y127.874 E16.4514
G1 X93.902 Y125.78 E16.53399
G1 X93.622 Y124.978 E16.56507
G1 X93.51 Y124.566 E16.58069
G1 X92.971 Y122.375 E16.66324
G1 X92.755 Y121.124 E16.70969
G1 X92.529 Y118.88 E16.7922
G1 X92.492 Y117.608 E16.83876
G1 X92.584 Y115.354 E16.92129
G1 X92.658 Y114.508 E16.95236
G1 X92.725 Y114.088 E16.96792
G1 X93.134 Y111.867 E17.05055
G1 X93.45 Y110.643 E17.0968
G1 X94.157 Y108.527 E17.17842
G1 X94.499 Y107.656 E17.21265
G1 X94.964 Y106.632 E17.2538
G1 X95.41 Y105.775 E17.28915
G1 X96.556 Y103.834 E17.37161
G1 X97.271 Y102.796 E17.41773
G1 X98.676 Y101.034 E17.50018
G1 X99.044 Y100.615 E17.52058
G0 F810 X99.236 Y100.396
G0 X99.546 Y100.09
M204 S5000
M205 X30 Y30
G0 F7200 X99.847 Y100.41
M204 S500
M205 X20 Y20
G1 F6000 E17.54718
G1 F900 X101.497 Y98.857 E17.63008
G1 X102.436 Y98.091 E17.67442
G1 X104.284 Y96.789 E17.75712
G1 X105.323 Y96.162 E17.80152
G1 X107.324 Y95.14 E17.88373
G1 X108.428 Y94.67 E17.92762
G1 X110.564 Y93.933 E18.01029
G1 X111.429 Y93.685 E18.04322
G1 X112.527 Y93.431 E18.08445
G1 X113.14 Y93.312 E18.10729
G1 X114.257 Y93.138 E18.14865
G1 X115.148 Y93.047 E18.18142
G1 X117.4 Y92.934 E18.26392
G1 X118.613 Y92.959 E18.30831
G1 X120.86 Y93.165 E18.39086
G1 X121.767 Y93.297 E18.42439
G1 X122.877 Y93.52 E18.46581
G1 X123.452 Y93.656 E18.48743
G1 X124.537 Y93.953 E18.52859
G1 X125.412 Y94.244 E18.56232
G1 X127.533 Y95.078 E18.64571
G1 X128.625 Y95.599 E18.68997
G1 X130.579 Y96.707 E18.77216
G1 X131.587 Y97.377 E18.81644
G1 X133.375 Y98.756 E18.89905
G1 X134.276 Y99.558 E18.94318
G1 X135.846 Y101.167 E19.02543
G1 X136.63 Y102.093 E19.06982
G1 X137.974 Y103.93 E19.1531
G1 X138.62 Y104.96 E19.19758
G1 X139.684 Y106.956 E19.28033
G1 X140.177 Y108.062 E19.32463
G1 X140.948 Y110.184 E19.40724
G1 X141.281 Y111.349 E19.45157
G1 X141.745 Y113.557 E19.53411
G1 X141.91 Y114.759 E19.5785
G1 X142.058 Y117.01 E19.66103
G1 X142.052 Y118.219 E19.70527
G1 X141.882 Y120.47 E19.78786
G1 X141.766 Y121.366 E19.82091
G1 X141.563 Y122.477 E19.86223
G1 X141.353 Y123.361 E19.89548
G1 X140.715 Y125.525 E19.97802
G1 X140.294 Y126.655 E20.02214
G1 X139.366 Y128.693 E20.10406
G1 X138.788 Y129.756 E20.14833
G1 X137.564 Y131.672 E20.23151
G1 X137.019 Y132.43 E20.26567
G1 X136.312 Y133.309 E20.30694
G1 X135.725 Y133.966 E20.33918
G1 X134.143 Y135.565 E20.42147
G1 X133.231 Y136.366 E20.46588
G1 X131.431 Y137.732 E20.54855
G1 X130.412 Y138.396 E20.59305
G1 X128.433 Y139.496 E20.67588
G1 X127.626 Y139.891 E20.70876
G1 X126.588 Y140.333 E20.75003
G1 X125.728 Y140.646 E20.78352
G1 X123.569 Y141.304 E20.86609
G1 X122.678 Y141.525 E20.89968
G1 X121.568 Y141.737 E20.94102
G1 X120.677 Y141.859 E20.97393
G1 X118.428 Y142.048 E21.0565
G1 X117.218 Y142.064 E21.10077
G1 X114.967 Y141.935 E21.18326
G1 X114.068 Y141.836 E21.21635
G1 X112.953 Y141.653 E21.25769
G1 X112.355 Y141.533 E21.28001
G1 X111.259 Y141.272 E21.32123
G1 X110.391 Y141.016 E21.35433
G1 X108.261 Y140.264 E21.43698
G1 X107.148 Y139.78 E21.48138
G1 X105.147 Y138.736 E21.56396
G1 X104.119 Y138.104 E21.6081
G1 X102.282 Y136.788 E21.69078
G1 X101.351 Y136.016 E21.73503
G1 X99.726 Y134.463 E21.81727
G1 X98.912 Y133.567 E21.86155
G1 X97.517 Y131.795 E21.94406
G1 X96.832 Y130.784 E21.98874
G1 X95.685 Y128.801 E22.07256
G1 X95.153 Y127.709 E22.117
G1 X94.31 Y125.615 E22.19958
G1 X93.937 Y124.461 E22.24396
G1 X93.398 Y122.27 E22.32651
G1 X93.193 Y121.08 E22.37068
G1 X92.967 Y118.836 E22.4532
G1 X92.931 Y117.626 E22.49749
G1 X93.023 Y115.372 E22.58002
G1 X93.158 Y114.168 E22.62435
G1 X93.567 Y111.947 E22.70697
G1 X93.867 Y110.782 E22.75098
G1 X94.574 Y108.666 E22.83261
G1 X94.9 Y107.837 E22.8652
G1 X95.365 Y106.813 E22.90634
G1 X95.789 Y105.999 E22.93992
G1 X96.935 Y104.058 E23.02239
G1 X97.615 Y103.071 E23.06624
G1 X99.02 Y101.309 E23.14869
G1 X99.355 Y100.945 E23.16679
G0 F810 X99.847 Y100.41
M204 S5000
M205 X30 Y30
G0 F7200 X100.149 Y100.731
M204 S500
M205 X20 Y20
G1 F6000 E23.19339
G1 F900 X101.799 Y99.178 E23.27629
G1 X102.69 Y98.451 E23.31836
G1 X104.538 Y97.149 E23.40107
G1 X105.524 Y96.554 E23.4432
G1 X107.525 Y95.532 E23.52541
G1 X108.572 Y95.086 E23.56704
G1 X110.708 Y94.349 E23.64971
G1 X111.528 Y94.113 E23.68093
G1 X112.626 Y93.859 E23.72216
G1 X113.208 Y93.747 E23.74385
G1 X114.325 Y93.573 E23.78521
G1 X115.17 Y93.486 E23.81629
G1 X117.422 Y93.373 E23.89878
G1 X118.573 Y93.397 E23.9409
G1 X120.82 Y93.603 E24.02346
G1 X121.68 Y93.728 E24.05525
G1 X122.79 Y93.951 E24.09667
G1 X123.336 Y94.081 E24.11721
G1 X124.421 Y94.378 E24.15836
