;FLAVOR:Marlin
;TIME:1809
;Filament used: 1.10013m
;Layer height: 0.16
;Generated with Cura_SteamEngine 3.6.0
M140 S70
M105
M190 S70
M104 S215
M105
M109 S215
M82 ;absolute extrusion mode
G28 ; home all axes
M117 Purge extruder
G92 E0 ; reset extruder
G1 Z1.0 F3000 ; move z up little to prevent scratching of surface
G1 X0.1 Y20 Z0.3 F5000.0 ; move to start-line position G1 X0.1 Y200.0 Z0.3 F1500.0 E15 ; draw 1st line
G1 X0.4 Y200.0 Z0.3 F5000.0 ; move to side a little
G1 X0.4 Y20 Z0.3 F1500.0 E30 ; draw 2nd line
G92 E0 ; reset extruder
G1 Z1.0 F3000 ; move z up little to prevent scratching of surface
M117 All systems go!
G92 E0
G1 F6000 E-5
;LAYER_COUNT:13
;LAYER:0
M107
M204 S5000
M205 X30 Y30
G0 F7200 X71.258 Y102.894 Z0.2
M204 S500
M205 X20 Y20
;TYPE:SKIRT
G1 F6000 E0
G1 F900 X72.343 Y102.218 E0.04677
G1 X73.098 Y101.832 E0.07779
G1 X74.899 Y101.093 E0.14902
G1 X75.632 Y100.855 E0.17721
G1 X77.839 Y100.322 E0.26028
G1 X78.524 Y100.206 E0.2857
G1 X82.421 Y99.817 E0.42898
G1 X82.92 Y99.792 E0.44726
G1 X150.279 Y99.745 E2.91167
G1 X150.496 Y99.749 E2.91961
G1 X153.821 Y99.889 E3.04137
G1 X154.223 Y99.922 E3.05612
G1 X156.421 Y100.191 E3.13714
G1 X156.946 Y100.284 E3.15665
G1 X159.22 Y100.81 E3.24204
G1 X159.839 Y100.995 E3.26568
G1 X161.072 Y101.452 E3.31379
G1 X161.63 Y101.699 E3.33611
G1 X162.824 Y102.314 E3.38525
G1 X163.453 Y102.698 E3.41221
G1 X164.39 Y103.369 E3.45438
G1 X164.994 Y103.878 E3.48328
G1 X165.843 Y104.714 E3.52687
G1 X166.372 Y105.325 E3.55644
G1 X167.045 Y106.242 E3.59805
G1 X167.428 Y106.849 E3.62431
G1 X167.925 Y107.778 E3.66286
G1 X168.18 Y108.333 E3.6852
G1 X168.556 Y109.301 E3.7232
G1 X168.781 Y110.048 E3.75174
G1 X169.255 Y112.207 E3.83261
G1 X169.365 Y113.013 E3.86237
G1 X169.449 Y114.536 E3.91818
G1 X169.444 Y115.172 E3.94145
G1 X169.36 Y115.803 E3.96474
G1 X169.256 Y116.228 E3.98074
G1 X169.124 Y116.682 E3.99804
G1 X168.908 Y117.28 E4.0213
G1 X168.796 Y117.502 E4.0304
G1 X168.966 Y117.856 E4.04477
G1 X169.154 Y118.41 E4.06617
G1 X169.279 Y118.863 E4.08337
G1 X169.409 Y119.485 E4.10661
G1 X169.457 Y120.001 E4.12557
G1 X169.476 Y120.463 E4.14249
G1 X169.437 Y121.328 E4.17417
G1 X169.188 Y123.229 E4.24431
G1 X169.068 Y123.844 E4.26724
G1 X168.717 Y125.195 E4.31831
G1 X168.487 Y125.879 E4.34471
G1 X167.943 Y127.177 E4.3962
G1 X167.57 Y127.898 E4.4259
G1 X166.911 Y128.955 E4.47147
G1 X166.415 Y129.622 E4.50188
G1 X165.642 Y130.5 E4.54468
G1 X165.062 Y131.061 E4.5742
G1 X164.135 Y131.825 E4.61815
G1 X163.548 Y132.242 E4.6445
G1 X162.646 Y132.791 E4.68313
G1 X162.119 Y133.071 E4.70496
G1 X161.069 Y133.551 E4.7472
G1 X160.468 Y133.781 E4.77075
G1 X158.649 Y134.347 E4.84044
G1 X158.125 Y134.479 E4.86021
G1 X156.579 Y134.784 E4.91787
G1 X156.125 Y134.853 E4.93467
G1 X153.298 Y135.148 E5.03866
G1 X152.885 Y135.174 E5.0538
G1 X149.056 Y135.259 E5.19392
G1 X148.94 Y135.26 E5.19816
G1 X82.92 Y135.209 E7.61358
G1 X82.507 Y135.192 E7.6287
G1 X79.584 Y134.95 E7.73601
G1 X79.059 Y134.878 E7.7554
G1 X76.664 Y134.424 E7.84458
G1 X75.985 Y134.246 E7.87027
G1 X74.069 Y133.598 E7.94426
G1 X73.373 Y133.303 E7.97192
G1 X72.183 Y132.69 E8.0209
G1 X71.561 Y132.311 E8.04754
G1 X70.622 Y131.641 E8.08975
G1 X70.013 Y131.13 E8.11883
G1 X69.162 Y130.293 E8.1625
G1 X68.63 Y129.678 E8.19225
G1 X67.955 Y128.758 E8.234
G1 X67.574 Y128.153 E8.26016
G1 X67.08 Y127.23 E8.29846
G1 X66.828 Y126.683 E8.3205
G1 X66.449 Y125.713 E8.3586
G1 X66.22 Y124.957 E8.3875
G1 X65.745 Y122.794 E8.46852
G1 X65.636 Y122.005 E8.49766
G1 X65.548 Y120.505 E8.55263
G1 X65.55 Y119.869 E8.5759
G1 X65.633 Y119.239 E8.59915
G1 X65.721 Y118.863 E8.61328
G1 X65.846 Y118.41 E8.63047
G1 X66.054 Y117.809 E8.65374
G1 X66.204 Y117.499 E8.66634
G1 X66.034 Y117.144 E8.68074
G1 X65.846 Y116.59 E8.70214
G1 X65.721 Y116.137 E8.71934
G1 X65.591 Y115.515 E8.74258
G1 X65.54 Y114.881 E8.76585
G1 X65.548 Y114.496 E8.77994
G1 X65.635 Y113.005 E8.83459
G1 X65.704 Y112.417 E8.85625
G1 X65.916 Y111.221 E8.90069
G1 X66.06 Y110.623 E8.92319
G1 X66.535 Y109.071 E8.98257
G1 X66.791 Y108.405 E9.00868
G1 X67.237 Y107.453 E9.04714
G1 X67.561 Y106.866 E9.07167
G1 X68.124 Y105.989 E9.1098
G1 X68.561 Y105.406 E9.13645
G1 X69.266 Y104.594 E9.1758
G1 X69.804 Y104.06 E9.20353
G1 X70.651 Y103.338 E9.24425
G1 X70.672 Y103.323 E9.24519
G0 F810 X71.258 Y102.894
M204 S5000
M205 X30 Y30
G0 F7200 X71.491 Y103.268
M204 S500
M205 X20 Y20
G1 F6000 E9.27179
G1 F900 X72.576 Y102.592 E9.31856
G1 X73.265 Y102.239 E9.34689
G1 X75.066 Y101.5 E9.41811
G1 X75.735 Y101.283 E9.44384
G1 X77.942 Y100.75 E9.52691
G1 X78.568 Y100.644 E9.55014
G1 X82.465 Y100.255 E9.69342
G1 X82.921 Y100.232 E9.71012
G1 X150.28 Y100.185 E12.17453
G1 X150.477 Y100.189 E12.18174
G1 X153.802 Y100.329 E12.3035
G1 X154.169 Y100.359 E12.31697
G1 X156.367 Y100.628 E12.39799
G1 X156.847 Y100.713 E12.41582
G1 X159.121 Y101.239 E12.50121
G1 X159.686 Y101.408 E12.52279
G1 X160.919 Y101.865 E12.5709
G1 X161.429 Y102.09 E12.59129
G1 X162.623 Y102.705 E12.64043
G1 X163.197 Y103.056 E12.66505
G1 X164.134 Y103.727 E12.70721
G1 X164.686 Y104.191 E12.73359
G1 X165.535 Y105.027 E12.77719
G1 X166.018 Y105.585 E12.80419
G1 X166.691 Y106.502 E12.8458
G1 X167.04 Y107.057 E12.86979
G1 X167.537 Y107.986 E12.90834
G1 X167.77 Y108.492 E12.92872
G1 X168.146 Y109.46 E12.96671
G1 X168.352 Y110.142 E12.99278
G1 X168.826 Y112.301 E13.07365
G1 X168.926 Y113.038 E13.10086
G1 X169.01 Y114.561 E13.15666
G1 X169.003 Y115.168 E13.17887
G1 X168.917 Y115.77 E13.20112
G1 X168.833 Y116.105 E13.21376
G1 X168.701 Y116.559 E13.23106
G1 X168.494 Y117.13 E13.25328
G1 X168.307 Y117.499 E13.26841
G1 X168.568 Y118.047 E13.29062
G1 X168.73 Y118.527 E13.30915
G1 X168.855 Y118.98 E13.32635
G1 X168.977 Y119.575 E13.34857
G1 X169.017 Y120.019 E13.36488
G1 X169.036 Y120.481 E13.38179
G1 X169.001 Y121.271 E13.41073
G1 X168.752 Y123.172 E13.48087
G1 X168.643 Y123.734 E13.50181
G1 X168.292 Y125.085 E13.55288
G1 X168.081 Y125.709 E13.57698
G1 X167.537 Y127.007 E13.62847
G1 X167.196 Y127.665 E13.65559
G1 X166.537 Y128.722 E13.70116
G1 X166.085 Y129.331 E13.72891
G1 X165.312 Y130.209 E13.77171
G1 X164.782 Y130.721 E13.79867
G1 X163.855 Y131.485 E13.84262
G1 X163.319 Y131.866 E13.86668
G1 X162.417 Y132.415 E13.90531
G1 X161.936 Y132.671 E13.92524
G1 X160.886 Y133.151 E13.96748
G1 X160.338 Y133.36 E13.98894
G1 X158.519 Y133.926 E14.05864
G1 X158.04 Y134.048 E14.07672
G1 X156.494 Y134.353 E14.13437
G1 X156.079 Y134.415 E14.14973
G1 X153.252 Y134.71 E14.25372
G1 X152.876 Y134.734 E14.2675
G1 X149.047 Y134.819 E14.40762
G1 X148.94 Y134.82 E14.41154
G1 X82.92 Y134.769 E16.82696
G1 X82.543 Y134.753 E16.84076
G1 X79.62 Y134.511 E16.94807
G1 X79.141 Y134.446 E16.96576
G1 X76.746 Y133.992 E17.05494
G1 X76.126 Y133.829 E17.07839
G1 X74.21 Y133.181 E17.15239
G1 X73.574 Y132.912 E17.17766
G1 X72.384 Y132.299 E17.22663
G1 X71.817 Y131.953 E17.25093
G1 X70.878 Y131.283 E17.29314
G1 X70.321 Y130.816 E17.31973
G1 X69.47 Y129.979 E17.3634
G1 X68.985 Y129.418 E17.39053
G1 X68.31 Y128.498 E17.43228
G1 X67.962 Y127.945 E17.45618
G1 X67.468 Y127.022 E17.49449
G1 X67.238 Y126.523 E17.51459
G1 X66.859 Y125.553 E17.55269
G1 X66.65 Y124.863 E17.57907
G1 X66.175 Y122.7 E17.66009
G1 X66.075 Y121.98 E17.68668
G1 X65.987 Y120.48 E17.74166
G1 X65.991 Y119.872 E17.7639
G1 X66.145 Y118.98 E17.79702
G1 X66.27 Y118.527 E17.81421
G1 X66.47 Y117.953 E17.83645
G1 X66.692 Y117.5 E17.85491
G1 X66.432 Y116.953 E17.87707
G1 X66.27 Y116.473 E17.8956
G1 X66.145 Y116.02 E17.91279
G1 X66.023 Y115.425 E17.93502
G1 X65.987 Y114.522 E17.96808
G1 X66.074 Y113.031 E18.02272
G1 X66.137 Y112.494 E18.0425
G1 X66.349 Y111.298 E18.08694
G1 X66.48 Y110.752 E18.10749
G1 X66.955 Y109.2 E18.16687
G1 X67.189 Y108.592 E18.1907
G1 X67.635 Y107.64 E18.22916
G1 X67.931 Y107.104 E18.25157
G1 X68.494 Y106.227 E18.2897
G1 X68.893 Y105.694 E18.31405
G1 X69.598 Y104.882 E18.3534
G1 X70.09 Y104.395 E18.37872
G1 X70.906 Y103.699 E18.41796
G0 F810 X70.937 Y103.673
G0 X71.491 Y103.268
M204 S5000
M205 X30 Y30
G0 F7200 X71.724 Y103.641
M204 S500
M205 X20 Y20
G1 F6000 E18.44456
G1 F900 X72.809 Y102.965 E18.49133
G1 X73.432 Y102.646 E18.51694
G1 X75.233 Y101.907 E18.58816
G1 X75.839 Y101.711 E18.61146
G1 X78.046 Y101.178 E18.69453
G1 X78.612 Y101.082 E18.71553
G1 X82.509 Y100.693 E18.85882
G1 X82.921 Y100.672 E18.87391
G1 X150.28 Y100.625 E21.33832
G1 X150.459 Y100.629 E21.34487
G1 X153.784 Y100.769 E21.46663
G1 X154.116 Y100.796 E21.47881
G1 X156.314 Y101.065 E21.55983
G1 X156.748 Y101.142 E21.57596
G1 X159.022 Y101.668 E21.66135
G1 X159.533 Y101.821 E21.68087
G1 X160.766 Y102.278 E21.72897
G1 X161.227 Y102.481 E21.7474
G1 X162.421 Y103.096 E21.79654
G1 X162.941 Y103.414 E21.81884
G1 X163.878 Y104.085 E21.86101
G1 X164.377 Y104.505 E21.88487
G1 X165.226 Y105.341 E21.92846
G1 X165.663 Y105.846 E21.9529
G1 X166.336 Y106.763 E21.99451
G1 X166.652 Y107.264 E22.01618
G1 X167.149 Y108.193 E22.05473
G1 X167.359 Y108.652 E22.0732
G1 X167.735 Y109.62 E22.11119
G1 X167.922 Y110.237 E22.13478
G1 X168.396 Y112.396 E22.21565
G1 X168.487 Y113.062 E22.24024
G1 X168.571 Y114.585 E22.29605
G1 X168.563 Y115.163 E22.31719
G1 X168.411 Y115.982 E22.34767
G1 X168.279 Y116.436 E22.36497
G1 X168.079 Y116.978 E22.3861
G1 X167.888 Y117.354 E22.40153
G1 X167.804 Y117.5 E22.4077
G1 X167.923 Y117.713 E22.41662
G1 X168.17 Y118.236 E22.43778
G1 X168.305 Y118.644 E22.45351
G1 X168.43 Y119.097 E22.4707
G1 X168.545 Y119.664 E22.49187
G1 X168.577 Y120.037 E22.50556
G1 X168.596 Y120.499 E22.52248
G1 X168.565 Y121.214 E22.54866
G1 X168.316 Y123.115 E22.61881
G1 X168.217 Y123.623 E22.63774
G1 X167.866 Y124.974 E22.68881
G1 X167.675 Y125.539 E22.71063
G1 X167.131 Y126.837 E22.76212
G1 X166.823 Y127.432 E22.78664
G1 X166.164 Y128.489 E22.83221
G1 X165.754 Y129.04 E22.85734
G1 X164.981 Y129.918 E22.90013
G1 X164.502 Y130.382 E22.92453
G1 X163.575 Y131.146 E22.96848
G1 X163.09 Y131.491 E22.99026
G1 X162.188 Y132.04 E23.02889
G1 X161.753 Y132.271 E23.04691
G1 X160.703 Y132.751 E23.08915
G1 X160.207 Y132.94 E23.10857
G1 X158.388 Y133.506 E23.17827
G1 X157.955 Y133.616 E23.19461
G1 X156.409 Y133.921 E23.25226
G1 X156.034 Y133.977 E23.26614
G1 X153.207 Y134.272 E23.37013
G1 X152.866 Y134.294 E23.38263
G1 X149.037 Y134.379 E23.52275
G1 X148.941 Y134.38 E23.52626
G1 X82.921 Y134.329 E25.94168
G1 X82.579 Y134.315 E25.95421
G1 X79.656 Y134.073 E26.06151
G1 X79.222 Y134.014 E26.07754
G1 X76.827 Y133.56 E26.16672
G1 X76.267 Y133.413 E26.1879
G1 X74.351 Y132.765 E26.2619
G1 X73.776 Y132.521 E26.28476
G1 X72.586 Y131.908 E26.33373
G1 X72.072 Y131.595 E26.35575
G1 X71.133 Y130.925 E26.39795
G1 X70.63 Y130.502 E26.422
G1 X69.779 Y129.665 E26.46567
G1 X69.34 Y129.158 E26.4902
G1 X68.665 Y128.238 E26.53195
G1 X68.35 Y127.737 E26.5536
G1 X67.856 Y126.814 E26.5919
G1 X67.648 Y126.363 E26.61007
G1 X67.269 Y125.393 E26.64818
G1 X67.079 Y124.769 E26.67204
G1 X66.604 Y122.606 E26.75306
G1 X66.514 Y121.954 E26.77714
G1 X66.426 Y120.454 E26.83212
G1 X66.432 Y119.876 E26.85326
G1 X66.57 Y119.097 E26.88221
G1 X66.695 Y118.644 E26.8994
G1 X66.886 Y118.099 E26.92053
G1 X67.077 Y117.713 E26.93629
G1 X67.196 Y117.5 E26.94521
G1 X67.077 Y117.287 E26.95414
G1 X66.83 Y116.764 E26.9753
G1 X66.695 Y116.356 E26.99102
G1 X66.57 Y115.903 E27.00822
G1 X66.455 Y115.336 E27.02938
G1 X66.426 Y114.548 E27.05823
G1 X66.513 Y113.057 E27.11288
G1 X66.57 Y112.57 E27.13081
G1 X66.782 Y111.374 E27.17525
G1 X66.901 Y110.881 E27.19381
G1 X67.376 Y109.329 E27.25319
G1 X67.588 Y108.779 E27.27476
G1 X68.034 Y107.827 E27.31322
G1 X68.301 Y107.342 E27.33347
G1 X68.864 Y106.465 E27.3716
G1 X69.226 Y105.983 E27.39366
G1 X69.931 Y105.171 E27.433
G1 X70.375 Y104.73 E27.45589
G1 X71.142 Y104.076 E27.49277
G0 F810 X71.222 Y104.008
G0 X71.724 Y103.641
M204 S5000
M205 X30 Y30
G0 F7200 X71.956 Y104.015
M204 S500
M205 X20 Y20
G1 F6000 E27.51937
G1 F900 X73.041 Y103.339 E27.56614
G1 X73.599 Y103.053 E27.58908
G1 X75.4 Y102.314 E27.6603
G1 X75.942 Y102.139 E27.68114
G1 X78.149 Y101.606 E27.76421
G1 X78.656 Y101.519 E27.78303
G1 X82.553 Y101.13 E27.92631
G1 X82.921 Y101.112 E27.93979
G1 X150.28 Y101.065 E30.4042
G1 X150.44 Y101.068 E30.41006
G1 X153.765 Y101.208 E30.53181
G1 X154.062 Y101.233 E30.54272
G1 X156.26 Y101.502 E30.62373
G1 X156.649 Y101.57 E30.63818
G1 X158.923 Y102.096 E30.72357
G1 X159.38 Y102.233 E30.74103
G1 X160.613 Y102.69 E30.78914
G1 X161.026 Y102.872 E30.80565
G1 X162.22 Y103.487 E30.85479
G1 X162.685 Y103.771 E30.87472
G1 X163.622 Y104.442 E30.91689
G1 X164.068 Y104.818 E30.93823
G1 X164.917 Y105.654 E30.98182
G1 X165.308 Y106.106 E31.00369
G1 X165.981 Y107.023 E31.04531
G1 X166.264 Y107.472 E31.06472
G1 X166.761 Y108.401 E31.10327
G1 X166.949 Y108.811 E31.11977
G1 X167.325 Y109.779 E31.15777
G1 X167.492 Y110.331 E31.17886
G1 X167.966 Y112.49 E31.25974
G1 X168.047 Y113.086 E31.28174
G1 X168.131 Y114.609 E31.33755
G1 X168.121 Y115.156 E31.35756
G1 X167.988 Y115.859 E31.38374
G1 X167.856 Y116.313 E31.40104
G1 X167.666 Y116.825 E31.42102
G1 X167.506 Y117.135 E31.43378
G1 X167.297 Y117.498 E31.44911
G1 X167.311 Y117.521 E31.45009
G1 X167.539 Y117.928 E31.46716
G1 X167.77 Y118.423 E31.48714
G1 X167.881 Y118.761 E31.50016
G1 X168.006 Y119.214 E31.51735
G1 X168.113 Y119.75 E31.53735
G1 X168.138 Y120.055 E31.54855
G1 X168.157 Y120.517 E31.56546
G1 X168.128 Y121.157 E31.5889
G1 X167.879 Y123.058 E31.65905
G1 X167.791 Y123.512 E31.67597
G1 X167.44 Y124.863 E31.72703
G1 X167.269 Y125.369 E31.74658
G1 X166.725 Y126.667 E31.79807
G1 X166.45 Y127.2 E31.82001
G1 X165.791 Y128.257 E31.86558
G1 X165.424 Y128.749 E31.88804
G1 X164.651 Y129.627 E31.93084
G1 X164.223 Y130.042 E31.95265
G1 X163.296 Y130.806 E31.9966
G1 X162.861 Y131.115 E32.01612
G1 X161.959 Y131.664 E32.05475
G1 X161.57 Y131.87 E32.07086
G1 X160.52 Y132.35 E32.11309
G1 X160.076 Y132.52 E32.13049
G1 X158.257 Y133.086 E32.20019
G1 X157.87 Y133.184 E32.21479
G1 X156.324 Y133.489 E32.27244
G1 X155.988 Y133.54 E32.28488
G1 X153.161 Y133.835 E32.38887
G1 X152.856 Y133.854 E32.40005
G1 X149.027 Y133.939 E32.54017
G1 X148.941 Y133.94 E32.54332
G1 X82.921 Y133.889 E34.95874
G1 X82.615 Y133.876 E34.96994
G1 X79.692 Y133.634 E35.07725
G1 X79.304 Y133.582 E35.09157
G1 X76.909 Y133.128 E35.18076
G1 X76.408 Y132.996 E35.19971
G1 X74.492 Y132.348 E35.27371
G1 X73.977 Y132.13 E35.29417
G1 X72.787 Y131.517 E35.34315
G1 X72.328 Y131.236 E35.36284
G1 X71.389 Y130.566 E35.40504
G1 X70.938 Y130.188 E35.42657
G1 X70.087 Y129.351 E35.47024
G1 X69.695 Y128.897 E35.49218
G1 X69.02 Y127.977 E35.53393
G1 X68.738 Y127.53 E35.55327
G1 X68.244 Y126.607 E35.59157
G1 X68.057 Y126.203 E35.60786
G1 X67.678 Y125.233 E35.64596
G1 X67.509 Y124.674 E35.66732
G1 X67.034 Y122.511 E35.74835
G1 X66.953 Y121.928 E35.76988
G1 X66.865 Y120.428 E35.82485
G1 X66.873 Y119.881 E35.84487
G1 X66.994 Y119.214 E35.86967
G1 X67.119 Y118.761 E35.88686
G1 X67.302 Y118.246 E35.90686
G1 X67.461 Y117.928 E35.91987
G1 X67.689 Y117.521 E35.93693
G1 X67.702 Y117.501 E35.93781
G1 X67.689 Y117.479 E35.93874
G1 X67.461 Y117.072 E35.95581
G1 X67.23 Y116.577 E35.97579
G1 X67.119 Y116.239 E35.98881
G1 X66.994 Y115.786 E36.006
G1 X66.887 Y115.25 E36.026
G1 X66.865 Y114.573 E36.05078
G1 X66.952 Y113.082 E36.10542
G1 X67.003 Y112.647 E36.12145
G1 X67.215 Y111.451 E36.16589
G1 X67.322 Y111.009 E36.18253
G1 X67.797 Y109.457 E36.24191
G1 X67.986 Y108.965 E36.26119
G1 X68.432 Y108.013 E36.29965
G1 X68.672 Y107.58 E36.31777
G1 X69.235 Y106.703 E36.35589
G1 X69.558 Y106.271 E36.37563
G1 X70.263 Y105.459 E36.41497
G1 X70.661 Y105.065 E36.43546
G1 X71.377 Y104.454 E36.4699
G0 F810 X71.508 Y104.343
G0 X71.956 Y104.015
M204 S5000
M205 X30 Y30
G0 F7200 X72.189 Y104.388
M204 S500
M205 X20 Y20
G1 F6000 E36.4965
G1 F900 X73.274 Y103.712 E36.54327
G1 X73.766 Y103.46 E36.56349
G1 X75.567 Y102.721 E36.63471
G1 X76.045 Y102.566 E36.6531
G1 X78.252 Y102.033 E36.73617
G1 X78.699 Y101.957 E36.75275
G1 X82.596 Y101.568 E36.89604
G1 X82.922 Y101.552 E36.90798
G1 X150.281 Y101.505 E39.37239
G1 X150.422 Y101.508 E39.37755
G1 X153.747 Y101.648 E39.4993
G1 X154.009 Y101.669 E39.50892
G1 X156.207 Y101.938 E39.58994
G1 X156.55 Y101.999 E39.60268
G1 X158.824 Y102.525 E39.68808
