;FLAVOR:Marlin
;TIME:5549
;Filament used: 4.56172m
;Layer height: 0.2
;Generated with Cura_SteamEngine 3.6.0
M140 S70
M105
M190 S70
M104 S215
M105
M109 S215
M82 ;absolute extrusion mode
G28 ; home all axes
M117 Purge extruder
G92 E0 ; reset extruder
G1 Z1.0 F3000 ; move z up little to prevent scratching of surface
G1 X0.1 Y20 Z0.3 F5000.0 ; move to start-line position G1 X0.1 Y200.0 Z0.3 F1500.0 E15 ; draw 1st line
G1 X0.4 Y200.0 Z0.3 F5000.0 ; move to side a little
G1 X0.4 Y20 Z0.3 F1500.0 E30 ; draw 2nd line
G92 E0 ; reset extruder
G1 Z1.0 F3000 ; move z up little to prevent scratching of surface
M117 All systems go!
G92 E0
G1 F6000 E-5
;LAYER_COUNT:26
;LAYER:0
M107
M204 S5000
M205 X30 Y30
G0 F7200 X76.886 Y89.923 Z0.2
M204 S500
M205 X20 Y20
;TYPE:SKIRT
G1 F6000 E0
G1 F900 X77.409 Y89.561 E0.02327
G1 X77.813 Y89.343 E0.04007
G1 X78.108 Y89.2 E0.05206
G1 X78.696 Y88.959 E0.07531
G1 X79.31 Y88.794 E0.09857
G1 X79.719 Y88.728 E0.11373
G1 X80.056 Y88.688 E0.12614
G1 X80.691 Y88.653 E0.14941
G1 X81.325 Y88.698 E0.17267
G1 X81.74 Y88.771 E0.18808
G1 X82.058 Y88.841 E0.2
G1 X82.669 Y89.017 E0.22326
G1 X83.253 Y89.268 E0.24651
G1 X83.786 Y89.579 E0.26909
G1 X85.952 Y91.03 E0.36448
G1 X86.36 Y91.334 E0.38309
G1 X87.607 Y92.365 E0.44229
G1 X87.887 Y92.615 E0.45602
G1 X89.062 Y93.743 E0.51561
G1 X89.384 Y94.081 E0.53269
G1 X91.549 Y96.582 E0.65371
G1 X91.962 Y96.959 E0.67417
G1 X92.426 Y97.292 E0.69507
G1 X92.92 Y97.565 E0.71572
G1 X93.4 Y97.763 E0.73472
G1 X94.364 Y98.005 E0.77108
G1 X158.883 Y104.525 E3.1436
G1 X159.51 Y104.628 E3.16685
G1 X160.12 Y104.81 E3.19014
G1 X160.702 Y105.066 E3.2134
G1 X161.247 Y105.394 E3.23667
G1 X161.747 Y105.787 E3.25994
G1 X162.295 Y106.361 E3.28898
G1 X162.41 Y106.502 E3.29563
G1 X162.78 Y107.019 E3.31889
G1 X163.083 Y107.578 E3.34216
G1 X163.313 Y108.171 E3.36543
G1 X163.466 Y108.788 E3.38868
G1 X163.541 Y109.42 E3.41197
G1 X163.523 Y110.208 E3.4408
G1 X163.348 Y111.942 E3.50457
G1 X163.245 Y112.57 E3.52785
G1 X163.064 Y113.179 E3.55109
G1 X162.807 Y113.761 E3.57437
G1 X162.48 Y114.306 E3.59762
G1 X162.411 Y114.394 E3.60172
G1 X162.496 Y114.539 E3.60787
G1 X162.745 Y115.125 E3.63116
G1 X162.918 Y115.736 E3.65439
G1 X163.014 Y116.365 E3.67767
G1 X163.008 Y117.315 E3.71243
G1 X162.058 Y126.755 E4.05955
G1 X161.954 Y127.382 E4.0828
G1 X161.773 Y127.992 E4.10608
G1 X161.517 Y128.574 E4.12934
G1 X161.19 Y129.119 E4.15259
G1 X160.889 Y129.501 E4.17039
G1 X161.106 Y130.06 E4.19233
G1 X161.259 Y130.677 E4.21558
G1 X161.334 Y131.309 E4.23887
G1 X161.317 Y132.094 E4.2676
G1 X161.143 Y133.828 E4.33135
G1 X161.04 Y134.456 E4.35464
G1 X160.859 Y135.065 E4.37788
G1 X160.603 Y135.647 E4.40114
G1 X160.275 Y136.193 E4.42445
G1 X159.883 Y136.693 E4.44769
G1 X159.306 Y137.244 E4.47688
G1 X159.165 Y137.359 E4.48354
G1 X158.648 Y137.729 E4.5068
G1 X158.089 Y138.032 E4.53006
G1 X157.496 Y138.262 E4.55333
G1 X156.879 Y138.415 E4.57659
G1 X156.247 Y138.49 E4.59987
G1 X155.461 Y138.473 E4.62864
G1 X90.901 Y131.978 E7.00256
G1 X90.455 Y131.979 E7.01888
G1 X89.619 Y132.085 E7.04971
G1 X89.157 Y132.205 E7.06717
G1 X88.713 Y132.371 E7.08452
G1 X88.25 Y132.599 E7.1034
G1 X87.825 Y132.865 E7.12174
G1 X85.455 Y134.697 E7.23134
G1 X85.952 Y135.03 E7.25322
G1 X86.36 Y135.334 E7.27184
G1 X87.607 Y136.365 E7.33104
G1 X87.887 Y136.615 E7.34477
G1 X89.062 Y137.743 E7.40436
G1 X89.384 Y138.081 E7.42144
G1 X91.549 Y140.582 E7.54246
G1 X91.962 Y140.959 E7.56292
G1 X92.426 Y141.292 E7.58382
G1 X92.92 Y141.565 E7.60447
G1 X93.4 Y141.763 E7.62346
G1 X94.364 Y142.005 E7.65983
G1 X158.883 Y148.525 E10.03235
G1 X159.51 Y148.628 E10.0556
G1 X160.12 Y148.81 E10.07889
G1 X160.702 Y149.066 E10.10215
G1 X161.247 Y149.394 E10.12542
G1 X161.747 Y149.787 E10.14869
G1 X162.295 Y150.361 E10.17772
G1 X162.41 Y150.502 E10.18438
G1 X162.78 Y151.019 E10.20764
G1 X163.083 Y151.578 E10.2309
G1 X163.313 Y152.171 E10.25417
G1 X163.466 Y152.788 E10.27743
G1 X163.541 Y153.42 E10.30072
G1 X163.523 Y154.208 E10.32955
G1 X163.348 Y155.942 E10.39332
G1 X163.245 Y156.57 E10.4166
G1 X163.064 Y157.179 E10.43984
G1 X162.807 Y157.761 E10.46312
G1 X162.48 Y158.306 E10.48637
G1 X162.411 Y158.394 E10.49046
G1 X162.496 Y158.539 E10.49661
G1 X162.745 Y159.125 E10.51991
G1 X162.918 Y159.736 E10.54314
G1 X163.014 Y160.365 E10.56642
G1 X163.008 Y161.315 E10.60118
G1 X162.058 Y170.755 E10.9483
G1 X161.954 Y171.382 E10.97155
G1 X161.773 Y171.992 E10.99483
G1 X161.517 Y172.574 E11.01809
G1 X161.19 Y173.119 E11.04134
G1 X160.889 Y173.501 E11.05914
G1 X161.106 Y174.06 E11.08108
G1 X161.259 Y174.677 E11.10433
G1 X161.334 Y175.309 E11.12762
G1 X161.317 Y176.094 E11.15634
G1 X161.143 Y177.828 E11.2201
G1 X161.04 Y178.456 E11.24339
G1 X160.859 Y179.065 E11.26663
G1 X160.603 Y179.647 E11.28989
G1 X160.275 Y180.193 E11.3132
G1 X159.883 Y180.693 E11.33644
G1 X159.306 Y181.244 E11.36563
G1 X159.165 Y181.359 E11.37229
G1 X158.648 Y181.729 E11.39555
G1 X158.089 Y182.032 E11.41881
G1 X157.496 Y182.262 E11.44208
G1 X156.879 Y182.415 E11.46534
G1 X156.247 Y182.49 E11.48862
G1 X155.461 Y182.473 E11.51739
G1 X90.901 Y175.978 E13.89131
G1 X90.455 Y175.979 E13.90763
G1 X89.619 Y176.085 E13.93846
G1 X89.157 Y176.205 E13.95592
G1 X88.713 Y176.371 E13.97327
G1 X88.25 Y176.599 E13.99215
G1 X87.825 Y176.865 E14.01049
G1 X85.286 Y178.828 E14.12791
G1 X84.899 Y179.1 E14.14521
G1 X83.524 Y179.971 E14.20476
G1 X83.199 Y180.16 E14.21852
G1 X81.764 Y180.926 E14.27803
G1 X81.339 Y181.128 E14.29525
G1 X79.082 Y182.075 E14.3848
G1 X78.481 Y182.284 E14.40808
G1 X77.961 Y182.399 E14.42756
G1 X77.627 Y182.455 E14.43995
G1 X76.994 Y182.521 E14.46324
G1 X76.358 Y182.507 E14.48651
G1 X75.938 Y182.453 E14.502
G1 X75.61 Y182.397 E14.51418
G1 X74.992 Y182.251 E14.53741
G1 X74.396 Y182.028 E14.56069
G1 X74.02 Y181.841 E14.57606
G1 X73.726 Y181.679 E14.58834
G1 X73.189 Y181.337 E14.61163
G1 X72.7 Y180.932 E14.63486
G1 X72.378 Y180.599 E14.65181
G1 X72.156 Y180.348 E14.66407
G1 X71.765 Y179.846 E14.68735
G1 X71.441 Y179.3 E14.71057
G1 X71.271 Y178.931 E14.72544
G1 X71.146 Y178.629 E14.7374
G1 X70.94 Y178.027 E14.76068
G1 X70.811 Y177.405 E14.78392
G1 X70.77 Y176.997 E14.79892
G1 X70.75 Y176.664 E14.81112
G1 X70.752 Y176.028 E14.83439
G1 X70.834 Y175.398 E14.85764
G1 X70.916 Y175.04 E14.87107
G1 X70.999 Y174.733 E14.88271
G1 X71.204 Y174.131 E14.90598
G1 X71.482 Y173.559 E14.92924
G1 X71.664 Y173.262 E14.94199
G1 X71.844 Y172.99 E14.95392
G1 X72.228 Y172.482 E14.97722
G1 X72.672 Y172.027 E15.00048
G1 X73.015 Y171.743 E15.01677
G1 X73.272 Y171.549 E15.02855
G1 X73.803 Y171.199 E15.05182
G1 X74.315 Y170.943 E15.07276
G1 X76.545 Y169.98 E15.16163
G1 X77.605 Y169.383 E15.20614
G1 X78.655 Y168.67 E15.25258
G1 X79.636 Y167.875 E15.29877
G1 X80.549 Y166.996 E15.34514
G1 X81.376 Y166.05 E15.39111
G1 X82.133 Y165.025 E15.43773
G1 X82.793 Y163.948 E15.48394
G1 X83.336 Y162.871 E15.52807
G1 X84.037 Y161.004 E15.60104
G1 X84.336 Y159.855 E15.64447
G1 X84.626 Y157.89 E15.71714
G1 X84.678 Y156.682 E15.76138
G1 X84.627 Y155.481 E15.80536
G1 X84.34 Y153.561 E15.87639
G1 X83.808 Y151.673 E15.94815
G1 X83.353 Y150.537 E15.99292
G1 X82.824 Y149.478 E16.03623
G1 X82.207 Y148.457 E16.07988
G1 X81.496 Y147.47 E16.12438
G1 X80.749 Y146.593 E16.16653
G1 X79.413 Y145.314 E16.2342
G1 X76.846 Y143.436 E16.35056
G1 X76.357 Y143.029 E16.37384
G1 X75.923 Y142.564 E16.39711
G1 X75.482 Y141.935 E16.42522
G1 X75.317 Y141.657 E16.43704
G1 X75.027 Y141.09 E16.46034
G1 X74.811 Y140.492 E16.48361
G1 X74.717 Y140.118 E16.49771
G1 X74.651 Y139.805 E16.50942
G1 X74.559 Y139.176 E16.53268
G1 X74.547 Y138.54 E16.55595
G1 X74.574 Y138.189 E16.56883
G1 X74.584 Y138.098 E16.57218
G1 X74.396 Y138.028 E16.57952
G1 X74.02 Y137.841 E16.59488
G1 X73.726 Y137.679 E16.60716
G1 X73.189 Y137.337 E16.63045
G1 X72.7 Y136.932 E16.65368
G1 X72.378 Y136.599 E16.67063
G1 X72.156 Y136.348 E16.68289
G1 X71.765 Y135.846 E16.70617
G1 X71.441 Y135.3 E16.7294
G1 X71.271 Y134.931 E16.74426
G1 X71.146 Y134.629 E16.75622
G1 X70.94 Y134.027 E16.7795
G1 X70.811 Y133.405 E16.80274
G1 X70.77 Y132.997 E16.81774
G1 X70.75 Y132.664 E16.82995
G1 X70.752 Y132.028 E16.85322
G1 X70.834 Y131.398 E16.87646
G1 X70.916 Y131.04 E16.8899
G1 X70.999 Y130.733 E16.90153
G1 X71.204 Y130.131 E16.9248
G1 X71.482 Y129.559 E16.94807
G1 X71.664 Y129.262 E16.96081
G1 X71.844 Y128.99 E16.97275
G1 X72.228 Y128.482 E16.99604
G1 X72.672 Y128.027 E17.0193
G1 X73.015 Y127.743 E17.0356
G1 X73.272 Y127.549 E17.04738
G1 X73.803 Y127.199 E17.07064
G1 X74.315 Y126.943 E17.09159
G1 X76.545 Y125.98 E17.18046
G1 X77.605 Y125.383 E17.22497
G1 X78.655 Y124.67 E17.2714
G1 X79.636 Y123.875 E17.3176
G1 X80.549 Y122.996 E17.36397
G1 X81.376 Y122.05 E17.40994
G1 X82.133 Y121.025 E17.45656
G1 X82.793 Y119.948 E17.50277
G1 X83.336 Y118.871 E17.5469
G1 X84.037 Y117.004 E17.61986
G1 X84.336 Y115.855 E17.6633
G1 X84.626 Y113.89 E17.73597
G1 X84.678 Y112.682 E17.78021
G1 X84.627 Y111.481 E17.82419
G1 X84.34 Y109.561 E17.89521
G1 X83.808 Y107.673 E17.96698
G1 X83.353 Y106.537 E18.01175
G1 X82.824 Y105.478 E18.05506
G1 X82.207 Y104.457 E18.0987
G1 X81.496 Y103.47 E18.14321
G1 X80.749 Y102.593 E18.18535
G1 X79.413 Y101.314 E18.25302
G1 X76.846 Y99.436 E18.36939
G1 X76.357 Y99.029 E18.39267
G1 X75.923 Y98.564 E18.41594
G1 X75.482 Y97.935 E18.44404
G1 X75.317 Y97.657 E18.45587
G1 X75.027 Y97.09 E18.47917
G1 X74.811 Y96.492 E18.50243
G1 X74.717 Y96.118 E18.51654
G1 X74.651 Y95.805 E18.52824
G1 X74.559 Y95.176 E18.5515
G1 X74.547 Y94.54 E18.57477
G1 X74.574 Y94.189 E18.58765
G1 X74.611 Y93.864 E18.59962
G1 X74.723 Y93.238 E18.62289
G1 X74.912 Y92.63 E18.64618
G1 X75.068 Y92.267 E18.66064
G1 X75.208 Y91.972 E18.67258
G1 X75.516 Y91.415 E18.69587
G1 X75.891 Y90.902 E18.71912
G1 X76.172 Y90.593 E18.7344
G1 X76.349 Y90.413 E18.74364
G0 F810 X76.413 Y90.348
G0 X76.886 Y89.923
M204 S5000
M205 X30 Y30
G0 F7200 X77.18 Y90.252
M204 S500
M205 X20 Y20
G1 F6000 E18.77023
G1 F900 X77.683 Y89.911 E18.79247
G1 X78.005 Y89.739 E18.80582
G1 X78.3 Y89.596 E18.81782
G1 X78.863 Y89.367 E18.84005
G1 X79.451 Y89.215 E18.86227
G1 X79.77 Y89.165 E18.87409
G1 X80.107 Y89.125 E18.8865
G1 X80.714 Y89.093 E18.90874
G1 X81.32 Y89.142 E18.93099
G1 X81.645 Y89.201 E18.94307
G1 X81.963 Y89.271 E18.95498
G1 X82.547 Y89.44 E18.97723
G1 X83.103 Y89.685 E18.99946
G1 X83.541 Y89.945 E19.01809
G1 X85.707 Y91.396 E19.11347
G1 X86.08 Y91.673 E19.13047
G1 X87.327 Y92.704 E19.18967
G1 X87.582 Y92.932 E19.20218
G1 X88.757 Y94.06 E19.26178
G1 X89.051 Y94.369 E19.27738
G1 X91.229 Y96.886 E19.39916
G1 X91.683 Y97.299 E19.42161
G1 X92.199 Y97.669 E19.44484
G1 X92.727 Y97.962 E19.46694
G1 X93.255 Y98.18 E19.48783
G1 X94.288 Y98.439 E19.5268
G1 X158.839 Y104.962 E21.9005
G1 X159.438 Y105.063 E21.92272
G1 X160.019 Y105.242 E21.94496
G1 X160.571 Y105.495 E21.96718
G1 X161.085 Y105.818 E21.98939
G1 X161.553 Y106.206 E22.01163
G1 X161.954 Y106.639 E22.03322
G1 X162.069 Y106.78 E22.03988
G1 X162.421 Y107.275 E22.0621
G1 X162.706 Y107.812 E22.08435
G1 X162.917 Y108.382 E22.10658
G1 X163.052 Y108.974 E22.1288
G1 X163.107 Y109.579 E22.15102
G1 X163.086 Y110.164 E22.17244
G1 X162.911 Y111.898 E22.2362
G1 X162.81 Y112.497 E22.25843
G1 X162.632 Y113.078 E22.28066
G1 X162.379 Y113.63 E22.30287
G1 X162.055 Y114.145 E22.32513
G1 X161.883 Y114.352 E22.33498
G1 X161.912 Y114.394 E22.33685
G1 X162.195 Y114.932 E22.35909
G1 X162.405 Y115.503 E22.38135
G1 X162.538 Y116.095 E22.40355
G1 X162.592 Y116.701 E22.42581
G1 X162.57 Y117.271 E22.44668
G1 X161.62 Y126.711 E22.79379
G1 X161.519 Y127.31 E22.81602
G1 X161.341 Y127.891 E22.83825
G1 X161.088 Y128.443 E22.86047
G1 X160.765 Y128.958 E22.88271
G1 X160.377 Y129.425 E22.90492
G1 X160.361 Y129.44 E22.90572
G1 X160.499 Y129.701 E22.91652
G1 X160.71 Y130.271 E22.93876
G1 X160.845 Y130.863 E22.96098
G1 X160.9 Y131.468 E22.9832
G1 X160.879 Y132.05 E23.00451
G1 X160.705 Y133.784 E23.06827
G1 X160.605 Y134.384 E23.09052
G1 X160.427 Y134.965 E23.11275
G1 X160.174 Y135.517 E23.13497
G1 X159.851 Y136.032 E23.15721
G1 X159.463 Y136.499 E23.17942
G1 X159.028 Y136.903 E23.20114
G1 X158.887 Y137.018 E23.2078
G1 X158.392 Y137.37 E23.23002
G1 X157.855 Y137.655 E23.25227
G1 X157.285 Y137.866 E23.2745
G1 X156.693 Y138.001 E23.29672
G1 X156.088 Y138.056 E23.31894
G1 X155.505 Y138.035 E23.34029
G1 X90.925 Y131.538 E25.71495
G1 X90.431 Y131.539 E25.73302
G1 X89.531 Y131.654 E25.76622
G1 X89.028 Y131.784 E25.78522
G1 X88.532 Y131.969 E25.80459
G1 X88.042 Y132.211 E25.82459
G1 X87.573 Y132.504 E25.84482
G1 X85.017 Y134.48 E25.96302
G1 X84.686 Y134.712 E25.97781
G1 X85.707 Y135.396 E26.02277
G1 X86.08 Y135.673 E26.03977
G1 X87.327 Y136.704 E26.09896
G1 X87.582 Y136.932 E26.11148
G1 X88.757 Y138.06 E26.17107
G1 X89.051 Y138.369 E26.18668
G1 X91.229 Y140.886 E26.30845
G1 X91.683 Y141.299 E26.33091
G1 X92.199 Y141.669 E26.35414
G1 X92.727 Y141.962 E26.37623
G1 X93.255 Y142.18 E26.39713
G1 X94.288 Y142.439 E26.43609
G1 X158.839 Y148.962 E28.80979
G1 X159.438 Y149.063 E28.83202
G1 X160.019 Y149.242 E28.85426
G1 X160.571 Y149.495 E28.87648
G1 X161.085 Y149.818 E28.89869
G1 X161.553 Y150.206 E28.92093
G1 X161.954 Y150.639 E28.94252
G1 X162.069 Y150.78 E28.94918
G1 X162.421 Y151.275 E28.9714
G1 X162.706 Y151.812 E28.99364
G1 X162.917 Y152.382 E29.01588
G1 X163.052 Y152.974 E29.03809
G1 X163.107 Y153.579 E29.06032
G1 X163.086 Y154.164 E29.08173
G1 X162.911 Y155.898 E29.1455
G1 X162.81 Y156.497 E29.16772
G1 X162.632 Y157.078 E29.18995
G1 X162.379 Y157.63 E29.21217
G1 X162.055 Y158.145 E29.23443
G1 X161.883 Y158.352 E29.24428
G1 X161.912 Y158.394 E29.24614
G1 X162.195 Y158.932 E29.26838
G1 X162.405 Y159.503 E29.29064
G1 X162.538 Y160.095 E29.31284
G1 X162.592 Y160.701 E29.3351
G1 X162.57 Y161.271 E29.35597
G1 X161.62 Y170.711 E29.70309
G1 X161.519 Y171.31 E29.72531
G1 X161.341 Y171.891 E29.74754
G1 X161.088 Y172.443 E29.76976
G1 X160.765 Y172.958 E29.792
G1 X160.377 Y173.425 E29.81421
G1 X160.361 Y173.44 E29.81502
G1 X160.499 Y173.701 E29.82582
G1 X160.71 Y174.271 E29.84806
G1 X160.845 Y174.863 E29.87027
G1 X160.9 Y175.468 E29.8925
G1 X160.879 Y176.05 E29.9138
G1 X160.705 Y177.784 E29.97756
G1 X160.605 Y178.384 E29.99982
G1 X160.427 Y178.965 E30.02205
G1 X160.174 Y179.517 E30.04426
G1 X159.851 Y180.032 E30.06651
G1 X159.463 Y180.499 E30.08872
G1 X159.028 Y180.903 E30.11044
G1 X158.887 Y181.018 E30.1171
G1 X158.392 Y181.37 E30.13932
G1 X157.855 Y181.655 E30.16156
G1 X157.285 Y181.866 E30.1838
G1 X156.693 Y182.001 E30.20601
G1 X156.088 Y182.056 E30.22824
G1 X155.505 Y182.035 E30.24958
G1 X90.925 Y175.538 E32.62424
G1 X90.431 Y175.539 E32.64232
G1 X89.531 Y175.654 E32.67551
G1 X89.028 Y175.784 E32.69452
G1 X88.532 Y175.969 E32.71389
G1 X88.042 Y176.211 E32.73388
G1 X87.573 Y176.504 E32.75411
G1 X85.017 Y178.48 E32.87231
G1 X84.663 Y178.728 E32.88813
G1 X83.288 Y179.599 E32.94768
G1 X82.992 Y179.772 E32.96022
G1 X81.557 Y180.538 E33.01973
G1 X81.169 Y180.722 E33.03544
G1 X78.912 Y181.669 E33.12499
G1 X78.337 Y181.867 E33.14724
G1 X77.888 Y181.965 E33.16406
G1 X77.554 Y182.021 E33.17645
G1 X76.949 Y182.082 E33.19869
G1 X76.342 Y182.063 E33.22091
G1 X76.012 Y182.019 E33.23309
G1 X75.684 Y181.963 E33.24527
G1 X75.094 Y181.822 E33.26746
G1 X74.526 Y181.604 E33.28972
G1 X74.232 Y181.455 E33.30178
G1 X73.938 Y181.293 E33.31406
G1 X73.427 Y180.966 E33.33625
G1 X72.962 Y180.574 E33.35851
G1 X72.707 Y180.308 E33.37199
G1 X72.485 Y180.057 E33.38425
G1 X72.114 Y179.576 E33.40647
G1 X71.808 Y179.051 E33.4287
G1 X71.677 Y178.763 E33.44028
G1 X71.552 Y178.461 E33.45224
G1 X71.357 Y177.885 E33.47449
G1 X71.24 Y177.289 E33.49671
G1 X71.209 Y176.971 E33.5084
G1 X71.189 Y176.638 E33.5206
G1 X71.193 Y176.03 E33.54285
G1 X71.341 Y175.155 E33.57531
G1 X71.424 Y174.848 E33.58695
G1 X71.621 Y174.273 E33.60919
G1 X72.031 Y173.504 E33.64107
G1 X72.211 Y173.232 E33.653
G1 X72.579 Y172.749 E33.67522
G1 X73.007 Y172.318 E33.69744
G1 X73.281 Y172.095 E33.71037
G1 X73.538 Y171.901 E33.72215
G1 X74.046 Y171.567 E33.74439
G1 X74.49 Y171.347 E33.76252
G1 X76.736 Y170.377 E33.85203
G1 X77.844 Y169.753 E33.89855
G1 X78.914 Y169.026 E33.94588
G1 X79.926 Y168.206 E33.99353
G1 X80.869 Y167.298 E34.04143
