;FLAVOR:Marlin
;TIME:4780
;Filament used: 2.79352m
;Layer height: 0.2
;Generated with Cura_SteamEngine 3.6.0
M140 S70
M105
M190 S70
M104 S215
M105
M109 S215
M82 ;absolute extrusion mode
G28 ; home all axes
M117 Purge extruder
G92 E0 ; reset extruder
G1 Z1.0 F3000 ; move z up little to prevent scratching of surface
G1 X0.1 Y20 Z0.3 F5000.0 ; move to start-line position G1 X0.1 Y200.0 Z0.3 F1500.0 E15 ; draw 1st line
G1 X0.4 Y200.0 Z0.3 F5000.0 ; move to side a little
G1 X0.4 Y20 Z0.3 F1500.0 E30 ; draw 2nd line
G92 E0 ; reset extruder
G1 Z1.0 F3000 ; move z up little to prevent scratching of surface
M117 All systems go!
G92 E0
G1 F6000 E-5
;LAYER_COUNT:401
;LAYER:0
M107
M204 S5000
M205 X30 Y30
G0 F7200 X100.844 Y91.474 Z0.2
M204 S500
M205 X20 Y20
;TYPE:SKIRT
G1 F6000 E0
G1 F900 X100.973 Y91.345 E0.00667
G1 X101.895 Y90.479 E0.05295
G1 X102.871 Y89.673 E0.09926
G1 X103.895 Y88.93 E0.14555
G1 X104.965 Y88.253 E0.19188
G1 X106.074 Y87.646 E0.23813
G1 X107.221 Y87.109 E0.28447
G1 X108.398 Y86.646 E0.33074
G1 X109.603 Y86.259 E0.37704
G1 X110.829 Y85.948 E0.42332
G1 X112.073 Y85.716 E0.46962
G1 X113.329 Y85.562 E0.51591
G1 X115.142 Y85.481 E0.58231
G1 X119.884 Y85.484 E0.7558
G1 X121.148 Y85.525 E0.80207
G1 X122.408 Y85.645 E0.84838
G1 X123.658 Y85.845 E0.89469
G1 X124.892 Y86.124 E0.94098
G1 X126.106 Y86.48 E0.98726
G1 X127.296 Y86.912 E1.03358
G1 X128.455 Y87.418 E1.07985
G1 X129.581 Y87.996 E1.12616
G1 X130.667 Y88.645 E1.17244
G1 X131.711 Y89.36 E1.21874
G1 X132.707 Y90.141 E1.26505
G1 X134.027 Y91.348 E1.33049
G1 X134.156 Y91.477 E1.33716
G1 X135.022 Y92.399 E1.38344
G1 X135.828 Y93.375 E1.42975
G1 X136.571 Y94.399 E1.47604
G1 X137.248 Y95.469 E1.52236
G1 X137.855 Y96.578 E1.56862
G1 X138.392 Y97.725 E1.61495
G1 X138.855 Y98.902 E1.66123
G1 X139.242 Y100.107 E1.70753
G1 X139.553 Y101.333 E1.7538
G1 X139.785 Y102.577 E1.8001
G1 X139.939 Y103.833 E1.8464
G1 X140.02 Y105.668 E1.9136
G1 X140.017 Y107.406 E1.97719
G1 X139.975 Y108.67 E2.02346
G1 X139.853 Y109.93 E2.06977
G1 X139.652 Y111.179 E2.11606
G1 X139.372 Y112.413 E2.16235
G1 X139.014 Y113.627 E2.20866
G1 X138.581 Y114.816 E2.25495
G1 X138.521 Y114.953 E2.26042
G1 X138.522 Y120.051 E2.44694
G1 X138.855 Y120.898 E2.48024
G1 X139.242 Y122.103 E2.52654
G1 X139.553 Y123.329 E2.57282
G1 X139.785 Y124.573 E2.61912
G1 X139.939 Y125.829 E2.66541
G1 X140.02 Y127.629 E2.73133
G1 X140.02 Y129.371 E2.79507
G1 X139.98 Y130.636 E2.84137
G1 X139.86 Y131.895 E2.88764
G1 X139.661 Y133.145 E2.93395
G1 X139.383 Y134.38 E2.98026
G1 X139.028 Y135.594 E3.02654
G1 X138.597 Y136.784 E3.07285
G1 X138.092 Y137.944 E3.11913
G1 X137.514 Y139.07 E3.16544
G1 X136.866 Y140.157 E3.21174
G1 X136.151 Y141.201 E3.25803
G1 X135.372 Y142.197 E3.3043
G1 X134.156 Y143.527 E3.37023
G1 X134.027 Y143.656 E3.3769
G1 X133.105 Y144.522 E3.42318
G1 X132.129 Y145.328 E3.46949
G1 X131.105 Y146.071 E3.51578
G1 X130.035 Y146.748 E3.5621
G1 X128.926 Y147.355 E3.60836
G1 X127.779 Y147.892 E3.65469
G1 X126.602 Y148.355 E3.70097
G1 X125.397 Y148.742 E3.74727
G1 X124.171 Y149.053 E3.79355
G1 X122.927 Y149.285 E3.83984
G1 X121.671 Y149.439 E3.88614
G1 X119.871 Y149.52 E3.95206
G1 X115.129 Y149.52 E4.12555
G1 X113.864 Y149.48 E4.17186
G1 X112.605 Y149.36 E4.21813
G1 X111.355 Y149.161 E4.26444
G1 X110.12 Y148.883 E4.31075
G1 X108.906 Y148.528 E4.35703
G1 X107.716 Y148.097 E4.40333
G1 X106.556 Y147.592 E4.44962
G1 X105.43 Y147.014 E4.49593
G1 X104.343 Y146.366 E4.54223
G1 X103.299 Y145.651 E4.58852
G1 X102.303 Y144.872 E4.63478
G1 X100.973 Y143.656 E4.70071
G1 X100.844 Y143.527 E4.70739
G1 X99.978 Y142.605 E4.75367
G1 X99.172 Y141.629 E4.79998
G1 X98.429 Y140.605 E4.84627
G1 X97.752 Y139.535 E4.89259
G1 X97.145 Y138.426 E4.93884
G1 X96.608 Y137.279 E4.98518
G1 X96.145 Y136.102 E5.03145
G1 X95.758 Y134.897 E5.07776
G1 X95.447 Y133.671 E5.12403
G1 X95.215 Y132.427 E5.17033
G1 X95.061 Y131.171 E5.21663
G1 X94.98 Y129.371 E5.28255
G1 X94.98 Y127.629 E5.34628
G1 X95.02 Y126.364 E5.39259
G1 X95.14 Y125.105 E5.43886
G1 X95.339 Y123.855 E5.48517
G1 X95.617 Y122.62 E5.53148
G1 X95.972 Y121.406 E5.57776
G1 X96.403 Y120.216 E5.62406
G1 X96.48 Y120.039 E5.63112
G1 X96.48 Y114.953 E5.8172
G1 X96.145 Y114.101 E5.8507
G1 X95.758 Y112.896 E5.897
G1 X95.447 Y111.67 E5.94327
G1 X95.215 Y110.426 E5.98957
G1 X95.061 Y109.17 E6.03587
G1 X94.98 Y107.37 E6.10179
G1 X94.98 Y105.63 E6.16545
G1 X95.02 Y104.365 E6.21175
G1 X95.14 Y103.106 E6.25803
G1 X95.339 Y101.856 E6.30433
G1 X95.617 Y100.621 E6.35065
G1 X95.972 Y99.407 E6.39692
G1 X96.403 Y98.217 E6.44323
G1 X96.908 Y97.057 E6.48952
G1 X97.486 Y95.931 E6.53582
G1 X98.134 Y94.844 E6.58212
G1 X98.849 Y93.8 E6.62842
G1 X99.628 Y92.804 E6.67468
G1 X100.354 Y92.01 E6.71404
G0 F810 X100.844 Y91.474
M204 S5000
M205 X30 Y30
G0 F7200 X101.155 Y91.785
M204 S500
M205 X20 Y20
G1 F6000 E6.74064
G1 F900 X101.284 Y91.656 E6.74731
G1 X102.197 Y90.8 E6.7931
G1 X103.162 Y90.004 E6.83887
G1 X104.176 Y89.271 E6.88465
G1 X105.236 Y88.604 E6.93047
G1 X106.335 Y88.007 E6.97622
G1 X107.471 Y87.481 E7.02203
G1 X108.637 Y87.028 E7.06779
G1 X109.831 Y86.651 E7.1136
G1 X111.046 Y86.352 E7.15938
G1 X112.277 Y86.13 E7.20514
G1 X113.52 Y85.987 E7.25092
G1 X115.141 Y85.921 E7.31027
G1 X119.883 Y85.924 E7.48377
G1 X121.134 Y85.965 E7.52956
G1 X122.38 Y86.085 E7.57536
G1 X123.615 Y86.285 E7.62113
G1 X124.835 Y86.564 E7.66692
G1 X126.035 Y86.919 E7.7127
G1 X127.209 Y87.351 E7.75847
G1 X128.354 Y87.857 E7.80427
G1 X129.464 Y88.435 E7.85006
G1 X130.535 Y89.083 E7.89585
G1 X131.562 Y89.797 E7.94162
G1 X132.541 Y90.576 E7.98739
G1 X133.716 Y91.659 E8.04585
G1 X133.845 Y91.788 E8.05253
G1 X134.701 Y92.701 E8.09832
G1 X135.497 Y93.666 E8.14408
G1 X136.23 Y94.68 E8.18986
G1 X136.897 Y95.74 E8.23568
G1 X137.494 Y96.839 E8.28144
G1 X138.02 Y97.975 E8.32724
G1 X138.473 Y99.141 E8.373
G1 X138.85 Y100.335 E8.41881
G1 X139.149 Y101.55 E8.46459
G1 X139.371 Y102.781 E8.51036
G1 X139.514 Y104.024 E8.55613
G1 X139.58 Y105.667 E8.61629
G1 X139.577 Y107.405 E8.67988
G1 X139.535 Y108.655 E8.72564
G1 X139.413 Y109.901 E8.77144
G1 X139.212 Y111.136 E8.81722
G1 X138.932 Y112.356 E8.86302
G1 X138.575 Y113.555 E8.90879
G1 X138.142 Y114.729 E8.95457
G1 X138.081 Y114.866 E8.96005
G1 X138.082 Y120.13 E9.15264
G1 X138.473 Y121.137 E9.19216
G1 X138.85 Y122.331 E9.23797
G1 X139.149 Y123.546 E9.28375
G1 X139.371 Y124.777 E9.32952
G1 X139.514 Y126.02 E9.37529
G1 X139.58 Y127.629 E9.43421
G1 X139.58 Y129.371 E9.49794
G1 X139.54 Y130.622 E9.54373
G1 X139.42 Y131.867 E9.5895
G1 X139.221 Y133.103 E9.6353
G1 X138.943 Y134.323 E9.68108
G1 X138.588 Y135.523 E9.72686
G1 X138.157 Y136.698 E9.77265
G1 X137.652 Y137.843 E9.81844
G1 X137.075 Y138.953 E9.86421
G1 X136.428 Y140.024 E9.90998
G1 X135.714 Y141.052 E9.95578
G1 X134.936 Y142.032 E10.00156
G1 X133.845 Y143.216 E10.06046
G1 X133.716 Y143.345 E10.06713
G1 X132.803 Y144.201 E10.11292
G1 X131.838 Y144.997 E10.15869
G1 X130.824 Y145.73 E10.20447
G1 X129.764 Y146.397 E10.25029
G1 X128.665 Y146.994 E10.29604
G1 X127.529 Y147.52 E10.34185
G1 X126.363 Y147.973 E10.38761
G1 X125.169 Y148.35 E10.43342
G1 X123.954 Y148.649 E10.4792
G1 X122.723 Y148.871 E10.52496
G1 X121.48 Y149.014 E10.57074
G1 X119.871 Y149.08 E10.62966
G1 X115.129 Y149.08 E10.80315
G1 X113.878 Y149.04 E10.84894
G1 X112.633 Y148.92 E10.8947
G1 X111.397 Y148.721 E10.9405
G1 X110.177 Y148.443 E10.98628
G1 X108.977 Y148.088 E11.03207
G1 X107.802 Y147.657 E11.07786
G1 X106.657 Y147.152 E11.12364
G1 X105.547 Y146.575 E11.16941
G1 X104.476 Y145.928 E11.21519
G1 X103.448 Y145.214 E11.26098
G1 X102.468 Y144.436 E11.30676
G1 X101.284 Y143.345 E11.36567
G1 X101.155 Y143.216 E11.37234
G1 X100.299 Y142.303 E11.41813
G1 X99.503 Y141.338 E11.4639
G1 X98.77 Y140.324 E11.50967
G1 X98.103 Y139.264 E11.55549
G1 X97.506 Y138.165 E11.60125
G1 X96.98 Y137.029 E11.64705
G1 X96.527 Y135.863 E11.69282
G1 X96.15 Y134.669 E11.73863
G1 X95.851 Y133.454 E11.78441
G1 X95.629 Y132.223 E11.83017
G1 X95.486 Y130.98 E11.87595
G1 X95.42 Y129.371 E11.93486
G1 X95.42 Y127.629 E11.9986
G1 X95.46 Y126.378 E12.04439
G1 X95.58 Y125.133 E12.09015
G1 X95.779 Y123.897 E12.13595
G1 X96.057 Y122.677 E12.18173
G1 X96.412 Y121.477 E12.22752
G1 X96.843 Y120.302 E12.2733
G1 X96.92 Y120.127 E12.2803
G1 X96.92 Y114.874 E12.47249
G1 X96.527 Y113.862 E12.51221
G1 X96.15 Y112.668 E12.55802
G1 X95.851 Y111.453 E12.60379
G1 X95.629 Y110.222 E12.64956
G1 X95.486 Y108.979 E12.69533
G1 X95.42 Y107.37 E12.75425
G1 X95.42 Y105.63 E12.81791
G1 X95.46 Y104.379 E12.8637
G1 X95.58 Y103.134 E12.90946
G1 X95.779 Y101.898 E12.95527
G1 X96.057 Y100.678 E13.00105
G1 X96.412 Y99.478 E13.04683
G1 X96.843 Y98.303 E13.09262
G1 X97.348 Y97.158 E13.13841
G1 X97.925 Y96.048 E13.18417
G1 X98.572 Y94.977 E13.22995
G1 X99.286 Y93.949 E13.27575
G1 X100.064 Y92.969 E13.32153
G1 X100.663 Y92.319 E13.35386
G0 F810 X101.155 Y91.785
M204 S5000
M205 X30 Y30
G0 F7200 X101.466 Y92.096
M204 S500
M205 X20 Y20
G1 F6000 E13.38046
G1 F900 X101.595 Y91.967 E13.38714
G1 X102.498 Y91.121 E13.43241
G1 X103.453 Y90.335 E13.47766
G1 X104.457 Y89.612 E13.52293
G1 X105.506 Y88.956 E13.56819
G1 X106.595 Y88.369 E13.61345
G1 X107.72 Y87.853 E13.65874
G1 X108.876 Y87.411 E13.70401
G1 X110.058 Y87.045 E13.74929
G1 X111.261 Y86.756 E13.79455
G1 X112.48 Y86.545 E13.83981
G1 X113.71 Y86.414 E13.88507
G1 X115.141 Y86.361 E13.93746
G1 X119.883 Y86.364 E14.11095
G1 X121.12 Y86.405 E14.15623
G1 X122.351 Y86.525 E14.20148
G1 X123.572 Y86.725 E14.24675
G1 X124.778 Y87.004 E14.29204
G1 X125.963 Y87.359 E14.3373
G1 X127.122 Y87.791 E14.38255
G1 X128.251 Y88.296 E14.4278
G1 X129.346 Y88.874 E14.4731
G1 X130.4 Y89.521 E14.51835
G1 X131.411 Y90.234 E14.56361
G1 X132.374 Y91.012 E14.6089
G1 X133.405 Y91.97 E14.66039
G1 X133.534 Y92.099 E14.66707
G1 X134.38 Y93.002 E14.71234
G1 X135.166 Y93.957 E14.75759
G1 X135.889 Y94.961 E14.80286
G1 X136.545 Y96.01 E14.84812
G1 X137.132 Y97.099 E14.89338
G1 X137.648 Y98.224 E14.93867
G1 X138.09 Y99.38 E14.98395
G1 X138.456 Y100.562 E15.02922
G1 X138.745 Y101.765 E15.07448
G1 X138.956 Y102.984 E15.11974
G1 X139.087 Y104.214 E15.165
G1 X139.14 Y105.666 E15.21816
G1 X139.137 Y107.404 E15.28174
G1 X139.095 Y108.641 E15.32703
G1 X138.973 Y109.872 E15.37229
G1 X138.772 Y111.093 E15.41756
G1 X138.492 Y112.298 E15.46282
G1 X138.135 Y113.482 E15.50806
G1 X137.702 Y114.642 E15.55336
G1 X137.641 Y114.778 E15.55882
G1 X137.642 Y120.207 E15.75744
G1 X137.648 Y120.22 E15.75797
G1 X138.09 Y121.376 E15.80325
G1 X138.456 Y122.558 E15.84852
G1 X138.745 Y123.761 E15.89378
G1 X138.956 Y124.98 E15.93904
G1 X139.087 Y126.21 E15.9843
G1 X139.14 Y127.629 E16.03625
G1 X139.14 Y129.371 E16.09999
G1 X139.1 Y130.608 E16.14527
G1 X138.98 Y131.839 E16.19052
G1 X138.781 Y133.06 E16.23578
G1 X138.504 Y134.266 E16.28105
G1 X138.149 Y135.451 E16.32631
G1 X137.718 Y136.611 E16.37158
G1 X137.213 Y137.741 E16.41687
G1 X136.636 Y138.835 E16.46212
G1 X135.99 Y139.89 E16.50738
G1 X135.277 Y140.901 E16.55264
G1 X134.5 Y141.864 E16.59791
G1 X133.534 Y142.905 E16.64987
G1 X133.405 Y143.034 E16.65654
G1 X132.502 Y143.88 E16.70181
G1 X131.547 Y144.666 E16.74707
G1 X130.543 Y145.389 E16.79233
G1 X129.494 Y146.045 E16.8376
G1 X128.405 Y146.632 E16.88286
G1 X127.28 Y147.148 E16.92814
G1 X126.124 Y147.59 E16.97342
G1 X124.942 Y147.956 E17.01869
G1 X123.739 Y148.245 E17.06396
G1 X122.52 Y148.456 E17.10922
G1 X121.29 Y148.587 E17.15447
G1 X119.871 Y148.64 E17.20642
G1 X115.129 Y148.64 E17.37992
G1 X113.892 Y148.6 E17.4252
G1 X112.661 Y148.48 E17.47045
G1 X111.44 Y148.281 E17.51571
G1 X110.234 Y148.004 E17.56098
G1 X109.049 Y147.649 E17.60624
G1 X107.889 Y147.218 E17.65151
G1 X106.759 Y146.713 E17.6968
G1 X105.665 Y146.136 E17.74205
G1 X104.61 Y145.49 E17.78731
G1 X103.599 Y144.777 E17.83257
G1 X102.636 Y144 E17.87784
G1 X101.595 Y143.034 E17.9298
G1 X101.466 Y142.905 E17.93647
G1 X100.62 Y142.002 E17.98174
G1 X99.834 Y141.047 E18.027
G1 X99.111 Y140.043 E18.07226
G1 X98.455 Y138.994 E18.11753
G1 X97.868 Y137.905 E18.16279
G1 X97.352 Y136.78 E18.20807
G1 X96.91 Y135.624 E18.25335
G1 X96.544 Y134.442 E18.29862
G1 X96.255 Y133.239 E18.34389
G1 X96.044 Y132.02 E18.38915
G1 X95.913 Y130.79 E18.4344
G1 X95.86 Y129.371 E18.48636
G1 X95.86 Y127.629 E18.55009
G1 X95.9 Y126.392 E18.59537
G1 X96.02 Y125.161 E18.64062
G1 X96.219 Y123.94 E18.68588
G1 X96.496 Y122.734 E18.73115
G1 X96.851 Y121.549 E18.77641
G1 X97.282 Y120.389 E18.82169
G1 X97.36 Y120.214 E18.8287
G1 X97.36 Y114.796 E19.02692
G1 X97.352 Y114.779 E19.02761
G1 X96.91 Y113.623 E19.07289
G1 X96.544 Y112.441 E19.11816
G1 X96.255 Y111.238 E19.16342
G1 X96.044 Y110.019 E19.20868
G1 X95.913 Y108.789 E19.25394
G1 X95.86 Y107.37 E19.30589
G1 X95.86 Y105.63 E19.36955
G1 X95.9 Y104.393 E19.41483
G1 X96.02 Y103.162 E19.46008
G1 X96.219 Y101.941 E19.50535
G1 X96.496 Y100.735 E19.55062
G1 X96.851 Y99.55 E19.59588
G1 X97.282 Y98.39 E19.64115
G1 X97.787 Y97.26 E19.68643
G1 X98.364 Y96.166 E19.73168
G1 X99.01 Y95.111 E19.77694
G1 X99.723 Y94.1 E19.82221
G1 X100.5 Y93.137 E19.86748
G1 X100.972 Y92.628 E19.89287
G0 F810 X101.466 Y92.096
M204 S5000
M205 X30 Y30
G0 F7200 X101.777 Y92.407
M204 S500
M205 X20 Y20
G1 F6000 E19.91947
G1 F900 X101.906 Y92.278 E19.92615
G1 X102.799 Y91.442 E19.9709
G1 X103.744 Y90.666 E20.01564
G1 X104.738 Y89.954 E20.06037
G1 X105.776 Y89.308 E20.1051
G1 X106.855 Y88.731 E20.14987
G1 X107.969 Y88.226 E20.19462
G1 X109.113 Y87.795 E20.23934
G1 X110.283 Y87.44 E20.28408
G1 X111.474 Y87.162 E20.32882
G1 X112.681 Y86.962 E20.37358
G1 X113.898 Y86.842 E20.41832
G1 X115.141 Y86.801 E20.46383
G1 X119.883 Y86.804 E20.63732
G1 X121.105 Y86.845 E20.68205
G1 X122.322 Y86.965 E20.72679
G1 X123.529 Y87.165 E20.77155
G1 X124.719 Y87.443 E20.81626
G1 X125.89 Y87.799 E20.86104
G1 X127.034 Y88.23 E20.90577
G1 X128.148 Y88.735 E20.95052
G1 X129.226 Y89.312 E20.99525
G1 X130.264 Y89.958 E21.03998
G1 X131.258 Y90.671 E21.08474
G1 X132.203 Y91.447 E21.12947
G1 X133.094 Y92.281 E21.17412
G1 X133.223 Y92.41 E21.1808
G1 X134.059 Y93.303 E21.22555
G1 X134.835 Y94.248 E21.27029
G1 X135.547 Y95.242 E21.31502
G1 X136.193 Y96.28 E21.35975
G1 X136.77 Y97.359 E21.40452
G1 X137.275 Y98.473 E21.44927
G1 X137.706 Y99.617 E21.494
G1 X138.061 Y100.787 E21.53873
G1 X138.339 Y101.978 E21.58347
G1 X138.539 Y103.185 E21.62824
G1 X138.659 Y104.402 E21.67298
G1 X138.7 Y105.665 E21.71921
G1 X138.697 Y107.403 E21.7828
G1 X138.655 Y108.626 E21.82757
G1 X138.533 Y109.842 E21.87228
G1 X138.332 Y111.049 E21.91705
G1 X138.052 Y112.239 E21.96177
G1 X137.695 Y113.409 E22.00653
G1 X137.263 Y114.553 E22.05127
G1 X137.201 Y114.689 E22.05674
G1 X137.202 Y120.308 E22.26231
G1 X137.275 Y120.469 E22.26878
G1 X137.706 Y121.613 E22.31351
G1 X138.061 Y122.783 E22.35824
G1 X138.339 Y123.974 E22.40299
G1 X138.539 Y125.181 E22.44775
G1 X138.659 Y126.398 E22.49249
G1 X138.7 Y127.629 E22.53755
G1 X138.7 Y129.371 E22.60128
G1 X138.66 Y130.593 E22.64602
G1 X138.54 Y131.81 E22.69076
G1 X138.341 Y133.017 E22.73551
G1 X138.064 Y134.208 E22.78025
G1 X137.709 Y135.378 E22.82498
G1 X137.278 Y136.523 E22.86974
G1 X136.774 Y137.637 E22.91448
G1 X136.198 Y138.716 E22.95923
G1 X135.552 Y139.755 E23.00399
G1 X134.84 Y140.749 E23.04872
G1 X134.065 Y141.695 E23.09346
G1 X133.223 Y142.594 E23.13853
G1 X133.094 Y142.723 E23.1452
G1 X132.201 Y143.559 E23.18996
G1 X131.256 Y144.335 E23.23469
G1 X130.262 Y145.047 E23.27943
G1 X129.224 Y145.693 E23.32416
G1 X128.145 Y146.27 E23.36892
G1 X127.031 Y146.775 E23.41367
G1 X125.887 Y147.206 E23.4584
G1 X124.717 Y147.561 E23.50313
G1 X123.526 Y147.839 E23.54788
G1 X122.319 Y148.039 E23.59264
G1 X121.102 Y148.159 E23.63738
G1 X119.871 Y148.2 E23.68244
G1 X115.129 Y148.2 E23.85594
G1 X113.907 Y148.16 E23.90067
G1 X112.69 Y148.04 E23.94541
G1 X111.483 Y147.841 E23.99016
G1 X110.292 Y147.564 E24.0349
G1 X109.122 Y147.209 E24.07963
G1 X107.977 Y146.778 E24.12439
G1 X106.863 Y146.274 E24.16913
G1 X105.784 Y145.698 E24.21388
G1 X104.745 Y145.052 E24.25864
G1 X103.751 Y144.34 E24.30337
G1 X102.805 Y143.565 E24.34812
G1 X101.906 Y142.723 E24.39318
G1 X101.777 Y142.594 E24.39985
G1 X100.941 Y141.701 E24.44461
G1 X100.165 Y140.756 E24.48935
