;FLAVOR:Marlin
;TIME:14251
;Filament used: 12.4384m
;Layer height: 0.2
;Generated with Cura_SteamEngine 3.6.0
M140 S70
M105
M190 S70
M104 S215
M105
M109 S215
M82 ;absolute extrusion mode
G28 ; home all axes
M117 Purge extruder
G92 E0 ; reset extruder
G1 Z1.0 F3000 ; move z up little to prevent scratching of surface
G1 X0.1 Y20 Z0.3 F5000.0 ; move to start-line position G1 X0.1 Y200.0 Z0.3 F1500.0 E15 ; draw 1st line
G1 X0.4 Y200.0 Z0.3 F5000.0 ; move to side a little
G1 X0.4 Y20 Z0.3 F1500.0 E30 ; draw 2nd line
G92 E0 ; reset extruder
G1 Z1.0 F3000 ; move z up little to prevent scratching of surface
M117 All systems go!
G92 E0
G1 F6000 E-5
;LAYER_COUNT:26
;LAYER:0
M107
M204 S5000
M205 X30 Y30
G0 F7200 X30.944 Y78.608 Z0.2
M204 S500
M205 X20 Y20
;TYPE:SKIRT
G1 F6000 E0
G1 F900 X32.15 Y78.225 E0.04629
G1 X33.378 Y77.918 E0.0926
G1 X35.128 Y77.621 E0.15755
G1 X115.032 Y67.636 E3.10366
G1 X116.292 Y67.518 E3.14996
G1 X117.556 Y67.481 E3.19623
G1 X118.821 Y67.524 E3.24254
G1 X119.997 Y67.636 E3.28576
G1 X199.873 Y77.621 E6.23086
G1 X201.123 Y77.817 E6.27715
G1 X202.358 Y78.092 E6.32344
G1 X203.574 Y78.445 E6.36976
G1 X204.764 Y78.874 E6.41604
G1 X205.925 Y79.377 E6.46234
G1 X207.052 Y79.952 E6.50862
G1 X208.141 Y80.597 E6.55493
G1 X209.186 Y81.31 E6.60121
G1 X210.185 Y82.088 E6.64754
G1 X211.132 Y82.927 E6.69383
G1 X212.366 Y84.2 E6.75869
G1 X212.476 Y84.324 E6.76476
G1 X213.286 Y85.297 E6.81108
G1 X214.032 Y86.319 E6.85737
G1 X214.712 Y87.386 E6.90366
G1 X215.324 Y88.494 E6.94997
G1 X215.864 Y89.638 E6.99625
G1 X216.331 Y90.814 E7.04255
G1 X216.723 Y92.017 E7.08884
G1 X217.038 Y93.243 E7.13515
G1 X217.275 Y94.486 E7.18145
G1 X217.433 Y95.741 E7.22772
G1 X217.52 Y97.61 E7.29618
G1 X217.52 Y137.39 E8.75157
G1 X217.48 Y138.655 E8.79788
G1 X217.36 Y139.914 E8.84415
G1 X217.161 Y141.164 E8.89046
G1 X216.883 Y142.399 E8.93677
G1 X216.528 Y143.613 E8.98305
G1 X216.097 Y144.803 E9.02935
G1 X215.592 Y145.963 E9.07564
G1 X215.014 Y147.089 E9.12195
G1 X214.366 Y148.176 E9.16825
G1 X213.651 Y149.22 E9.21454
G1 X212.476 Y150.676 E9.28299
G1 X212.366 Y150.8 E9.28906
G1 X211.497 Y151.719 E9.33533
G1 X210.572 Y152.582 E9.38162
G1 X209.593 Y153.385 E9.42794
G1 X208.566 Y154.124 E9.47423
G1 X207.495 Y154.797 E9.52051
G1 X206.383 Y155.401 E9.56681
G1 X205.235 Y155.933 E9.6131
G1 X204.056 Y156.392 E9.65939
G1 X202.85 Y156.775 E9.70568
G1 X201.622 Y157.082 E9.75199
G1 X199.872 Y157.379 E9.81693
G1 X119.968 Y167.364 E12.76305
G1 X118.708 Y167.482 E12.80935
G1 X117.444 Y167.519 E12.85562
G1 X116.179 Y167.476 E12.90192
G1 X115.003 Y167.364 E12.94514
G1 X35.127 Y157.379 E15.89024
G1 X33.877 Y157.183 E15.93654
G1 X32.642 Y156.908 E15.98283
G1 X31.426 Y156.555 E16.02915
G1 X30.236 Y156.126 E16.07543
G1 X29.075 Y155.623 E16.12172
G1 X27.948 Y155.048 E16.16801
G1 X26.859 Y154.403 E16.21432
G1 X25.814 Y153.69 E16.2606
G1 X24.815 Y152.912 E16.30693
G1 X23.868 Y152.073 E16.35322
G1 X22.634 Y150.8 E16.41808
G1 X22.524 Y150.676 E16.42415
G1 X21.714 Y149.703 E16.47047
G1 X20.968 Y148.681 E16.51676
G1 X20.288 Y147.614 E16.56305
G1 X19.676 Y146.506 E16.60936
G1 X19.136 Y145.362 E16.65564
G1 X18.669 Y144.186 E16.70194
G1 X18.277 Y142.983 E16.74823
G1 X17.962 Y141.757 E16.79454
G1 X17.725 Y140.514 E16.84083
G1 X17.567 Y139.259 E16.88711
G1 X17.48 Y137.39 E16.95557
G1 X17.48 Y97.61 E18.41096
G1 X17.52 Y96.345 E18.45727
G1 X17.64 Y95.086 E18.50354
G1 X17.839 Y93.836 E18.54985
G1 X18.117 Y92.601 E18.59616
G1 X18.472 Y91.387 E18.64244
G1 X18.903 Y90.197 E18.68874
G1 X19.408 Y89.037 E18.73503
G1 X19.986 Y87.911 E18.78134
G1 X20.634 Y86.824 E18.82764
G1 X21.349 Y85.78 E18.87393
G1 X22.524 Y84.324 E18.94238
G1 X22.634 Y84.2 E18.94845
G1 X23.503 Y83.281 E18.99472
G1 X24.428 Y82.418 E19.04101
G1 X25.407 Y81.615 E19.08733
G1 X26.434 Y80.876 E19.13362
G1 X27.505 Y80.203 E19.1799
G1 X28.617 Y79.599 E19.2262
G1 X29.765 Y79.067 E19.27249
G1 X30.267 Y78.871 E19.2922
G0 F810 X30.944 Y78.608
M204 S5000
M205 X30 Y30
G0 F7200 X31.195 Y78.987
M204 S500
M205 X20 Y20
G1 F6000 E19.3188
G1 F900 X32.39 Y78.615 E19.36459
G1 X33.606 Y78.32 E19.41037
G1 X35.182 Y78.057 E19.46883
G1 X115.086 Y68.072 E22.41495
G1 X116.332 Y67.957 E22.46073
G1 X117.583 Y67.921 E22.50651
G1 X118.834 Y67.966 E22.55231
G1 X119.943 Y68.072 E22.59307
G1 X199.819 Y78.057 E25.53817
G1 X201.055 Y78.252 E25.58395
G1 X202.276 Y78.525 E25.62973
G1 X203.477 Y78.876 E25.6755
G1 X204.654 Y79.303 E25.72131
G1 X205.8 Y79.804 E25.76707
G1 X206.913 Y80.378 E25.81289
G1 X207.986 Y81.021 E25.85865
G1 X209.016 Y81.731 E25.90442
G1 X209.999 Y82.506 E25.95022
G1 X210.93 Y83.342 E25.996
G1 X212.037 Y84.492 E26.0544
G1 X212.147 Y84.616 E26.06046
G1 X212.947 Y85.579 E26.10627
G1 X213.684 Y86.59 E26.15204
G1 X214.355 Y87.646 E26.19782
G1 X214.957 Y88.743 E26.2436
G1 X215.488 Y89.877 E26.28941
G1 X215.945 Y91.042 E26.33519
G1 X216.327 Y92.233 E26.38095
G1 X216.632 Y93.447 E26.42675
G1 X216.859 Y94.678 E26.47255
G1 X217.007 Y95.92 E26.51831
G1 X217.08 Y97.61 E26.5802
G1 X217.08 Y137.39 E28.03559
G1 X217.04 Y138.641 E28.08139
G1 X216.92 Y139.886 E28.12715
G1 X216.721 Y141.122 E28.17295
G1 X216.443 Y142.342 E28.21873
G1 X216.088 Y143.542 E28.26451
G1 X215.657 Y144.717 E28.3103
G1 X215.152 Y145.862 E28.35609
G1 X214.575 Y146.972 E28.40186
G1 X213.928 Y148.043 E28.44764
G1 X213.214 Y149.071 E28.49343
G1 X212.147 Y150.384 E28.55533
G1 X212.037 Y150.508 E28.56139
G1 X211.177 Y151.417 E28.60717
G1 X210.261 Y152.269 E28.65294
G1 X209.292 Y153.061 E28.69873
G1 X208.275 Y153.79 E28.74451
G1 X207.213 Y154.452 E28.7903
G1 X206.111 Y155.045 E28.83608
G1 X204.973 Y155.566 E28.88187
G1 X203.805 Y156.013 E28.92763
G1 X202.61 Y156.385 E28.97342
G1 X201.394 Y156.68 E29.0192
G1 X199.818 Y156.943 E29.07765
G1 X119.914 Y166.928 E32.02377
G1 X118.668 Y167.043 E32.06955
G1 X117.417 Y167.079 E32.11534
G1 X116.166 Y167.034 E32.16114
G1 X115.057 Y166.928 E32.2019
G1 X35.181 Y156.943 E35.14699
G1 X33.945 Y156.748 E35.19277
G1 X32.724 Y156.475 E35.23855
G1 X31.523 Y156.124 E35.28433
G1 X30.346 Y155.697 E35.33014
G1 X29.2 Y155.196 E35.37589
G1 X28.087 Y154.622 E35.42171
G1 X27.014 Y153.979 E35.46748
G1 X25.984 Y153.269 E35.51325
G1 X25.001 Y152.494 E35.55904
G1 X24.07 Y151.658 E35.60482
G1 X22.963 Y150.508 E35.66322
G1 X22.853 Y150.384 E35.66929
G1 X22.053 Y149.421 E35.71509
G1 X21.316 Y148.41 E35.76086
G1 X20.645 Y147.354 E35.80664
G1 X20.043 Y146.257 E35.85242
G1 X19.512 Y145.123 E35.89823
G1 X19.055 Y143.958 E35.94402
G1 X18.673 Y142.767 E35.98978
G1 X18.368 Y141.553 E36.03557
G1 X18.141 Y140.322 E36.08137
G1 X17.993 Y139.08 E36.12713
G1 X17.92 Y137.39 E36.18902
G1 X17.92 Y97.61 E37.64442
G1 X17.96 Y96.359 E37.69021
G1 X18.08 Y95.114 E37.73597
G1 X18.279 Y93.878 E37.78177
G1 X18.557 Y92.658 E37.82755
G1 X18.912 Y91.458 E37.87334
G1 X19.343 Y90.283 E37.91913
G1 X19.848 Y89.138 E37.96491
G1 X20.425 Y88.028 E38.01068
G1 X21.072 Y86.957 E38.05646
G1 X21.786 Y85.929 E38.10225
G1 X22.853 Y84.616 E38.16415
G1 X22.963 Y84.492 E38.17022
G1 X23.823 Y83.583 E38.216
G1 X24.739 Y82.731 E38.26177
G1 X25.708 Y81.939 E38.30755
G1 X26.725 Y81.21 E38.35333
G1 X27.787 Y80.548 E38.39912
G1 X28.889 Y79.955 E38.4449
G1 X30.027 Y79.434 E38.49069
G1 X30.516 Y79.246 E38.50986
G0 F810 X31.195 Y78.987
M204 S5000
M205 X30 Y30
G0 F7200 X31.445 Y79.366
M204 S500
M205 X20 Y20
G1 F6000 E38.53646
G1 F900 X32.629 Y79.006 E38.58174
G1 X33.833 Y78.722 E38.62699
G1 X35.237 Y78.494 E38.67903
G1 X115.141 Y68.509 E41.62515
G1 X116.373 Y68.395 E41.67042
G1 X117.609 Y68.361 E41.71566
G1 X118.846 Y68.407 E41.76094
G1 X119.888 Y68.509 E41.79925
G1 X199.764 Y78.494 E44.74435
G1 X200.986 Y78.687 E44.78961
G1 X202.193 Y78.959 E44.83488
G1 X203.38 Y79.308 E44.88014
G1 X204.542 Y79.733 E44.92541
G1 X205.674 Y80.232 E44.97067
G1 X206.772 Y80.803 E45.01595
G1 X207.83 Y81.444 E45.06121
G1 X208.845 Y82.152 E45.10649
G1 X209.811 Y82.924 E45.15173
G1 X210.726 Y83.757 E45.197
G1 X211.708 Y84.784 E45.24899
G1 X211.818 Y84.908 E45.25505
G1 X212.609 Y85.86 E45.30033
G1 X213.336 Y86.861 E45.3456
G1 X213.998 Y87.906 E45.39085
G1 X214.59 Y88.993 E45.43614
G1 X215.111 Y90.115 E45.4814
G1 X215.559 Y91.268 E45.52665
G1 X215.931 Y92.448 E45.57192
G1 X216.226 Y93.65 E45.6172
G1 X216.443 Y94.868 E45.66247
G1 X216.58 Y96.098 E45.70775
G1 X216.64 Y97.61 E45.76311
G1 X216.64 Y137.39 E47.2185
G1 X216.6 Y138.627 E47.26378
G1 X216.48 Y139.858 E47.30904
G1 X216.281 Y141.079 E47.3543
G1 X216.004 Y142.285 E47.39957
G1 X215.649 Y143.47 E47.44483
G1 X215.218 Y144.63 E47.4901
G1 X214.713 Y145.76 E47.53538
G1 X214.136 Y146.854 E47.58064
G1 X213.49 Y147.909 E47.6259
G1 X212.777 Y148.92 E47.67116
G1 X211.818 Y150.092 E47.72656
G1 X211.708 Y150.216 E47.73263
G1 X210.858 Y151.114 E47.77786
G1 X209.951 Y151.956 E47.82314
G1 X208.991 Y152.737 E47.86842
G1 X207.984 Y153.455 E47.91367
G1 X206.932 Y154.106 E47.95893
G1 X205.84 Y154.688 E48.0042
G1 X204.712 Y155.198 E48.04949
G1 X203.555 Y155.634 E48.09473
G1 X202.371 Y155.994 E48.14001
G1 X201.167 Y156.278 E48.18526
G1 X199.763 Y156.506 E48.2373
G1 X119.859 Y166.491 E51.18342
G1 X118.627 Y166.605 E51.22869
G1 X117.391 Y166.639 E51.27393
G1 X116.154 Y166.593 E51.31921
G1 X115.112 Y166.491 E51.35752
G1 X35.236 Y156.506 E54.30262
G1 X34.014 Y156.313 E54.34788
G1 X32.807 Y156.041 E54.39315
G1 X31.62 Y155.692 E54.43841
G1 X30.458 Y155.267 E54.48368
G1 X29.326 Y154.768 E54.52894
G1 X28.228 Y154.197 E54.57422
G1 X27.17 Y153.556 E54.61948
G1 X26.155 Y152.848 E54.66476
G1 X25.189 Y152.076 E54.71
G1 X24.274 Y151.243 E54.75527
G1 X23.292 Y150.216 E54.80726
G1 X23.182 Y150.092 E54.81332
G1 X22.391 Y149.14 E54.8586
G1 X21.664 Y148.139 E54.90387
G1 X21.002 Y147.094 E54.94912
G1 X20.41 Y146.007 E54.99441
G1 X19.889 Y144.885 E55.03967
G1 X19.441 Y143.732 E55.08492
G1 X19.069 Y142.552 E55.13019
G1 X18.774 Y141.35 E55.17547
G1 X18.557 Y140.132 E55.22074
G1 X18.42 Y138.902 E55.26602
G1 X18.36 Y137.39 E55.32138
G1 X18.36 Y97.61 E56.77677
G1 X18.4 Y96.373 E56.82205
G1 X18.52 Y95.142 E56.86731
G1 X18.719 Y93.921 E56.91257
G1 X18.996 Y92.715 E56.95784
G1 X19.351 Y91.53 E57.0031
G1 X19.782 Y90.37 E57.04837
G1 X20.287 Y89.24 E57.09365
G1 X20.864 Y88.146 E57.13891
G1 X21.51 Y87.091 E57.18417
G1 X22.223 Y86.08 E57.22943
G1 X23.182 Y84.908 E57.28483
G1 X23.292 Y84.784 E57.2909
G1 X24.142 Y83.886 E57.33613
G1 X25.049 Y83.044 E57.38141
G1 X26.009 Y82.263 E57.42669
G1 X27.016 Y81.545 E57.47194
G1 X28.068 Y80.894 E57.5172
G1 X29.16 Y80.312 E57.56247
G1 X30.288 Y79.802 E57.60776
G1 X30.765 Y79.622 E57.62642
G0 F810 X31.445 Y79.366
M204 S5000
M205 X30 Y30
G0 F7200 X31.694 Y79.746
M204 S500
M205 X20 Y20
G1 F6000 E57.65302
G1 F900 X32.866 Y79.398 E57.69774
G1 X34.059 Y79.126 E57.74251
G1 X35.291 Y78.93 E57.78815
G1 X115.195 Y68.945 E60.73427
G1 X116.413 Y68.833 E60.77902
G1 X117.636 Y68.801 E60.82378
G1 X118.858 Y68.849 E60.86852
G1 X119.834 Y68.945 E60.9044
G1 X199.71 Y78.93 E63.8495
G1 X200.917 Y79.122 E63.89422
G1 X202.11 Y79.392 E63.93897
G1 X203.283 Y79.739 E63.98372
G1 X204.43 Y80.162 E64.02845
G1 X205.548 Y80.659 E64.07321
G1 X206.63 Y81.228 E64.11794
G1 X207.673 Y81.867 E64.16269
G1 X208.672 Y82.573 E64.20745
G1 X209.622 Y83.342 E64.25216
G1 X210.521 Y84.172 E64.29693
G1 X211.379 Y85.076 E64.34253
G1 X211.489 Y85.2 E64.34859
G1 X212.27 Y86.141 E64.39333
G1 X212.988 Y87.131 E64.43807
G1 X213.64 Y88.166 E64.48283
G1 X214.223 Y89.241 E64.52757
G1 X214.734 Y90.352 E64.57231
G1 X215.172 Y91.494 E64.61706
G1 X215.534 Y92.662 E64.6618
G1 X215.818 Y93.852 E64.70656
G1 X216.025 Y95.057 E64.75129
G1 X216.152 Y96.273 E64.79602
G1 X216.2 Y97.61 E64.84497
G1 X216.2 Y137.39 E66.30037
G1 X216.16 Y138.612 E66.3451
G1 X216.04 Y139.829 E66.38984
G1 X215.841 Y141.036 E66.43459
G1 X215.564 Y142.227 E66.47933
G1 X215.209 Y143.397 E66.52406
G1 X214.778 Y144.542 E66.56882
G1 X214.274 Y145.656 E66.61356
G1 X213.698 Y146.735 E66.65831
G1 X213.052 Y147.774 E66.70307
G1 X212.34 Y148.768 E66.7478
G1 X211.489 Y149.8 E66.79674
G1 X211.379 Y149.924 E66.80281
G1 X210.538 Y150.811 E66.84753
G1 X209.641 Y151.642 E66.89226
G1 X208.691 Y152.413 E66.93703
G1 X207.693 Y153.12 E66.98177
G1 X206.651 Y153.76 E67.02651
G1 X205.569 Y154.33 E67.07125
G1 X204.453 Y154.829 E67.11598
G1 X203.306 Y155.254 E67.16073
G1 X202.134 Y155.602 E67.20546
G1 X200.941 Y155.874 E67.25023
G1 X199.709 Y156.07 E67.29587
G1 X119.805 Y166.055 E70.24199
G1 X118.587 Y166.167 E70.28674
G1 X117.364 Y166.199 E70.3315
G1 X116.142 Y166.151 E70.37624
G1 X115.166 Y166.055 E70.41212
G1 X35.29 Y156.07 E73.35722
G1 X34.083 Y155.878 E73.40193
G1 X32.89 Y155.608 E73.44669
G1 X31.717 Y155.261 E73.49144
G1 X30.57 Y154.838 E73.53617
G1 X29.452 Y154.341 E73.58093
G1 X28.37 Y153.772 E73.62566
G1 X27.327 Y153.133 E73.67041
G1 X26.328 Y152.427 E73.71516
G1 X25.378 Y151.658 E73.75988
G1 X24.479 Y150.828 E73.80465
G1 X23.621 Y149.924 E73.85024
G1 X23.511 Y149.8 E73.85631
G1 X22.73 Y148.859 E73.90105
G1 X22.012 Y147.869 E73.94579
G1 X21.36 Y146.834 E73.99055
G1 X20.777 Y145.759 E74.03529
G1 X20.266 Y144.648 E74.08003
G1 X19.828 Y143.506 E74.12478
G1 X19.466 Y142.338 E74.16952
G1 X19.182 Y141.148 E74.21428
G1 X18.975 Y139.943 E74.25901
G1 X18.848 Y138.727 E74.30374
G1 X18.8 Y137.39 E74.35269
G1 X18.8 Y97.61 E75.80808
G1 X18.84 Y96.388 E75.85281
G1 X18.96 Y95.171 E75.89756
G1 X19.159 Y93.964 E75.94231
G1 X19.436 Y92.773 E75.98705
G1 X19.791 Y91.603 E76.03178
G1 X20.222 Y90.458 E76.07654
G1 X20.726 Y89.344 E76.12128
G1 X21.302 Y88.265 E76.16603
G1 X21.948 Y87.226 E76.21079
G1 X22.66 Y86.232 E76.25552
G1 X23.511 Y85.2 E76.30446
G1 X23.621 Y85.076 E76.31052
G1 X24.462 Y84.189 E76.35524
G1 X25.359 Y83.358 E76.39998
G1 X26.309 Y82.587 E76.44474
G1 X27.307 Y81.88 E76.48949
G1 X28.349 Y81.24 E76.53423
G1 X29.431 Y80.67 E76.57897
G1 X30.547 Y80.171 E76.6237
G1 X31.013 Y79.998 E76.64188
G0 F810 X31.694 Y79.746
M204 S5000
M205 X30 Y30
G0 F7200 X31.942 Y80.128
M204 S500
M205 X20 Y20
G1 F6000 E76.66848
G1 F900 X33.103 Y79.791 E76.71271
G1 X34.283 Y79.532 E76.75691
G1 X35.346 Y79.367 E76.79627
G1 X115.25 Y69.382 E79.74238
G1 X116.453 Y69.272 E79.78658
G1 X117.661 Y69.242 E79.83079
G1 X118.869 Y69.291 E79.87502
G1 X119.779 Y69.382 E79.90848
G1 X199.655 Y79.367 E82.85358
G1 X200.849 Y79.557 E82.89782
G1 X202.027 Y79.825 E82.94202
G1 X203.185 Y80.17 E82.98622
G1 X204.318 Y80.591 E83.03044
G1 X205.42 Y81.086 E83.07464
G1 X206.487 Y81.653 E83.11885
G1 X207.514 Y82.29 E83.16306
G1 X208.497 Y82.993 E83.20728
G1 X209.432 Y83.759 E83.2515
G1 X210.313 Y84.586 E83.29571
G1 X211.05 Y85.368 E83.33502
G1 X211.16 Y85.492 E83.34109
G1 X211.931 Y86.422 E83.38529
G1 X212.64 Y87.402 E83.42954
G1 X213.282 Y88.425 E83.47373
G1 X213.855 Y89.489 E83.51794
G1 X214.356 Y90.589 E83.56216
G1 X214.784 Y91.719 E83.60637
G1 X215.135 Y92.875 E83.65057
G1 X215.41 Y94.052 E83.69479
G1 X215.606 Y95.245 E83.73903
G1 X215.723 Y96.448 E83.78325
G1 X215.76 Y97.61 E83.82578
G1 X215.76 Y137.39 E85.28118
G1 X215.72 Y138.598 E85.3254
G1 X215.6 Y139.8 E85.36959
G1 X215.401 Y140.992 E85.41381
G1 X215.124 Y142.168 E85.45801
G1 X214.769 Y143.324 E85.50225
G1 X214.339 Y144.453 E85.54645
G1 X213.835 Y145.551 E85.59066
G1 X213.259 Y146.614 E85.63489
G1 X212.614 Y147.636 E85.6791
G1 X211.904 Y148.613 E85.72329
G1 X211.16 Y149.508 E85.76587
G1 X211.05 Y149.632 E85.77194
G1 X210.218 Y150.509 E85.81616
G1 X209.331 Y151.329 E85.86036
G1 X208.391 Y152.088 E85.90456
G1 X207.403 Y152.784 E85.94878
G1 X206.371 Y153.413 E85.99299
G1 X205.3 Y153.972 E86.03719
G1 X204.194 Y154.459 E86.08141
G1 X203.058 Y154.872 E86.12563
G1 X201.897 Y155.209 E86.16986
G1 X200.717 Y155.468 E86.21406
G1 X199.654 Y155.633 E86.25342
G1 X119.75 Y165.618 E89.19953
G1 X118.547 Y165.728 E89.24373
G1 X117.339 Y165.758 E89.28794
G1 X116.131 Y165.709 E89.33217
G1 X115.221 Y165.618 E89.36563
G1 X35.345 Y155.633 E92.31073
G1 X34.151 Y155.443 E92.35496
G1 X32.973 Y155.175 E92.39916
G1 X31.815 Y154.83 E92.44337
G1 X30.682 Y154.409 E92.48759
G1 X29.58 Y153.914 E92.53179
G1 X28.513 Y153.347 E92.576
G1 X27.486 Y152.71 E92.62021
G1 X26.503 Y152.007 E92.66443
G1 X25.568 Y151.241 E92.70865
G1 X24.687 Y150.414 E92.75286
G1 X23.95 Y149.632 E92.79217
G1 X23.84 Y149.508 E92.79824
