;FLAVOR:Marlin
;TIME:2113
;Filament used: 1.54729m
;Layer height: 0.16
;Generated with Cura_SteamEngine 3.6.0
M140 S70
M105
M190 S70
M104 S215
M105
M109 S215
M82 ;absolute extrusion mode
G28 ; home all axes
M117 Purge extruder
G92 E0 ; reset extruder
G1 Z1.0 F3000 ; move z up little to prevent scratching of surface
G1 X0.1 Y20 Z0.3 F5000.0 ; move to start-line position G1 X0.1 Y200.0 Z0.3 F1500.0 E15 ; draw 1st line
G1 X0.4 Y200.0 Z0.3 F5000.0 ; move to side a little
G1 X0.4 Y20 Z0.3 F1500.0 E30 ; draw 2nd line
G92 E0 ; reset extruder
G1 Z1.0 F3000 ; move z up little to prevent scratching of surface
M117 All systems go!
G92 E0
G1 F6000 E-5
;LAYER_COUNT:69
;LAYER:0
M107
M204 S5000
M205 X30 Y30
G0 F7200 X97.012 Y107.578 Z0.2
M204 S500
M205 X20 Y20
;TYPE:SKIRT
G1 F6000 E0
G1 F900 X97.489 Y107.158 E0.02325
G1 X98.015 Y106.8 E0.04653
G1 X98.582 Y106.512 E0.0698
G1 X99.18 Y106.296 E0.09306
G1 X99.801 Y106.158 E0.11633
G1 X100.59 Y106.096 E0.14529
G1 X106.397 Y106.096 E0.35775
G1 X107.032 Y106.136 E0.38102
G1 X107.656 Y106.255 E0.40427
G1 X108.261 Y106.452 E0.42754
G1 X108.836 Y106.723 E0.4508
G1 X109.373 Y107.064 E0.47407
G1 X109.975 Y107.578 E0.50303
G1 X110.231 Y107.834 E0.51628
G1 X110.498 Y108.137 E0.53106
G1 X110.766 Y107.824 E0.54613
G1 X111.012 Y107.578 E0.55886
G1 X111.489 Y107.158 E0.58211
G1 X112.015 Y106.8 E0.60539
G1 X112.582 Y106.512 E0.62866
G1 X113.18 Y106.296 E0.65192
G1 X113.801 Y106.158 E0.67519
G1 X114.59 Y106.096 E0.70415
G1 X120.397 Y106.096 E0.9166
G1 X121.032 Y106.136 E0.93988
G1 X121.656 Y106.255 E0.96312
G1 X122.261 Y106.452 E0.9864
G1 X122.836 Y106.723 E1.00966
G1 X123.373 Y107.064 E1.03293
G1 X123.975 Y107.578 E1.06189
G1 X124.231 Y107.834 E1.07514
G1 X124.498 Y108.137 E1.08991
G1 X124.766 Y107.824 E1.10499
G1 X125.012 Y107.578 E1.11772
G1 X125.489 Y107.158 E1.14097
G1 X126.015 Y106.8 E1.16425
G1 X126.582 Y106.512 E1.18752
G1 X127.18 Y106.296 E1.21078
G1 X127.801 Y106.158 E1.23405
G1 X128.59 Y106.096 E1.26301
G1 X134.397 Y106.096 E1.47546
G1 X135.032 Y106.136 E1.49874
G1 X135.656 Y106.255 E1.52198
G1 X136.261 Y106.452 E1.54526
G1 X136.836 Y106.723 E1.56852
G1 X137.373 Y107.064 E1.59179
G1 X137.975 Y107.578 E1.62075
G1 X138.231 Y107.834 E1.634
G1 X138.651 Y108.311 E1.65725
G1 X139.009 Y108.837 E1.68053
G1 X139.297 Y109.404 E1.7038
G1 X139.513 Y110.002 E1.72706
G1 X139.651 Y110.623 E1.75033
G1 X139.713 Y111.411 E1.77925
G1 X139.714 Y116.889 E1.97967
G1 X139.674 Y117.524 E2.00295
G1 X139.555 Y118.148 E2.02619
G1 X139.358 Y118.753 E2.04947
G1 X139.088 Y119.329 E2.07274
G1 X138.747 Y119.865 E2.09598
G1 X138.341 Y120.355 E2.11927
G1 X137.877 Y120.79 E2.14254
G1 X137.534 Y121.039 E2.15804
G1 X137.567 Y121.217 E2.16467
G1 X137.602 Y121.875 E2.18877
G1 X137.6 Y122.044 E2.19496
G1 X137.552 Y122.678 E2.21822
G1 X137.426 Y123.301 E2.24147
G1 X137.222 Y123.904 E2.26476
G1 X136.944 Y124.476 E2.28803
G1 X136.597 Y125.008 E2.31127
G1 X136.185 Y125.493 E2.33455
G1 X135.637 Y125.986 E2.36152
G1 X135.354 Y126.205 E2.37461
G1 X134.827 Y126.562 E2.3979
G1 X134.26 Y126.85 E2.42117
G1 X133.479 Y127.113 E2.45132
G1 X133.021 Y127.227 E2.46859
G1 X132.396 Y127.342 E2.49184
G1 X131.57 Y127.372 E2.52208
G1 X130.753 Y127.335 E2.552
G1 X130.121 Y127.266 E2.57526
G1 X129.502 Y127.119 E2.59853
G1 X128.907 Y126.895 E2.62179
G1 X128.455 Y126.664 E2.64037
G1 X127.931 Y126.362 E2.66249
G1 X127.401 Y126.01 E2.68577
G1 X126.92 Y125.595 E2.70901
G1 X126.494 Y125.123 E2.73228
G1 X126.131 Y124.601 E2.75554
G1 X125.836 Y124.037 E2.77882
G1 X125.614 Y123.441 E2.80209
G1 X125.469 Y122.822 E2.82535
G1 X125.398 Y121.918 E2.85853
G1 X125.4 Y121.748 E2.86475
G1 X125.448 Y121.114 E2.88801
G1 X125.463 Y121.039 E2.89081
G1 X125.118 Y120.787 E2.90644
G1 X124.654 Y120.352 E2.92971
G1 X124.499 Y120.164 E2.93862
G1 X124.341 Y120.355 E2.94769
G1 X123.877 Y120.79 E2.97096
G1 X123.534 Y121.039 E2.98647
G1 X123.567 Y121.217 E2.99309
G1 X123.602 Y121.875 E3.0172
G1 X123.6 Y122.044 E3.02338
G1 X123.552 Y122.678 E3.04665
G1 X123.426 Y123.301 E3.0699
G1 X123.222 Y123.904 E3.09319
G1 X122.944 Y124.476 E3.11646
G1 X122.597 Y125.008 E3.1397
G1 X122.185 Y125.493 E3.16298
G1 X121.637 Y125.986 E3.18995
G1 X121.354 Y126.205 E3.20304
G1 X120.827 Y126.562 E3.22633
G1 X120.26 Y126.85 E3.24959
G1 X119.479 Y127.113 E3.27975
G1 X119.186 Y127.186 E3.29079
G1 X119.297 Y127.404 E3.29974
G1 X119.513 Y128.002 E3.323
G1 X119.651 Y128.623 E3.34628
G1 X119.713 Y129.411 E3.3752
G1 X119.714 Y134.889 E3.57562
G1 X119.674 Y135.524 E3.5989
G1 X119.555 Y136.148 E3.62214
G1 X119.358 Y136.753 E3.64541
G1 X119.088 Y137.329 E3.66869
G1 X118.747 Y137.865 E3.69193
G1 X118.341 Y138.355 E3.71521
G1 X117.877 Y138.79 E3.73848
G1 X117.534 Y139.039 E3.75399
G1 X117.567 Y139.217 E3.76061
G1 X117.602 Y139.875 E3.78472
G1 X117.6 Y140.044 E3.7909
G1 X117.552 Y140.678 E3.81417
G1 X117.426 Y141.301 E3.83742
G1 X117.222 Y141.904 E3.86071
G1 X116.944 Y142.476 E3.88398
G1 X116.597 Y143.008 E3.90722
G1 X116.185 Y143.493 E3.9305
G1 X115.637 Y143.986 E3.95747
G1 X115.354 Y144.205 E3.97056
G1 X114.827 Y144.562 E3.99385
G1 X114.26 Y144.85 E4.01711
G1 X113.479 Y145.113 E4.04726
G1 X113.021 Y145.227 E4.06453
G1 X112.396 Y145.342 E4.08778
G1 X111.57 Y145.372 E4.11802
G1 X110.753 Y145.335 E4.14794
G1 X110.121 Y145.266 E4.1712
G1 X109.502 Y145.119 E4.19448
G1 X108.907 Y144.895 E4.21774
G1 X108.455 Y144.664 E4.23631
G1 X107.931 Y144.362 E4.25844
G1 X107.401 Y144.01 E4.28172
G1 X106.92 Y143.595 E4.30496
G1 X106.494 Y143.123 E4.32822
G1 X106.131 Y142.601 E4.35148
G1 X105.836 Y142.037 E4.37477
G1 X105.614 Y141.441 E4.39804
G1 X105.469 Y140.822 E4.4213
G1 X105.398 Y139.918 E4.45448
G1 X105.4 Y139.748 E4.4607
G1 X105.448 Y139.114 E4.48396
G1 X105.463 Y139.039 E4.48676
G1 X105.118 Y138.787 E4.50239
G1 X104.654 Y138.352 E4.52566
G1 X104.25 Y137.861 E4.54892
G1 X103.91 Y137.324 E4.57217
G1 X103.64 Y136.748 E4.59545
G1 X103.444 Y136.143 E4.61871
G1 X103.326 Y135.518 E4.64198
G1 X103.287 Y134.895 E4.66482
G1 X103.284 Y129.405 E4.86568
G1 X103.324 Y128.77 E4.88896
G1 X103.443 Y128.145 E4.91224
G1 X103.639 Y127.541 E4.93547
G1 X103.721 Y127.367 E4.94251
G1 X103.57 Y127.372 E4.94803
G1 X102.753 Y127.335 E4.97795
G1 X102.121 Y127.266 E5.00121
G1 X101.502 Y127.119 E5.02449
G1 X100.907 Y126.895 E5.04775
G1 X100.455 Y126.664 E5.06632
G1 X99.931 Y126.362 E5.08845
G1 X99.401 Y126.01 E5.11173
G1 X98.92 Y125.595 E5.13497
G1 X98.494 Y125.123 E5.15823
G1 X98.131 Y124.601 E5.18149
G1 X97.836 Y124.037 E5.20478
G1 X97.614 Y123.441 E5.22805
G1 X97.469 Y122.822 E5.25131
G1 X97.398 Y121.918 E5.28448
G1 X97.4 Y121.748 E5.29071
G1 X97.448 Y121.114 E5.31397
G1 X97.463 Y121.039 E5.31677
G1 X97.118 Y120.787 E5.3324
G1 X96.654 Y120.352 E5.35567
G1 X96.25 Y119.861 E5.37893
G1 X95.91 Y119.324 E5.40218
G1 X95.64 Y118.748 E5.42546
G1 X95.444 Y118.143 E5.44872
G1 X95.326 Y117.518 E5.47199
G1 X95.287 Y116.895 E5.49483
G1 X95.284 Y111.405 E5.69569
G1 X95.324 Y110.77 E5.71897
G1 X95.443 Y110.145 E5.74225
G1 X95.639 Y109.541 E5.76548
G1 X95.909 Y108.965 E5.78875
G1 X96.25 Y108.428 E5.81202
G1 X96.52 Y108.113 E5.8272
G0 F810 X96.766 Y107.824
G0 X97.012 Y107.578
M204 S5000
M205 X30 Y30
G0 F7200 X97.323 Y107.889
M204 S500
M205 X20 Y20
G1 F6000 E5.8538
G1 F900 X97.78 Y107.489 E5.87602
G1 X98.286 Y107.152 E5.89826
G1 X98.831 Y106.884 E5.92048
G1 X99.407 Y106.69 E5.94272
G1 X100.003 Y106.573 E5.96494
G1 X100.59 Y106.536 E5.98646
G1 X106.397 Y106.536 E6.19892
G1 X107.003 Y106.576 E6.22114
G1 X107.599 Y106.695 E6.24337
G1 X108.174 Y106.891 E6.2656
G1 X108.718 Y107.162 E6.28783
G1 X109.223 Y107.501 E6.31009
G1 X109.664 Y107.889 E6.33158
G1 X109.92 Y108.145 E6.34482
G1 X110.32 Y108.602 E6.36704
G1 X110.495 Y108.864 E6.37857
G1 X110.687 Y108.578 E6.39117
G1 X111.077 Y108.135 E6.41277
G1 X111.323 Y107.889 E6.42549
G1 X111.78 Y107.489 E6.44771
G1 X112.286 Y107.152 E6.46996
G1 X112.831 Y106.884 E6.49218
G1 X113.407 Y106.69 E6.51441
G1 X114.003 Y106.573 E6.53663
G1 X114.59 Y106.536 E6.55815
G1 X120.397 Y106.536 E6.77061
G1 X121.003 Y106.576 E6.79283
G1 X121.599 Y106.695 E6.81506
G1 X122.174 Y106.891 E6.83729
G1 X122.718 Y107.162 E6.85953
G1 X123.223 Y107.501 E6.88178
G1 X123.664 Y107.889 E6.90327
G1 X123.92 Y108.145 E6.91651
G1 X124.32 Y108.602 E6.93873
G1 X124.495 Y108.864 E6.95026
G1 X124.687 Y108.578 E6.96286
G1 X125.077 Y108.135 E6.98446
G1 X125.323 Y107.889 E6.99719
G1 X125.78 Y107.489 E7.01941
G1 X126.286 Y107.152 E7.04165
G1 X126.831 Y106.884 E7.06387
G1 X127.407 Y106.69 E7.0861
G1 X128.003 Y106.573 E7.10833
G1 X128.59 Y106.536 E7.12984
G1 X134.397 Y106.536 E7.3423
G1 X135.003 Y106.576 E7.36452
G1 X135.599 Y106.695 E7.38676
G1 X136.174 Y106.891 E7.40898
G1 X136.718 Y107.162 E7.43122
G1 X137.223 Y107.501 E7.45347
G1 X137.664 Y107.889 E7.47496
G1 X137.92 Y108.145 E7.48821
G1 X138.32 Y108.602 E7.51043
G1 X138.657 Y109.108 E7.53267
G1 X138.925 Y109.653 E7.55489
G1 X139.119 Y110.229 E7.57713
G1 X139.236 Y110.825 E7.59935
G1 X139.273 Y111.411 E7.62083
G1 X139.274 Y116.889 E7.82125
G1 X139.234 Y117.495 E7.84347
G1 X139.115 Y118.091 E7.8657
G1 X138.919 Y118.666 E7.88793
G1 X138.649 Y119.211 E7.91018
G1 X138.31 Y119.715 E7.9324
G1 X137.907 Y120.17 E7.95464
G1 X137.449 Y120.569 E7.97686
G1 X137.054 Y120.83 E7.99419
G1 X137.144 Y121.404 E8.01544
G1 X137.162 Y121.87 E8.0325
G1 X137.16 Y122.039 E8.03869
G1 X137.113 Y122.644 E8.06089
G1 X136.986 Y123.239 E8.08315
G1 X136.783 Y123.811 E8.10535
G1 X136.507 Y124.353 E8.12761
G1 X136.162 Y124.853 E8.14983
G1 X135.754 Y125.303 E8.17206
G1 X135.367 Y125.638 E8.19078
G1 X135.084 Y125.857 E8.20387
G1 X134.581 Y126.196 E8.22607
G1 X134.036 Y126.467 E8.24833
G1 X133.373 Y126.686 E8.27388
G1 X132.915 Y126.8 E8.29115
G1 X132.317 Y126.908 E8.31338
G1 X131.59 Y126.932 E8.33999
G1 X130.773 Y126.895 E8.36991
G1 X130.169 Y126.828 E8.39215
G1 X129.579 Y126.682 E8.41439
G1 X129.014 Y126.46 E8.43659
G1 X128.675 Y126.283 E8.45059
G1 X128.151 Y125.981 E8.47271
G1 X127.646 Y125.643 E8.49495
G1 X127.189 Y125.243 E8.51717
G1 X126.789 Y124.785 E8.53941
G1 X126.452 Y124.28 E8.56163
G1 X126.185 Y123.734 E8.58386
G1 X125.991 Y123.158 E8.6061
G1 X125.875 Y122.562 E8.62831
G1 X125.838 Y121.924 E8.65169
G1 X125.84 Y121.754 E8.65791
G1 X125.887 Y121.148 E8.68015
G1 X125.954 Y120.832 E8.69197
G1 X125.688 Y120.67 E8.70337
G1 X125.215 Y120.288 E8.72561
G1 X124.796 Y119.848 E8.74784
G1 X124.497 Y119.437 E8.76643
G1 X124.31 Y119.715 E8.77869
G1 X123.907 Y120.17 E8.80093
G1 X123.449 Y120.569 E8.82315
G1 X123.054 Y120.83 E8.84047
G1 X123.144 Y121.404 E8.86173
G1 X123.162 Y121.87 E8.87879
G1 X123.16 Y122.039 E8.88498
G1 X123.113 Y122.644 E8.90718
G1 X122.986 Y123.239 E8.92944
G1 X122.783 Y123.811 E8.95164
G1 X122.507 Y124.353 E8.9739
G1 X122.162 Y124.853 E8.99612
G1 X121.754 Y125.303 E9.01834
G1 X121.367 Y125.638 E9.03707
G1 X121.084 Y125.857 E9.05016
G1 X120.581 Y126.196 E9.07235
G1 X120.036 Y126.467 E9.09462
G1 X119.373 Y126.686 E9.12017
G1 X118.915 Y126.8 E9.13744
G1 X118.502 Y126.875 E9.15279
G1 X118.657 Y127.108 E9.16303
G1 X118.925 Y127.653 E9.18525
G1 X119.119 Y128.229 E9.20749
G1 X119.236 Y128.825 E9.22971
G1 X119.273 Y129.411 E9.25119
G1 X119.274 Y134.889 E9.45161
G1 X119.234 Y135.495 E9.47383
G1 X119.115 Y136.091 E9.49607
G1 X118.919 Y136.666 E9.51829
G1 X118.649 Y137.211 E9.54054
G1 X118.31 Y137.715 E9.56277
G1 X117.907 Y138.17 E9.585
G1 X117.449 Y138.569 E9.60723
G1 X117.054 Y138.83 E9.62455
G1 X117.144 Y139.404 E9.64581
G1 X117.162 Y139.87 E9.66287
G1 X117.16 Y140.039 E9.66905
G1 X117.113 Y140.644 E9.69125
G1 X116.986 Y141.239 E9.71351
G1 X116.783 Y141.811 E9.73572
G1 X116.507 Y142.353 E9.75797
G1 X116.162 Y142.853 E9.7802
G1 X115.754 Y143.303 E9.80242
G1 X115.367 Y143.638 E9.82115
G1 X115.084 Y143.857 E9.83424
G1 X114.581 Y144.196 E9.85643
G1 X114.036 Y144.467 E9.8787
G1 X113.373 Y144.686 E9.90424
G1 X112.915 Y144.8 E9.92151
G1 X112.317 Y144.908 E9.94374
G1 X111.59 Y144.932 E9.97036
G1 X110.773 Y144.895 E10.00028
G1 X110.169 Y144.828 E10.02251
G1 X109.579 Y144.682 E10.04475
G1 X109.014 Y144.46 E10.06696
G1 X108.675 Y144.283 E10.08095
G1 X108.151 Y143.981 E10.10308
G1 X107.646 Y143.643 E10.12531
G1 X107.189 Y143.243 E10.14753
G1 X106.789 Y142.785 E10.16978
G1 X106.452 Y142.28 E10.19199
G1 X106.185 Y141.734 E10.21423
G1 X105.991 Y141.158 E10.23646
G1 X105.875 Y140.562 E10.25868
G1 X105.838 Y139.924 E10.28206
G1 X105.84 Y139.754 E10.28828
G1 X105.887 Y139.148 E10.31052
G1 X105.954 Y138.832 E10.32233
G1 X105.688 Y138.67 E10.33373
G1 X105.215 Y138.288 E10.35597
G1 X104.796 Y137.848 E10.3782
G1 X104.439 Y137.357 E10.40041
G1 X104.15 Y136.822 E10.42266
G1 X103.933 Y136.255 E10.44487
G1 X103.792 Y135.664 E10.4671
G1 X103.727 Y134.895 E10.49534
G1 X103.724 Y129.405 E10.69619
G1 X103.764 Y128.798 E10.71845
G1 X103.882 Y128.202 E10.74068
G1 X104.079 Y127.627 E10.76292
G1 X104.348 Y127.083 E10.78512
G1 X104.486 Y126.877 E10.79419
G1 X104.317 Y126.908 E10.80048
G1 X103.59 Y126.932 E10.82709
G1 X102.773 Y126.895 E10.85701
G1 X102.169 Y126.828 E10.87924
G1 X101.579 Y126.682 E10.90148
G1 X101.014 Y126.46 E10.92369
G1 X100.675 Y126.283 E10.93768
G1 X100.151 Y125.981 E10.95981
G1 X99.646 Y125.643 E10.98204
G1 X99.189 Y125.243 E11.00426
G1 X98.789 Y124.785 E11.02651
G1 X98.452 Y124.28 E11.04872
G1 X98.185 Y123.734 E11.07096
G1 X97.991 Y123.158 E11.0932
G1 X97.875 Y122.562 E11.11541
G1 X97.838 Y121.924 E11.13879
G1 X97.84 Y121.754 E11.14501
G1 X97.887 Y121.148 E11.16725
G1 X97.954 Y120.832 E11.17907
G1 X97.688 Y120.67 E11.19046
G1 X97.215 Y120.288 E11.21271
G1 X96.796 Y119.848 E11.23493
G1 X96.439 Y119.357 E11.25715
G1 X96.15 Y118.822 E11.27939
G1 X95.933 Y118.255 E11.3016
G1 X95.792 Y117.664 E11.32383
G1 X95.727 Y116.895 E11.35207
G1 X95.724 Y111.405 E11.55293
G1 X95.764 Y110.798 E11.57518
G1 X95.882 Y110.202 E11.59741
G1 X96.079 Y109.627 E11.61965
G1 X96.348 Y109.083 E11.64185
G1 X96.687 Y108.578 E11.6641
G1 X96.826 Y108.42 E11.6718
G0 F810 X97.077 Y108.135
G0 X97.323 Y107.889
M204 S5000
M205 X30 Y30
G0 F7200 X97.634 Y108.2
M204 S500
M205 X20 Y20
G1 F6000 E11.6984
G1 F900 X98.07 Y107.821 E11.71954
G1 X98.554 Y107.505 E11.74068
G1 X99.077 Y107.259 E11.76183
G1 X99.629 Y107.088 E11.78297
G1 X100.2 Y106.994 E11.80414
G1 X100.59 Y106.976 E11.81843
G1 X106.397 Y106.976 E12.03088
G1 X106.974 Y107.016 E12.05205
G1 X107.539 Y107.135 E12.07317
G1 X108.083 Y107.331 E12.09432
G1 X108.594 Y107.6 E12.11545
G1 X109.064 Y107.937 E12.13661
G1 X109.353 Y108.2 E12.15091
G1 X109.609 Y108.456 E12.16415
G1 X109.988 Y108.892 E12.18529
G1 X110.304 Y109.376 E12.20644
G1 X110.495 Y109.782 E12.22285
G1 X110.518 Y109.718 E12.22534
G1 X110.787 Y109.207 E12.24647
G1 X111.124 Y108.737 E12.26763
G1 X111.388 Y108.446 E12.282
G1 X111.634 Y108.2 E12.29473
G1 X112.07 Y107.821 E12.31587
G1 X112.554 Y107.505 E12.33701
G1 X113.077 Y107.259 E12.35816
G1 X113.629 Y107.088 E12.3793
G1 X114.2 Y106.994 E12.40047
G1 X114.59 Y106.976 E12.41476
G1 X120.397 Y106.976 E12.62721
G1 X120.974 Y107.016 E12.64837
G1 X121.539 Y107.135 E12.6695
G1 X122.083 Y107.331 E12.69065
G1 X122.594 Y107.6 E12.71178
G1 X123.064 Y107.937 E12.73294
G1 X123.353 Y108.2 E12.74724
G1 X123.609 Y108.456 E12.76048
G1 X123.988 Y108.892 E12.78162
G1 X124.304 Y109.376 E12.80277
G1 X124.495 Y109.782 E12.81918
G1 X124.518 Y109.718 E12.82167
G1 X124.787 Y109.207 E12.8428
G1 X125.124 Y108.737 E12.86396
G1 X125.388 Y108.446 E12.87833
G1 X125.634 Y108.2 E12.89106
G1 X126.07 Y107.821 E12.9122
G1 X126.554 Y107.505 E12.93334
G1 X127.077 Y107.259 E12.95449
G1 X127.629 Y107.088 E12.97563
G1 X128.2 Y106.994 E12.9968
G1 X128.59 Y106.976 E13.01109
G1 X134.397 Y106.976 E13.22354
G1 X134.974 Y107.016 E13.2447
G1 X135.539 Y107.135 E13.26583
G1 X136.083 Y107.331 E13.28698
G1 X136.594 Y107.6 E13.30811
G1 X137.064 Y107.937 E13.32927
G1 X137.353 Y108.2 E13.34357
G1 X137.609 Y108.456 E13.35681
G1 X137.988 Y108.892 E13.37795
G1 X138.304 Y109.376 E13.3991
G1 X138.55 Y109.899 E13.42024
G1 X138.721 Y110.451 E13.44138
G1 X138.815 Y111.022 E13.46256
G1 X138.833 Y111.411 E13.4768
G1 X138.834 Y116.889 E13.67722
G1 X138.794 Y117.466 E13.69838
G1 X138.675 Y118.031 E13.71951
G1 X138.479 Y118.575 E13.74066
G1 X138.21 Y119.087 E13.76182
