;FLAVOR:Marlin
;TIME:5893
;Filament used: 3.8035m
;Layer height: 0.16
;Generated with Cura_SteamEngine 3.6.0
M140 S70
M105
M190 S70
M104 S215
M105
M109 S215
M82 ;absolute extrusion mode
G28 ; home all axes
M117 Purge extruder
G92 E0 ; reset extruder
G1 Z1.0 F3000 ; move z up little to prevent scratching of surface
G1 X0.1 Y20 Z0.3 F5000.0 ; move to start-line position G1 X0.1 Y200.0 Z0.3 F1500.0 E15 ; draw 1st line
G1 X0.4 Y200.0 Z0.3 F5000.0 ; move to side a little
G1 X0.4 Y20 Z0.3 F1500.0 E30 ; draw 2nd line
G92 E0 ; reset extruder
G1 Z1.0 F3000 ; move z up little to prevent scratching of surface
M117 All systems go!
G92 E0
G1 F6000 E-5
;LAYER_COUNT:25
;LAYER:0
M107
M204 S5000
M205 X30 Y30
G0 F7200 X72.806 Y88.364 Z0.2
M204 S500
M205 X20 Y20
;TYPE:SKIRT
G1 F6000 E0
G1 F900 X73.332 Y88.006 E0.02328
G1 X73.899 Y87.718 E0.04655
G1 X74.497 Y87.502 E0.06981
G1 X75.118 Y87.364 E0.09308
G1 X75.905 Y87.302 E0.12196
G1 X81.744 Y87.3 E0.33559
G1 X82.379 Y87.34 E0.35887
G1 X82.489 Y87.361 E0.36297
G1 X83.253 Y87.301 E0.391
G1 X83.974 Y87.301 E0.41738
G1 X84.609 Y87.341 E0.44066
G1 X84.715 Y87.361 E0.44461
G1 X85.482 Y87.301 E0.47275
G1 X86.257 Y87.301 E0.50111
G1 X86.892 Y87.341 E0.52439
G1 X86.998 Y87.361 E0.52833
G1 X87.765 Y87.301 E0.55648
G1 X88.486 Y87.301 E0.58286
G1 X89.121 Y87.341 E0.60614
G1 X89.227 Y87.361 E0.61008
G1 X89.994 Y87.301 E0.63823
G1 X90.906 Y87.301 E0.6716
G1 X91.541 Y87.341 E0.69488
G1 X91.647 Y87.361 E0.69882
G1 X92.414 Y87.301 E0.72697
G1 X93.135 Y87.301 E0.75335
G1 X93.77 Y87.341 E0.77663
G1 X93.876 Y87.361 E0.78057
G1 X94.643 Y87.301 E0.80872
G1 X95.418 Y87.301 E0.83708
G1 X96.053 Y87.341 E0.86035
G1 X96.159 Y87.361 E0.8643
G1 X96.925 Y87.301 E0.89241
G1 X97.646 Y87.301 E0.91879
G1 X98.281 Y87.341 E0.94207
G1 X98.387 Y87.361 E0.94601
G1 X99.154 Y87.301 E0.97416
G1 X99.863 Y87.301 E1.0001
G1 X100.498 Y87.341 E1.02338
G1 X100.604 Y87.361 E1.02733
G1 X101.371 Y87.301 E1.05547
G1 X102.092 Y87.301 E1.08185
G1 X102.727 Y87.341 E1.10513
G1 X102.833 Y87.361 E1.10908
G1 X103.6 Y87.301 E1.13722
G1 X104.374 Y87.301 E1.16554
G1 X105.009 Y87.341 E1.18882
G1 X105.115 Y87.361 E1.19277
G1 X105.882 Y87.301 E1.22091
G1 X106.603 Y87.301 E1.24729
G1 X107.238 Y87.341 E1.27057
G1 X107.344 Y87.361 E1.27452
G1 X108.111 Y87.301 E1.30267
G1 X109.024 Y87.301 E1.33607
G1 X109.659 Y87.341 E1.35935
G1 X109.765 Y87.361 E1.36329
G1 X110.531 Y87.301 E1.3914
G1 X111.252 Y87.301 E1.41778
G1 X111.887 Y87.341 E1.44106
G1 X111.993 Y87.361 E1.44501
G1 X112.76 Y87.301 E1.47315
G1 X113.535 Y87.301 E1.50151
G1 X114.17 Y87.341 E1.52479
G1 X114.276 Y87.361 E1.52873
G1 X115.043 Y87.301 E1.55688
G1 X115.764 Y87.301 E1.58326
G1 X116.399 Y87.341 E1.60654
G1 X116.505 Y87.361 E1.61048
G1 X117.272 Y87.301 E1.63863
G1 X117.98 Y87.301 E1.66453
G1 X118.615 Y87.341 E1.68781
G1 X118.721 Y87.361 E1.69176
G1 X119.488 Y87.301 E1.71991
G1 X120.209 Y87.301 E1.74629
G1 X120.844 Y87.341 E1.76956
G1 X120.95 Y87.361 E1.77351
G1 X121.717 Y87.301 E1.80166
G1 X122.492 Y87.301 E1.83001
G1 X123.127 Y87.341 E1.85329
G1 X123.233 Y87.361 E1.85724
G1 X124 Y87.301 E1.88538
G1 X124.721 Y87.301 E1.91176
G1 X125.356 Y87.341 E1.93504
G1 X125.462 Y87.361 E1.93899
G1 X126.228 Y87.301 E1.9671
G1 X127.141 Y87.301 E2.0005
G1 X127.776 Y87.341 E2.02378
G1 X127.882 Y87.361 E2.02773
G1 X128.649 Y87.301 E2.05587
G1 X129.37 Y87.301 E2.08225
G1 X130.005 Y87.341 E2.10553
G1 X130.111 Y87.361 E2.10948
G1 X130.878 Y87.301 E2.13762
G1 X131.652 Y87.301 E2.16594
G1 X132.287 Y87.341 E2.18922
G1 X132.393 Y87.361 E2.19317
G1 X133.16 Y87.301 E2.22131
G1 X133.881 Y87.301 E2.24769
G1 X134.516 Y87.341 E2.27097
G1 X134.622 Y87.361 E2.27492
G1 X135.389 Y87.301 E2.30306
G1 X136.098 Y87.301 E2.329
G1 X136.733 Y87.341 E2.35228
G1 X136.839 Y87.361 E2.35623
G1 X137.606 Y87.301 E2.38438
G1 X138.327 Y87.301 E2.41075
G1 X138.962 Y87.341 E2.43403
G1 X139.068 Y87.361 E2.43798
G1 X139.834 Y87.301 E2.46609
G1 X140.609 Y87.301 E2.49444
G1 X141.244 Y87.341 E2.51772
G1 X141.35 Y87.361 E2.52167
G1 X142.117 Y87.301 E2.54982
G1 X142.838 Y87.301 E2.5762
G1 X143.473 Y87.341 E2.59947
G1 X143.579 Y87.361 E2.60342
G1 X144.346 Y87.301 E2.63157
G1 X145.258 Y87.301 E2.66493
G1 X145.893 Y87.341 E2.68821
G1 X145.999 Y87.361 E2.69216
G1 X146.766 Y87.301 E2.72031
G1 X147.487 Y87.301 E2.74669
G1 X148.122 Y87.341 E2.76996
G1 X148.228 Y87.361 E2.77391
G1 X148.995 Y87.301 E2.80206
G1 X149.77 Y87.301 E2.83041
G1 X150.405 Y87.341 E2.85369
G1 X150.511 Y87.361 E2.85764
G1 X151.278 Y87.301 E2.88578
G1 X151.999 Y87.301 E2.91216
G1 X152.634 Y87.341 E2.93544
G1 X152.74 Y87.361 E2.93939
G1 X153.508 Y87.301 E2.96757
G1 X159.095 Y87.303 E3.17198
G1 X159.729 Y87.343 E3.19522
G1 X160.354 Y87.463 E3.2185
G1 X160.959 Y87.66 E3.24178
G1 X161.534 Y87.931 E3.26504
G1 X162.071 Y88.272 E3.28831
G1 X162.671 Y88.785 E3.31719
G1 X162.8 Y88.914 E3.32387
G1 X163.22 Y89.391 E3.34712
G1 X163.578 Y89.917 E3.3704
G1 X163.866 Y90.484 E3.39367
G1 X164.082 Y91.082 E3.41693
G1 X164.22 Y91.703 E3.4402
G1 X164.282 Y92.493 E3.46919
G1 X164.281 Y97.529 E3.65344
G1 X164.241 Y98.164 E3.67672
G1 X164.22 Y98.274 E3.68082
G1 X164.28 Y99.036 E3.70878
G1 X164.28 Y99.757 E3.73516
G1 X164.24 Y100.392 E3.75844
G1 X164.22 Y100.498 E3.76239
G1 X164.28 Y101.264 E3.7905
G1 X164.28 Y102.039 E3.81885
G1 X164.24 Y102.674 E3.84213
G1 X164.22 Y102.78 E3.84608
G1 X164.28 Y103.547 E3.87422
G1 X164.28 Y104.268 E3.9006
G1 X164.24 Y104.903 E3.92388
G1 X164.22 Y105.009 E3.92783
G1 X164.28 Y105.776 E3.95597
G1 X164.28 Y106.561 E3.98469
G1 X164.24 Y107.196 E4.00797
G1 X164.22 Y107.302 E4.01192
G1 X164.28 Y108.068 E4.04003
G1 X164.28 Y108.79 E4.06644
G1 X164.24 Y109.425 E4.08972
G1 X164.22 Y109.531 E4.09367
G1 X164.28 Y110.297 E4.12178
G1 X164.28 Y111.146 E4.15284
G1 X164.24 Y111.781 E4.17612
G1 X164.22 Y111.887 E4.18007
G1 X164.28 Y112.654 E4.20821
G1 X164.28 Y113.375 E4.23459
G1 X164.24 Y114.01 E4.25787
G1 X164.22 Y114.116 E4.26182
G1 X164.28 Y114.882 E4.28993
G1 X164.28 Y115.667 E4.31865
G1 X164.24 Y116.302 E4.34193
G1 X164.22 Y116.408 E4.34587
G1 X164.28 Y117.175 E4.37402
G1 X164.28 Y117.896 E4.4004
G1 X164.24 Y118.531 E4.42368
G1 X164.22 Y118.637 E4.42762
G1 X164.28 Y119.404 E4.45577
G1 X164.28 Y120.125 E4.48215
G1 X164.24 Y120.76 E4.50543
G1 X164.22 Y120.866 E4.50937
G1 X164.28 Y121.633 E4.53752
G1 X164.28 Y122.354 E4.5639
G1 X164.24 Y122.989 E4.58718
G1 X164.22 Y123.095 E4.59113
G1 X164.28 Y123.862 E4.61927
G1 X164.28 Y124.646 E4.64796
G1 X164.24 Y125.281 E4.67123
G1 X164.22 Y125.387 E4.67518
G1 X164.28 Y126.154 E4.70333
G1 X164.28 Y126.875 E4.72971
G1 X164.24 Y127.51 E4.75298
G1 X164.22 Y127.616 E4.75693
G1 X164.28 Y128.383 E4.78508
G1 X164.28 Y129.231 E4.8161
G1 X164.24 Y129.866 E4.83938
G1 X164.22 Y129.972 E4.84333
G1 X164.28 Y130.739 E4.87148
G1 X164.28 Y131.46 E4.89785
G1 X164.24 Y132.095 E4.92113
G1 X164.22 Y132.201 E4.92508
G1 X164.28 Y132.968 E4.95323
G1 X164.28 Y133.753 E4.98195
G1 X164.24 Y134.388 E5.00523
G1 X164.22 Y134.494 E5.00917
G1 X164.28 Y135.261 E5.03732
G1 X164.28 Y135.982 E5.0637
G1 X164.24 Y136.617 E5.08698
G1 X164.22 Y136.723 E5.09092
G1 X164.28 Y137.489 E5.11903
G1 X164.28 Y142.504 E5.30251
G1 X164.24 Y143.139 E5.32579
G1 X164.121 Y143.763 E5.34903
G1 X163.924 Y144.368 E5.37231
G1 X163.653 Y144.943 E5.39557
G1 X163.312 Y145.48 E5.41884
G1 X162.798 Y146.082 E5.4478
G1 X162.669 Y146.211 E5.45448
G1 X162.192 Y146.631 E5.47773
G1 X161.666 Y146.989 E5.50101
G1 X161.099 Y147.277 E5.52427
G1 X160.501 Y147.493 E5.54754
G1 X159.88 Y147.631 E5.57081
G1 X159.09 Y147.693 E5.5998
G1 X153.555 Y147.692 E5.80231
G1 X152.92 Y147.652 E5.82558
G1 X152.814 Y147.632 E5.82953
G1 X152.048 Y147.692 E5.85764
G1 X151.327 Y147.692 E5.88402
G1 X150.692 Y147.652 E5.9073
G1 X150.586 Y147.632 E5.91125
G1 X149.819 Y147.692 E5.93939
G1 X149.034 Y147.692 E5.96811
G1 X148.399 Y147.652 E5.99139
G1 X148.293 Y147.632 E5.99534
G1 X147.527 Y147.692 E6.02345
G1 X146.805 Y147.692 E6.04986
G1 X146.17 Y147.652 E6.07314
G1 X146.064 Y147.632 E6.07709
G1 X145.298 Y147.692 E6.1052
G1 X144.449 Y147.692 E6.13626
G1 X143.814 Y147.652 E6.15954
G1 X143.708 Y147.632 E6.16349
G1 X142.942 Y147.692 E6.1916
G1 X142.22 Y147.692 E6.21801
G1 X141.585 Y147.652 E6.24129
G1 X141.479 Y147.632 E6.24524
G1 X140.713 Y147.692 E6.27335
G1 X139.928 Y147.692 E6.30207
G1 X139.293 Y147.652 E6.32535
G1 X139.187 Y147.632 E6.32929
G1 X138.42 Y147.692 E6.35744
G1 X137.699 Y147.692 E6.38382
G1 X137.064 Y147.652 E6.4071
G1 X136.958 Y147.632 E6.41104
G1 X136.191 Y147.692 E6.43919
G1 X135.47 Y147.692 E6.46557
G1 X134.835 Y147.652 E6.48885
G1 X134.729 Y147.632 E6.49279
G1 X133.962 Y147.692 E6.52094
G1 X133.241 Y147.692 E6.54732
G1 X132.606 Y147.652 E6.5706
G1 X132.5 Y147.632 E6.57454
G1 X131.734 Y147.692 E6.60266
G1 X130.949 Y147.692 E6.63138
G1 X130.314 Y147.652 E6.65465
G1 X130.208 Y147.632 E6.6586
G1 X129.441 Y147.692 E6.68675
G1 X128.72 Y147.692 E6.71313
G1 X128.085 Y147.652 E6.7364
G1 X127.979 Y147.632 E6.74035
G1 X127.212 Y147.692 E6.7685
G1 X126.364 Y147.692 E6.79952
G1 X125.729 Y147.652 E6.8228
G1 X125.623 Y147.632 E6.82675
G1 X124.856 Y147.692 E6.8549
G1 X124.135 Y147.692 E6.88127
G1 X123.5 Y147.652 E6.90455
G1 X123.394 Y147.632 E6.9085
G1 X122.627 Y147.692 E6.93665
G1 X121.842 Y147.692 E6.96537
G1 X121.207 Y147.652 E6.98864
G1 X121.101 Y147.632 E6.99259
G1 X120.335 Y147.692 E7.0207
G1 X119.613 Y147.692 E7.04712
G1 X118.978 Y147.652 E7.0704
G1 X118.872 Y147.632 E7.07434
G1 X118.106 Y147.692 E7.10245
G1 X117.331 Y147.692 E7.13081
G1 X116.696 Y147.652 E7.15409
G1 X116.59 Y147.632 E7.15803
G1 X115.823 Y147.692 E7.18618
G1 X115.102 Y147.692 E7.21256
G1 X114.467 Y147.652 E7.23584
G1 X114.361 Y147.632 E7.23978
G1 X113.594 Y147.692 E7.26793
G1 X112.862 Y147.692 E7.29471
G1 X112.227 Y147.652 E7.31799
G1 X112.121 Y147.632 E7.32194
G1 X111.355 Y147.692 E7.35005
G1 X110.634 Y147.692 E7.37643
G1 X109.999 Y147.652 E7.3997
G1 X109.893 Y147.632 E7.40365
G1 X109.126 Y147.692 E7.4318
G1 X108.341 Y147.692 E7.46052
G1 X107.706 Y147.652 E7.4838
G1 X107.6 Y147.632 E7.48774
G1 X106.833 Y147.692 E7.51589
G1 X106.112 Y147.692 E7.54227
G1 X105.477 Y147.652 E7.56555
G1 X105.371 Y147.632 E7.56949
G1 X104.605 Y147.692 E7.5976
G1 X103.756 Y147.692 E7.62867
G1 X103.121 Y147.652 E7.65194
G1 X103.015 Y147.632 E7.65589
G1 X102.248 Y147.692 E7.68404
G1 X101.527 Y147.692 E7.71042
G1 X100.892 Y147.652 E7.73369
G1 X100.786 Y147.632 E7.73764
G1 X100.019 Y147.692 E7.76579
G1 X99.235 Y147.692 E7.79447
G1 X98.6 Y147.652 E7.81775
G1 X98.494 Y147.632 E7.8217
G1 X97.727 Y147.692 E7.84984
G1 X97.006 Y147.692 E7.87622
G1 X96.371 Y147.652 E7.8995
G1 X96.265 Y147.632 E7.90345
G1 X95.498 Y147.692 E7.93159
G1 X94.777 Y147.692 E7.95797
G1 X94.142 Y147.652 E7.98125
G1 X94.036 Y147.632 E7.9852
G1 X93.269 Y147.692 E8.01335
G1 X92.548 Y147.692 E8.03972
G1 X91.913 Y147.652 E8.063
G1 X91.807 Y147.632 E8.06695
G1 X91.04 Y147.692 E8.0951
G1 X90.255 Y147.692 E8.12382
G1 X89.62 Y147.652 E8.14709
G1 X89.514 Y147.632 E8.15104
G1 X88.748 Y147.692 E8.17915
G1 X88.027 Y147.692 E8.20553
G1 X87.392 Y147.652 E8.22881
G1 X87.286 Y147.632 E8.23276
G1 X86.519 Y147.692 E8.2609
G1 X85.67 Y147.692 E8.29196
G1 X85.035 Y147.652 E8.31524
G1 X84.929 Y147.632 E8.31919
G1 X84.163 Y147.692 E8.3473
G1 X83.441 Y147.692 E8.37372
G1 X82.806 Y147.652 E8.39699
G1 X82.7 Y147.632 E8.40094
G1 X81.936 Y147.692 E8.42898
G1 X75.911 Y147.694 E8.64941
G1 X75.276 Y147.654 E8.67269
G1 X74.651 Y147.535 E8.69596
G1 X74.046 Y147.339 E8.71923
G1 X73.471 Y147.068 E8.74249
G1 X72.934 Y146.727 E8.76576
G1 X72.331 Y146.212 E8.79477
G1 X72.202 Y146.083 E8.80145
G1 X71.782 Y145.606 E8.8247
G1 X71.424 Y145.08 E8.84798
G1 X71.136 Y144.513 E8.87125
G1 X70.92 Y143.915 E8.89451
G1 X70.782 Y143.294 E8.91778
G1 X70.72 Y142.502 E8.94685
G1 X70.723 Y137.486 E9.13036
G1 X70.763 Y136.851 E9.15364
G1 X70.783 Y136.747 E9.15752
G1 X70.723 Y135.982 E9.18559
G1 X70.723 Y135.261 E9.21197
G1 X70.763 Y134.626 E9.23525
G1 X70.783 Y134.52 E9.23919
G1 X70.723 Y133.753 E9.26734
G1 X70.723 Y132.968 E9.29606
G1 X70.763 Y132.333 E9.31934
G1 X70.783 Y132.227 E9.32329
G1 X70.723 Y131.46 E9.35143
G1 X70.723 Y130.739 E9.37781
G1 X70.763 Y130.104 E9.40109
G1 X70.783 Y129.998 E9.40504
G1 X70.723 Y129.231 E9.43319
G1 X70.723 Y128.383 E9.46421
G1 X70.763 Y127.748 E9.48749
G1 X70.783 Y127.642 E9.49143
G1 X70.723 Y126.875 E9.51958
G1 X70.723 Y126.154 E9.54596
G1 X70.763 Y125.519 E9.56924
G1 X70.783 Y125.413 E9.57319
G1 X70.723 Y124.646 E9.60133
G1 X70.723 Y123.862 E9.63002
G1 X70.763 Y123.227 E9.65329
G1 X70.783 Y123.121 E9.65724
G1 X70.723 Y122.354 E9.68539
G1 X70.723 Y121.633 E9.71177
G1 X70.763 Y120.998 E9.73505
G1 X70.783 Y120.892 E9.73899
G1 X70.723 Y120.125 E9.76714
G1 X70.723 Y119.404 E9.79352
G1 X70.763 Y118.769 E9.8168
G1 X70.783 Y118.663 E9.82074
G1 X70.723 Y117.896 E9.84889
G1 X70.723 Y117.175 E9.87527
G1 X70.763 Y116.54 E9.89855
G1 X70.783 Y116.434 E9.90249
G1 X70.723 Y115.667 E9.93064
G1 X70.723 Y114.882 E9.95936
G1 X70.763 Y114.247 E9.98264
G1 X70.783 Y114.141 E9.98659
G1 X70.723 Y113.375 E10.0147
G1 X70.723 Y112.654 E10.04108
G1 X70.763 Y112.019 E10.06435
G1 X70.783 Y111.913 E10.0683
G1 X70.723 Y111.146 E10.09645
G1 X70.723 Y110.297 E10.12751
G1 X70.763 Y109.662 E10.15079
G1 X70.783 Y109.556 E10.15473
G1 X70.723 Y108.79 E10.18284
G1 X70.723 Y108.068 E10.20926
G1 X70.763 Y107.433 E10.23254
G1 X70.783 Y107.327 E10.23648
G1 X70.723 Y106.561 E10.2646
G1 X70.723 Y105.776 E10.29332
G1 X70.763 Y105.141 E10.31659
G1 X70.783 Y105.035 E10.32054
G1 X70.723 Y104.268 E10.34869
G1 X70.723 Y103.547 E10.37507
G1 X70.763 Y102.912 E10.39834
G1 X70.783 Y102.806 E10.40229
G1 X70.723 Y102.039 E10.43044
G1 X70.723 Y101.264 E10.45879
G1 X70.763 Y100.629 E10.48207
G1 X70.783 Y100.523 E10.48602
G1 X70.723 Y99.757 E10.51413
G1 X70.723 Y99.036 E10.54051
G1 X70.763 Y98.401 E10.56379
G1 X70.783 Y98.295 E10.56773
G1 X70.723 Y97.533 E10.5957
G1 X70.718 Y92.496 E10.77998
G1 X70.757 Y91.861 E10.80326
G1 X70.876 Y91.237 E10.8265
G1 X71.072 Y90.632 E10.84977
G1 X71.342 Y90.056 E10.87304
G1 X71.683 Y89.519 E10.89631
G1 X72.2 Y88.913 E10.92546
G1 X72.264 Y88.849 E10.92877
G0 F810 X72.329 Y88.784
G0 X72.806 Y88.364
M204 S5000
M205 X30 Y30
G0 F7200 X73.097 Y88.695
M204 S500
M205 X20 Y20
G1 F6000 E10.95537
G1 F900 X73.603 Y88.358 E10.97761
G1 X74.148 Y88.09 E10.99983
G1 X74.724 Y87.896 E11.02207
G1 X75.32 Y87.779 E11.04429
G1 X75.905 Y87.742 E11.06573
G1 X81.744 Y87.74 E11.27936
G1 X82.351 Y87.78 E11.30161
G1 X82.502 Y87.81 E11.30725
G1 X82.666 Y87.778 E11.31336
G1 X83.253 Y87.741 E11.33488
G1 X83.974 Y87.741 E11.36126
G1 X84.58 Y87.781 E11.38348
G1 X84.729 Y87.811 E11.38904
G1 X84.895 Y87.778 E11.39523
G1 X85.482 Y87.741 E11.41675
G1 X86.257 Y87.741 E11.4451
G1 X86.863 Y87.781 E11.46732
G1 X87.012 Y87.811 E11.47288
G1 X87.178 Y87.778 E11.47908
G1 X87.765 Y87.741 E11.50059
G1 X88.486 Y87.741 E11.52697
G1 X89.092 Y87.781 E11.54919
G1 X89.241 Y87.811 E11.55475
G1 X89.407 Y87.778 E11.56095
G1 X89.994 Y87.741 E11.58246
G1 X90.906 Y87.741 E11.61583
G1 X91.512 Y87.781 E11.63805
G1 X91.661 Y87.811 E11.64361
G1 X91.827 Y87.778 E11.6498
G1 X92.414 Y87.741 E11.67132
G1 X93.135 Y87.741 E11.6977
G1 X93.741 Y87.781 E11.71992
G1 X93.89 Y87.811 E11.72548
G1 X94.056 Y87.778 E11.73167
G1 X94.643 Y87.741 E11.75319
G1 X95.418 Y87.741 E11.78155
G1 X96.024 Y87.781 E11.80376
G1 X96.172 Y87.811 E11.80929
G1 X96.338 Y87.778 E11.81548
G1 X96.925 Y87.741 E11.837
G1 X97.646 Y87.741 E11.86338
G1 X98.252 Y87.781 E11.8856
G1 X98.401 Y87.811 E11.89116
G1 X98.567 Y87.778 E11.89735
G1 X99.154 Y87.741 E11.91887
G1 X99.863 Y87.741 E11.94481
G1 X100.469 Y87.781 E11.96703
G1 X100.618 Y87.811 E11.97259
G1 X100.784 Y87.778 E11.97878
G1 X101.371 Y87.741 E12.0003
G1 X102.092 Y87.741 E12.02668
G1 X102.698 Y87.781 E12.0489
G1 X102.847 Y87.811 E12.05446
G1 X103.013 Y87.778 E12.06065
G1 X103.6 Y87.741 E12.08217
G1 X104.374 Y87.741 E12.11049
G1 X104.98 Y87.781 E12.13271
G1 X105.129 Y87.811 E12.13827
G1 X105.295 Y87.778 E12.14446
G1 X105.882 Y87.741 E12.16598
G1 X106.603 Y87.741 E12.19236
G1 X107.209 Y87.781 E12.21458
G1 X107.358 Y87.811 E12.22014
G1 X107.524 Y87.778 E12.22633
G1 X108.111 Y87.741 E12.24785
