;FLAVOR:Marlin
;TIME:5608
;Filament used: 4.77223m
;Layer height: 0.16
;Generated with Cura_SteamEngine 3.6.0
M140 S70
M105
M190 S70
M104 S215
M105
M109 S215
M82 ;absolute extrusion mode
G28 ; home all axes
M117 Purge extruder
G92 E0 ; reset extruder
G1 Z1.0 F3000 ; move z up little to prevent scratching of surface
G1 X0.1 Y20 Z0.3 F5000.0 ; move to start-line position G1 X0.1 Y200.0 Z0.3 F1500.0 E15 ; draw 1st line
G1 X0.4 Y200.0 Z0.3 F5000.0 ; move to side a little
G1 X0.4 Y20 Z0.3 F1500.0 E30 ; draw 2nd line
G92 E0 ; reset extruder
G1 Z1.0 F3000 ; move z up little to prevent scratching of surface
M117 All systems go!
G92 E0
G1 F6000 E-5
;LAYER_COUNT:119
;LAYER:0
M107
M204 S5000
M205 X30 Y30
G0 F7200 X74.395 Y107.264 Z0.2
M204 S500
M205 X20 Y20
;TYPE:SKIRT
G1 F6000 E0
G1 F900 X75.077 Y106.837 E0.02944
G1 X75.154 Y106.797 E0.03261
G1 X75.736 Y106.54 E0.05589
G1 X76.345 Y106.357 E0.07916
G1 X76.973 Y106.253 E0.10244
G1 X77.608 Y106.228 E0.12569
G1 X77.904 Y106.254 E0.13657
G1 X78.063 Y105.765 E0.15538
G1 X78.334 Y105.19 E0.17863
G1 X78.675 Y104.653 E0.20191
G1 X79.189 Y104.051 E0.23087
G1 X79.318 Y103.922 E0.23754
G1 X79.795 Y103.502 E0.2608
G1 X80.321 Y103.144 E0.28407
G1 X80.888 Y102.856 E0.30734
G1 X81.486 Y102.64 E0.3306
G1 X82.107 Y102.502 E0.35388
G1 X82.896 Y102.44 E0.38283
G1 X88.914 Y102.44 E0.60301
G1 X88.914 Y101.896 E0.62291
G1 X88.995 Y101.265 E0.64619
G1 X89.154 Y100.649 E0.66946
G1 X89.389 Y100.059 E0.6927
G1 X89.696 Y99.502 E0.71597
G1 X90.071 Y98.988 E0.73924
G1 X90.507 Y98.525 E0.76251
G1 X90.989 Y98.127 E0.78538
G1 X91.498 Y97.757 E0.8084
G1 X92.035 Y97.416 E0.83168
G1 X92.61 Y97.145 E0.85493
G1 X93.215 Y96.949 E0.8782
G1 X93.84 Y96.83 E0.90148
G1 X94.473 Y96.79 E0.92468
G1 X95.909 Y96.79 E0.97722
G1 X96.544 Y96.83 E1.0005
G1 X97.168 Y96.949 E1.02374
G1 X97.773 Y97.146 E1.04702
G1 X98.348 Y97.417 E1.07028
G1 X98.884 Y97.757 E1.0935
G1 X99.393 Y98.127 E1.11652
G1 X99.883 Y98.533 E1.1398
G1 X100.318 Y98.996 E1.16305
G1 X100.692 Y99.511 E1.18633
G1 X100.998 Y100.068 E1.20958
G1 X101.231 Y100.66 E1.23286
G1 X101.389 Y101.276 E1.25613
G1 X101.468 Y101.907 E1.27939
G1 X101.468 Y102.44 E1.29889
G1 X111.961 Y102.44 E1.68279
G1 X111.961 Y97.629 E1.85881
G1 X112.001 Y96.994 E1.88208
G1 X112.12 Y96.37 E1.90533
G1 X112.317 Y95.765 E1.9286
G1 X112.588 Y95.19 E1.95186
G1 X112.929 Y94.653 E1.97513
G1 X113.443 Y94.051 E2.00409
G1 X113.572 Y93.922 E2.01077
G1 X114.049 Y93.502 E2.03402
G1 X114.575 Y93.144 E2.0573
G1 X115.142 Y92.856 E2.08057
G1 X115.74 Y92.64 E2.10383
G1 X116.361 Y92.502 E2.1271
G1 X117.15 Y92.44 E2.15606
G1 X159.892 Y92.44 E3.71982
G1 X160.527 Y92.48 E3.7431
G1 X161.151 Y92.599 E3.76634
G1 X161.756 Y92.796 E3.78962
G1 X162.331 Y93.067 E3.81288
G1 X162.868 Y93.408 E3.83615
G1 X163.47 Y93.922 E3.86511
G1 X163.599 Y94.051 E3.87179
G1 X164.019 Y94.528 E3.89504
G1 X164.377 Y95.054 E3.91832
G1 X164.665 Y95.621 E3.94159
G1 X164.881 Y96.219 E3.96485
G1 X165.019 Y96.84 E3.98812
G1 X165.081 Y97.629 E4.01708
G1 X165.081 Y105.371 E4.30033
G1 X165.041 Y106.006 E4.32361
G1 X164.922 Y106.63 E4.34685
G1 X164.725 Y107.235 E4.37013
G1 X164.454 Y107.81 E4.39338
G1 X164.113 Y108.347 E4.41665
G1 X163.599 Y108.949 E4.44562
G1 X163.47 Y109.078 E4.45229
G1 X162.993 Y109.498 E4.47554
G1 X162.467 Y109.856 E4.49882
G1 X161.9 Y110.144 E4.52209
G1 X161.302 Y110.36 E4.54535
G1 X160.681 Y110.498 E4.56862
G1 X159.892 Y110.56 E4.59758
G1 X156.15 Y110.56 E4.73449
G1 X155.515 Y110.52 E4.75776
G1 X154.891 Y110.401 E4.781
G1 X154.286 Y110.204 E4.80428
G1 X153.711 Y109.933 E4.82754
G1 X153.174 Y109.592 E4.85081
G1 X152.572 Y109.078 E4.87977
G1 X152.443 Y108.949 E4.88645
G1 X152.023 Y108.472 E4.9097
G1 X151.665 Y107.946 E4.93298
G1 X151.377 Y107.379 E4.95625
G1 X151.161 Y106.781 E4.97951
G1 X151.112 Y106.56 E4.98779
G1 X126.081 Y106.56 E5.90358
G1 X126.081 Y137.371 E7.03083
G1 X126.041 Y138.006 E7.05411
G1 X125.922 Y138.63 E7.07735
G1 X125.725 Y139.235 E7.10063
G1 X125.454 Y139.81 E7.12389
G1 X125.113 Y140.347 E7.14716
G1 X124.599 Y140.949 E7.17612
G1 X124.47 Y141.078 E7.1828
G1 X123.993 Y141.498 E7.20605
G1 X123.467 Y141.856 E7.22933
G1 X122.9 Y142.144 E7.2526
G1 X122.302 Y142.36 E7.27586
G1 X121.681 Y142.498 E7.29913
G1 X120.892 Y142.56 E7.32809
G1 X82.896 Y142.56 E8.71821
G1 X82.261 Y142.52 E8.74149
G1 X81.637 Y142.401 E8.76473
G1 X81.032 Y142.204 E8.78801
G1 X80.457 Y141.933 E8.81127
G1 X79.92 Y141.592 E8.83454
G1 X79.318 Y141.078 E8.8635
G1 X79.189 Y140.949 E8.87018
G1 X78.769 Y140.472 E8.89343
G1 X78.411 Y139.946 E8.91671
G1 X78.123 Y139.379 E8.93998
G1 X77.907 Y138.781 E8.96324
G1 X77.885 Y138.682 E8.96695
G1 X77.491 Y138.707 E8.98139
G1 X76.856 Y138.668 E9.00467
G1 X76.232 Y138.549 E9.02791
G1 X75.627 Y138.353 E9.05118
G1 X75.051 Y138.082 E9.07447
G1 X74.514 Y137.742 E9.09772
G1 X74.024 Y137.336 E9.121
G1 X73.589 Y136.873 E9.14424
G1 X73.215 Y136.358 E9.16753
G1 X72.937 Y135.86 E9.1884
G1 X72.175 Y134.293 E9.25215
G1 X71.933 Y133.705 E9.27541
G1 X71.767 Y133.091 E9.29868
G1 X71.679 Y132.461 E9.32195
G1 X71.671 Y131.825 E9.34522
G1 X71.743 Y131.193 E9.3685
G1 X71.913 Y130.514 E9.3941
G1 X72.117 Y129.887 E9.41823
G1 X72.352 Y129.296 E9.4415
G1 X72.658 Y128.739 E9.46475
G1 X73.032 Y128.225 E9.488
G1 X73.468 Y127.762 E9.51127
G1 X73.948 Y127.364 E9.53409
G1 X74.483 Y126.974 E9.55831
G1 X75.02 Y126.633 E9.58158
G1 X75.595 Y126.361 E9.60485
G1 X76.199 Y126.164 E9.6281
G1 X76.824 Y126.044 E9.65138
G1 X77.604 Y126.005 E9.67995
G1 X78.29 Y126.024 E9.70506
G1 X78.923 Y126.081 E9.72831
G1 X79.545 Y126.218 E9.75162
G1 X80.144 Y126.431 E9.77488
G1 X80.711 Y126.718 E9.79813
G1 X81.238 Y127.074 E9.82139
G1 X81.717 Y127.493 E9.84468
G1 X82.139 Y127.968 E9.86792
G1 X82.489 Y128.48 E9.89061
G1 X82.896 Y128.448 E9.90555
G1 X111.961 Y128.448 E10.96893
G1 X111.961 Y116.56 E11.40386
G1 X82.896 Y116.56 E12.46724
G1 X82.415 Y116.53 E12.48487
G1 X82.414 Y116.531 E12.48492
G1 X82.047 Y117.05 E12.50818
G1 X81.617 Y117.519 E12.53146
G1 X81.132 Y117.931 E12.55474
G1 X80.599 Y118.278 E12.57801
G1 X80.027 Y118.555 E12.60126
G1 X79.425 Y118.759 E12.62452
G1 X78.802 Y118.885 E12.64777
G1 X78.109 Y118.933 E12.67319
G1 X77.449 Y118.933 E12.69733
G1 X76.814 Y118.893 E12.72061
G1 X76.19 Y118.774 E12.74385
G1 X75.585 Y118.577 E12.76713
G1 X75.01 Y118.306 E12.79039
G1 X74.468 Y117.962 E12.81387
G1 X73.933 Y117.572 E12.8381
G1 X73.444 Y117.166 E12.86135
G1 X73.009 Y116.701 E12.88465
G1 X72.637 Y116.186 E12.90789
G1 X72.331 Y115.628 E12.93117
G1 X72.102 Y115.049 E12.95395
G1 X71.898 Y114.422 E12.97808
G1 X71.74 Y113.806 E13.00134
G1 X71.66 Y113.175 E13.02461
G1 X71.66 Y112.539 E13.04788
G1 X71.74 Y111.908 E13.07115
G1 X71.898 Y111.292 E13.09442
G1 X72.109 Y110.75 E13.1157
G1 X72.809 Y109.221 E13.17722
G1 X73.11 Y108.66 E13.20051
G1 X73.478 Y108.142 E13.22376
G1 X73.847 Y107.741 E13.2437
G0 F810 X73.909 Y107.674
G0 X74.395 Y107.264
M204 S5000
M205 X30 Y30
G0 F7200 X74.744 Y107.554
M204 S500
M205 X20 Y20
G1 F6000 E13.2703
G1 F900 X75.28 Y107.227 E13.29327
G1 X75.357 Y107.187 E13.29644
G1 X75.914 Y106.943 E13.31869
G1 X76.497 Y106.774 E13.3409
G1 X77.098 Y106.683 E13.36314
G1 X77.706 Y106.672 E13.38539
G1 X78.245 Y106.734 E13.40524
G1 X78.306 Y106.427 E13.41669
G1 X78.502 Y105.852 E13.43891
G1 X78.773 Y105.308 E13.46115
G1 X79.112 Y104.803 E13.4834
G1 X79.5 Y104.362 E13.50489
G1 X79.629 Y104.233 E13.51157
G1 X80.086 Y103.833 E13.53379
G1 X80.592 Y103.496 E13.55603
G1 X81.137 Y103.228 E13.57825
G1 X81.713 Y103.034 E13.60049
G1 X82.309 Y102.917 E13.62271
G1 X82.896 Y102.88 E13.64423
G1 X89.397 Y102.88 E13.88207
G1 X89.379 Y102.787 E13.88554
G1 X89.344 Y102.18 E13.90778
G1 X89.389 Y101.574 E13.93001
G1 X89.514 Y100.98 E13.95222
G1 X89.715 Y100.406 E13.97447
G1 X89.99 Y99.864 E13.99671
G1 X90.333 Y99.363 E14.01892
G1 X90.739 Y98.911 E14.04115
G1 X91.248 Y98.483 E14.06548
G1 X91.757 Y98.113 E14.08851
G1 X92.27 Y97.789 E14.1107
G1 X92.822 Y97.535 E14.13294
G1 X93.403 Y97.356 E14.15518
G1 X94.002 Y97.254 E14.17741
G1 X94.473 Y97.23 E14.19466
G1 X95.909 Y97.23 E14.2472
G1 X96.515 Y97.27 E14.26942
G1 X97.111 Y97.389 E14.29166
G1 X97.686 Y97.585 E14.31388
G1 X98.23 Y97.856 E14.33612
G1 X98.625 Y98.113 E14.35336
G1 X99.134 Y98.483 E14.37638
G1 X99.601 Y98.872 E14.39862
G1 X100.013 Y99.319 E14.42086
G1 X100.363 Y99.815 E14.44307
G1 X100.644 Y100.354 E14.46531
G1 X100.853 Y100.925 E14.48755
G1 X100.984 Y101.518 E14.50977
G1 X101.037 Y102.123 E14.53199
G1 X101.01 Y102.73 E14.55422
G1 X100.983 Y102.88 E14.5598
G1 X112.401 Y102.88 E14.97754
G1 X112.401 Y97.629 E15.16965
G1 X112.441 Y97.023 E15.19187
G1 X112.56 Y96.427 E15.21411
G1 X112.756 Y95.852 E15.23633
G1 X113.027 Y95.308 E15.25857
G1 X113.366 Y94.803 E15.28082
G1 X113.754 Y94.362 E15.30231
G1 X113.883 Y94.233 E15.30899
G1 X114.34 Y93.833 E15.33121
G1 X114.846 Y93.496 E15.35345
G1 X115.391 Y93.228 E15.37567
G1 X115.967 Y93.034 E15.39791
G1 X116.563 Y92.917 E15.42013
G1 X117.15 Y92.88 E15.44165
G1 X159.892 Y92.88 E17.00541
G1 X160.498 Y92.92 E17.02763
G1 X161.094 Y93.039 E17.04987
G1 X161.669 Y93.235 E17.07209
G1 X162.213 Y93.506 E17.09433
G1 X162.718 Y93.845 E17.11658
G1 X163.159 Y94.233 E17.13807
G1 X163.288 Y94.362 E17.14475
G1 X163.688 Y94.819 E17.16696
G1 X164.025 Y95.325 E17.18921
G1 X164.293 Y95.87 E17.21143
G1 X164.487 Y96.446 E17.23366
G1 X164.604 Y97.042 E17.25589
G1 X164.641 Y97.629 E17.2774
G1 X164.641 Y105.371 E17.56065
G1 X164.601 Y105.977 E17.58287
G1 X164.482 Y106.573 E17.60511
G1 X164.286 Y107.148 E17.62734
G1 X164.015 Y107.692 E17.64957
G1 X163.676 Y108.197 E17.67182
G1 X163.288 Y108.638 E17.69331
G1 X163.159 Y108.767 E17.69999
G1 X162.702 Y109.167 E17.72221
G1 X162.196 Y109.504 E17.74445
G1 X161.651 Y109.772 E17.76667
G1 X161.075 Y109.966 E17.78891
G1 X160.479 Y110.083 E17.81113
G1 X159.892 Y110.12 E17.83265
G1 X156.15 Y110.12 E17.96955
G1 X155.544 Y110.08 E17.99177
G1 X154.948 Y109.961 E18.01401
G1 X154.373 Y109.765 E18.03623
G1 X153.829 Y109.494 E18.05847
G1 X153.324 Y109.155 E18.08072
G1 X152.883 Y108.767 E18.10221
G1 X152.754 Y108.638 E18.10889
G1 X152.354 Y108.181 E18.13111
G1 X152.017 Y107.675 E18.15335
G1 X151.749 Y107.13 E18.17557
G1 X151.555 Y106.554 E18.19781
G1 X151.47 Y106.12 E18.21399
G1 X125.641 Y106.12 E19.15897
G1 X125.641 Y137.371 E20.30232
G1 X125.601 Y137.977 E20.32454
G1 X125.482 Y138.573 E20.34678
G1 X125.286 Y139.148 E20.369
G1 X125.015 Y139.692 E20.39124
G1 X124.676 Y140.197 E20.41349
G1 X124.288 Y140.638 E20.43498
G1 X124.159 Y140.767 E20.44166
G1 X123.702 Y141.167 E20.46388
G1 X123.196 Y141.504 E20.48612
G1 X122.651 Y141.772 E20.50834
G1 X122.075 Y141.966 E20.53058
G1 X121.479 Y142.083 E20.5528
G1 X120.892 Y142.12 E20.57432
G1 X82.896 Y142.12 E21.96444
G1 X82.29 Y142.08 E21.98666
G1 X81.694 Y141.961 E22.0089
G1 X81.119 Y141.765 E22.03113
G1 X80.575 Y141.494 E22.05336
G1 X80.07 Y141.155 E22.07561
G1 X79.629 Y140.767 E22.0971
G1 X79.5 Y140.638 E22.10378
G1 X79.1 Y140.181 E22.126
G1 X78.763 Y139.675 E22.14824
G1 X78.495 Y139.13 E22.17046
G1 X78.301 Y138.554 E22.1927
G1 X78.231 Y138.2 E22.2059
G1 X77.774 Y138.258 E22.22275
G1 X77.166 Y138.256 E22.245
G1 X76.564 Y138.174 E22.26723
G1 X75.978 Y138.014 E22.28945
G1 X75.418 Y137.778 E22.31168
G1 X74.894 Y137.471 E22.3339
G1 X74.415 Y137.097 E22.35614
G1 X73.988 Y136.664 E22.37839
G1 X73.623 Y136.179 E22.40059
G1 X73.332 Y135.667 E22.42214
G1 X72.57 Y134.1 E22.48589
G1 X72.341 Y133.538 E22.50809
G1 X72.188 Y132.95 E22.53032
G1 X72.113 Y132.347 E22.55255
G1 X72.118 Y131.739 E22.5748
G1 X72.202 Y131.137 E22.59704
G1 X72.332 Y130.651 E22.61544
G1 X72.536 Y130.024 E22.63957
G1 X72.761 Y129.459 E22.66182
G1 X73.059 Y128.93 E22.68403
G1 X73.424 Y128.444 E22.70627
G1 X73.849 Y128.01 E22.72849
G1 X74.207 Y127.72 E22.74535
G1 X74.742 Y127.33 E22.76957
G1 X75.256 Y127.005 E22.79182
G1 X75.808 Y126.75 E22.81406
G1 X76.388 Y126.57 E22.83628
G1 X76.987 Y126.468 E22.85851
G1 X77.592 Y126.445 E22.88066
G1 X78.278 Y126.464 E22.90577
G1 X78.883 Y126.52 E22.928
G1 X79.475 Y126.656 E22.95022
G1 X80.045 Y126.868 E22.97247
G1 X80.581 Y127.153 E22.99468
G1 X81.076 Y127.506 E23.01693
G1 X81.52 Y127.921 E23.03916
G1 X81.905 Y128.391 E23.06139
G1 X82.226 Y128.907 E23.08362
G1 X82.24 Y128.939 E23.0849
G1 X82.309 Y128.925 E23.08748
G1 X82.896 Y128.888 E23.109
G1 X112.401 Y128.888 E24.18847
G1 X112.401 Y116.12 E24.6556
G1 X82.896 Y116.12 E25.73508
G1 X82.29 Y116.08 E25.7573
G1 X82.173 Y116.057 E25.76166
G1 X81.937 Y116.459 E25.77871
G1 X81.565 Y116.939 E25.80093
G1 X81.132 Y117.366 E25.82318
G1 X80.648 Y117.733 E25.8454
G1 X80.119 Y118.033 E25.86765
G1 X79.556 Y118.261 E25.88988
G1 X78.968 Y118.412 E25.91209
G1 X78.109 Y118.493 E25.94365
G1 X77.449 Y118.493 E25.9678
G1 X76.843 Y118.453 E25.99002
G1 X76.247 Y118.334 E26.01226
G1 X75.672 Y118.138 E26.03448
G1 X75.128 Y117.867 E26.05672
G1 X74.727 Y117.606 E26.07422
G1 X74.192 Y117.216 E26.09844
G1 X73.726 Y116.827 E26.12065
G1 X73.315 Y116.38 E26.14287
G1 X72.966 Y115.882 E26.16512
G1 X72.685 Y115.343 E26.18736
G1 X72.521 Y114.912 E26.20423
G1 X72.317 Y114.285 E26.22835
G1 X72.167 Y113.696 E26.25059
G1 X72.096 Y113.093 E26.2728
G1 X72.105 Y112.485 E26.29505
G1 X72.193 Y111.884 E26.31727
G1 X72.36 Y111.3 E26.33949
G1 X72.509 Y110.933 E26.35399
G1 X73.209 Y109.404 E26.41551
G1 X73.498 Y108.869 E26.43776
G1 X73.854 Y108.377 E26.45998
G1 X74.19 Y108.023 E26.47783
G0 F810 X74.272 Y107.936
G0 X74.744 Y107.554
M204 S5000
M205 X30 Y30
G0 F7200 X75.091 Y107.849
M204 S500
M205 X20 Y20
G1 F6000 E26.50443
G1 F900 X75.483 Y107.618 E26.52108
G1 X75.56 Y107.578 E26.52425
G1 X76.09 Y107.347 E26.5454
G1 X76.647 Y107.192 E26.56656
G1 X77.22 Y107.116 E26.5877
G1 X77.798 Y107.119 E26.60885
G1 X78.37 Y107.201 E26.62999
G1 X78.612 Y107.271 E26.63921
G1 X78.627 Y107.052 E26.64724
G1 X78.746 Y106.487 E26.66837
G1 X78.942 Y105.943 E26.68952
G1 X79.211 Y105.432 E26.71065
G1 X79.548 Y104.962 E26.73181
G1 X79.811 Y104.673 E26.7461
G1 X79.94 Y104.544 E26.75278
G1 X80.376 Y104.165 E26.77391
G1 X80.86 Y103.849 E26.79506
G1 X81.383 Y103.603 E26.81621
G1 X81.935 Y103.432 E26.83735
G1 X82.506 Y103.338 E26.85852
G1 X82.896 Y103.32 E26.8728
G1 X89.941 Y103.32 E27.13055
G1 X89.857 Y102.997 E27.14276
G1 X89.789 Y102.424 E27.16388
G1 X89.801 Y101.846 E27.18503
G1 X89.892 Y101.275 E27.20618
G1 X90.061 Y100.723 E27.2273
G1 X90.305 Y100.199 E27.24845
G1 X90.619 Y99.713 E27.26962
G1 X90.997 Y99.276 E27.29076
G1 X91.506 Y98.839 E27.3153
G1 X92.015 Y98.469 E27.33833
G1 X92.505 Y98.162 E27.35948
G1 X93.033 Y97.926 E27.38064
G1 X93.588 Y97.765 E27.40178
G1 X94.159 Y97.682 E27.42289
G1 X94.473 Y97.67 E27.43439
G1 X95.909 Y97.67 E27.48693
G1 X96.486 Y97.71 E27.50809
G1 X97.051 Y97.829 E27.52921
G1 X97.595 Y98.025 E27.55037
G1 X98.106 Y98.294 E27.5715
G1 X98.367 Y98.469 E27.58299
G1 X98.876 Y98.839 E27.60601
G1 X99.319 Y99.21 E27.62716
G1 X99.706 Y99.639 E27.64829
G1 X100.031 Y100.117 E27.66944
G1 X100.286 Y100.636 E27.6906
G1 X100.468 Y101.184 E27.71172
G1 X100.572 Y101.753 E27.73289
G1 X100.597 Y102.33 E27.75402
G1 X100.541 Y102.905 E27.77515
G1 X100.442 Y103.32 E27.79076
G1 X112.841 Y103.32 E28.24439
G1 X112.841 Y97.629 E28.4526
G1 X112.881 Y97.052 E28.47377
G1 X113 Y96.487 E28.49489
G1 X113.196 Y95.943 E28.51605
G1 X113.465 Y95.432 E28.53717
G1 X113.802 Y94.962 E28.55833
G1 X114.065 Y94.673 E28.57263
G1 X114.194 Y94.544 E28.5793
G1 X114.63 Y94.165 E28.60044
G1 X115.114 Y93.849 E28.62159
G1 X115.637 Y93.603 E28.64273
G1 X116.189 Y93.432 E28.66387
G1 X116.76 Y93.338 E28.68505
G1 X117.15 Y93.32 E28.69933
G1 X159.892 Y93.32 E30.2631
G1 X160.469 Y93.36 E30.28426
G1 X161.034 Y93.479 E30.30538
G1 X161.578 Y93.675 E30.32654
G1 X162.089 Y93.944 E30.34766
G1 X162.559 Y94.281 E30.36882
G1 X162.848 Y94.544 E30.38312
G1 X162.977 Y94.673 E30.38979
G1 X163.356 Y95.109 E30.41093
G1 X163.672 Y95.593 E30.43208
G1 X163.918 Y96.116 E30.45322
G1 X164.089 Y96.668 E30.47437
G1 X164.183 Y97.239 E30.49554
G1 X164.201 Y97.629 E30.50982
G1 X164.201 Y105.371 E30.79307
G1 X164.161 Y105.948 E30.81423
G1 X164.042 Y106.513 E30.83536
G1 X163.846 Y107.057 E30.85651
G1 X163.577 Y107.568 E30.87764
G1 X163.24 Y108.038 E30.8988
G1 X162.977 Y108.327 E30.91309
