;FLAVOR:Marlin
;TIME:3076
;Filament used: 1.21887m
;Layer height: 0.1
;Generated with Cura_SteamEngine 3.6.0
M140 S70
M105
M190 S70
M104 S215
M105
M109 S215
M82 ;absolute extrusion mode
G28 ; home all axes
M117 Purge extruder
G92 E0 ; reset extruder
G1 Z1.0 F3000 ; move z up little to prevent scratching of surface
G1 X0.1 Y20 Z0.3 F5000.0 ; move to start-line position G1 X0.1 Y200.0 Z0.3 F1500.0 E15 ; draw 1st line
G1 X0.4 Y200.0 Z0.3 F5000.0 ; move to side a little
G1 X0.4 Y20 Z0.3 F1500.0 E30 ; draw 2nd line
G92 E0 ; reset extruder
G1 Z1.0 F3000 ; move z up little to prevent scratching of surface
M117 All systems go!
G92 E0
G1 F6000 E-5
;LAYER_COUNT:250
;LAYER:0
M107
M204 S5000
M205 X30 Y30
G0 F7200 X107.792 Y104.08 Z0.2
M204 S500
M205 X20 Y20
;TYPE:SKIRT
G1 F6000 E0
G1 F900 X108.258 Y103.647 E0.02327
G1 X108.831 Y103.24 E0.04899
G1 X108.931 Y103.179 E0.05327
G1 X109.494 Y102.883 E0.07654
G1 X110.089 Y102.659 E0.0998
G1 X110.708 Y102.512 E0.12308
G1 X111.481 Y102.44 E0.15148
G1 X123.007 Y102.246 E0.57324
G1 X123.642 Y102.275 E0.59649
G1 X124.269 Y102.384 E0.61978
G1 X124.877 Y102.57 E0.64304
G1 X125.56 Y102.888 E0.6706
G1 X125.662 Y102.945 E0.67488
G1 X126.197 Y103.289 E0.69815
G1 X126.684 Y103.698 E0.72142
G1 X127.116 Y104.165 E0.74469
G1 X127.533 Y104.758 E0.77121
G1 X133.464 Y114.641 E1.19291
G1 X133.756 Y115.206 E1.21618
G1 X133.975 Y115.803 E1.23944
G1 X134.118 Y116.423 E1.26272
G1 X134.184 Y117.161 E1.28983
G1 X134.186 Y117.281 E1.29422
G1 X134.157 Y117.916 E1.31748
G1 X134.048 Y118.542 E1.34072
G1 X133.862 Y119.15 E1.36399
G1 X133.551 Y119.821 E1.39104
G1 X127.958 Y129.896 E1.81264
G1 X127.615 Y130.431 E1.83589
G1 X127.208 Y130.92 E1.85917
G1 X126.742 Y131.353 E1.88244
G1 X126.169 Y131.76 E1.90815
G1 X126.069 Y131.821 E1.91244
G1 X125.506 Y132.117 E1.93571
G1 X124.911 Y132.341 E1.95897
G1 X124.292 Y132.488 E1.98225
G1 X123.519 Y132.56 E2.01065
G1 X111.993 Y132.754 E2.4324
G1 X111.358 Y132.725 E2.45566
G1 X110.731 Y132.616 E2.47894
G1 X110.123 Y132.43 E2.5022
G1 X109.44 Y132.112 E2.52977
G1 X109.338 Y132.055 E2.53404
G1 X108.803 Y131.711 E2.55731
G1 X108.316 Y131.302 E2.58058
G1 X107.884 Y130.835 E2.60386
G1 X107.467 Y130.242 E2.63038
G1 X101.536 Y120.359 E3.05207
G1 X101.244 Y119.794 E3.07534
G1 X101.025 Y119.197 E3.09861
G1 X100.882 Y118.577 E3.12189
G1 X100.816 Y117.839 E3.14899
G1 X100.814 Y117.719 E3.15339
G1 X100.843 Y117.084 E3.17664
G1 X100.952 Y116.458 E3.19989
G1 X101.138 Y115.85 E3.22315
G1 X101.449 Y115.179 E3.25021
G1 X107.042 Y105.104 E3.6718
G1 X107.336 Y104.645 E3.69175
G0 F810 X107.385 Y104.569
G0 X107.792 Y104.08
M204 S5000
M205 X30 Y30
G0 F7200 X108.149 Y104.344
M204 S500
M205 X20 Y20
G1 F6000 E3.71834
G1 F900 X108.6 Y103.936 E3.7406
G1 X109.06 Y103.616 E3.7611
G1 X109.16 Y103.555 E3.76538
G1 X109.699 Y103.273 E3.78764
G1 X110.269 Y103.065 E3.80984
G1 X110.862 Y102.933 E3.83206
G1 X111.488 Y102.88 E3.85505
G1 X123.014 Y102.686 E4.2768
G1 X123.621 Y102.715 E4.29903
G1 X124.219 Y102.825 E4.32128
G1 X124.797 Y103.011 E4.34349
G1 X125.346 Y103.272 E4.36573
G1 X125.448 Y103.329 E4.37001
G1 X125.958 Y103.66 E4.39225
G1 X126.419 Y104.054 E4.41444
G1 X126.826 Y104.506 E4.43669
G1 X127.155 Y104.985 E4.45795
G1 X133.086 Y114.868 E4.87965
G1 X133.364 Y115.408 E4.90187
G1 X133.569 Y115.98 E4.9241
G1 X133.696 Y116.574 E4.94632
G1 X133.744 Y117.168 E4.96813
G1 X133.746 Y117.288 E4.97252
G1 X133.717 Y117.895 E4.99475
G1 X133.607 Y118.493 E5.017
G1 X133.421 Y119.071 E5.03921
G1 X133.166 Y119.607 E5.06093
G1 X127.573 Y129.682 E5.48252
G1 X127.244 Y130.193 E5.50476
G1 X126.851 Y130.656 E5.52698
G1 X126.4 Y131.064 E5.54923
G1 X125.94 Y131.384 E5.56973
G1 X125.84 Y131.445 E5.57401
G1 X125.301 Y131.727 E5.59627
G1 X124.731 Y131.935 E5.61847
G1 X124.138 Y132.067 E5.64069
G1 X123.512 Y132.12 E5.66368
G1 X111.986 Y132.314 E6.08543
G1 X111.379 Y132.285 E6.10766
G1 X110.781 Y132.175 E6.12991
G1 X110.203 Y131.989 E6.15212
G1 X109.654 Y131.728 E6.17436
G1 X109.552 Y131.671 E6.17864
G1 X109.042 Y131.34 E6.20088
G1 X108.581 Y130.946 E6.22307
G1 X108.174 Y130.494 E6.24532
G1 X107.845 Y130.015 E6.26658
G1 X101.914 Y120.132 E6.68828
G1 X101.636 Y119.592 E6.7105
G1 X101.431 Y119.02 E6.73273
G1 X101.304 Y118.426 E6.75495
G1 X101.256 Y117.832 E6.77676
G1 X101.254 Y117.712 E6.78115
G1 X101.283 Y117.105 E6.80338
G1 X101.393 Y116.507 E6.82563
G1 X101.579 Y115.929 E6.84784
G1 X101.834 Y115.393 E6.86956
G1 X107.427 Y105.318 E7.29115
G1 X107.691 Y104.908 E7.30899
G0 F810 X107.756 Y104.807
G0 X108.149 Y104.344
M204 S5000
M205 X30 Y30
G0 F7200 X108.505 Y104.61
M204 S500
M205 X20 Y20
G1 F6000 E7.33559
G1 F900 X108.94 Y104.23 E7.35672
G1 X109.289 Y103.992 E7.37218
G1 X109.389 Y103.931 E7.37646
G1 X109.902 Y103.664 E7.39762
G1 X110.447 Y103.472 E7.41876
G1 X111.013 Y103.356 E7.4399
G1 X111.496 Y103.32 E7.45762
G1 X123.022 Y103.126 E7.87937
G1 X123.599 Y103.156 E7.90051
G1 X124.166 Y103.265 E7.92164
G1 X124.713 Y103.452 E7.94279
G1 X125.131 Y103.656 E7.9598
G1 X125.233 Y103.713 E7.96408
G1 X125.717 Y104.029 E7.98523
G1 X126.152 Y104.409 E8.00636
G1 X126.531 Y104.845 E8.02749
G1 X126.778 Y105.211 E8.04365
G1 X132.709 Y115.094 E8.46534
G1 X132.972 Y115.609 E8.4865
G1 X133.16 Y116.155 E8.50763
G1 X133.272 Y116.722 E8.52877
G1 X133.304 Y117.175 E8.54539
G1 X133.306 Y117.295 E8.54978
G1 X133.276 Y117.872 E8.57092
G1 X133.166 Y118.44 E8.59208
G1 X132.98 Y118.987 E8.61322
G1 X132.782 Y119.394 E8.62978
G1 X127.189 Y129.469 E9.05137
G1 X126.874 Y129.954 E9.07253
G1 X126.495 Y130.39 E9.09367
G1 X126.06 Y130.77 E9.1148
G1 X125.711 Y131.008 E9.13026
G1 X125.611 Y131.069 E9.13454
G1 X125.098 Y131.336 E9.1557
G1 X124.553 Y131.528 E9.17684
G1 X123.987 Y131.644 E9.19798
G1 X123.504 Y131.68 E9.2157
G1 X111.978 Y131.874 E9.63745
G1 X111.401 Y131.844 E9.65859
G1 X110.834 Y131.735 E9.67971
G1 X110.287 Y131.548 E9.70086
G1 X109.869 Y131.344 E9.71788
G1 X109.767 Y131.287 E9.72216
G1 X109.283 Y130.971 E9.7433
G1 X108.848 Y130.591 E9.76444
G1 X108.469 Y130.155 E9.78557
G1 X108.222 Y129.789 E9.80173
G1 X102.291 Y119.906 E10.22342
G1 X102.028 Y119.391 E10.24458
G1 X101.84 Y118.845 E10.2657
G1 X101.728 Y118.278 E10.28685
G1 X101.696 Y117.825 E10.30346
G1 X101.694 Y117.705 E10.30786
G1 X101.724 Y117.128 E10.32899
G1 X101.834 Y116.56 E10.35016
G1 X102.02 Y116.013 E10.3713
G1 X102.218 Y115.606 E10.38786
G1 X107.811 Y105.531 E10.80945
G1 X108.045 Y105.171 E10.82516
G0 F810 X108.126 Y105.046
G0 X108.505 Y104.61
M204 S5000
M205 X30 Y30
G0 F7200 X108.859 Y104.879
M204 S500
M205 X20 Y20
G1 F6000 E10.85176
G1 F900 X109.277 Y104.527 E10.87175
G1 X109.518 Y104.367 E10.88234
G1 X109.618 Y104.306 E10.88662
G1 X110.105 Y104.056 E10.90665
G1 X110.622 Y103.88 E10.92663
G1 X111.16 Y103.781 E10.94665
G1 X111.503 Y103.76 E10.95922
G1 X123.029 Y103.566 E11.38097
G1 X123.575 Y103.596 E11.40098
G1 X124.11 Y103.706 E11.42096
G1 X124.624 Y103.893 E11.44097
G1 X124.916 Y104.04 E11.45293
G1 X125.018 Y104.097 E11.45721
G1 X125.475 Y104.398 E11.47723
G1 X125.883 Y104.762 E11.49723
G1 X126.233 Y105.182 E11.51723
G1 X126.401 Y105.437 E11.5284
G1 X132.332 Y115.32 E11.9501
G1 X132.578 Y115.809 E11.97013
G1 X132.751 Y116.327 E11.99011
G1 X132.846 Y116.865 E12.01009
G1 X132.864 Y117.183 E12.02175
G1 X132.866 Y117.303 E12.02614
G1 X132.836 Y117.848 E12.04611
G1 X132.726 Y118.384 E12.06613
G1 X132.539 Y118.898 E12.08614
G1 X132.397 Y119.18 E12.09769
G1 X126.804 Y129.255 E12.51928
G1 X126.504 Y129.713 E12.53932
G1 X126.141 Y130.121 E12.5593
G1 X125.723 Y130.473 E12.57929
G1 X125.482 Y130.633 E12.58987
G1 X125.382 Y130.694 E12.59416
G1 X124.895 Y130.944 E12.61419
G1 X124.378 Y131.12 E12.63417
G1 X123.84 Y131.219 E12.65418
G1 X123.497 Y131.24 E12.66675
G1 X111.971 Y131.434 E13.0885
G1 X111.425 Y131.404 E13.10851
G1 X110.89 Y131.294 E13.12849
G1 X110.376 Y131.107 E13.14851
G1 X110.084 Y130.96 E13.16047
G1 X109.982 Y130.903 E13.16474
G1 X109.525 Y130.602 E13.18476
G1 X109.117 Y130.238 E13.20477
G1 X108.767 Y129.818 E13.22477
G1 X108.599 Y129.563 E13.23594
G1 X102.668 Y119.68 E13.65763
G1 X102.422 Y119.191 E13.67766
G1 X102.249 Y118.673 E13.69764
G1 X102.154 Y118.135 E13.71763
G1 X102.136 Y117.817 E13.72928
G1 X102.134 Y117.697 E13.73367
G1 X102.164 Y117.152 E13.75364
G1 X102.274 Y116.616 E13.77366
G1 X102.461 Y116.102 E13.79367
G1 X102.603 Y115.82 E13.80523
G1 X108.196 Y105.745 E14.22682
G1 X108.397 Y105.438 E14.24025
G0 F810 X108.496 Y105.287
G0 X108.859 Y104.879
M204 S5000
M205 X30 Y30
G0 F7200 X109.21 Y105.151
M204 S500
M205 X20 Y20
G1 F6000 E14.26684
G1 F900 X109.747 Y104.743 E14.29152
G1 X109.847 Y104.682 E14.2958
G1 X110.305 Y104.449 E14.3146
G1 X110.794 Y104.291 E14.3334
G1 X111.51 Y104.199 E14.35982
G1 X123.036 Y104.005 E14.78157
G1 X123.549 Y104.037 E14.80037
G1 X124.05 Y104.147 E14.81914
G1 X124.702 Y104.424 E14.84506
G1 X124.804 Y104.481 E14.84933
G1 X125.231 Y104.766 E14.86811
G1 X125.609 Y105.113 E14.88689
G1 X126.024 Y105.664 E14.91212
G1 X131.955 Y115.547 E15.33382
G1 X132.184 Y116.006 E15.35259
G1 X132.339 Y116.496 E15.37139
G1 X132.425 Y117.19 E15.39697
G1 X132.427 Y117.31 E15.40136
G1 X132.395 Y117.822 E15.42013
G1 X132.285 Y118.324 E15.43894
G1 X132.012 Y118.967 E15.46449
G1 X126.419 Y129.042 E15.88609
G1 X126.136 Y129.47 E15.90486
G1 X125.79 Y129.849 E15.92363
G1 X125.253 Y130.257 E15.94831
G1 X125.153 Y130.318 E15.95259
G1 X124.695 Y130.551 E15.97139
G1 X124.206 Y130.709 E15.9902
G1 X123.49 Y130.801 E16.01661
G1 X111.964 Y130.995 E16.43836
G1 X111.451 Y130.963 E16.45716
G1 X110.95 Y130.853 E16.47593
G1 X110.298 Y130.576 E16.50185
G1 X110.196 Y130.519 E16.50612
G1 X109.769 Y130.234 E16.52491
G1 X109.391 Y129.887 E16.54368
G1 X108.976 Y129.336 E16.56892
G1 X103.045 Y119.453 E16.99061
G1 X102.816 Y118.994 E17.00938
G1 X102.661 Y118.504 E17.02818
G1 X102.575 Y117.81 E17.05377
G1 X102.573 Y117.69 E17.05816
G1 X102.605 Y117.178 E17.07692
G1 X102.715 Y116.676 E17.09573
G1 X102.988 Y116.033 E17.12128
G1 X108.581 Y105.958 E17.54288
G1 X108.746 Y105.708 E17.55384
G0 F810 X108.864 Y105.53
G0 X109.21 Y105.151
M204 S5000
M205 X30 Y30
G0 F7200 X109.56 Y105.428
M204 S500
M205 X20 Y20
G1 F6000 E17.58044
G1 F900 X109.977 Y105.118 E17.59945
G1 X110.077 Y105.057 E17.60373
G1 X110.504 Y104.843 E17.62121
G1 X110.961 Y104.704 E17.63868
G1 X111.518 Y104.639 E17.6592
G1 X123.044 Y104.445 E18.08095
G1 X123.521 Y104.477 E18.09844
G1 X123.986 Y104.588 E18.11593
G1 X124.487 Y104.808 E18.13595
G1 X124.589 Y104.865 E18.14023
G1 X124.985 Y105.133 E18.15772
G1 X125.332 Y105.462 E18.17521
G1 X125.646 Y105.89 E18.19464
G1 X131.577 Y115.773 E18.61633
G1 X131.788 Y116.202 E18.63382
G1 X131.925 Y116.66 E18.65131
G1 X131.985 Y117.197 E18.67108
G1 X131.987 Y117.317 E18.67547
G1 X131.955 Y117.794 E18.69296
G1 X131.844 Y118.259 E18.71045
G1 X131.628 Y118.753 E18.73018
G1 X126.035 Y128.828 E19.15177
G1 X125.768 Y129.225 E19.16928
G1 X125.44 Y129.572 E19.18675
G1 X125.023 Y129.882 E19.20576
G1 X124.923 Y129.943 E19.21004
G1 X124.496 Y130.157 E19.22752
G1 X124.039 Y130.296 E19.24499
G1 X123.482 Y130.361 E19.26551
G1 X111.956 Y130.555 E19.68726
G1 X111.479 Y130.523 E19.70475
G1 X111.014 Y130.412 E19.72224
G1 X110.513 Y130.192 E19.74226
G1 X110.411 Y130.135 E19.74654
G1 X110.015 Y129.867 E19.76403
G1 X109.668 Y129.538 E19.78153
G1 X109.354 Y129.11 E19.80095
G1 X103.423 Y119.227 E20.22264
G1 X103.212 Y118.798 E20.24013
G1 X103.075 Y118.34 E20.25762
G1 X103.015 Y117.803 E20.27739
G1 X103.013 Y117.683 E20.28178
G1 X103.045 Y117.206 E20.29927
G1 X103.156 Y116.741 E20.31676
G1 X103.372 Y116.247 E20.33649
G1 X108.965 Y106.172 E20.75808
G1 X109.093 Y105.982 E20.76647
G0 F810 X109.232 Y105.775
G0 X109.56 Y105.428
M204 S5000
M205 X30 Y30
G0 F7200 X109.598 Y106.022
M204 S500
M205 X20 Y20
G1 F6000 E20.79306
G1 F900 X109.907 Y105.709 E20.80916
G1 X110.206 Y105.494 E20.82263
G1 X110.306 Y105.433 E20.82692
G1 X110.7 Y105.239 E20.84298
G1 X111.123 Y105.12 E20.85906
G1 X111.525 Y105.079 E20.87384
G1 X123.051 Y104.885 E21.2956
G1 X123.49 Y104.918 E21.3117
G1 X123.915 Y105.029 E21.32777
G1 X124.273 Y105.192 E21.34216
G1 X124.375 Y105.249 E21.34644
G1 X124.737 Y105.498 E21.36251
G1 X125.049 Y105.808 E21.37861
G1 X125.269 Y106.117 E21.39248
G1 X131.2 Y116 E21.81418
G1 X131.391 Y116.396 E21.83026
G1 X131.507 Y116.819 E21.84631
G1 X131.545 Y117.205 E21.8605
G1 X131.547 Y117.325 E21.86489
G1 X131.514 Y117.763 E21.88096
G1 X131.403 Y118.188 E21.89703
G1 X131.243 Y118.54 E21.91118
G1 X125.65 Y128.615 E22.33277
G1 X125.402 Y128.978 E22.34886
G1 X125.093 Y129.291 E22.36495
G1 X124.794 Y129.506 E22.37842
G1 X124.694 Y129.567 E22.38271
G1 X124.3 Y129.761 E22.39878
G1 X123.877 Y129.88 E22.41485
G1 X123.475 Y129.921 E22.42964
G1 X111.949 Y130.115 E22.85139
G1 X111.51 Y130.082 E22.8675
G1 X111.085 Y129.971 E22.88357
G1 X110.727 Y129.808 E22.89796
G1 X110.625 Y129.751 E22.90223
G1 X110.263 Y129.502 E22.91831
G1 X109.951 Y129.192 E22.9344
G1 X109.731 Y128.883 E22.94828
G1 X103.8 Y119 E23.36997
G1 X103.609 Y118.604 E23.38606
G1 X103.493 Y118.181 E23.4021
G1 X103.455 Y117.795 E23.41629
G1 X103.453 Y117.675 E23.42069
G1 X103.486 Y117.237 E23.43676
G1 X103.597 Y116.812 E23.45283
G1 X103.757 Y116.46 E23.46697
G1 X109.211 Y106.636 E23.87807
G0 F810 X109.35 Y106.385
G0 X109.598 Y106.022
M204 S5000
M205 X30 Y30
G0 F7200 X109.962 Y106.273
M204 S500
M205 X20 Y20
G1 F6000 E23.90467
G1 F900 X110.249 Y105.998 E23.91921
G1 X110.435 Y105.87 E23.92747
G1 X110.535 Y105.809 E23.93176
G1 X110.893 Y105.637 E23.94629
G1 X111.279 Y105.54 E23.96085
G1 X111.533 Y105.519 E23.97017
G1 X123.059 Y105.325 E24.39193
G1 X123.455 Y105.359 E24.40647
G1 X123.836 Y105.47 E24.42099
G1 X124.058 Y105.577 E24.43
G1 X124.16 Y105.634 E24.43428
G1 X124.486 Y105.861 E24.44881
G1 X124.759 Y106.15 E24.46336
G1 X124.892 Y106.343 E24.47193
G1 X130.823 Y116.226 E24.89363
G1 X130.992 Y116.586 E24.90818
G1 X131.086 Y116.972 E24.92271
G1 X131.105 Y117.212 E24.93152
G1 X131.107 Y117.332 E24.93591
G1 X131.073 Y117.728 E24.95045
G1 X130.962 Y118.11 E24.96501
G1 X130.858 Y118.326 E24.97378
G1 X125.265 Y128.401 E25.39537
G1 X125.038 Y128.727 E25.4099
G1 X124.751 Y129.002 E25.42445
G1 X124.565 Y129.13 E25.43271
G1 X124.465 Y129.191 E25.43699
G1 X124.107 Y129.363 E25.45152
G1 X123.721 Y129.46 E25.46609
G1 X123.467 Y129.481 E25.47541
G1 X111.941 Y129.675 E25.89716
G1 X111.545 Y129.641 E25.9117
G1 X111.164 Y129.53 E25.92622
G1 X110.942 Y129.423 E25.93524
G1 X110.84 Y129.366 E25.93951
G1 X110.514 Y129.139 E25.95405
G1 X110.241 Y128.85 E25.96859
G1 X110.108 Y128.657 E25.97717
G1 X104.177 Y118.774 E26.39886
G1 X104.008 Y118.414 E26.41341
G1 X103.914 Y118.028 E26.42795
G1 X103.895 Y117.788 E26.43676
G1 X103.893 Y117.668 E26.44115
G1 X103.927 Y117.272 E26.45569
G1 X104.038 Y116.89 E26.47024
G1 X104.142 Y116.674 E26.47901
G1 X109.575 Y106.887 E26.88855
G0 F810 X109.735 Y106.599
G0 X109.962 Y106.273
M204 S5000
M205 X30 Y30
G0 F7200 X110.323 Y106.527
M204 S500
M205 X20 Y20
G1 F6000 E26.91515
G1 F900 X110.664 Y106.245 E26.93134
G1 X110.764 Y106.184 E26.93563
G1 X111.082 Y106.037 E26.94844
G1 X111.54 Y105.959 E26.96544
G1 X123.066 Y105.765 E27.38719
G1 X123.415 Y105.799 E27.40002
G1 X123.843 Y105.961 E27.41677
G1 X123.945 Y106.018 E27.42104
G1 X124.23 Y106.222 E27.43386
G1 X124.514 Y106.57 E27.4503
G1 X130.445 Y116.453 E27.87199
G1 X130.59 Y116.772 E27.88481
G1 X130.665 Y117.219 E27.90139
G1 X130.667 Y117.339 E27.90579
G1 X130.633 Y117.688 E27.91861
G1 X130.473 Y118.112 E27.93519
G1 X124.88 Y128.187 E28.35679
G1 X124.677 Y128.473 E28.36962
G1 X124.336 Y128.755 E28.38581
G1 X124.236 Y128.816 E28.3901
G1 X123.918 Y128.963 E28.40291
G1 X123.46 Y129.041 E28.41991
G1 X111.934 Y129.235 E28.84166
G1 X111.585 Y129.201 E28.85449
G1 X111.157 Y129.039 E28.87123
G1 X111.055 Y128.982 E28.87551
G1 X110.77 Y128.778 E28.88833
G1 X110.486 Y128.43 E28.90477
G1 X104.555 Y118.547 E29.32646
G1 X104.41 Y118.228 E29.33928
G1 X104.335 Y117.781 E29.35586
G1 X104.333 Y117.661 E29.36025
G1 X104.367 Y117.312 E29.37308
G1 X104.527 Y116.888 E29.38966
G1 X109.938 Y107.142 E29.7975
G0 F810 X110.12 Y106.813
G0 X110.323 Y106.527
M204 S5000
M205 X30 Y30
G0 F7200 X110.681 Y106.789
M204 S500
M205 X20 Y20
G1 F6000 E29.8241
