;FLAVOR:Marlin
;TIME:1056
;Filament used: 0.807435m
;Layer height: 0.16
;Generated with Cura_SteamEngine 3.6.0
M140 S70
M105
M190 S70
M104 S215
M105
M109 S215
M82 ;absolute extrusion mode
G28 ; home all axes
M117 Purge extruder
G92 E0 ; reset extruder
G1 Z1.0 F3000 ; move z up little to prevent scratching of surface
G1 X0.1 Y20 Z0.3 F5000.0 ; move to start-line position G1 X0.1 Y200.0 Z0.3 F1500.0 E15 ; draw 1st line
G1 X0.4 Y200.0 Z0.3 F5000.0 ; move to side a little
G1 X0.4 Y20 Z0.3 F1500.0 E30 ; draw 2nd line
G92 E0 ; reset extruder
G1 Z1.0 F3000 ; move z up little to prevent scratching of surface
M117 All systems go!
G92 E0
G1 F6000 E-5
;LAYER_COUNT:28
;LAYER:0
M107
M204 S5000
M205 X30 Y30
G0 F7200 X108.508 Y89.653 Z0.2
M204 S500
M205 X20 Y20
;TYPE:SKIRT
G1 F6000 E0
G1 F900 X109.022 Y89.051 E0.02896
G1 X109.151 Y88.922 E0.03564
G1 X109.628 Y88.502 E0.05889
G1 X110.154 Y88.144 E0.08217
G1 X110.721 Y87.856 E0.10543
G1 X111.319 Y87.64 E0.1287
G1 X111.94 Y87.502 E0.15197
G1 X112.729 Y87.44 E0.18093
G1 X122.271 Y87.44 E0.53003
G1 X122.906 Y87.48 E0.55331
G1 X123.53 Y87.599 E0.57655
G1 X124.135 Y87.796 E0.59983
G1 X124.71 Y88.067 E0.62308
G1 X125.247 Y88.408 E0.64636
G1 X125.849 Y88.922 E0.67532
G1 X125.978 Y89.051 E0.68199
G1 X126.398 Y89.528 E0.70525
G1 X126.756 Y90.054 E0.72852
G1 X127.044 Y90.621 E0.75179
G1 X127.26 Y91.219 E0.77505
G1 X127.398 Y91.84 E0.79833
G1 X127.46 Y92.629 E0.82728
G1 X127.46 Y142.371 E2.64715
G1 X127.42 Y143.006 E2.67043
G1 X127.301 Y143.63 E2.69367
G1 X127.104 Y144.235 E2.71695
G1 X126.833 Y144.81 E2.74021
G1 X126.492 Y145.347 E2.76348
G1 X125.978 Y145.949 E2.79244
G1 X125.849 Y146.078 E2.79911
G1 X125.372 Y146.498 E2.82237
G1 X124.846 Y146.856 E2.84565
G1 X124.279 Y147.144 E2.86891
G1 X123.681 Y147.36 E2.89217
G1 X123.06 Y147.498 E2.91545
G1 X122.271 Y147.56 E2.9444
G1 X112.729 Y147.56 E3.29351
G1 X112.094 Y147.52 E3.31679
G1 X111.47 Y147.401 E3.34003
G1 X110.865 Y147.204 E3.36331
G1 X110.29 Y146.933 E3.38656
G1 X109.753 Y146.592 E3.40984
G1 X109.151 Y146.078 E3.4388
G1 X109.022 Y145.949 E3.44547
G1 X108.602 Y145.472 E3.46872
G1 X108.244 Y144.946 E3.492
G1 X107.956 Y144.379 E3.51527
G1 X107.74 Y143.781 E3.53853
G1 X107.602 Y143.16 E3.56181
G1 X107.54 Y142.371 E3.59076
G1 X107.54 Y92.629 E5.41063
G1 X107.58 Y91.994 E5.43391
G1 X107.699 Y91.37 E5.45715
G1 X107.896 Y90.765 E5.48043
G1 X108.129 Y90.272 E5.50038
G0 F810 X108.167 Y90.19
G0 X108.508 Y89.653
M204 S5000
M205 X30 Y30
G0 F7200 X108.945 Y89.803
M204 S500
M205 X20 Y20
G1 F6000 E5.52698
G1 F900 X109.333 Y89.362 E5.54847
G1 X109.462 Y89.233 E5.55514
G1 X109.919 Y88.833 E5.57736
G1 X110.425 Y88.496 E5.5996
G1 X110.97 Y88.228 E5.62182
G1 X111.546 Y88.034 E5.64406
G1 X112.142 Y87.917 E5.66628
G1 X112.729 Y87.88 E5.6878
G1 X122.271 Y87.88 E6.03691
G1 X122.877 Y87.92 E6.05912
G1 X123.473 Y88.039 E6.08136
G1 X124.048 Y88.235 E6.10359
G1 X124.592 Y88.506 E6.12582
G1 X125.097 Y88.845 E6.14807
G1 X125.538 Y89.233 E6.16957
G1 X125.667 Y89.362 E6.17624
G1 X126.067 Y89.819 E6.19846
G1 X126.404 Y90.325 E6.2207
G1 X126.672 Y90.87 E6.24292
G1 X126.866 Y91.446 E6.26516
G1 X126.983 Y92.042 E6.28738
G1 X127.02 Y92.629 E6.3089
G1 X127.02 Y142.371 E8.12877
G1 X126.98 Y142.977 E8.15099
G1 X126.861 Y143.573 E8.17322
G1 X126.665 Y144.148 E8.19545
G1 X126.394 Y144.692 E8.21768
G1 X126.055 Y145.197 E8.23994
G1 X125.667 Y145.638 E8.26143
G1 X125.538 Y145.767 E8.2681
G1 X125.081 Y146.167 E8.29032
G1 X124.575 Y146.504 E8.31256
G1 X124.03 Y146.772 E8.33478
G1 X123.454 Y146.966 E8.35702
G1 X122.858 Y147.083 E8.37924
G1 X122.271 Y147.12 E8.40076
G1 X112.729 Y147.12 E8.74987
G1 X112.123 Y147.08 E8.77209
G1 X111.527 Y146.961 E8.79432
G1 X110.952 Y146.765 E8.81655
G1 X110.408 Y146.494 E8.83878
G1 X109.903 Y146.155 E8.86104
G1 X109.462 Y145.767 E8.88253
G1 X109.333 Y145.638 E8.8892
G1 X108.933 Y145.181 E8.91142
G1 X108.596 Y144.675 E8.93366
G1 X108.328 Y144.13 E8.95588
G1 X108.134 Y143.554 E8.97812
G1 X108.017 Y142.958 E9.00034
G1 X107.98 Y142.371 E9.02186
G1 X107.98 Y92.629 E10.84173
G1 X108.02 Y92.023 E10.86395
G1 X108.139 Y91.427 E10.88618
G1 X108.335 Y90.852 E10.90841
G1 X108.553 Y90.414 E10.92631
G0 F810 X108.606 Y90.308
G0 X108.945 Y89.803
M204 S5000
M205 X30 Y30
G0 F7200 X109.381 Y89.962
M204 S500
M205 X20 Y20
G1 F6000 E10.95291
G1 F900 X109.644 Y89.673 E10.9672
G1 X109.773 Y89.544 E10.97388
G1 X110.209 Y89.165 E10.99501
G1 X110.693 Y88.849 E11.01616
G1 X111.216 Y88.603 E11.03731
G1 X111.768 Y88.432 E11.05845
G1 X112.339 Y88.338 E11.07962
G1 X112.729 Y88.32 E11.0939
G1 X122.271 Y88.32 E11.44301
G1 X122.848 Y88.36 E11.46417
G1 X123.413 Y88.479 E11.48529
G1 X123.957 Y88.675 E11.50645
G1 X124.468 Y88.944 E11.52758
G1 X124.938 Y89.281 E11.54874
G1 X125.227 Y89.544 E11.56303
G1 X125.356 Y89.673 E11.56971
G1 X125.735 Y90.109 E11.59084
G1 X126.051 Y90.593 E11.61199
G1 X126.297 Y91.116 E11.63314
G1 X126.468 Y91.668 E11.65428
G1 X126.562 Y92.239 E11.67545
G1 X126.58 Y92.629 E11.68973
G1 X126.58 Y142.371 E13.5096
G1 X126.54 Y142.948 E13.53076
G1 X126.421 Y143.513 E13.55189
G1 X126.225 Y144.057 E13.57304
G1 X125.956 Y144.568 E13.59417
G1 X125.619 Y145.038 E13.61533
G1 X125.356 Y145.327 E13.62963
G1 X125.227 Y145.456 E13.6363
G1 X124.791 Y145.835 E13.65744
G1 X124.307 Y146.151 E13.67858
G1 X123.784 Y146.397 E13.69973
G1 X123.232 Y146.568 E13.72087
G1 X122.661 Y146.662 E13.74204
G1 X122.271 Y146.68 E13.75633
G1 X112.729 Y146.68 E14.10543
G1 X112.152 Y146.64 E14.12659
G1 X111.587 Y146.521 E14.14772
G1 X111.043 Y146.325 E14.16887
G1 X110.532 Y146.056 E14.19
G1 X110.062 Y145.719 E14.21116
G1 X109.773 Y145.456 E14.22546
G1 X109.644 Y145.327 E14.23213
G1 X109.265 Y144.891 E14.25327
G1 X108.949 Y144.407 E14.27442
G1 X108.703 Y143.884 E14.29556
G1 X108.532 Y143.332 E14.3167
G1 X108.438 Y142.761 E14.33787
G1 X108.42 Y142.371 E14.35216
G1 X108.42 Y92.629 E16.17203
G1 X108.46 Y92.052 E16.19319
G1 X108.579 Y91.487 E16.21431
G1 X108.775 Y90.943 E16.23547
G1 X108.975 Y90.563 E16.25118
G0 F810 X109.044 Y90.432
G0 X109.381 Y89.962
M204 S5000
M205 X30 Y30
G0 F7200 X109.482 Y90.563
M204 S500
M205 X20 Y20
G1 F6000 E16.27778
G1 F900 X109.955 Y89.984 E16.30513
G1 X110.084 Y89.855 E16.3118
G1 X110.498 Y89.498 E16.33181
G1 X110.96 Y89.205 E16.35182
G1 X111.459 Y88.982 E16.37182
G1 X111.985 Y88.835 E16.3918
G1 X112.729 Y88.76 E16.41916
G1 X122.271 Y88.76 E16.76826
G1 X122.816 Y88.8 E16.78825
G1 X123.35 Y88.919 E16.80827
G1 X123.86 Y89.114 E16.82825
G1 X124.337 Y89.382 E16.84826
G1 X124.916 Y89.855 E16.87562
G1 X125.045 Y89.984 E16.88229
G1 X125.402 Y90.398 E16.90229
G1 X125.695 Y90.86 E16.92231
G1 X125.918 Y91.359 E16.94231
G1 X126.065 Y91.885 E16.96229
G1 X126.14 Y92.629 E16.98965
G1 X126.14 Y142.371 E18.80951
G1 X126.1 Y142.916 E18.82951
G1 X125.981 Y143.45 E18.84952
G1 X125.786 Y143.96 E18.8695
G1 X125.518 Y144.437 E18.88952
G1 X125.045 Y145.016 E18.91687
G1 X124.916 Y145.145 E18.92354
G1 X124.502 Y145.502 E18.94354
G1 X124.04 Y145.795 E18.96356
G1 X123.541 Y146.018 E18.98356
G1 X123.015 Y146.165 E19.00354
G1 X122.271 Y146.24 E19.0309
G1 X112.729 Y146.24 E19.38
G1 X112.184 Y146.2 E19.39999
G1 X111.65 Y146.081 E19.42001
G1 X111.14 Y145.886 E19.43999
G1 X110.663 Y145.618 E19.46
G1 X110.084 Y145.145 E19.48736
G1 X109.955 Y145.016 E19.49403
G1 X109.598 Y144.602 E19.51403
G1 X109.305 Y144.14 E19.53405
G1 X109.082 Y143.641 E19.55405
G1 X108.935 Y143.115 E19.57403
G1 X108.86 Y142.371 E19.60138
G1 X108.86 Y92.629 E21.42125
G1 X108.9 Y92.084 E21.44125
G1 X109.019 Y91.55 E21.46126
G1 X109.15 Y91.208 E21.47466
G0 F810 X109.214 Y91.04
G0 X109.482 Y90.563
M204 S5000
M205 X30 Y30
G0 F7200 X109.92 Y90.704
M204 S500
M205 X20 Y20
G1 F6000 E21.50126
G1 F900 X110.267 Y90.296 E21.52086
G1 X110.396 Y90.167 E21.52753
G1 X110.786 Y89.833 E21.54632
G1 X111.223 Y89.564 E21.56509
G1 X111.697 Y89.366 E21.58388
G1 X112.195 Y89.243 E21.60265
G1 X112.729 Y89.2 E21.62225
G1 X122.271 Y89.2 E21.97136
G1 X122.783 Y89.24 E21.99015
G1 X123.282 Y89.359 E22.00891
G1 X123.757 Y89.554 E22.0277
G1 X124.196 Y89.82 E22.04648
G1 X124.604 Y90.167 E22.06608
G1 X124.733 Y90.296 E22.07275
G1 X125.067 Y90.686 E22.09154
G1 X125.336 Y91.123 E22.11031
G1 X125.534 Y91.597 E22.1291
G1 X125.657 Y92.095 E22.14787
G1 X125.7 Y92.629 E22.16747
G1 X125.7 Y142.371 E23.98734
G1 X125.66 Y142.883 E24.00613
G1 X125.541 Y143.382 E24.0249
G1 X125.346 Y143.857 E24.04368
G1 X125.08 Y144.296 E24.06246
G1 X124.733 Y144.704 E24.08206
G1 X124.604 Y144.833 E24.08873
G1 X124.214 Y145.167 E24.10752
G1 X123.777 Y145.436 E24.12629
G1 X123.303 Y145.634 E24.14509
G1 X122.805 Y145.757 E24.16386
G1 X122.271 Y145.8 E24.18346
G1 X112.729 Y145.8 E24.53256
G1 X112.217 Y145.76 E24.55135
G1 X111.718 Y145.641 E24.57012
G1 X111.243 Y145.446 E24.5889
G1 X110.804 Y145.18 E24.60768
G1 X110.396 Y144.833 E24.62728
G1 X110.267 Y144.704 E24.63395
G1 X109.933 Y144.314 E24.65274
G1 X109.664 Y143.877 E24.67152
G1 X109.466 Y143.403 E24.69031
G1 X109.343 Y142.905 E24.70908
G1 X109.3 Y142.371 E24.72868
G1 X109.3 Y92.629 E26.54855
G1 X109.34 Y92.117 E26.56733
G1 X109.459 Y91.618 E26.5861
G1 X109.573 Y91.341 E26.59706
G0 F810 X109.654 Y91.143
G0 X109.92 Y90.704
M204 S5000
M205 X30 Y30
G0 F7200 X110.357 Y90.855
M204 S500
M205 X20 Y20
G1 F6000 E26.62366
G1 F900 X110.578 Y90.607 E26.63581
G1 X110.707 Y90.478 E26.64249
G1 X111.072 Y90.169 E26.65998
G1 X111.483 Y89.926 E26.67745
G1 X111.929 Y89.754 E26.69494
G1 X112.397 Y89.659 E26.71241
G1 X112.729 Y89.64 E26.72458
G1 X122.271 Y89.64 E27.07368
G1 X122.747 Y89.68 E27.09116
G1 X123.21 Y89.799 E27.10865
G1 X123.647 Y89.993 E27.12614
G1 X124.045 Y90.257 E27.14362
G1 X124.293 Y90.478 E27.15577
G1 X124.422 Y90.607 E27.16245
G1 X124.731 Y90.972 E27.17994
G1 X124.974 Y91.383 E27.19741
G1 X125.146 Y91.829 E27.2149
G1 X125.241 Y92.297 E27.23237
G1 X125.26 Y92.629 E27.24454
G1 X125.26 Y142.371 E29.06441
G1 X125.22 Y142.847 E29.08188
G1 X125.101 Y143.31 E29.09937
G1 X124.907 Y143.747 E29.11686
G1 X124.643 Y144.145 E29.13434
G1 X124.422 Y144.393 E29.14649
G1 X124.293 Y144.522 E29.15317
G1 X123.928 Y144.831 E29.17066
G1 X123.517 Y145.074 E29.18813
G1 X123.071 Y145.246 E29.20562
G1 X122.603 Y145.341 E29.22309
G1 X122.271 Y145.36 E29.23526
G1 X112.729 Y145.36 E29.58436
G1 X112.253 Y145.32 E29.60184
G1 X111.79 Y145.201 E29.61933
G1 X111.353 Y145.007 E29.63682
G1 X110.955 Y144.743 E29.6543
G1 X110.707 Y144.522 E29.66645
G1 X110.578 Y144.393 E29.67312
G1 X110.269 Y144.028 E29.69062
G1 X110.026 Y143.617 E29.70809
G1 X109.854 Y143.171 E29.72558
G1 X109.759 Y142.703 E29.74305
G1 X109.74 Y142.371 E29.75522
G1 X109.74 Y92.629 E31.57508
G1 X109.78 Y92.153 E31.59256
G1 X109.899 Y91.69 E31.61005
G1 X109.992 Y91.481 E31.61842
G0 F810 X110.093 Y91.253
G0 X110.357 Y90.855
M204 S5000
M205 X30 Y30
G0 F7200 X110.531 Y91.373
M204 S500
M205 X20 Y20
G1 F6000 E31.64502
G1 F900 X110.889 Y90.918 E31.6662
G1 X111.018 Y90.789 E31.67287
G1 X111.356 Y90.508 E31.68895
G1 X111.739 Y90.292 E31.70504
G1 X112.154 Y90.149 E31.7211
G1 X112.729 Y90.08 E31.74229
G1 X122.271 Y90.08 E32.09139
G1 X122.709 Y90.12 E32.10749
G1 X123.132 Y90.238 E32.12355
G1 X123.527 Y90.431 E32.13964
G1 X123.982 Y90.789 E32.16082
G1 X124.111 Y90.918 E32.16749
G1 X124.392 Y91.256 E32.18357
G1 X124.608 Y91.639 E32.19966
G1 X124.751 Y92.054 E32.21572
G1 X124.82 Y92.629 E32.23691
G1 X124.82 Y142.371 E34.05678
G1 X124.78 Y142.809 E34.07287
G1 X124.662 Y143.232 E34.08894
G1 X124.469 Y143.627 E34.10502
G1 X124.111 Y144.082 E34.1262
G1 X123.982 Y144.211 E34.13288
G1 X123.644 Y144.492 E34.14896
G1 X123.261 Y144.708 E34.16505
G1 X122.846 Y144.851 E34.1811
G1 X122.271 Y144.92 E34.20229
G1 X112.729 Y144.92 E34.5514
G1 X112.291 Y144.88 E34.56749
G1 X111.868 Y144.762 E34.58356
G1 X111.473 Y144.569 E34.59964
G1 X111.018 Y144.211 E34.62082
G1 X110.889 Y144.082 E34.6275
G1 X110.608 Y143.744 E34.64358
G1 X110.392 Y143.361 E34.65967
G1 X110.249 Y142.946 E34.67572
G1 X110.18 Y142.371 E34.69691
G1 X110.18 Y92.629 E36.51678
G1 X110.22 Y92.191 E36.53287
G1 X110.261 Y92.045 E36.53842
G0 F810 X110.338 Y91.768
G0 X110.531 Y91.373
M204 S5000
M205 X30 Y30
G0 F7200 X110.97 Y91.506
M204 S500
M205 X20 Y20
G1 F6000 E36.56502
G1 F900 X111.2 Y91.229 E36.57819
G1 X111.329 Y91.1 E36.58487
G1 X111.637 Y90.848 E36.59943
G1 X111.989 Y90.664 E36.61396
G1 X112.37 Y90.553 E36.62848
G1 X112.729 Y90.52 E36.64167
G1 X122.271 Y90.52 E36.99077
G1 X122.666 Y90.56 E37.0053
G1 X123.046 Y90.678 E37.01985
G1 X123.394 Y90.87 E37.03439
G1 X123.671 Y91.1 E37.04757
G1 X123.8 Y91.229 E37.05424
G1 X124.052 Y91.537 E37.0688
G1 X124.236 Y91.889 E37.08333
G1 X124.347 Y92.27 E37.09785
G1 X124.38 Y92.629 E37.11104
G1 X124.38 Y142.371 E38.93091
G1 X124.34 Y142.766 E38.94544
G1 X124.222 Y143.146 E38.95999
G1 X124.03 Y143.494 E38.97453
G1 X123.8 Y143.771 E38.98771
G1 X123.671 Y143.9 E38.99438
G1 X123.363 Y144.152 E39.00894
G1 X123.011 Y144.336 E39.02347
G1 X122.63 Y144.447 E39.03799
G1 X122.271 Y144.48 E39.05118
G1 X112.729 Y144.48 E39.40029
G1 X112.334 Y144.44 E39.41481
G1 X111.954 Y144.322 E39.42937
G1 X111.606 Y144.13 E39.44391
G1 X111.329 Y143.9 E39.45708
G1 X111.2 Y143.771 E39.46376
G1 X110.948 Y143.463 E39.47832
G1 X110.764 Y143.111 E39.49285
G1 X110.653 Y142.73 E39.50737
G1 X110.62 Y142.371 E39.52056
G1 X110.62 Y92.629 E41.34043
G1 X110.66 Y92.234 E41.35495
G1 X110.68 Y92.169 E41.35744
G0 F810 X110.778 Y91.854
G0 X110.97 Y91.506
M204 S5000
M205 X30 Y30
G0 F7200 X111.511 Y91.54
M204 S500
M205 X20 Y20
G1 F6000 E41.38404
G1 F900 X111.64 Y91.411 E41.39071
G1 X111.914 Y91.193 E41.40352
G1 X112.231 Y91.043 E41.41635
G1 X112.729 Y90.96 E41.43482
G1 X122.271 Y90.96 E41.78393
G1 X122.619 Y91 E41.79675
G1 X122.949 Y91.117 E41.80955
G1 X123.36 Y91.411 E41.82804
G1 X123.489 Y91.54 E41.83472
G1 X123.707 Y91.814 E41.84753
G1 X123.857 Y92.131 E41.86036
G1 X123.94 Y92.629 E41.87883
G1 X123.94 Y142.371 E43.6987
G1 X123.9 Y142.719 E43.71151
G1 X123.783 Y143.049 E43.72432
G1 X123.489 Y143.46 E43.74281
G1 X123.36 Y143.589 E43.74949
G1 X123.086 Y143.807 E43.7623
G1 X122.769 Y143.957 E43.77513
G1 X122.271 Y144.04 E43.7936
G1 X112.729 Y144.04 E44.1427
G1 X112.381 Y144 E44.15552
G1 X112.051 Y143.883 E44.16833
G1 X111.64 Y143.589 E44.18682
G1 X111.511 Y143.46 E44.19349
G1 X111.293 Y143.186 E44.2063
G1 X111.143 Y142.869 E44.21913
G1 X111.06 Y142.371 E44.2376
G1 X111.06 Y92.629 E46.05747
G1 X111.1 Y92.281 E46.07029
G1 X111.143 Y92.16 E46.07499
G0 F810 X111.217 Y91.951
G0 X111.511 Y91.54
M204 S5000
M205 X30 Y30
G0 F7200 X111.656 Y92.064
M204 S500
M205 X20 Y20
G1 F6000 E46.10158
G1 F900 X111.822 Y91.851 E46.11146
G1 X111.951 Y91.722 E46.11814
G1 X112.187 Y91.543 E46.12898
G1 X112.462 Y91.433 E46.13981
G1 X112.729 Y91.4 E46.14965
G1 X122.271 Y91.4 E46.49876
G1 X122.564 Y91.44 E46.50958
G1 X122.836 Y91.556 E46.5204
G1 X123.049 Y91.722 E46.53028
G1 X123.178 Y91.851 E46.53695
G1 X123.357 Y92.087 E46.54779
G1 X123.467 Y92.362 E46.55863
G1 X123.5 Y92.629 E46.56847
G1 X123.5 Y142.371 E48.38834
G1 X123.46 Y142.664 E48.39916
G1 X123.344 Y142.936 E48.40997
G1 X123.178 Y143.149 E48.41985
G1 X123.049 Y143.278 E48.42653
G1 X122.813 Y143.457 E48.43737
G1 X122.538 Y143.567 E48.4482
G1 X122.271 Y143.6 E48.45804
G1 X112.729 Y143.6 E48.80715
G1 X112.436 Y143.56 E48.81797
G1 X112.164 Y143.444 E48.82879
G1 X111.951 Y143.278 E48.83867
G1 X111.822 Y143.149 E48.84534
G1 X111.643 Y142.913 E48.85618
G1 X111.533 Y142.638 E48.86702
G1 X111.5 Y142.371 E48.87686
G1 X111.5 Y92.766 E50.69171
G0 F810 X111.5 Y92.629
G0 X111.54 Y92.336
G0 X111.656 Y92.064
M204 S5000
M205 X30 Y30
G0 F7200 X112.133 Y92.162
M204 S500
M205 X20 Y20
G1 F6000 E50.71831
G1 F900 X112.262 Y92.033 E50.72499
G1 X112.45 Y91.902 E50.73337
G1 X112.729 Y91.84 E50.74383
G1 X122.271 Y91.84 E51.09293
G1 X122.496 Y91.88 E51.10129
G1 X122.738 Y92.033 E51.11177
G1 X122.867 Y92.162 E51.11844
G1 X122.998 Y92.35 E51.12683
G1 X123.06 Y92.629 E51.13728
G1 X123.06 Y142.371 E52.95715
G1 X123.02 Y142.596 E52.96551
G1 X122.867 Y142.838 E52.97599
G1 X122.738 Y142.967 E52.98266
G1 X122.55 Y143.098 E52.99104
G1 X122.271 Y143.16 E53.0015
G1 X112.729 Y143.16 E53.35061
G1 X112.504 Y143.12 E53.35897
G1 X112.262 Y142.967 E53.36944
G1 X112.133 Y142.838 E53.37612
