;FLAVOR:RepRap
;TIME:8448
;Generated with Cura_SteamEngine 2.3.1
M190 S70
M104 S210
M109 S210
G28 ; home all axes
M117 Purge extruder
G92 E0 ; reset extruder
G1 Z1.0 F3000 ; move z up little to prevent scratching of surface
G1 X0.1 Y20 Z0.3 F5000.0 ; move to start-line position G1 X0.1 Y200.0 Z0.3 F1500.0 E15 ; draw 1st line
G1 X0.4 Y200.0 Z0.3 F5000.0 ; move to side a little
G1 X0.4 Y20 Z0.3 F1500.0 E30 ; draw 2nd line
G92 E0 ; reset extruder
G1 Z1.0 F3000 ; move z up little to prevent scratching of surface

M117 All systems go!
;LAYER_COUNT:28
;LAYER:0
M107
G1 F4200 E-5
G0 F1800 X66.715 Y42.916 Z.16
;TYPE:SKIRT
G1 F4200 E0
G1 F1200 X67.049 Y42.478 E0.01466
G1 X67.444 Y42.094 E0.02931
G1 X67.89 Y41.77 E0.04398
G1 X68.378 Y41.515 E0.05863
G1 X68.898 Y41.332 E0.0733
G1 X69.439 Y41.227 E0.08796
G1 X69.892 Y41.2 E0.10004
G1 X78.829 Y41.2 E0.33784
G1 X79.379 Y41.24 E0.35251
G1 X79.917 Y41.359 E0.36717
G1 X80.293 Y41.502 E0.37787
G1 X80.777 Y41.332 E0.39152
G1 X81.318 Y41.227 E0.40619
G1 X81.771 Y41.2 E0.41826
G1 X89.851 Y41.2 E0.63326
G1 X89.851 Y32.5 E0.86475
G1 X89.891 Y31.95 E0.87942
G1 X90.01 Y31.412 E0.89408
G1 X90.206 Y30.897 E0.90874
G1 X90.474 Y30.416 E0.92339
G1 X90.808 Y29.978 E0.93805
G1 X91.203 Y29.594 E0.95271
G1 X91.649 Y29.27 E0.96738
G1 X92.137 Y29.015 E0.98203
G1 X92.657 Y28.832 E0.99669
G1 X93.198 Y28.727 E1.01136
G1 X93.651 Y28.7 E1.02343
G1 X102.59 Y28.7 E1.26128
G1 X103.14 Y28.74 E1.27596
G1 X103.678 Y28.859 E1.29062
G1 X104.033 Y28.994 E1.30072
G1 X104.493 Y28.832 E1.3137
G1 X105.034 Y28.727 E1.32836
G1 X105.487 Y28.7 E1.34044
G1 X114.425 Y28.7 E1.57826
G1 X114.975 Y28.74 E1.59293
G1 X115.513 Y28.859 E1.6076
G1 X116.028 Y29.055 E1.62226
G1 X116.509 Y29.323 E1.63691
G1 X116.947 Y29.657 E1.65157
G1 X117.331 Y30.052 E1.66622
G1 X117.655 Y30.498 E1.68089
G1 X117.91 Y30.986 E1.69554
G1 X118.093 Y31.506 E1.71021
G1 X118.198 Y32.047 E1.72487
G1 X118.225 Y32.5 E1.73695
G1 X118.226 Y187.5 E5.86121
G1 X118.186 Y188.05 E5.87588
G1 X118.067 Y188.588 E5.89054
G1 X117.872 Y189.103 E5.90519
G1 X117.604 Y189.584 E5.91984
G1 X117.269 Y190.022 E5.93452
G1 X116.874 Y190.406 E5.94917
G1 X116.428 Y190.73 E5.96384
G1 X115.94 Y190.985 E5.97849
G1 X115.42 Y191.168 E5.99316
G1 X114.879 Y191.273 E6.00782
G1 X114.426 Y191.3 E6.0199
G1 X105.486 Y191.3 E6.25778
G1 X104.936 Y191.26 E6.27245
G1 X104.398 Y191.141 E6.28711
G1 X104.044 Y191.006 E6.29719
G1 X103.585 Y191.168 E6.31014
G1 X103.044 Y191.273 E6.32481
G1 X102.591 Y191.3 E6.33688
G1 X93.65 Y191.3 E6.57478
G1 X93.1 Y191.26 E6.58946
G1 X92.562 Y191.141 E6.60412
G1 X92.047 Y190.945 E6.61878
G1 X91.566 Y190.677 E6.63343
G1 X91.128 Y190.343 E6.64809
G1 X90.744 Y189.948 E6.66275
G1 X90.42 Y189.502 E6.67741
G1 X90.165 Y189.014 E6.69206
G1 X89.982 Y188.494 E6.70673
G1 X89.877 Y187.953 E6.7214
G1 X89.85 Y187.5 E6.73347
G1 X89.85 Y178.8 E6.96496
G1 X81.77 Y178.8 E7.17995
G1 X81.22 Y178.76 E7.19463
G1 X80.682 Y178.641 E7.20929
G1 X80.307 Y178.498 E7.21997
G1 X79.824 Y178.668 E7.23359
G1 X79.283 Y178.773 E7.24826
G1 X78.83 Y178.8 E7.26033
G1 X69.891 Y178.8 E7.49818
G1 X69.341 Y178.76 E7.51285
G1 X68.803 Y178.641 E7.52752
G1 X68.288 Y178.445 E7.54218
G1 X67.807 Y178.177 E7.55683
G1 X67.369 Y177.843 E7.57148
G1 X66.985 Y177.448 E7.58614
G1 X66.661 Y177.002 E7.60081
G1 X66.406 Y176.514 E7.61546
G1 X66.223 Y175.994 E7.63013
G1 X66.118 Y175.453 E7.64479
G1 X66.091 Y175 E7.65687
G1 X66.092 Y45 E11.11592
G1 X66.132 Y44.45 E11.13059
G1 X66.251 Y43.912 E11.14526
G1 X66.447 Y43.397 E11.15992
G1 X66.715 Y42.916 E11.17457
G0 F1800 X67.112 Y43.042
G1 F1200 X67.444 Y42.64 E11.18844
G1 X67.834 Y42.294 E11.20231
G1 X68.272 Y42.011 E11.21619
G1 X68.747 Y41.798 E11.23004
G1 X69.25 Y41.661 E11.24391
G1 X69.892 Y41.6 E11.26107
G1 X78.829 Y41.6 E11.49887
G1 X79.349 Y41.64 E11.51275
G1 X79.856 Y41.759 E11.5266
G1 X80.307 Y41.941 E11.53954
G1 X80.626 Y41.798 E11.54884
G1 X81.129 Y41.661 E11.56272
G1 X81.771 Y41.6 E11.57988
G1 X90.251 Y41.6 E11.80551
G1 X90.251 Y32.5 E12.04765
G1 X90.291 Y31.98 E12.06152
G1 X90.41 Y31.473 E12.07538
G1 X90.605 Y30.99 E12.08924
G1 X90.871 Y30.542 E12.1031
G1 X91.203 Y30.14 E12.11698
G1 X91.593 Y29.794 E12.13085
G1 X92.031 Y29.511 E12.14472
G1 X92.506 Y29.298 E12.15857
G1 X93.009 Y29.161 E12.17245
G1 X93.651 Y29.1 E12.18961
G1 X102.59 Y29.1 E12.42746
G1 X103.11 Y29.14 E12.44133
G1 X103.617 Y29.259 E12.45519
G1 X104.044 Y29.432 E12.46745
G1 X104.342 Y29.298 E12.47614
G1 X104.845 Y29.161 E12.49001
G1 X105.487 Y29.1 E12.50717
G1 X114.425 Y29.1 E12.745
G1 X114.945 Y29.14 E12.75887
G1 X115.452 Y29.259 E12.77273
G1 X115.935 Y29.454 E12.78659
G1 X116.383 Y29.72 E12.80045
G1 X116.785 Y30.052 E12.81433
G1 X117.131 Y30.442 E12.8282
G1 X117.414 Y30.88 E12.84207
G1 X117.627 Y31.355 E12.85593
G1 X117.764 Y31.858 E12.8698
G1 X117.825 Y32.5 E12.88696
G1 X117.826 Y187.5 E17.01121
G1 X117.786 Y188.02 E17.02509
G1 X117.667 Y188.527 E17.03895
G1 X117.472 Y189.01 E17.05281
G1 X117.206 Y189.458 E17.06667
G1 X116.874 Y189.86 E17.08054
G1 X116.484 Y190.206 E17.09441
G1 X116.046 Y190.489 E17.10829
G1 X115.571 Y190.702 E17.12214
G1 X115.068 Y190.839 E17.13601
G1 X114.426 Y190.9 E17.15317
G1 X105.486 Y190.9 E17.39105
G1 X104.966 Y190.86 E17.40493
G1 X104.459 Y190.741 E17.41878
G1 X104.033 Y190.569 E17.43101
G1 X103.736 Y190.702 E17.43967
G1 X103.233 Y190.839 E17.45354
G1 X102.591 Y190.9 E17.4707
G1 X93.65 Y190.9 E17.7086
G1 X93.13 Y190.86 E17.72248
G1 X92.623 Y190.741 E17.73633
G1 X92.14 Y190.546 E17.75019
G1 X91.692 Y190.28 E17.76406
G1 X91.29 Y189.948 E17.77793
G1 X90.944 Y189.558 E17.7918
G1 X90.661 Y189.12 E17.80568
G1 X90.448 Y188.645 E17.81953
G1 X90.311 Y188.142 E17.8334
G1 X90.25 Y187.5 E17.85056
G1 X90.25 Y178.4 E18.09269
G1 X81.77 Y178.4 E18.31833
G1 X81.25 Y178.36 E18.33221
G1 X80.743 Y178.241 E18.34606
G1 X80.293 Y178.059 E18.35898
G1 X79.975 Y178.202 E18.36826
G1 X79.472 Y178.339 E18.38213
G1 X78.83 Y178.4 E18.39929
G1 X69.891 Y178.4 E18.63714
G1 X69.371 Y178.36 E18.65101
G1 X68.864 Y178.241 E18.66487
G1 X68.381 Y178.046 E18.67873
G1 X67.933 Y177.78 E18.69259
G1 X67.531 Y177.448 E18.70647
G1 X67.185 Y177.058 E18.72034
G1 X66.902 Y176.62 E18.73421
G1 X66.689 Y176.145 E18.74807
G1 X66.552 Y175.642 E18.76194
G1 X66.491 Y175 E18.7791
G1 X66.492 Y45 E22.23815
G1 X66.532 Y44.48 E22.25203
G1 X66.651 Y43.973 E22.26589
G1 X66.846 Y43.49 E22.27974
G1 X67.112 Y43.042 E22.29361
G0 F1800 X67.51 Y43.176
G1 F1200 X67.838 Y42.813 E22.30663
G1 X68.221 Y42.508 E22.31965
G1 X68.649 Y42.27 E22.33268
G1 X69.109 Y42.104 E22.3457
G1 X69.59 Y42.015 E22.35871
G1 X69.892 Y42 E22.36676
G1 X78.829 Y42 E22.60455
G1 X79.317 Y42.04 E22.61758
G1 X79.792 Y42.159 E22.63061
G1 X80.241 Y42.353 E22.64363
G1 X80.305 Y42.394 E22.64565
G1 X80.528 Y42.27 E22.65244
G1 X80.988 Y42.104 E22.66545
G1 X81.469 Y42.015 E22.67847
G1 X81.771 Y42 E22.68651
G1 X90.651 Y42 E22.92279
G1 X90.651 Y32.5 E23.17557
G1 X90.691 Y32.012 E23.1886
G1 X90.81 Y31.537 E23.20163
G1 X91.004 Y31.088 E23.21464
G1 X91.269 Y30.676 E23.22768
G1 X91.597 Y30.313 E23.24069
G1 X91.98 Y30.008 E23.25372
G1 X92.408 Y29.77 E23.26675
G1 X92.868 Y29.604 E23.27976
G1 X93.349 Y29.515 E23.29278
G1 X93.651 Y29.5 E23.30082
G1 X102.59 Y29.5 E23.53867
G1 X103.078 Y29.54 E23.5517
G1 X103.553 Y29.659 E23.56473
G1 X104.002 Y29.853 E23.57775
G1 X104.045 Y29.881 E23.57911
G1 X104.244 Y29.77 E23.58518
G1 X104.704 Y29.604 E23.59819
G1 X105.185 Y29.515 E23.6112
G1 X105.487 Y29.5 E23.61925
G1 X114.425 Y29.5 E23.85707
G1 X114.913 Y29.54 E23.8701
G1 X115.388 Y29.659 E23.88313
G1 X115.837 Y29.853 E23.89614
G1 X116.249 Y30.118 E23.90918
G1 X116.612 Y30.446 E23.9222
G1 X116.917 Y30.829 E23.93522
G1 X117.155 Y31.257 E23.94825
G1 X117.321 Y31.717 E23.96127
G1 X117.41 Y32.198 E23.97428
G1 X117.425 Y32.5 E23.98233
G1 X117.426 Y187.5 E28.10658
G1 X117.386 Y187.988 E28.11961
G1 X117.267 Y188.463 E28.13264
G1 X117.073 Y188.912 E28.14566
G1 X116.808 Y189.324 E28.15869
G1 X116.48 Y189.687 E28.17171
G1 X116.097 Y189.992 E28.18474
G1 X115.669 Y190.23 E28.19777
G1 X115.209 Y190.396 E28.21078
G1 X114.728 Y190.485 E28.2238
G1 X114.426 Y190.5 E28.23184
G1 X105.486 Y190.5 E28.46972
G1 X104.998 Y190.46 E28.48275
G1 X104.523 Y190.341 E28.49578
G1 X104.074 Y190.147 E28.50879
G1 X104.032 Y190.12 E28.51012
G1 X103.834 Y190.23 E28.51615
G1 X103.374 Y190.396 E28.52916
G1 X102.893 Y190.485 E28.54217
G1 X102.591 Y190.5 E28.55022
G1 X93.65 Y190.5 E28.78812
G1 X93.162 Y190.46 E28.80115
G1 X92.687 Y190.341 E28.81418
G1 X92.238 Y190.147 E28.82719
G1 X91.826 Y189.882 E28.84023
G1 X91.463 Y189.554 E28.85325
G1 X91.158 Y189.171 E28.86627
G1 X90.92 Y188.743 E28.8793
G1 X90.754 Y188.283 E28.89232
G1 X90.665 Y187.802 E28.90533
G1 X90.65 Y187.5 E28.91338
G1 X90.65 Y178 E29.16615
G1 X81.77 Y178 E29.40243
G1 X81.282 Y177.96 E29.41546
G1 X80.807 Y177.841 E29.42849
G1 X80.358 Y177.647 E29.44151
G1 X80.295 Y177.607 E29.44349
G1 X80.073 Y177.73 E29.45025
G1 X79.613 Y177.896 E29.46326
G1 X79.132 Y177.985 E29.47627
G1 X78.83 Y178 E29.48432
G1 X69.891 Y178 E29.72217
G1 X69.403 Y177.96 E29.7352
G1 X68.928 Y177.841 E29.74823
G1 X68.479 Y177.647 E29.76124
G1 X68.067 Y177.382 E29.77428
G1 X67.704 Y177.054 E29.78729
G1 X67.399 Y176.671 E29.80032
G1 X67.161 Y176.243 E29.81335
G1 X66.995 Y175.783 E29.82636
G1 X66.906 Y175.302 E29.83938
G1 X66.891 Y175 E29.84743
G1 X66.892 Y45 E33.30648
G1 X66.932 Y44.512 E33.31951
G1 X67.051 Y44.037 E33.33254
G1 X67.245 Y43.588 E33.34555
G1 X67.51 Y43.176 E33.35859
G0 F1800 X67.907 Y43.321
G1 F1200 X68.23 Y43 E33.3707
G1 X68.605 Y42.741 E33.38283
G1 X69.019 Y42.551 E33.39495
G1 X69.46 Y42.436 E33.40708
G1 X69.892 Y42.4 E33.41861
G1 X78.829 Y42.4 E33.65641
G1 X79.283 Y42.44 E33.66853
G1 X79.723 Y42.558 E33.68066
G1 X80.135 Y42.752 E33.69277
G1 X80.3 Y42.868 E33.69814
G1 X80.484 Y42.741 E33.70409
G1 X80.898 Y42.551 E33.71621
G1 X81.339 Y42.436 E33.72834
G1 X81.771 Y42.4 E33.73987
G1 X90.71 Y42.4 E33.97772
G1 X91.051 Y42.43 E33.98683
G1 X91.051 Y32.5 E34.25105
G1 X91.091 Y32.046 E34.26317
G1 X91.209 Y31.606 E34.2753
G1 X91.403 Y31.194 E34.28741
G1 X91.666 Y30.821 E34.29956
G1 X91.989 Y30.5 E34.31167
G1 X92.364 Y30.241 E34.3238
G1 X92.778 Y30.051 E34.33592
G1 X93.219 Y29.936 E34.34805
G1 X93.651 Y29.9 E34.35958
G1 X102.59 Y29.9 E34.59743
G1 X103.044 Y29.94 E34.60956
G1 X103.484 Y30.058 E34.62168
G1 X103.896 Y30.252 E34.6338
G1 X104.039 Y30.353 E34.63845
G1 X104.2 Y30.241 E34.64367
G1 X104.614 Y30.051 E34.65579
G1 X105.055 Y29.936 E34.66792
G1 X105.487 Y29.9 E34.67945
G1 X114.425 Y29.9 E34.91728
G1 X114.879 Y29.94 E34.9294
G1 X115.319 Y30.058 E34.94153
G1 X115.731 Y30.252 E34.95364
G1 X116.104 Y30.515 E34.96579
G1 X116.425 Y30.838 E34.9779
G1 X116.684 Y31.213 E34.99003
G1 X116.874 Y31.627 E35.00215
G1 X116.989 Y32.068 E35.01428
G1 X117.025 Y32.5 E35.02581
G1 X117.026 Y187.5 E39.15007
G1 X116.986 Y187.954 E39.1622
G1 X116.868 Y188.394 E39.17432
G1 X116.674 Y188.806 E39.18643
G1 X116.411 Y189.179 E39.19858
G1 X116.088 Y189.499 E39.21068
G1 X115.713 Y189.759 E39.22282
G1 X115.299 Y189.949 E39.23494
G1 X114.858 Y190.064 E39.24706
G1 X114.426 Y190.1 E39.2586
G1 X105.486 Y190.1 E39.49648
G1 X105.032 Y190.06 E39.5086
G1 X104.592 Y189.942 E39.52072
G1 X104.18 Y189.748 E39.53284
G1 X104.038 Y189.648 E39.53746
G1 X103.878 Y189.759 E39.54264
G1 X103.464 Y189.949 E39.55476
G1 X103.023 Y190.064 E39.56689
G1 X102.591 Y190.1 E39.57842
G1 X93.65 Y190.1 E39.81633
G1 X93.196 Y190.06 E39.82845
G1 X92.756 Y189.942 E39.84058
G1 X92.344 Y189.748 E39.85269
G1 X91.971 Y189.485 E39.86484
G1 X91.65 Y189.162 E39.87695
G1 X91.391 Y188.787 E39.88908
G1 X91.201 Y188.373 E39.9012
G1 X91.086 Y187.932 E39.91333
G1 X91.05 Y187.5 E39.92486
G1 X91.05 Y177.572 E40.18903
G1 X90.711 Y177.6 E40.19808
G1 X81.77 Y177.6 E40.43598
G1 X81.316 Y177.56 E40.44811
G1 X80.876 Y177.442 E40.46023
G1 X80.464 Y177.248 E40.47235
G1 X80.3 Y177.132 E40.47769
G1 X80.117 Y177.259 E40.48362
G1 X79.703 Y177.449 E40.49574
G1 X79.262 Y177.564 E40.50787
G1 X78.83 Y177.6 E40.5194
G1 X69.891 Y177.6 E40.75725
G1 X69.437 Y177.56 E40.76938
G1 X68.997 Y177.442 E40.7815
G1 X68.585 Y177.248 E40.79362
G1 X68.212 Y176.985 E40.80576
G1 X67.891 Y176.662 E40.81788
G1 X67.632 Y176.287 E40.83
G1 X67.442 Y175.873 E40.84212
G1 X67.327 Y175.432 E40.85425
G1 X67.291 Y175 E40.86578
G1 X67.292 Y45 E44.32484
G1 X67.332 Y44.546 E44.33696
G1 X67.45 Y44.106 E44.34909
G1 X67.644 Y43.694 E44.3612
G1 X67.907 Y43.321 E44.37335
G0 F1800 X68.302 Y43.479
G1 F1200 X68.619 Y43.206 E44.38448
G1 X68.982 Y42.997 E44.39562
G1 X69.379 Y42.861 E44.40679
G1 X69.892 Y42.8 E44.42054
G1 X78.829 Y42.8 E44.65833
G1 X79.246 Y42.84 E44.66948
G1 X79.648 Y42.958 E44.68063
G1 X80.02 Y43.151 E44.69178
G1 X80.303 Y43.374 E44.70136
G1 X80.498 Y43.206 E44.70821
G1 X80.861 Y42.997 E44.71936
G1 X81.258 Y42.861 E44.73052
G1 X81.771 Y42.8 E44.74427
G1 X90.71 Y42.8 E44.98212
G1 X91.127 Y42.84 E44.99327
G1 X91.451 Y42.935 E45.00225
G1 X91.451 Y32.5 E45.27991
G1 X91.491 Y32.083 E45.29105
G1 X91.609 Y31.681 E45.3022
G1 X91.802 Y31.309 E45.31335
G1 X92.061 Y30.979 E45.32451
G1 X92.378 Y30.706 E45.33565
G1 X92.741 Y30.497 E45.34679
G1 X93.138 Y30.361 E45.35796
G1 X93.651 Y30.3 E45.3717
G1 X102.59 Y30.3 E45.60955
G1 X103.007 Y30.34 E45.6207
G1 X103.409 Y30.458 E45.63185
G1 X103.781 Y30.651 E45.643
G1 X104.041 Y30.855 E45.65179
G1 X104.214 Y30.706 E45.65787
G1 X104.577 Y30.497 E45.66901
G1 X104.974 Y30.361 E45.68018
G1 X105.487 Y30.3 E45.69392
G1 X114.425 Y30.3 E45.93175
G1 X114.842 Y30.34 E45.94289
G1 X115.244 Y30.458 E45.95404
G1 X115.616 Y30.651 E45.96519
G1 X115.945 Y30.91 E45.97633
G1 X116.219 Y31.227 E45.98748
G1 X116.428 Y31.59 E45.99863
G1 X116.564 Y31.987 E46.00979
G1 X116.625 Y32.5 E46.02354
G1 X116.626 Y187.5 E50.1478
G1 X116.586 Y187.917 E50.15894
G1 X116.468 Y188.319 E50.17009
G1 X116.275 Y188.691 E50.18124
G1 X116.016 Y189.02 E50.19238
G1 X115.699 Y189.294 E50.20353
G1 X115.336 Y189.503 E50.21468
G1 X114.939 Y189.639 E50.22584
G1 X114.426 Y189.7 E50.23959
G1 X105.486 Y189.7 E50.47747
G1 X105.069 Y189.66 E50.48861
G1 X104.667 Y189.542 E50.49976
G1 X104.295 Y189.349 E50.51091
G1 X104.036 Y189.145 E50.51968
G1 X103.864 Y189.294 E50.52574
G1 X103.501 Y189.503 E50.53689
G1 X103.104 Y189.639 E50.54805
G1 X102.591 Y189.7 E50.5618
G1 X93.65 Y189.7 E50.7997
G1 X93.233 Y189.66 E50.81085
G1 X92.831 Y189.542 E50.82199
G1 X92.459 Y189.349 E50.83315
G1 X92.13 Y189.09 E50.84429
G1 X91.856 Y188.773 E50.85544
G1 X91.647 Y188.41 E50.86658
G1 X91.511 Y188.013 E50.87775
G1 X91.45 Y187.5 E50.89149
G1 X91.45 Y177.062 E51.16923
G1 X91.224 Y177.139 E51.17558
G1 X90.711 Y177.2 E51.18933
G1 X81.77 Y177.2 E51.42723
G1 X81.353 Y177.16 E51.43838
G1 X80.951 Y177.042 E51.44953
G1 X80.579 Y176.849 E51.46068
G1 X80.297 Y176.627 E51.47023
G1 X80.103 Y176.794 E51.47704
G1 X79.74 Y177.003 E51.48818
G1 X79.343 Y177.139 E51.49935
G1 X78.83 Y177.2 E51.51309
G1 X69.891 Y177.2 E51.75094
G1 X69.474 Y177.16 E51.76209
G1 X69.072 Y177.042 E51.77324
G1 X68.7 Y176.849 E51.78439
G1 X68.371 Y176.59 E51.79553
G1 X68.097 Y176.273 E51.80668
G1 X67.888 Y175.91 E51.81782
G1 X67.752 Y175.513 E51.82899
G1 X67.691 Y175 E51.84274
G1 X67.692 Y45 E55.30179
G1 X67.732 Y44.583 E55.31294
G1 X67.85 Y44.181 E55.32409
G1 X68.043 Y43.809 E55.33524
G1 X68.302 Y43.479 E55.3464
G0 F1800 X68.695 Y43.655
G1 F1200 X69.004 Y43.435 E55.35649
G1 X69.351 Y43.283 E55.36657
G1 X69.892 Y43.2 E55.38113
G1 X78.829 Y43.2 E55.61893
G1 X79.206 Y43.24 E55.62902
G1 X79.566 Y43.358 E55.6391
G1 X79.893 Y43.548 E55.64916
G1 X80.174 Y43.803 E55.65926
G1 X80.296 Y43.975 E55.66487
G1 X80.319 Y43.936 E55.66607
G1 X80.574 Y43.655 E55.67617
G1 X80.883 Y43.435 E55.68626
G1 X81.23 Y43.283 E55.69634
G1 X81.771 Y43.2 E55.71091
G1 X90.71 Y43.2 E55.94876
G1 X91.087 Y43.24 E55.95885
G1 X91.447 Y43.358 E55.96893
G1 X91.774 Y43.548 E55.97899
G1 X91.851 Y43.618 E55.98176
G1 X91.851 Y32.5 E56.27759
G1 X91.891 Y32.123 E56.28767
G1 X92.009 Y31.763 E56.29775
G1 X92.199 Y31.436 E56.30782
G1 X92.454 Y31.155 E56.31791
G1 X92.763 Y30.935 E56.32801
G1 X93.11 Y30.783 E56.33809
G1 X93.651 Y30.7 E56.35265
G1 X102.59 Y30.7 E56.5905
G1 X102.967 Y30.74 E56.60059
G1 X103.327 Y30.858 E56.61067
G1 X103.654 Y31.048 E56.62073
