;FLAVOR:Marlin
;TIME:833
;Filament used: 0.448067m
;Layer height: 0.16
;Generated with Cura_SteamEngine 3.6.0
M140 S70
M105
M190 S70
M104 S215
M105
M109 S215
M82 ;absolute extrusion mode
G28 ; home all axes
M117 Purge extruder
G92 E0 ; reset extruder
G1 Z1.0 F3000 ; move z up little to prevent scratching of surface
G1 X0.1 Y20 Z0.3 F5000.0 ; move to start-line position G1 X0.1 Y200.0 Z0.3 F1500.0 E15 ; draw 1st line
G1 X0.4 Y200.0 Z0.3 F5000.0 ; move to side a little
G1 X0.4 Y20 Z0.3 F1500.0 E30 ; draw 2nd line
G92 E0 ; reset extruder
G1 Z1.0 F3000 ; move z up little to prevent scratching of surface
M117 All systems go!
G92 E0
G1 F6000 E-5
;LAYER_COUNT:13
;LAYER:0
M107
M204 S5000
M205 X30 Y30
G0 F7200 X90.028 Y109.935 Z0.2
M204 S500
M205 X20 Y20
;TYPE:SKIRT
G1 F6000 E0
G1 F900 X90.443 Y109.608 E0.01933
G1 X90.83 Y109.335 E0.03666
G1 X91.372 Y109.002 E0.05993
G1 X91.805 Y108.797 E0.07746
G1 X92.32 Y108.583 E0.09786
G1 X92.922 Y108.377 E0.12114
G1 X93.364 Y108.276 E0.13773
G1 X94.135 Y108.137 E0.16639
G1 X95.025 Y108.057 E0.19908
G1 X103.683 Y108.044 E0.51585
G1 X104.269 Y108.077 E0.53732
G1 X104.93 Y108.153 E0.56166
G1 X105.556 Y108.265 E0.58493
G1 X106.187 Y108.464 E0.60914
G1 X107.143 Y108.836 E0.64667
G1 X107.72 Y109.104 E0.66994
G1 X108.259 Y109.441 E0.6932
G1 X108.458 Y109.594 E0.70239
G1 X108.475 Y109.579 E0.70321
G1 X108.612 Y109.484 E0.70931
G1 X108.577 Y109.459 E0.71089
G1 X107.883 Y108.884 E0.74386
G1 X107.42 Y108.449 E0.7671
G1 X107.015 Y107.958 E0.79039
G1 X106.782 Y107.608 E0.80577
G1 X106.523 Y107.18 E0.82408
G1 X106.229 Y106.616 E0.84735
G1 X105.941 Y105.779 E0.87973
G1 X105.731 Y104.933 E0.91162
G1 X105.617 Y104.307 E0.9349
G1 X105.582 Y103.672 E0.95817
G1 X105.627 Y103.038 E0.98142
G1 X105.747 Y102.433 E1.00399
G1 X105.82 Y102.154 E1.01454
G1 X106.019 Y101.55 E1.03781
G1 X106.056 Y101.472 E1.04097
G1 X106.055 Y101.47 E1.04105
G1 X105.922 Y101.125 E1.05457
G1 X105.731 Y100.519 E1.07782
G1 X105.617 Y99.893 E1.1011
G1 X105.583 Y99.258 E1.12437
G1 X105.605 Y98.833 E1.13994
G1 X105.638 Y98.481 E1.15287
G1 X105.737 Y97.853 E1.17613
G1 X105.947 Y97.153 E1.20287
G1 X106.202 Y96.483 E1.2291
G1 X106.465 Y95.904 E1.25236
G1 X106.983 Y95.118 E1.2868
G1 X107.424 Y94.568 E1.3126
G1 X107.853 Y94.098 E1.33588
G1 X108.336 Y93.685 E1.35913
G1 X108.695 Y93.439 E1.37505
G1 X109.29 Y93.068 E1.4007
G1 X109.849 Y92.766 E1.42395
G1 X110.573 Y92.498 E1.45219
G1 X111.271 Y92.298 E1.47876
G1 X111.892 Y92.161 E1.50202
G1 X112.244 Y92.12 E1.51499
G1 X112.986 Y92.058 E1.54223
G1 X113.408 Y92.04 E1.55768
G1 X121.629 Y92.042 E1.85846
G1 X122.333 Y92.091 E1.88428
G1 X123.293 Y92.226 E1.91975
G1 X123.916 Y92.354 E1.94302
G1 X124.521 Y92.561 E1.96641
G1 X125.155 Y92.823 E1.99151
G1 X125.726 Y93.102 E2.01476
G1 X126.253 Y93.447 E2.0378
G1 X126.626 Y93.726 E2.05485
G1 X127.11 Y94.138 E2.0781
G1 X127.45 Y94.501 E2.0963
G1 X127.739 Y94.841 E2.11262
G1 X128.12 Y95.35 E2.13589
G1 X128.488 Y96.019 E2.16382
G1 X128.823 Y96.754 E2.19337
G1 X129.05 Y97.349 E2.21667
G1 X129.213 Y98.038 E2.24257
G1 X129.34 Y98.816 E2.27142
G1 X129.406 Y99.678 E2.30305
G1 X129.368 Y103.768 E2.45269
G1 X129.322 Y104.402 E2.47595
G1 X129.172 Y105.117 E2.50267
G1 X128.936 Y105.939 E2.53396
G1 X128.722 Y106.538 E2.55723
G1 X128.441 Y107.096 E2.58009
G1 X128.202 Y107.505 E2.59742
G1 X127.847 Y108.033 E2.6207
G1 X127.542 Y108.394 E2.63799
G1 X127.232 Y108.728 E2.65466
G1 X126.771 Y109.166 E2.67793
G1 X126.322 Y109.496 E2.69832
G1 X126.436 Y109.58 E2.7035
G1 X126.463 Y109.602 E2.70477
G1 X126.649 Y109.46 E2.71333
G1 X127.062 Y109.19 E2.73138
G1 X127.615 Y108.876 E2.75465
G1 X128.209 Y108.632 E2.77815
G1 X128.918 Y108.392 E2.80553
G1 X129.532 Y108.227 E2.82879
G1 X129.923 Y108.163 E2.84329
G1 X130.558 Y108.085 E2.86669
G1 X131.209 Y108.047 E2.89055
G1 X140.325 Y108.108 E3.22408
G1 X140.959 Y108.152 E3.24733
G1 X141.583 Y108.276 E3.27061
G1 X142.054 Y108.425 E3.28868
G1 X143.047 Y108.794 E3.32744
G1 X143.628 Y109.052 E3.3507
G1 X144.172 Y109.382 E3.37397
G1 X144.475 Y109.61 E3.38785
G1 X144.838 Y109.905 E3.40496
G1 X145.306 Y110.336 E3.42824
G1 X145.646 Y110.731 E3.44731
G1 X145.95 Y111.123 E3.46545
G1 X146.307 Y111.649 E3.48871
G1 X146.673 Y112.407 E3.51951
G1 X146.987 Y113.223 E3.5515
G1 X147.178 Y113.829 E3.57474
G1 X147.292 Y114.467 E3.59846
G1 X147.385 Y115.283 E3.6285
G1 X147.418 Y115.876 E3.65023
G1 X147.404 Y119.421 E3.77993
G1 X147.361 Y120.055 E3.80318
G1 X147.299 Y120.428 E3.81701
G1 X147.094 Y121.417 E3.85397
G1 X146.926 Y122.03 E3.87722
G1 X146.682 Y122.618 E3.90051
G1 X146.432 Y123.068 E3.91935
G1 X145.953 Y123.836 E3.95246
G1 X145.584 Y124.353 E3.9757
G1 X145.152 Y124.82 E3.99897
G1 X144.834 Y125.098 E4.01443
G1 X144.443 Y125.413 E4.0328
G1 X143.924 Y125.78 E4.05605
G1 X143.502 Y126.014 E4.07371
G1 X143.083 Y126.22 E4.09079
G1 X142.495 Y126.464 E4.11408
G1 X142.056 Y126.593 E4.13082
G1 X141.331 Y126.771 E4.15813
G1 X140.706 Y126.884 E4.18137
G1 X140.107 Y126.917 E4.20332
G1 X130.569 Y126.884 E4.55228
G1 X129.935 Y126.842 E4.57553
G1 X129.311 Y126.72 E4.59879
G1 X128.958 Y126.615 E4.61226
G1 X128.158 Y126.343 E4.64318
G1 X127.57 Y126.101 E4.66644
G1 X126.779 Y125.621 E4.70029
G1 X126.469 Y125.392 E4.71439
G1 X126.444 Y125.412 E4.71556
G1 X126.323 Y125.498 E4.721
G1 X126.629 Y125.728 E4.735
G1 X127.112 Y126.141 E4.75825
G1 X127.459 Y126.513 E4.77686
G1 X127.76 Y126.87 E4.79395
G1 X128.139 Y127.381 E4.81722
G1 X128.556 Y128.169 E4.84984
G1 X128.915 Y129.022 E4.8837
G1 X129.124 Y129.623 E4.90698
G1 X129.278 Y130.408 E4.93625
G1 X129.385 Y131.341 E4.97061
G1 X129.418 Y131.938 E4.99248
G1 X129.404 Y135.423 E5.11999
G1 X129.314 Y136.355 E5.15424
G1 X129.143 Y137.248 E5.18751
G1 X128.984 Y137.863 E5.21075
G1 X128.671 Y138.614 E5.24052
G1 X128.336 Y139.264 E5.26727
G1 X128.01 Y139.81 E5.29054
G1 X127.551 Y140.384 E5.31742
G1 X127.239 Y140.721 E5.33423
G1 X126.779 Y141.159 E5.35746
G1 X126.349 Y141.482 E5.37714
G1 X125.925 Y141.767 E5.39583
G1 X125.376 Y142.088 E5.4191
G1 X124.817 Y142.328 E5.44136
G1 X124.198 Y142.551 E5.46543
G1 X123.587 Y142.729 E5.48871
G1 X123.107 Y142.812 E5.50653
G1 X122.246 Y142.919 E5.53828
G1 X121.605 Y142.958 E5.56177
G1 X112.856 Y142.928 E5.88187
G1 X112.221 Y142.886 E5.90515
G1 X111.865 Y142.827 E5.91835
G1 X111.255 Y142.703 E5.94112
G1 X110.641 Y142.537 E5.9644
G1 X110.147 Y142.34 E5.98385
G1 X109.467 Y142.027 E6.01124
G1 X108.907 Y141.726 E6.0345
G1 X108.454 Y141.402 E6.05488
G1 X108.009 Y141.726 E6.07502
G1 X107.614 Y141.953 E6.09168
G1 X107.209 Y142.162 E6.10836
G1 X106.627 Y142.417 E6.13161
G1 X106.019 Y142.597 E6.1548
G1 X105.089 Y142.81 E6.18971
G1 X104.461 Y142.913 E6.21299
G1 X103.971 Y142.938 E6.23094
G1 X95.37 Y142.959 E6.54562
G1 X94.689 Y142.915 E6.57059
G1 X93.647 Y142.776 E6.60905
G1 X93.023 Y142.652 E6.63233
G1 X92.53 Y142.494 E6.65127
G1 X92.053 Y142.314 E6.66992
G1 X91.473 Y142.053 E6.69319
G1 X90.723 Y141.567 E6.72589
G1 X90.045 Y141.037 E6.75737
G1 X89.569 Y140.614 E6.78067
G1 X89.151 Y140.136 E6.8039
G1 X88.681 Y139.401 E6.83582
G1 X88.237 Y138.555 E6.87077
G1 X87.977 Y137.975 E6.89403
G1 X87.792 Y137.366 E6.91732
G1 X87.683 Y136.718 E6.94136
G1 X87.622 Y136.121 E6.96331
G1 X87.597 Y135.486 E6.98656
G1 X87.653 Y134.852 E7.00985
G1 X87.787 Y134.231 E7.03309
G1 X87.998 Y133.631 E7.05636
G1 X88.063 Y133.496 E7.06184
G1 X87.978 Y133.292 E7.06993
G1 X87.77 Y132.691 E7.0932
G1 X87.639 Y132.068 E7.11649
G1 X87.587 Y131.435 E7.13972
G1 X87.613 Y130.82 E7.16225
G1 X87.66 Y130.363 E7.17905
G1 X87.764 Y129.736 E7.20231
G1 X87.939 Y129.147 E7.22479
G1 X88.113 Y128.67 E7.24336
G1 X88.368 Y128.087 E7.26664
G1 X88.731 Y127.489 E7.29224
G1 X89.139 Y126.91 E7.31815
G1 X89.537 Y126.415 E7.34139
G1 X90.092 Y125.892 E7.36929
G1 X90.433 Y125.616 E7.38534
G1 X90.594 Y125.502 E7.39256
G1 X90.16 Y125.178 E7.41237
G1 X89.682 Y124.715 E7.43672
G1 X89.271 Y124.261 E7.45913
G1 X88.874 Y123.764 E7.4824
G1 X88.444 Y123.02 E7.51384
G1 X88.148 Y122.391 E7.53927
G1 X87.914 Y121.799 E7.56256
G1 X87.725 Y121.005 E7.59242
G1 X87.642 Y120.465 E7.61241
G1 X87.585 Y119.831 E7.6357
G1 X87.608 Y119.196 E7.65895
G1 X87.71 Y118.568 E7.68222
G1 X87.798 Y118.235 E7.69483
G1 X87.88 Y117.963 E7.70522
G1 X88.055 Y117.493 E7.72357
G1 X87.92 Y117.191 E7.73567
G1 X87.735 Y116.582 E7.75896
G1 X87.628 Y115.955 E7.78223
G1 X87.601 Y115.316 E7.80563
G1 X87.61 Y114.877 E7.82169
G1 X87.663 Y114.244 E7.84493
G1 X87.795 Y113.622 E7.8682
G1 X88.026 Y112.97 E7.8935
G1 X88.415 Y112.072 E7.92931
G1 X88.704 Y111.505 E7.95259
G1 X89.062 Y110.979 E7.97587
G1 X89.275 Y110.723 E7.98805
G1 X89.516 Y110.451 E8.00135
G0 F810 X89.577 Y110.383
G0 X90.028 Y109.935
M204 S5000
M205 X30 Y30
G0 F7200 X90.338 Y110.248
M204 S500
M205 X20 Y20
G1 F6000 E8.02795
G1 F900 X90.697 Y109.968 E8.0446
G1 X91.084 Y109.695 E8.06193
G1 X91.602 Y109.378 E8.08415
G1 X91.974 Y109.204 E8.09918
G1 X92.489 Y108.99 E8.11958
G1 X93.064 Y108.794 E8.14181
G1 X93.442 Y108.709 E8.15598
G1 X94.213 Y108.57 E8.18464
G1 X95.026 Y108.497 E8.21451
G1 X103.684 Y108.484 E8.53127
G1 X104.219 Y108.514 E8.55087
G1 X104.88 Y108.59 E8.57522
G1 X105.477 Y108.699 E8.59742
G1 X106.027 Y108.874 E8.61854
G1 X106.983 Y109.246 E8.65607
G1 X107.534 Y109.504 E8.67833
G1 X108.237 Y109.979 E8.70937
G1 X108.473 Y110.172 E8.72052
G1 X108.769 Y109.908 E8.73503
G1 X109.272 Y109.566 E8.75729
G1 X109.392 Y109.501 E8.76228
G1 X108.857 Y109.121 E8.78629
G1 X108.163 Y108.546 E8.81926
G1 X107.722 Y108.128 E8.84149
G1 X107.339 Y107.656 E8.86373
G1 X107.158 Y107.38 E8.87581
G1 X106.899 Y106.952 E8.89411
G1 X106.62 Y106.412 E8.91635
G1 X106.368 Y105.673 E8.94491
G1 X106.158 Y104.827 E8.9768
G1 X106.051 Y104.229 E8.99903
G1 X106.023 Y103.622 E9.02126
G1 X106.075 Y103.017 E9.04348
G1 X106.172 Y102.545 E9.06111
G1 X106.245 Y102.266 E9.07166
G1 X106.438 Y101.689 E9.09392
G1 X106.541 Y101.478 E9.10251
G1 X106.465 Y101.312 E9.10919
G1 X106.332 Y100.967 E9.12272
G1 X106.151 Y100.387 E9.14495
G1 X106.048 Y99.788 E9.16718
G1 X106.025 Y99.181 E9.18941
G1 X106.043 Y98.874 E9.20066
G1 X106.076 Y98.522 E9.21359
G1 X106.173 Y97.922 E9.23583
G1 X106.358 Y97.31 E9.25922
G1 X106.613 Y96.64 E9.28545
G1 X106.866 Y96.087 E9.3077
G1 X107.327 Y95.393 E9.33818
G1 X107.768 Y94.843 E9.36397
G1 X108.178 Y94.395 E9.38619
G1 X108.644 Y94.005 E9.40842
G1 X108.928 Y93.813 E9.42096
G1 X109.523 Y93.442 E9.44662
G1 X110.058 Y93.155 E9.46883
G1 X110.694 Y92.921 E9.49362
G1 X111.392 Y92.721 E9.52019
G1 X112.28 Y92.558 E9.55322
G1 X113.022 Y92.496 E9.58046
G1 X113.408 Y92.48 E9.5946
G1 X121.629 Y92.482 E9.89537
G1 X122.271 Y92.527 E9.91892
G1 X123.231 Y92.662 E9.95438
G1 X123.826 Y92.786 E9.97662
G1 X124.352 Y92.967 E9.99697
G1 X124.986 Y93.229 E10.02207
G1 X125.532 Y93.498 E10.04434
G1 X125.989 Y93.799 E10.06436
G1 X126.362 Y94.078 E10.0814
G1 X126.824 Y94.474 E10.10366
G1 X127.115 Y94.786 E10.11927
G1 X127.404 Y95.126 E10.1356
G1 X127.766 Y95.614 E10.15783
G1 X128.088 Y96.202 E10.18236
G1 X128.423 Y96.937 E10.21191
G1 X128.638 Y97.505 E10.23413
G1 X128.779 Y98.109 E10.25682
G1 X128.906 Y98.887 E10.28566
G1 X128.966 Y99.674 E10.31454
G1 X128.928 Y103.764 E10.46418
G1 X128.882 Y104.37 E10.48642
G1 X128.749 Y104.996 E10.50983
G1 X128.513 Y105.818 E10.54112
G1 X128.307 Y106.39 E10.56336
G1 X128.061 Y106.874 E10.58323
G1 X127.822 Y107.283 E10.60056
G1 X127.481 Y107.786 E10.62279
G1 X127.219 Y108.095 E10.63761
G1 X126.909 Y108.429 E10.65429
G1 X126.467 Y108.846 E10.67652
G1 X125.757 Y109.33 E10.70796
G1 X125.483 Y109.481 E10.7194
G1 X126.161 Y109.923 E10.74901
G1 X126.454 Y110.157 E10.76273
G1 X126.89 Y109.828 E10.78271
G1 X127.303 Y109.558 E10.80077
G1 X127.832 Y109.26 E10.82298
G1 X128.35 Y109.049 E10.84344
G1 X129.059 Y108.809 E10.87083
G1 X129.646 Y108.652 E10.89306
G1 X129.977 Y108.599 E10.90532
G1 X130.612 Y108.521 E10.92873
G1 X131.206 Y108.487 E10.9505
G1 X140.322 Y108.548 E11.28403
G1 X140.928 Y108.592 E11.30626
G1 X141.523 Y108.715 E11.32848
G1 X141.9 Y108.837 E11.34298
G1 X142.893 Y109.206 E11.38174
G1 X143.448 Y109.455 E11.40399
G1 X144.198 Y109.952 E11.43691
G1 X144.561 Y110.247 E11.45403
G1 X145.006 Y110.66 E11.47624
G1 X145.298 Y111.001 E11.49266
G1 X145.602 Y111.393 E11.51081
G1 X145.942 Y111.896 E11.53302
G1 X146.263 Y112.565 E11.56017
G1 X146.577 Y113.381 E11.59216
G1 X146.757 Y113.961 E11.61438
G1 X146.855 Y114.517 E11.63503
G1 X146.948 Y115.333 E11.66508
G1 X146.978 Y115.874 E11.68491
G1 X146.964 Y119.419 E11.8146
G1 X146.922 Y120.025 E11.83683
G1 X146.868 Y120.339 E11.84849
G1 X146.663 Y121.328 E11.88544
G1 X146.501 Y121.913 E11.90765
G1 X146.263 Y122.473 E11.92991
G1 X146.059 Y122.835 E11.94511
G1 X145.58 Y123.603 E11.97823
G1 X145.225 Y124.096 E12.00045
G1 X144.809 Y124.539 E12.02269
G1 X144.558 Y124.756 E12.03483
G1 X144.167 Y125.071 E12.0532
G1 X143.67 Y125.42 E12.07541
G1 X143.307 Y125.619 E12.09056
G1 X142.888 Y125.825 E12.10764
G1 X142.327 Y126.057 E12.12985
G1 X141.952 Y126.166 E12.14414
G1 X141.227 Y126.344 E12.17145
G1 X140.628 Y126.45 E12.19371
G1 X140.109 Y126.477 E12.21272
G1 X130.571 Y126.444 E12.56168
G1 X129.965 Y126.402 E12.58391
G1 X129.1 Y126.198 E12.61642
G1 X128.3 Y125.926 E12.64734
G1 X127.739 Y125.693 E12.66956
G1 X127.04 Y125.267 E12.69951
G1 X126.522 Y124.884 E12.72308
G1 X126.462 Y124.833 E12.72596
G1 X126.168 Y125.07 E12.73978
G1 X125.671 Y125.419 E12.762
G1 X125.513 Y125.506 E12.76859
G1 X126.008 Y125.812 E12.78989
G1 X126.365 Y126.08 E12.80622
G1 X126.826 Y126.476 E12.82845
G1 X127.123 Y126.797 E12.84445
G1 X127.424 Y127.154 E12.86154
G1 X127.784 Y127.643 E12.88375
G1 X128.15 Y128.34 E12.91256
G1 X128.509 Y129.193 E12.94641
G1 X128.708 Y129.767 E12.96864
G1 X128.841 Y130.459 E12.99442
G1 X128.948 Y131.392 E13.02878
G1 X128.978 Y131.937 E13.04875
G1 X128.964 Y135.422 E13.17625
G1 X128.882 Y136.272 E13.2075
G1 X128.711 Y137.165 E13.24076
G1 X128.557 Y137.753 E13.263
G1 X128.28 Y138.413 E13.28919
G1 X127.945 Y139.063 E13.31594
G1 X127.631 Y139.583 E13.33817
G1 X127.228 Y140.085 E13.36172
G1 X126.916 Y140.422 E13.37852
G1 X126.475 Y140.839 E13.40073
G1 X126.103 Y141.117 E13.41772
G1 X125.679 Y141.402 E13.43641
G1 X125.154 Y141.707 E13.45862
G1 X124.668 Y141.915 E13.47796
G1 X124.049 Y142.138 E13.50203
G1 X123.465 Y142.305 E13.52426
G1 X123.053 Y142.376 E13.53955
G1 X122.192 Y142.483 E13.57129
G1 X121.606 Y142.518 E13.59277
G1 X112.857 Y142.488 E13.91287
G1 X111.953 Y142.395 E13.94611
G1 X111.343 Y142.271 E13.96889
G1 X110.756 Y142.111 E13.99115
G1 X110.331 Y141.941 E14.0079
G1 X109.651 Y141.628 E14.03528
G1 X109.117 Y141.338 E14.05752
G1 X108.462 Y140.832 E14.0878
G1 X108.243 Y141.013 E14.09819
G1 X107.75 Y141.369 E14.12044
G1 X107.413 Y141.562 E14.13465
G1 X107.008 Y141.771 E14.15132
G1 X106.451 Y142.013 E14.17354
G1 X105.92 Y142.168 E14.19378
G1 X104.99 Y142.381 E14.22868
G1 X104.391 Y142.478 E14.25089
G1 X103.97 Y142.498 E14.26631
G1 X95.369 Y142.519 E14.58098
G1 X94.747 Y142.478 E14.60379
G1 X93.705 Y142.339 E14.64225
G1 X93.109 Y142.22 E14.66449
G1 X92.685 Y142.082 E14.6808
G1 X92.208 Y141.902 E14.69945
G1 X91.655 Y141.651 E14.72167
G1 X90.994 Y141.22 E14.75054
G1 X90.316 Y140.69 E14.78203
G1 X89.863 Y140.285 E14.80426
G1 X89.467 Y139.824 E14.82649
G1 X89.07 Y139.197 E14.85364
G1 X88.626 Y138.351 E14.8886
G1 X88.38 Y137.796 E14.91081
G1 X88.208 Y137.213 E14.93305
G1 X88.121 Y136.674 E14.95302
G1 X88.06 Y136.077 E14.97498
G1 X88.038 Y135.469 E14.99724
G1 X88.096 Y134.865 E15.01944
G1 X88.233 Y134.273 E15.04167
G1 X88.446 Y133.704 E15.0639
G1 X88.548 Y133.5 E15.07224
G1 X88.515 Y133.435 E15.07491
G1 X88.384 Y133.122 E15.08732
G1 X88.187 Y132.547 E15.10956
G1 X88.067 Y131.951 E15.1318
G1 X88.026 Y131.345 E15.15403
G1 X88.05 Y130.865 E15.17161
G1 X88.097 Y130.408 E15.18842
G1 X88.199 Y129.809 E15.21065
G1 X88.353 Y129.298 E15.23017
G1 X88.527 Y128.821 E15.24875
G1 X88.772 Y128.265 E15.27098
G1 X89.09 Y127.743 E15.29334
G1 X89.498 Y127.164 E15.31926
G1 X89.88 Y126.691 E15.3415
G1 X90.368 Y126.234 E15.36596
G1 X90.709 Y125.958 E15.38201
G1 X91.206 Y125.607 E15.40427
G1 X91.4 Y125.499 E15.4124
G1 X91.289 Y125.437 E15.41705
G1 X90.91 Y125.19 E15.4336
G1 X90.424 Y124.825 E15.45583
G1 X90.008 Y124.42 E15.47708
