;FLAVOR:Marlin
;TIME:396
;Filament used: 0.192857m
;Layer height: 0.2
;Generated with Cura_SteamEngine 4.0.0
M140 S70
M105
M190 S70
M104 S215
M105
M109 S215
M82 ;absolute extrusion mode
G28 ; home all axes
M117 Purge extruder
G92 E0 ; reset extruder
G1 Z1.0 F3000 ; move z up little to prevent scratching of surface
G1 X0.1 Y20 Z0.3 F5000.0 ; move to start-line position G1 X0.1 Y200.0 Z0.3 F1500.0 E15 ; draw 1st line
G1 X0.4 Y200.0 Z0.3 F5000.0 ; move to side a little
G1 X0.4 Y20 Z0.3 F1500.0 E30 ; draw 2nd line
G92 E0 ; reset extruder
G1 Z1.0 F3000 ; move z up little to prevent scratching of surface
M117 All systems go!
G92 E0
G1 F6000 E-5
;LAYER_COUNT:18
;LAYER:0
M107
M204 S5000
M205 X30 Y30
G0 F7200 X102.101 Y23.716 Z0.2
M204 S500
M205 X20 Y20
;TYPE:SKIRT
G1 F6000 E0
G1 F900 X102.249 Y23.14 E0.01978
G1 X102.419 Y22.554 E0.04007
G1 X102.704 Y21.715 E0.06955
G1 X102.947 Y21.147 E0.09009
G1 X103.463 Y20.039 E0.13075
G1 X103.873 Y19.254 E0.1602
G1 X104.481 Y18.331 E0.19696
G1 X105.21 Y17.35 E0.23761
G1 X105.77 Y16.664 E0.26707
G1 X106.211 Y16.201 E0.28833
G1 X106.643 Y15.777 E0.30847
G1 X107.303 Y15.186 E0.33793
G1 X107.67 Y14.9 E0.35341
G1 X108.452 Y14.32 E0.38579
G1 X109.186 Y13.825 E0.41524
G1 X109.962 Y13.399 E0.44468
G1 X110.773 Y13.044 E0.47412
G1 X111.613 Y12.764 E0.50357
G1 X112.474 Y12.561 E0.533
G1 X113.351 Y12.436 E0.56246
G1 X114.235 Y12.391 E0.5919
G1 X115.119 Y12.426 E0.62133
G1 X115.997 Y12.541 E0.65078
G1 X116.861 Y12.734 E0.68022
G1 X117.497 Y12.939 E0.70245
G1 X117.638 Y12.885 E0.70747
G1 X118.49 Y12.646 E0.7369
G1 X119.361 Y12.485 E0.76636
G1 X120.242 Y12.403 E0.79579
G1 X121.127 Y12.401 E0.82523
G1 X122.009 Y12.479 E0.85468
G1 X122.88 Y12.636 E0.88411
G1 X123.734 Y12.871 E0.91357
G1 X124.563 Y13.182 E0.94302
G1 X125.36 Y13.566 E0.97245
G1 X126.119 Y14.021 E1.00188
G1 X126.565 Y14.334 E1.02
G1 X127.37 Y14.934 E1.05339
G1 X128.055 Y15.495 E1.08284
G1 X128.791 Y16.23 E1.11744
G1 X129.625 Y17.155 E1.15886
G1 X130.188 Y17.838 E1.1883
G1 X130.827 Y18.804 E1.22683
G1 X131.455 Y19.888 E1.26849
G1 X131.863 Y20.674 E1.29795
G1 X132.287 Y21.747 E1.33632
G1 X132.678 Y22.939 E1.37805
G1 X132.915 Y23.791 E1.40746
G1 X133.112 Y24.966 E1.44709
G1 X133.244 Y26.219 E1.48899
G1 X133.297 Y27.103 E1.51845
G1 X133.252 Y28.192 E1.5547
G1 X133.139 Y29.357 E1.59363
G1 X133.014 Y30.233 E1.62306
G1 X132.774 Y31.218 E1.65678
G1 X132.441 Y32.332 E1.69545
G1 X132.299 Y32.74 E1.70982
G1 X132.299 Y40.134 E1.95574
G1 X132.259 Y41.018 E1.98517
G1 X132.139 Y41.895 E2.01462
G1 X131.941 Y42.758 E2.04407
G1 X131.666 Y43.599 E2.07349
G1 X131.316 Y44.412 E2.10293
G1 X130.894 Y45.191 E2.1324
G1 X130.403 Y45.927 E2.16183
G1 X129.848 Y46.617 E2.19128
G1 X129.429 Y47.064 E2.21166
G1 X129.312 Y47.181 E2.21716
G1 X128.658 Y47.778 E2.24661
G1 X127.953 Y48.313 E2.27605
G1 X127.203 Y48.783 E2.30549
G1 X126.413 Y49.183 E2.33494
G1 X125.591 Y49.511 E2.36438
G1 X124.742 Y49.762 E2.39382
G1 X123.874 Y49.937 E2.42327
G1 X122.994 Y50.032 E2.45271
G1 X122.382 Y50.051 E2.47308
G1 X112.616 Y50.051 E2.79789
G1 X111.732 Y50.011 E2.82733
G1 X110.855 Y49.891 E2.85677
G1 X109.992 Y49.693 E2.88622
G1 X109.151 Y49.418 E2.91565
G1 X108.338 Y49.068 E2.94509
G1 X107.559 Y48.646 E2.97455
G1 X106.823 Y48.155 E3.00398
G1 X106.133 Y47.6 E3.03343
G1 X105.686 Y47.181 E3.05381
G1 X105.569 Y47.064 E3.05931
G1 X104.972 Y46.41 E3.08876
G1 X104.437 Y45.705 E3.1182
G1 X103.967 Y44.955 E3.14764
G1 X103.567 Y44.165 E3.17709
G1 X103.239 Y43.343 E3.20653
G1 X102.988 Y42.494 E3.23597
G1 X102.813 Y41.626 E3.26542
G1 X102.718 Y40.746 E3.29486
G1 X102.699 Y40.134 E3.31523
G1 X102.699 Y32.73 E3.56149
G1 X102.499 Y32.157 E3.58167
G1 X102.164 Y30.98 E3.62237
G1 X101.961 Y30.118 E3.65183
G1 X101.816 Y29.013 E3.6889
G1 X101.727 Y27.798 E3.72941
G1 X101.702 Y26.913 E3.75886
G1 X101.785 Y25.799 E3.79602
G1 X101.945 Y24.587 E3.83668
G1 X101.96 Y24.504 E3.83948
G0 F810 X102.101 Y23.716
M204 S5000
M205 X30 Y30
G0 F7200 X102.495 Y23.786
M204 S500
M205 X20 Y20
G1 F6000 E3.86609
G1 F900 X102.633 Y23.251 E3.88447
G1 X102.803 Y22.665 E3.90476
G1 X103.083 Y21.844 E3.93361
G1 X103.31 Y21.316 E3.95273
G1 X103.826 Y20.208 E3.99338
G1 X104.228 Y19.439 E4.02224
G1 X104.802 Y18.569 E4.05691
G1 X105.531 Y17.588 E4.09756
G1 X106.08 Y16.917 E4.12639
G1 X106.492 Y16.486 E4.14623
G1 X106.924 Y16.062 E4.16636
G1 X107.908 Y15.221 E4.20941
G1 X108.69 Y14.641 E4.24179
G1 X109.41 Y14.157 E4.27065
G1 X110.171 Y13.742 E4.29948
G1 X110.967 Y13.398 E4.32832
G1 X111.791 Y13.129 E4.35715
G1 X112.636 Y12.938 E4.38596
G1 X113.496 Y12.825 E4.41481
G1 X114.362 Y12.791 E4.44364
G1 X115.228 Y12.838 E4.47248
G1 X116.085 Y12.964 E4.50129
G1 X116.928 Y13.169 E4.53015
G1 X117.501 Y13.366 E4.5503
G1 X117.797 Y13.254 E4.56083
G1 X118.633 Y13.024 E4.58967
G1 X119.487 Y12.872 E4.61852
G1 X120.351 Y12.799 E4.64736
G1 X121.217 Y12.806 E4.67616
G1 X122.08 Y12.893 E4.70501
G1 X122.931 Y13.059 E4.73385
G1 X123.763 Y13.302 E4.76268
G1 X124.569 Y13.622 E4.79152
G1 X125.342 Y14.014 E4.82035
G1 X126.326 Y14.655 E4.85941
G1 X127.131 Y15.255 E4.8928
G1 X127.801 Y15.805 E4.92163
G1 X128.494 Y16.497 E4.9542
G1 X129.328 Y17.422 E4.99563
G1 X129.879 Y18.092 E5.02448
G1 X130.481 Y19.005 E5.06085
G1 X131.109 Y20.089 E5.10252
G1 X131.508 Y20.858 E5.13134
G1 X131.907 Y21.871 E5.16755
G1 X132.298 Y23.063 E5.20927
G1 X132.53 Y23.899 E5.23813
G1 X132.714 Y25.008 E5.27552
G1 X132.846 Y26.261 E5.31742
G1 X132.897 Y27.127 E5.34628
G1 X132.854 Y28.154 E5.38047
G1 X132.741 Y29.319 E5.4194
G1 X132.618 Y30.177 E5.44822
G1 X132.391 Y31.103 E5.47994
G1 X132.058 Y32.217 E5.51861
G1 X131.899 Y32.672 E5.53464
G1 X131.899 Y40.134 E5.78283
G1 X131.859 Y41 E5.81166
G1 X131.739 Y41.859 E5.84051
G1 X131.541 Y42.703 E5.86934
G1 X131.266 Y43.525 E5.89817
G1 X130.916 Y44.318 E5.927
G1 X130.495 Y45.076 E5.95584
G1 X130.006 Y45.791 E5.98465
G1 X129.453 Y46.459 E6.01349
G1 X129.146 Y46.781 E6.02829
G1 X129.029 Y46.898 E6.03379
G1 X128.388 Y47.482 E6.06263
G1 X127.696 Y48.005 E6.09148
G1 X126.959 Y48.461 E6.12031
G1 X126.184 Y48.848 E6.14912
G1 X125.375 Y49.162 E6.17798
G1 X124.542 Y49.4 E6.2068
G1 X123.69 Y49.56 E6.23563
G1 X122.827 Y49.64 E6.26446
G1 X122.382 Y49.651 E6.27926
G1 X112.616 Y49.651 E6.60408
G1 X111.75 Y49.611 E6.63292
G1 X110.891 Y49.491 E6.66176
G1 X110.047 Y49.293 E6.6906
G1 X109.225 Y49.018 E6.71943
G1 X108.432 Y48.668 E6.74826
G1 X107.674 Y48.247 E6.7771
G1 X106.959 Y47.758 E6.80591
G1 X106.291 Y47.205 E6.83475
G1 X105.969 Y46.898 E6.84955
G1 X105.852 Y46.781 E6.85505
G1 X105.268 Y46.14 E6.88389
G1 X104.745 Y45.448 E6.91274
G1 X104.289 Y44.711 E6.94157
G1 X103.902 Y43.936 E6.97038
G1 X103.588 Y43.127 E6.99924
G1 X103.35 Y42.294 E7.02806
G1 X103.19 Y41.442 E7.05689
G1 X103.11 Y40.579 E7.08572
G1 X103.099 Y40.134 E7.10052
G1 X103.099 Y32.667 E7.34887
G1 X102.884 Y32.047 E7.3707
G1 X102.549 Y30.87 E7.4114
G1 X102.35 Y30.026 E7.44024
G1 X102.215 Y28.984 E7.47519
G1 X102.126 Y27.769 E7.51571
G1 X102.103 Y26.902 E7.54456
G1 X102.182 Y25.852 E7.57958
G1 X102.342 Y24.64 E7.62024
G1 X102.354 Y24.574 E7.62247
G0 F810 X102.495 Y23.786
M204 S5000
M205 X30 Y30
G0 F7200 X102.889 Y23.857
M204 S500
M205 X20 Y20
G1 F6000 E7.64908
G1 F900 X103.017 Y23.362 E7.66608
G1 X103.187 Y22.776 E7.68638
G1 X103.462 Y21.974 E7.71458
G1 X103.672 Y21.484 E7.73231
G1 X104.188 Y20.376 E7.77296
G1 X104.582 Y19.625 E7.80117
G1 X105.123 Y18.808 E7.83376
G1 X105.852 Y17.827 E7.87441
G1 X106.39 Y17.171 E7.90263
G1 X106.772 Y16.772 E7.921
G1 X107.204 Y16.348 E7.94113
G1 X108.147 Y15.542 E7.98239
G1 X108.929 Y14.962 E8.01478
G1 X109.633 Y14.49 E8.04297
G1 X110.379 Y14.085 E8.0712
G1 X111.159 Y13.753 E8.09939
G1 X111.968 Y13.496 E8.12763
G1 X112.797 Y13.316 E8.15584
G1 X113.639 Y13.215 E8.18405
G1 X114.487 Y13.193 E8.21226
G1 X115.333 Y13.252 E8.24047
G1 X116.17 Y13.39 E8.26868
G1 X116.99 Y13.606 E8.29689
G1 X117.501 Y13.793 E8.31498
G1 X117.956 Y13.623 E8.33114
G1 X118.775 Y13.402 E8.35935
G1 X119.611 Y13.259 E8.38756
G1 X120.457 Y13.196 E8.41578
G1 X121.305 Y13.212 E8.44399
G1 X122.148 Y13.308 E8.47221
G1 X122.978 Y13.483 E8.50042
G1 X123.788 Y13.735 E8.52864
G1 X124.57 Y14.063 E8.55684
G1 X125.319 Y14.463 E8.58508
G1 X126.086 Y14.976 E8.61577
G1 X126.891 Y15.576 E8.64917
G1 X127.547 Y16.114 E8.67738
G1 X128.197 Y16.765 E8.70798
G1 X129.031 Y17.69 E8.74941
G1 X129.569 Y18.346 E8.77762
G1 X130.135 Y19.205 E8.81184
G1 X130.763 Y20.289 E8.85351
G1 X131.153 Y21.043 E8.88174
G1 X131.527 Y21.996 E8.91579
G1 X131.918 Y23.188 E8.95752
G1 X132.144 Y24.005 E8.98571
G1 X132.316 Y25.05 E9.02093
G1 X132.448 Y26.303 E9.06284
G1 X132.497 Y27.15 E9.09106
G1 X132.456 Y28.115 E9.12318
G1 X132.343 Y29.28 E9.16211
G1 X132.221 Y30.119 E9.19031
G1 X132.008 Y30.989 E9.2201
G1 X131.675 Y32.103 E9.25877
G1 X131.499 Y32.604 E9.27644
G1 X131.499 Y40.134 E9.52688
G1 X131.459 Y40.981 E9.55509
G1 X131.339 Y41.821 E9.58331
G1 X131.141 Y42.646 E9.61153
G1 X130.866 Y43.449 E9.63976
G1 X130.517 Y44.222 E9.66797
G1 X130.097 Y44.958 E9.69615
G1 X129.609 Y45.652 E9.72437
G1 X128.863 Y46.498 E9.76189
G1 X128.746 Y46.615 E9.76739
G1 X128.119 Y47.186 E9.79559
G1 X127.44 Y47.695 E9.82382
G1 X126.717 Y48.138 E9.85202
G1 X125.955 Y48.511 E9.88024
G1 X125.161 Y48.811 E9.90847
G1 X124.343 Y49.035 E9.93668
G1 X123.507 Y49.18 E9.9649
G1 X122.382 Y49.251 E10.00239
G1 X112.616 Y49.251 E10.32721
G1 X111.769 Y49.211 E10.35541
G1 X110.929 Y49.091 E10.38363
G1 X110.104 Y48.893 E10.41185
G1 X109.301 Y48.618 E10.44008
G1 X108.528 Y48.269 E10.46829
G1 X107.792 Y47.849 E10.49648
G1 X107.098 Y47.361 E10.5247
G1 X106.252 Y46.615 E10.56221
G1 X106.135 Y46.498 E10.56771
G1 X105.564 Y45.871 E10.59592
G1 X105.055 Y45.192 E10.62414
G1 X104.612 Y44.469 E10.65235
G1 X104.239 Y43.707 E10.68056
G1 X103.939 Y42.913 E10.7088
G1 X103.715 Y42.095 E10.737
G1 X103.57 Y41.259 E10.76522
G1 X103.499 Y40.134 E10.80272
G1 X103.499 Y32.603 E11.0532
G1 X103.269 Y31.938 E11.0766
G1 X102.934 Y30.761 E11.1173
G1 X102.74 Y29.935 E11.14552
G1 X102.614 Y28.954 E11.17842
G1 X102.525 Y27.739 E11.21894
G1 X102.503 Y26.891 E11.24715
G1 X102.578 Y25.904 E11.28008
G1 X102.738 Y24.692 E11.32074
G1 X102.747 Y24.644 E11.32236
G0 F810 X102.889 Y23.857
M204 S5000
M205 X30 Y30
G0 F7200 X103.283 Y23.929
M204 S500
M205 X20 Y20
G1 F6000 E11.34897
G1 F900 X103.402 Y23.474 E11.36461
G1 X103.572 Y22.888 E11.38491
G1 X103.841 Y22.104 E11.41247
G1 X104.035 Y21.653 E11.4288
G1 X104.551 Y20.545 E11.46946
G1 X104.937 Y19.811 E11.49704
G1 X105.444 Y19.046 E11.52756
G1 X106.173 Y18.065 E11.56821
G1 X106.699 Y17.425 E11.59577
G1 X107.052 Y17.057 E11.61273
G1 X107.484 Y16.633 E11.63286
G1 X108.385 Y15.864 E11.67226
G1 X109.167 Y15.284 E11.70464
G1 X109.856 Y14.822 E11.73223
G1 X110.586 Y14.429 E11.75981
G1 X111.351 Y14.109 E11.78739
G1 X112.143 Y13.863 E11.81497
G1 X112.955 Y13.695 E11.84255
G1 X113.779 Y13.606 E11.87012
G1 X114.609 Y13.597 E11.89772
G1 X115.435 Y13.668 E11.9253
G1 X116.25 Y13.817 E11.95285
G1 X117.048 Y14.045 E11.98046
G1 X117.496 Y14.222 E11.99648
G1 X118.114 Y13.993 E12.0184
G1 X118.915 Y13.781 E12.04596
G1 X119.734 Y13.647 E12.07356
G1 X120.561 Y13.593 E12.10113
G1 X121.39 Y13.619 E12.12871
G1 X122.213 Y13.725 E12.15631
G1 X123.021 Y13.909 E12.18387
G1 X123.808 Y14.17 E12.21145
G1 X124.566 Y14.506 E12.23903
G1 X125.289 Y14.913 E12.26662
G1 X125.847 Y15.297 E12.28915
G1 X126.652 Y15.897 E12.32255
G1 X127.293 Y16.424 E12.35015
G1 X127.9 Y17.033 E12.37874
G1 X128.734 Y17.958 E12.42017
G1 X129.259 Y18.6 E12.44775
G1 X129.788 Y19.406 E12.47982
G1 X130.416 Y20.49 E12.52149
G1 X130.797 Y21.227 E12.54908
G1 X131.147 Y22.121 E12.58101
G1 X131.538 Y23.313 E12.62274
G1 X131.758 Y24.112 E12.6503
G1 X131.919 Y25.092 E12.68333
G1 X132.051 Y26.345 E12.72524
G1 X132.098 Y27.173 E12.75282
G1 X132.058 Y28.076 E12.78289
G1 X131.945 Y29.241 E12.82182
G1 X131.825 Y30.062 E12.84941
G1 X131.625 Y30.874 E12.87723
G1 X131.292 Y31.988 E12.9159
G1 X131.099 Y32.535 E12.93519
G1 X131.099 Y40.134 E13.18793
G1 X131.059 Y40.962 E13.21551
G1 X130.939 Y41.783 E13.2431
G1 X130.741 Y42.588 E13.27068
G1 X130.467 Y43.37 E13.29823
G1 X130.118 Y44.123 E13.32584
G1 X129.698 Y44.838 E13.35342
G1 X129.212 Y45.509 E13.38098
G1 X128.58 Y46.215 E13.41249
G1 X128.463 Y46.332 E13.41799
G1 X127.849 Y46.89 E13.44559
G1 X127.184 Y47.385 E13.47316
G1 X126.475 Y47.815 E13.50074
G1 X125.728 Y48.174 E13.52831
G1 X124.949 Y48.459 E13.5559
G1 X124.147 Y48.668 E13.58346
G1 X123.328 Y48.799 E13.61105
G1 X122.382 Y48.851 E13.64256
G1 X112.616 Y48.851 E13.96738
G1 X111.788 Y48.811 E13.99495
G1 X110.967 Y48.691 E14.02255
G1 X110.162 Y48.493 E14.05012
G1 X109.38 Y48.219 E14.07768
G1 X108.627 Y47.87 E14.10528
G1 X107.912 Y47.45 E14.13286
G1 X107.241 Y46.964 E14.16042
G1 X106.535 Y46.332 E14.19194
G1 X106.418 Y46.215 E14.19744
G1 X105.86 Y45.601 E14.22503
G1 X105.365 Y44.936 E14.25261
G1 X104.935 Y44.227 E14.28019
G1 X104.576 Y43.48 E14.30775
G1 X104.291 Y42.701 E14.33534
G1 X104.082 Y41.899 E14.36291
G1 X103.951 Y41.08 E14.39049
G1 X103.899 Y40.134 E14.42201
G1 X103.899 Y32.541 E14.67455
G1 X103.654 Y31.828 E14.69962
G1 X103.319 Y30.651 E14.74033
G1 X103.13 Y29.844 E14.76789
G1 X103.013 Y28.925 E14.79871
G1 X102.924 Y27.71 E14.83923
G1 X102.903 Y26.881 E14.86681
G1 X102.975 Y25.956 E14.89767
G1 X103.135 Y24.744 E14.93833
G1 X103.141 Y24.716 E14.93928
G0 F810 X103.283 Y23.929
M204 S5000
M205 X30 Y30
G0 F7200 X103.677 Y24
M204 S500
M205 X20 Y20
G1 F6000 E14.96589
G1 F900 X103.786 Y23.585 E14.98016
G1 X103.956 Y22.999 E15.00045
G1 X104.219 Y22.234 E15.02736
G1 X104.398 Y21.822 E15.0423
G1 X104.914 Y20.714 E15.08295
G1 X105.291 Y19.998 E15.10987
G1 X105.765 Y19.285 E15.13834
G1 X106.494 Y18.304 E15.17899
G1 X107.009 Y17.679 E15.20593
G1 X107.332 Y17.343 E15.22143
G1 X107.764 Y16.919 E15.24156
G1 X108.623 Y16.185 E15.27914
G1 X109.405 Y15.605 E15.31153
G1 X110.078 Y15.155 E15.33845
G1 X110.793 Y14.774 E15.3654
G1 X111.541 Y14.465 E15.39232
G1 X112.317 Y14.232 E15.41927
G1 X113.111 Y14.076 E15.44618
G1 X113.917 Y13.999 E15.47311
G1 X114.727 Y14.003 E15.50005
G1 X115.532 Y14.086 E15.52697
G1 X116.326 Y14.248 E15.55392
G1 X117.099 Y14.487 E15.58083
G1 X117.477 Y14.657 E15.59461
G1 X117.511 Y14.641 E15.59586
G1 X118.271 Y14.363 E15.62278
G1 X119.055 Y14.16 E15.64972
G1 X119.855 Y14.036 E15.67664
G1 X120.663 Y13.992 E15.70356
G1 X121.472 Y14.028 E15.73049
G1 X122.274 Y14.143 E15.75744
G1 X123.06 Y14.337 E15.78436
G1 X123.823 Y14.607 E15.81128
G1 X124.556 Y14.951 E15.83821
G1 X125.252 Y15.366 E15.86517
G1 X125.608 Y15.617 E15.87965
G1 X126.413 Y16.217 E15.91305
G1 X127.038 Y16.733 E15.94
G1 X127.603 Y17.301 E15.96665
G1 X128.437 Y18.226 E16.00808
G1 X128.949 Y18.853 E16.035
G1 X129.442 Y19.606 E16.06493
G1 X130.07 Y20.69 E16.1066
G1 X130.441 Y21.41 E16.13354
G1 X130.767 Y22.245 E16.16335
G1 X131.158 Y23.437 E16.20508
G1 X131.372 Y24.218 E16.23201
G1 X131.521 Y25.134 E16.26288
G1 X131.653 Y26.387 E16.30479
G1 X131.698 Y27.195 E16.3317
G1 X131.66 Y28.038 E16.35977
G1 X131.547 Y29.203 E16.3987
G1 X131.429 Y30.004 E16.42563
G1 X131.242 Y30.759 E16.4515
G1 X130.909 Y31.873 E16.49017
G1 X130.699 Y32.467 E16.51112
G1 X130.699 Y40.134 E16.76613
G1 X130.659 Y40.943 E16.79307
G1 X130.539 Y41.744 E16.82001
G1 X130.342 Y42.529 E16.84693
G1 X130.067 Y43.29 E16.87384
G1 X129.719 Y44.021 E16.90077
G1 X129.3 Y44.715 E16.92773
G1 X128.815 Y45.363 E16.95465
G1 X128.297 Y45.932 E16.98024
G1 X128.18 Y46.049 E16.98575
G1 X127.58 Y46.593 E17.01268
G1 X126.929 Y47.075 E17.03963
G1 X126.234 Y47.49 E17.06655
G1 X125.502 Y47.834 E17.09345
G1 X124.738 Y48.105 E17.12041
G1 X123.952 Y48.299 E17.14734
G1 X123.151 Y48.415 E17.17426
G1 X122.382 Y48.451 E17.19986
G1 X112.616 Y48.451 E17.52468
G1 X111.807 Y48.411 E17.55162
G1 X111.006 Y48.291 E17.57856
G1 X110.221 Y48.094 E17.60548
G1 X109.46 Y47.819 E17.63239
G1 X108.729 Y47.471 E17.65932
G1 X108.035 Y47.052 E17.68628
G1 X107.387 Y46.567 E17.7132
G1 X106.818 Y46.049 E17.7388
G1 X106.701 Y45.932 E17.7443
G1 X106.157 Y45.332 E17.77124
G1 X105.675 Y44.681 E17.79818
G1 X105.26 Y43.986 E17.8251
G1 X104.916 Y43.254 E17.852
G1 X104.645 Y42.49 E17.87896
G1 X104.451 Y41.704 E17.90589
G1 X104.335 Y40.903 E17.93281
