;FLAVOR:Marlin
;TIME:305
;Filament used: 0.135863m
;Layer height: 0.2
;Generated with Cura_SteamEngine 4.0.0
M140 S70
M105
M190 S70
M104 S215
M105
M109 S215
M82 ;absolute extrusion mode
G28 ; home all axes
M117 Purge extruder
G92 E0 ; reset extruder
G1 Z1.0 F3000 ; move z up little to prevent scratching of surface
G1 X0.1 Y20 Z0.3 F5000.0 ; move to start-line position G1 X0.1 Y200.0 Z0.3 F1500.0 E15 ; draw 1st line
G1 X0.4 Y200.0 Z0.3 F5000.0 ; move to side a little
G1 X0.4 Y20 Z0.3 F1500.0 E30 ; draw 2nd line
G92 E0 ; reset extruder
G1 Z1.0 F3000 ; move z up little to prevent scratching of surface
M117 All systems go!
G92 E0
G1 F6000 E-5
;LAYER_COUNT:11
;LAYER:0
M107
M204 S5000
M205 X30 Y30
G0 F7200 X102.101 Y21.487 Z0.2
M204 S500
M205 X20 Y20
;TYPE:SKIRT
G1 F6000 E0
G1 F900 X102.249 Y20.911 E0.01978
G1 X102.419 Y20.325 E0.04007
G1 X102.704 Y19.486 E0.06955
G1 X102.947 Y18.918 E0.09009
G1 X103.463 Y17.81 E0.13075
G1 X103.873 Y17.025 E0.1602
G1 X104.481 Y16.102 E0.19696
G1 X105.21 Y15.121 E0.23761
G1 X105.77 Y14.435 E0.26707
G1 X106.211 Y13.972 E0.28833
G1 X106.643 Y13.548 E0.30847
G1 X107.303 Y12.957 E0.33793
G1 X107.681 Y12.662 E0.35388
G1 X108.464 Y12.083 E0.38627
G1 X109.199 Y11.59 E0.41571
G1 X109.975 Y11.164 E0.44515
G1 X110.787 Y10.811 E0.4746
G1 X111.627 Y10.532 E0.50404
G1 X112.489 Y10.33 E0.53349
G1 X113.366 Y10.207 E0.56294
G1 X114.25 Y10.163 E0.59238
G1 X115.134 Y10.199 E0.6218
G1 X116.012 Y10.315 E0.65126
G1 X116.875 Y10.51 E0.68069
G1 X117.496 Y10.71 E0.70239
G1 X117.638 Y10.656 E0.70744
G1 X118.49 Y10.417 E0.73687
G1 X119.361 Y10.256 E0.76633
G1 X120.242 Y10.174 E0.79576
G1 X121.127 Y10.172 E0.8252
G1 X122.009 Y10.25 E0.85465
G1 X122.88 Y10.407 E0.88408
G1 X123.734 Y10.642 E0.91354
G1 X124.563 Y10.953 E0.94299
G1 X125.36 Y11.337 E0.97242
G1 X126.119 Y11.792 E1.00185
G1 X126.565 Y12.105 E1.01997
G1 X127.37 Y12.705 E1.05336
G1 X128.055 Y13.266 E1.08281
G1 X128.8 Y14.011 E1.11786
G1 X129.638 Y14.943 E1.15954
G1 X130.2 Y15.627 E1.18899
G1 X130.831 Y16.582 E1.22706
G1 X131.455 Y17.659 E1.26846
G1 X131.863 Y18.444 E1.29788
G1 X132.287 Y19.518 E1.33629
G1 X132.678 Y20.71 E1.37801
G1 X132.915 Y21.562 E1.40742
G1 X133.112 Y22.737 E1.44705
G1 X133.244 Y23.99 E1.48896
G1 X133.297 Y24.874 E1.51841
G1 X133.252 Y25.963 E1.55466
G1 X133.139 Y27.128 E1.59359
G1 X133.014 Y28.004 E1.62302
G1 X132.774 Y28.989 E1.65674
G1 X132.441 Y30.103 E1.69541
G1 X132.299 Y30.511 E1.70978
G1 X132.299 Y37.905 E1.95571
G1 X132.259 Y38.789 E1.98514
G1 X132.139 Y39.666 E2.01458
G1 X131.941 Y40.529 E2.04403
G1 X131.666 Y41.37 E2.07346
G1 X131.316 Y42.183 E2.1029
G1 X130.894 Y42.962 E2.13237
G1 X130.403 Y43.698 E2.16179
G1 X129.848 Y44.388 E2.19125
G1 X129.429 Y44.835 E2.21162
G1 X129.312 Y44.952 E2.21713
G1 X128.658 Y45.549 E2.24658
G1 X127.953 Y46.084 E2.27601
G1 X127.203 Y46.554 E2.30545
G1 X126.413 Y46.954 E2.3349
G1 X125.591 Y47.282 E2.36434
G1 X124.742 Y47.533 E2.39379
G1 X123.874 Y47.708 E2.42324
G1 X122.994 Y47.803 E2.45268
G1 X122.382 Y47.822 E2.47304
G1 X112.616 Y47.822 E2.79786
G1 X111.732 Y47.782 E2.82729
G1 X110.855 Y47.662 E2.85673
G1 X109.992 Y47.464 E2.88618
G1 X109.151 Y47.189 E2.91561
G1 X108.338 Y46.839 E2.94505
G1 X107.559 Y46.417 E2.97452
G1 X106.823 Y45.926 E3.00394
G1 X106.133 Y45.371 E3.0334
G1 X105.686 Y44.952 E3.05377
G1 X105.569 Y44.835 E3.05928
G1 X104.972 Y44.181 E3.08873
G1 X104.437 Y43.476 E3.11817
G1 X103.967 Y42.726 E3.1476
G1 X103.567 Y41.936 E3.17706
G1 X103.239 Y41.114 E3.20649
G1 X102.988 Y40.265 E3.23594
G1 X102.813 Y39.397 E3.26539
G1 X102.718 Y38.517 E3.29483
G1 X102.699 Y37.905 E3.31519
G1 X102.699 Y30.501 E3.56145
G1 X102.503 Y29.94 E3.58122
G1 X102.165 Y28.754 E3.62223
G1 X101.961 Y27.893 E3.65166
G1 X101.816 Y26.784 E3.68886
G1 X101.727 Y25.569 E3.72938
G1 X101.702 Y24.684 E3.75883
G1 X101.785 Y23.57 E3.79598
G1 X101.945 Y22.358 E3.83664
G1 X101.96 Y22.275 E3.83945
G0 F810 X102.101 Y21.487
M204 S5000
M205 X30 Y30
G0 F7200 X102.495 Y21.557
M204 S500
M205 X20 Y20
G1 F6000 E3.86606
G1 F900 X102.633 Y21.022 E3.88443
G1 X102.803 Y20.436 E3.90473
G1 X103.083 Y19.615 E3.93358
G1 X103.31 Y19.087 E3.95269
G1 X103.826 Y17.979 E3.99335
G1 X104.228 Y17.21 E4.02221
G1 X104.802 Y16.34 E4.05687
G1 X105.531 Y15.359 E4.09753
G1 X106.08 Y14.688 E4.12636
G1 X106.492 Y14.257 E4.14619
G1 X106.924 Y13.833 E4.16632
G1 X107.57 Y13.255 E4.19516
G1 X107.919 Y12.984 E4.20985
G1 X108.702 Y12.405 E4.24224
G1 X109.422 Y11.922 E4.27108
G1 X110.184 Y11.508 E4.29992
G1 X110.98 Y11.165 E4.32875
G1 X111.805 Y10.898 E4.35759
G1 X112.651 Y10.707 E4.38644
G1 X113.51 Y10.595 E4.41525
G1 X114.377 Y10.563 E4.44411
G1 X115.242 Y10.611 E4.47292
G1 X116.1 Y10.739 E4.50177
G1 X116.942 Y10.945 E4.5306
G1 X117.5 Y11.137 E4.55023
G1 X117.797 Y11.025 E4.56079
G1 X118.633 Y10.795 E4.58963
G1 X119.487 Y10.643 E4.61848
G1 X120.351 Y10.57 E4.64732
G1 X121.217 Y10.577 E4.67612
G1 X122.08 Y10.664 E4.70497
G1 X122.931 Y10.83 E4.73381
G1 X123.763 Y11.073 E4.76264
G1 X124.569 Y11.393 E4.79148
G1 X125.342 Y11.785 E4.82031
G1 X126.326 Y12.426 E4.85937
G1 X127.131 Y13.026 E4.89276
G1 X127.801 Y13.576 E4.92159
G1 X128.503 Y14.278 E4.95461
G1 X129.341 Y15.21 E4.9963
G1 X129.89 Y15.881 E5.02513
G1 X130.484 Y16.783 E5.06105
G1 X131.108 Y17.86 E5.10245
G1 X131.508 Y18.629 E5.13128
G1 X131.907 Y19.642 E5.1675
G1 X132.298 Y20.834 E5.20922
G1 X132.53 Y21.67 E5.23808
G1 X132.714 Y22.779 E5.27547
G1 X132.846 Y24.032 E5.31737
G1 X132.897 Y24.898 E5.34622
G1 X132.854 Y25.925 E5.38041
G1 X132.741 Y27.09 E5.41934
G1 X132.618 Y27.948 E5.44817
G1 X132.391 Y28.874 E5.47988
G1 X132.058 Y29.988 E5.51855
G1 X131.899 Y30.443 E5.53458
G1 X131.899 Y37.905 E5.78277
G1 X131.859 Y38.771 E5.81161
G1 X131.739 Y39.63 E5.84045
G1 X131.541 Y40.474 E5.86929
G1 X131.266 Y41.296 E5.89812
G1 X130.916 Y42.089 E5.92695
G1 X130.495 Y42.847 E5.95579
G1 X130.006 Y43.562 E5.9846
G1 X129.453 Y44.23 E6.01344
G1 X129.146 Y44.552 E6.02824
G1 X129.029 Y44.669 E6.03374
G1 X128.388 Y45.253 E6.06258
G1 X127.696 Y45.776 E6.09143
G1 X126.959 Y46.232 E6.12026
G1 X126.184 Y46.619 E6.14907
G1 X125.375 Y46.933 E6.17793
G1 X124.542 Y47.171 E6.20675
G1 X123.69 Y47.331 E6.23558
G1 X122.827 Y47.411 E6.26441
G1 X122.382 Y47.422 E6.27921
G1 X112.616 Y47.422 E6.60403
G1 X111.75 Y47.382 E6.63286
G1 X110.891 Y47.262 E6.66171
G1 X110.047 Y47.064 E6.69054
G1 X109.225 Y46.789 E6.71937
G1 X108.432 Y46.439 E6.7482
G1 X107.674 Y46.018 E6.77704
G1 X106.959 Y45.529 E6.80585
G1 X106.291 Y44.976 E6.8347
G1 X105.969 Y44.669 E6.84949
G1 X105.852 Y44.552 E6.855
G1 X105.268 Y43.911 E6.88384
G1 X104.745 Y43.219 E6.91269
G1 X104.289 Y42.482 E6.94151
G1 X103.902 Y41.707 E6.97033
G1 X103.588 Y40.898 E6.99919
G1 X103.35 Y40.065 E7.028
G1 X103.19 Y39.213 E7.05684
G1 X103.11 Y38.35 E7.08566
G1 X103.099 Y37.905 E7.10047
G1 X103.099 Y30.436 E7.34889
G1 X102.888 Y29.83 E7.37023
G1 X102.55 Y28.644 E7.41125
G1 X102.351 Y27.801 E7.44006
G1 X102.215 Y26.755 E7.47514
G1 X102.126 Y25.54 E7.51566
G1 X102.103 Y24.673 E7.54451
G1 X102.182 Y23.623 E7.57953
G1 X102.342 Y22.411 E7.62019
G1 X102.354 Y22.345 E7.62242
G0 F810 X102.495 Y21.557
M204 S5000
M205 X30 Y30
G0 F7200 X102.889 Y21.628
M204 S500
M205 X20 Y20
G1 F6000 E7.64903
G1 F900 X103.017 Y21.133 E7.66603
G1 X103.187 Y20.547 E7.68633
G1 X103.462 Y19.745 E7.71453
G1 X103.672 Y19.255 E7.73226
G1 X104.188 Y18.147 E7.77291
G1 X104.582 Y17.396 E7.80112
G1 X105.123 Y16.579 E7.83371
G1 X105.852 Y15.598 E7.87436
G1 X106.39 Y14.942 E7.90258
G1 X106.772 Y14.543 E7.92095
G1 X107.204 Y14.119 E7.94108
G1 X108.157 Y13.306 E7.98275
G1 X108.94 Y12.727 E8.01514
G1 X109.645 Y12.255 E8.04335
G1 X110.391 Y11.852 E8.07155
G1 X111.172 Y11.521 E8.09977
G1 X111.981 Y11.264 E8.128
G1 X112.81 Y11.086 E8.1562
G1 X113.653 Y10.986 E8.18444
G1 X114.501 Y10.965 E8.21265
G1 X115.347 Y11.025 E8.24086
G1 X116.184 Y11.164 E8.26908
G1 X117.004 Y11.382 E8.2973
G1 X117.5 Y11.564 E8.31487
G1 X117.956 Y11.394 E8.33106
G1 X118.775 Y11.173 E8.35927
G1 X119.611 Y11.03 E8.38748
G1 X120.457 Y10.967 E8.4157
G1 X121.305 Y10.983 E8.44391
G1 X122.148 Y11.079 E8.47213
G1 X122.978 Y11.254 E8.50034
G1 X123.788 Y11.506 E8.52855
G1 X124.57 Y11.834 E8.55676
G1 X125.319 Y12.234 E8.585
G1 X126.086 Y12.747 E8.61569
G1 X126.891 Y13.347 E8.64908
G1 X127.547 Y13.885 E8.6773
G1 X128.206 Y14.545 E8.70832
G1 X129.044 Y15.477 E8.75001
G1 X129.58 Y16.134 E8.77821
G1 X130.138 Y16.983 E8.812
G1 X130.762 Y18.06 E8.8534
G1 X131.153 Y18.813 E8.88162
G1 X131.527 Y19.767 E8.9157
G1 X131.918 Y20.959 E8.95743
G1 X132.144 Y21.776 E8.98562
G1 X132.316 Y22.821 E9.02084
G1 X132.448 Y24.074 E9.06275
G1 X132.497 Y24.921 E9.09097
G1 X132.456 Y25.886 E9.12309
G1 X132.343 Y27.051 E9.16202
G1 X132.221 Y27.89 E9.19022
G1 X132.008 Y28.76 E9.22001
G1 X131.675 Y29.874 E9.25869
G1 X131.499 Y30.375 E9.27635
G1 X131.499 Y37.905 E9.5268
G1 X131.459 Y38.752 E9.555
G1 X131.339 Y39.592 E9.58322
G1 X131.141 Y40.417 E9.61144
G1 X130.866 Y41.22 E9.63967
G1 X130.517 Y41.993 E9.66788
G1 X130.097 Y42.729 E9.69606
G1 X129.609 Y43.423 E9.72428
G1 X128.863 Y44.269 E9.7618
G1 X128.746 Y44.386 E9.7673
G1 X128.119 Y44.957 E9.79551
G1 X127.44 Y45.466 E9.82373
G1 X126.717 Y45.909 E9.85193
G1 X125.955 Y46.282 E9.88015
G1 X125.161 Y46.582 E9.90838
G1 X124.343 Y46.806 E9.93659
G1 X123.507 Y46.951 E9.96481
G1 X122.382 Y47.022 E10.0023
G1 X112.616 Y47.022 E10.32712
G1 X111.769 Y46.982 E10.35532
G1 X110.929 Y46.862 E10.38355
G1 X110.104 Y46.664 E10.41176
G1 X109.301 Y46.389 E10.44
G1 X108.528 Y46.04 E10.4682
G1 X107.792 Y45.62 E10.49639
G1 X107.098 Y45.132 E10.52461
G1 X106.252 Y44.386 E10.56212
G1 X106.135 Y44.269 E10.56763
G1 X105.564 Y43.642 E10.59583
G1 X105.055 Y42.963 E10.62406
G1 X104.612 Y42.24 E10.65226
G1 X104.239 Y41.478 E10.68048
G1 X103.939 Y40.684 E10.70871
G1 X103.715 Y39.866 E10.73691
G1 X103.57 Y39.03 E10.76514
G1 X103.499 Y37.905 E10.80263
G1 X103.499 Y30.374 E11.05311
G1 X103.273 Y29.721 E11.07609
G1 X102.935 Y28.535 E11.11711
G1 X102.741 Y27.709 E11.14533
G1 X102.614 Y26.725 E11.17833
G1 X102.525 Y25.51 E11.21885
G1 X102.503 Y24.662 E11.24706
G1 X102.578 Y23.675 E11.27999
G1 X102.738 Y22.463 E11.32065
G1 X102.747 Y22.415 E11.32227
G0 F810 X102.889 Y21.628
M204 S5000
M205 X30 Y30
G0 F7200 X103.283 Y21.7
M204 S500
M205 X20 Y20
G1 F6000 E11.34888
G1 F900 X103.402 Y21.245 E11.36452
G1 X103.572 Y20.659 E11.38482
G1 X103.841 Y19.875 E11.41238
G1 X104.035 Y19.424 E11.42871
G1 X104.551 Y18.316 E11.46936
G1 X104.937 Y17.582 E11.49695
G1 X105.444 Y16.817 E11.52747
G1 X106.173 Y15.836 E11.56812
G1 X106.699 Y15.196 E11.59568
G1 X107.052 Y14.828 E11.61264
G1 X107.484 Y14.404 E11.63277
G1 X108.395 Y13.627 E11.67259
G1 X109.178 Y13.048 E11.70498
G1 X109.867 Y12.588 E11.73254
G1 X110.598 Y12.196 E11.76013
G1 X111.363 Y11.877 E11.78769
G1 X112.156 Y11.632 E11.8153
G1 X112.968 Y11.465 E11.84287
G1 X113.793 Y11.377 E11.87047
G1 X114.622 Y11.369 E11.89804
G1 X115.448 Y11.441 E11.92562
G1 X116.263 Y11.592 E11.95319
G1 X117.06 Y11.821 E11.98077
G1 X117.495 Y11.993 E11.99632
G1 X118.114 Y11.764 E12.01828
G1 X118.915 Y11.552 E12.04584
G1 X119.734 Y11.418 E12.07344
G1 X120.561 Y11.364 E12.101
G1 X121.39 Y11.39 E12.12859
G1 X122.213 Y11.496 E12.15619
G1 X123.021 Y11.68 E12.18375
G1 X123.808 Y11.941 E12.21133
G1 X124.566 Y12.277 E12.2389
G1 X125.289 Y12.684 E12.2665
G1 X125.847 Y13.068 E12.28903
G1 X126.652 Y13.668 E12.32242
G1 X127.293 Y14.195 E12.35002
G1 X127.908 Y14.813 E12.37902
G1 X128.746 Y15.745 E12.42071
G1 X129.27 Y16.388 E12.4483
G1 X129.792 Y17.184 E12.47996
G1 X130.416 Y18.261 E12.52136
G1 X130.797 Y18.997 E12.54892
G1 X131.147 Y19.892 E12.58088
G1 X131.538 Y21.084 E12.62261
G1 X131.758 Y21.883 E12.65017
G1 X131.919 Y22.863 E12.6832
G1 X132.051 Y24.116 E12.72511
G1 X132.098 Y24.944 E12.75269
G1 X132.058 Y25.847 E12.78276
G1 X131.945 Y27.012 E12.82169
G1 X131.825 Y27.833 E12.84928
G1 X131.625 Y28.645 E12.8771
G1 X131.292 Y29.759 E12.91577
G1 X131.099 Y30.306 E12.93506
G1 X131.099 Y37.905 E13.18781
G1 X131.059 Y38.733 E13.21538
G1 X130.939 Y39.554 E13.24297
G1 X130.741 Y40.359 E13.27055
G1 X130.467 Y41.141 E13.29811
G1 X130.118 Y41.894 E13.32571
G1 X129.698 Y42.609 E13.35329
G1 X129.212 Y43.28 E13.38085
G1 X128.58 Y43.986 E13.41236
G1 X128.463 Y44.103 E13.41787
G1 X127.849 Y44.661 E13.44546
G1 X127.184 Y45.156 E13.47303
G1 X126.475 Y45.586 E13.50061
G1 X125.728 Y45.945 E13.52818
G1 X124.949 Y46.23 E13.55577
G1 X124.147 Y46.439 E13.58333
G1 X123.328 Y46.57 E13.61092
G1 X122.382 Y46.622 E13.64243
G1 X112.616 Y46.622 E13.96725
G1 X111.788 Y46.582 E13.99482
G1 X110.967 Y46.462 E14.02242
G1 X110.162 Y46.264 E14.04999
G1 X109.38 Y45.99 E14.07755
G1 X108.627 Y45.641 E14.10515
G1 X107.912 Y45.221 E14.13273
G1 X107.241 Y44.735 E14.16029
G1 X106.535 Y44.103 E14.19181
G1 X106.418 Y43.986 E14.19731
G1 X105.86 Y43.372 E14.22491
G1 X105.365 Y42.707 E14.25248
G1 X104.935 Y41.998 E14.28006
G1 X104.576 Y41.251 E14.30762
G1 X104.291 Y40.472 E14.33521
G1 X104.082 Y39.67 E14.36278
G1 X103.951 Y38.851 E14.39036
G1 X103.899 Y37.905 E14.42188
G1 X103.899 Y30.311 E14.67445
G1 X103.657 Y29.611 E14.69909
G1 X103.319 Y28.425 E14.7401
G1 X103.131 Y27.618 E14.76766
G1 X103.013 Y26.696 E14.79858
G1 X102.924 Y25.481 E14.8391
G1 X102.903 Y24.652 E14.86668
G1 X102.975 Y23.727 E14.89754
G1 X103.135 Y22.515 E14.9382
G1 X103.141 Y22.487 E14.93915
G0 F810 X103.283 Y21.7
M204 S5000
M205 X30 Y30
G0 F7200 X103.677 Y21.771
M204 S500
M205 X20 Y20
G1 F6000 E14.96576
G1 F900 X103.786 Y21.356 E14.98003
G1 X103.956 Y20.77 E15.00033
G1 X104.219 Y20.005 E15.02723
G1 X104.398 Y19.593 E15.04217
G1 X104.914 Y18.485 E15.08283
G1 X105.291 Y17.769 E15.10974
G1 X105.765 Y17.056 E15.13822
G1 X106.494 Y16.075 E15.17887
G1 X107.009 Y15.45 E15.2058
G1 X107.332 Y15.114 E15.2213
G1 X107.764 Y14.69 E15.24144
G1 X108.633 Y13.949 E15.27942
G1 X109.416 Y13.37 E15.31181
G1 X110.09 Y12.921 E15.33875
G1 X110.805 Y12.541 E15.36568
G1 X111.554 Y12.233 E15.39261
G1 X112.329 Y12.001 E15.41952
G1 X113.124 Y11.846 E15.44646
G1 X113.93 Y11.771 E15.47338
G1 X114.74 Y11.775 E15.50032
G1 X115.545 Y11.859 E15.52724
G1 X116.338 Y12.023 E15.55418
G1 X117.111 Y12.263 E15.5811
G1 X117.477 Y12.429 E15.59446
G1 X117.511 Y12.412 E15.59573
G1 X118.271 Y12.134 E15.62264
G1 X119.055 Y11.931 E15.64958
G1 X119.855 Y11.807 E15.67651
G1 X120.663 Y11.763 E15.70342
G1 X121.472 Y11.799 E15.73035
G1 X122.274 Y11.914 E15.7573
G1 X123.06 Y12.108 E15.78423
G1 X123.823 Y12.378 E15.81115
G1 X124.556 Y12.722 E15.83808
G1 X125.252 Y13.137 E15.86503
G1 X125.608 Y13.388 E15.87952
G1 X126.413 Y13.988 E15.91291
G1 X127.038 Y14.504 E15.93987
G1 X127.611 Y15.08 E15.96689
G1 X128.449 Y16.012 E16.00858
G1 X128.96 Y16.64 E16.03551
G1 X129.446 Y17.384 E16.06506
G1 X130.07 Y18.461 E16.10646
G1 X130.441 Y19.181 E16.1334
G1 X130.767 Y20.016 E16.16322
G1 X131.158 Y21.208 E16.20494
G1 X131.372 Y21.989 E16.23187
G1 X131.521 Y22.905 E16.26274
G1 X131.653 Y24.158 E16.30465
G1 X131.698 Y24.966 E16.33156
G1 X131.66 Y25.809 E16.35963
G1 X131.547 Y26.974 E16.39856
G1 X131.429 Y27.775 E16.42549
G1 X131.242 Y28.53 E16.45136
G1 X130.909 Y29.644 E16.49003
G1 X130.699 Y30.238 E16.51099
G1 X130.699 Y37.905 E16.76599
G1 X130.659 Y38.714 E16.79293
G1 X130.539 Y39.515 E16.81987
G1 X130.342 Y40.3 E16.84679
G1 X130.067 Y41.061 E16.8737
G1 X129.719 Y41.792 E16.90063
G1 X129.3 Y42.486 E16.92759
G1 X128.815 Y43.134 E16.95451
G1 X128.297 Y43.703 E16.98011
G1 X128.18 Y43.82 E16.98561
G1 X127.58 Y44.364 E17.01255
G1 X126.929 Y44.846 E17.03949
G1 X126.234 Y45.261 E17.06641
G1 X125.502 Y45.605 E17.09331
G1 X124.738 Y45.876 E17.12027
G1 X123.952 Y46.07 E17.1472
G1 X123.151 Y46.186 E17.17412
G1 X122.382 Y46.222 E17.19973
G1 X112.616 Y46.222 E17.52454
G1 X111.807 Y46.182 E17.55148
G1 X111.006 Y46.062 E17.57842
G1 X110.221 Y45.865 E17.60534
G1 X109.46 Y45.59 E17.63225
G1 X108.729 Y45.242 E17.65918
G1 X108.035 Y44.823 E17.68615
G1 X107.387 Y44.338 E17.71307
G1 X106.818 Y43.82 E17.73866
G1 X106.701 Y43.703 E17.74416
G1 X106.157 Y43.103 E17.7711
G1 X105.675 Y42.452 E17.79804
G1 X105.26 Y41.757 E17.82496
G1 X104.916 Y41.025 E17.85186
G1 X104.645 Y40.261 E17.87883
G1 X104.451 Y39.475 E17.90575
G1 X104.335 Y38.674 E17.93267
