;FLAVOR:Marlin
;TIME:13410
;Filament used: 12.5991m
;Layer height: 0.2
;Generated with Cura_SteamEngine 3.6.0
M140 S70
M105
M190 S70
M104 S215
M105
M109 S215
M82 ;absolute extrusion mode
G28 ; home all axes
M117 Purge extruder
G92 E0 ; reset extruder
G1 Z1.0 F3000 ; move z up little to prevent scratching of surface
G1 X0.1 Y20 Z0.3 F5000.0 ; move to start-line position G1 X0.1 Y200.0 Z0.3 F1500.0 E15 ; draw 1st line
G1 X0.4 Y200.0 Z0.3 F5000.0 ; move to side a little
G1 X0.4 Y20 Z0.3 F1500.0 E30 ; draw 2nd line
G92 E0 ; reset extruder
G1 Z1.0 F3000 ; move z up little to prevent scratching of surface
M117 All systems go!
G92 E0
G1 F6000 E-5
;LAYER_COUNT:313
;LAYER:0
M107
M204 S5000
M205 X30 Y30
G0 F7200 X116.56 Y107.432 Z0.2
M204 S500
M205 X20 Y20
;TYPE:SKIRT
G1 F6000 E0
G1 F900 X116.56 Y135.289 E1.01918
G1 X118.44 Y135.289 E1.08796
G1 X118.44 Y107.425 E2.1074
G1 X118.224 Y107.445 E2.11534
G1 X117.287 Y107.446 E2.14962
G0 F810 X116.784 Y107.446
G0 X116.56 Y107.432
M204 S5000
M205 X30 Y30
G0 F7200 X116.783 Y107.006
M204 S500
M205 X20 Y20
G1 F6000 E2.17621
G1 F900 X116.177 Y106.966 E2.19843
G1 X116.12 Y106.955 E2.20056
G1 X116.12 Y135.729 E3.25329
G1 X118.88 Y135.729 E3.35427
G1 X118.88 Y106.952 E4.40711
G1 X118.787 Y106.97 E4.41057
G1 X118.223 Y107.005 E4.43125
G1 X117.51 Y107.006 E4.45733
G0 F810 X116.783 Y107.006
M204 S5000
M205 X30 Y30
G0 F7200 X116.783 Y106.566
M204 S500
M205 X20 Y20
G1 F6000 E4.48393
G1 F900 X116.206 Y106.526 E4.50509
G1 X115.68 Y106.416 E4.52475
G1 X115.68 Y136.169 E5.6133
G1 X119.32 Y136.169 E5.74647
G1 X119.32 Y106.408 E6.83531
G1 X118.997 Y106.492 E6.84752
G1 X118.223 Y106.565 E6.87597
G1 X117.51 Y106.566 E6.90205
G0 F810 X116.783 Y106.566
M204 S5000
M205 X30 Y30
G0 F7200 X116.783 Y106.126
M204 S500
M205 X20 Y20
G1 F6000 E6.92865
G1 F900 X116.237 Y106.086 E6.94868
G1 X115.704 Y105.968 E6.96865
G1 X115.24 Y105.791 E6.98682
G1 X115.24 Y136.609 E8.11433
G1 X119.76 Y136.609 E8.2797
G1 X119.76 Y105.787 E9.40736
G1 X119.678 Y105.829 E9.41073
G1 X119.161 Y106.005 E9.43071
G1 X118.623 Y106.103 E9.45072
G1 X118.223 Y106.125 E9.46538
G1 X117.51 Y106.126 E9.49146
G0 F810 X116.783 Y106.126
M204 S5000
M205 X30 Y30
G0 F7200 X116.782 Y105.686
M204 S500
M205 X20 Y20
G1 F6000 E9.51806
G1 F900 X116.27 Y105.646 E9.53685
G1 X115.771 Y105.528 E9.55561
G1 X115.296 Y105.333 E9.5744
G1 X114.857 Y105.067 E9.59318
G1 X114.8 Y105.019 E9.5959
G1 X114.8 Y137.049 E10.76776
G1 X120.2 Y137.049 E10.96532
G1 X120.2 Y105.023 E12.13703
G1 X120.181 Y105.039 E12.13794
G1 X119.746 Y105.311 E12.15671
G1 X119.273 Y105.512 E12.17551
G1 X118.776 Y105.638 E12.19427
G1 X118.222 Y105.685 E12.21461
G1 X117.509 Y105.686 E12.2407
G0 F810 X116.782 Y105.686
M204 S5000
M205 X30 Y30
G0 F7200 X116.782 Y105.246
M204 S500
M205 X20 Y20
G1 F6000 E12.2673
G1 F900 X116.306 Y105.206 E12.28477
G1 X115.843 Y105.088 E12.30225
G1 X115.406 Y104.894 E12.31975
G1 X115.007 Y104.63 E12.33725
G1 X114.658 Y104.304 E12.35472
G1 X114.369 Y103.924 E12.37219
G1 X114.36 Y103.907 E12.37289
G1 X114.36 Y137.489 E13.60153
G1 X120.64 Y137.489 E13.83129
G1 X120.64 Y103.892 E15.06047
G1 X120.463 Y104.159 E15.07219
G1 X120.136 Y104.508 E15.08969
G1 X119.756 Y104.797 E15.10716
G1 X119.333 Y105.02 E15.12465
G1 X118.879 Y105.168 E15.14212
G1 X118.222 Y105.245 E15.16633
G1 X117.509 Y105.246 E15.19241
G0 F810 X116.782 Y105.246
M204 S5000
M205 X30 Y30
G0 F7200 X116.782 Y104.806
M204 S500
M205 X20 Y20
G1 F6000 E15.21901
G1 F900 X116.344 Y104.766 E15.2351
G1 X115.921 Y104.648 E15.25117
G1 X115.526 Y104.455 E15.26725
G1 X115.172 Y104.194 E15.28334
G1 X114.871 Y103.874 E15.29942
G1 X114.634 Y103.504 E15.31549
G1 X114.467 Y103.097 E15.33159
G1 X114.376 Y102.667 E15.34767
G1 X114.36 Y102.386 E15.35796
G1 X114.36 Y98.739 E15.49139
G1 X114.4 Y98.301 E15.50749
G1 X114.518 Y97.878 E15.52355
G1 X114.711 Y97.483 E15.53964
G1 X114.973 Y97.13 E15.55572
G1 X115.294 Y96.829 E15.57182
G1 X115.664 Y96.592 E15.5879
G1 X116.07 Y96.425 E15.60396
G1 X116.501 Y96.335 E15.62007
G1 X116.78 Y96.319 E15.63029
G1 X118.22 Y96.319 E15.68297
G1 X118.658 Y96.359 E15.69907
G1 X119.081 Y96.477 E15.71513
G1 X119.476 Y96.67 E15.73122
G1 X119.829 Y96.932 E15.7473
G1 X120.13 Y97.253 E15.7634
G1 X120.367 Y97.623 E15.77948
G1 X120.534 Y98.029 E15.79554
G1 X120.624 Y98.46 E15.81165
G1 X120.64 Y98.739 E15.82187
G1 X120.64 Y102.385 E15.95526
G1 X120.6 Y102.823 E15.97136
G1 X120.482 Y103.246 E15.98742
G1 X120.289 Y103.641 E16.00351
G1 X120.027 Y103.994 E16.01959
G1 X119.706 Y104.295 E16.03569
G1 X119.336 Y104.532 E16.05177
G1 X118.93 Y104.699 E16.06783
G1 X118.499 Y104.789 E16.08394
G1 X118.222 Y104.805 E16.09409
G1 X117.509 Y104.806 E16.12017
G0 F810 X116.782 Y104.806
M204 S5000
M205 X30 Y30
G0 F7200 X116.781 Y104.366
M204 S500
M205 X20 Y20
G1 F6000 E16.14677
G1 F900 X116.386 Y104.326 E16.1613
G1 X116.006 Y104.209 E16.17584
G1 X115.658 Y104.017 E16.19038
G1 X115.355 Y103.76 E16.20492
G1 X115.109 Y103.448 E16.21946
G1 X114.93 Y103.093 E16.234
G1 X114.827 Y102.709 E16.24855
G1 X114.8 Y102.386 E16.26041
G1 X114.8 Y98.739 E16.39384
G1 X114.84 Y98.344 E16.40836
G1 X114.958 Y97.964 E16.42292
G1 X115.15 Y97.616 E16.43746
G1 X115.407 Y97.313 E16.452
G1 X115.719 Y97.067 E16.46653
G1 X116.075 Y96.889 E16.4811
G1 X116.458 Y96.785 E16.49562
G1 X116.78 Y96.759 E16.50743
G1 X118.22 Y96.759 E16.56012
G1 X118.615 Y96.799 E16.57464
G1 X118.995 Y96.917 E16.5892
G1 X119.343 Y97.109 E16.60374
G1 X119.646 Y97.366 E16.61828
G1 X119.892 Y97.678 E16.63282
G1 X120.07 Y98.034 E16.64738
G1 X120.174 Y98.417 E16.6619
G1 X120.2 Y98.739 E16.67372
G1 X120.2 Y102.385 E16.80711
G1 X120.16 Y102.78 E16.82163
G1 X120.042 Y103.16 E16.83619
G1 X119.85 Y103.508 E16.85073
G1 X119.593 Y103.811 E16.86527
G1 X119.281 Y104.057 E16.87981
G1 X118.925 Y104.235 E16.89437
G1 X118.542 Y104.339 E16.90889
G1 X118.221 Y104.365 E16.92067
G1 X117.508 Y104.366 E16.94676
G0 F810 X116.781 Y104.366
M204 S5000
M205 X30 Y30
G0 F7200 X116.781 Y103.926
M204 S500
M205 X20 Y20
G1 F6000 E16.97335
G1 F900 X116.433 Y103.886 E16.98617
G1 X116.103 Y103.769 E16.99898
G1 X115.808 Y103.58 E17.0118
G1 X115.563 Y103.329 E17.02463
G1 X115.381 Y103.03 E17.03744
G1 X115.272 Y102.697 E17.05026
G1 X115.24 Y102.386 E17.06169
G1 X115.24 Y98.739 E17.19512
G1 X115.28 Y98.391 E17.20794
G1 X115.397 Y98.061 E17.22075
G1 X115.587 Y97.766 E17.23359
G1 X115.837 Y97.521 E17.24639
G1 X116.137 Y97.34 E17.25921
G1 X116.47 Y97.23 E17.27204
G1 X116.78 Y97.199 E17.28344
G1 X118.22 Y97.199 E17.33613
G1 X118.568 Y97.239 E17.34894
G1 X118.898 Y97.356 E17.36175
G1 X119.193 Y97.546 E17.37459
G1 X119.438 Y97.796 E17.3874
G1 X119.619 Y98.096 E17.40021
G1 X119.729 Y98.429 E17.41305
G1 X119.76 Y98.739 E17.42444
G1 X119.76 Y102.385 E17.55784
G1 X119.72 Y102.733 E17.57065
G1 X119.603 Y103.063 E17.58346
G1 X119.413 Y103.358 E17.5963
G1 X119.163 Y103.603 E17.60911
G1 X118.863 Y103.784 E17.62193
G1 X118.53 Y103.894 E17.63476
G1 X118.221 Y103.925 E17.64612
G1 X117.508 Y103.926 E17.6722
G0 F810 X116.781 Y103.926
M204 S5000
M205 X30 Y30
G0 F7200 X116.781 Y103.486
M204 S500
M205 X20 Y20
G1 F6000 E17.6988
G1 F900 X116.487 Y103.446 E17.70966
G1 X116.215 Y103.33 E17.72048
G1 X115.984 Y103.145 E17.7313
G1 X115.81 Y102.906 E17.74212
G1 X115.707 Y102.628 E17.75297
G1 X115.68 Y102.386 E17.76188
G1 X115.68 Y98.739 E17.8953
G1 X115.72 Y98.446 E17.90612
G1 X115.836 Y98.174 E17.91694
G1 X116.021 Y97.943 E17.92777
G1 X116.261 Y97.769 E17.93862
G1 X116.538 Y97.666 E17.94943
G1 X116.78 Y97.639 E17.95834
G1 X118.22 Y97.639 E18.01102
G1 X118.513 Y97.679 E18.02184
G1 X118.785 Y97.795 E18.03266
G1 X119.016 Y97.98 E18.04349
G1 X119.19 Y98.22 E18.05433
G1 X119.293 Y98.497 E18.06514
G1 X119.32 Y98.739 E18.07405
G1 X119.32 Y102.385 E18.20745
G1 X119.28 Y102.678 E18.21827
G1 X119.164 Y102.95 E18.22908
G1 X118.979 Y103.181 E18.23991
G1 X118.739 Y103.355 E18.25076
G1 X118.462 Y103.458 E18.26157
G1 X118.221 Y103.485 E18.27044
G1 X117.508 Y103.486 E18.29653
G0 F810 X116.781 Y103.486
M204 S5000
M205 X30 Y30
G0 F7200 X116.78 Y103.046
M204 S500
M205 X20 Y20
G1 F6000 E18.32313
G1 F900 X116.555 Y103.006 E18.33149
G1 X116.357 Y102.892 E18.33985
G1 X116.209 Y102.717 E18.34823
G1 X116.13 Y102.502 E18.35661
G1 X116.12 Y102.386 E18.36087
G1 X116.12 Y98.739 E18.4943
G1 X116.16 Y98.514 E18.50266
G1 X116.274 Y98.315 E18.51105
G1 X116.449 Y98.168 E18.51941
G1 X116.664 Y98.089 E18.52779
G1 X116.78 Y98.079 E18.53205
G1 X118.22 Y98.079 E18.58474
G1 X118.445 Y98.119 E18.5931
G1 X118.644 Y98.233 E18.60149
G1 X118.791 Y98.408 E18.60985
G1 X118.87 Y98.623 E18.61823
G1 X118.88 Y98.739 E18.62249
G1 X118.88 Y102.385 E18.75588
G1 X118.84 Y102.61 E18.76425
G1 X118.726 Y102.809 E18.77264
G1 X118.551 Y102.956 E18.781
G1 X118.336 Y103.035 E18.78938
G1 X118.22 Y103.045 E18.79364
G1 X117.507 Y103.046 E18.81972
G0 F810 X116.78 Y103.046
M204 S5000
M205 X30 Y30
G0 F7200 X116.78 Y102.606
M204 S500
M205 X20 Y20
G1 F6000 E18.84632
G1 F900 X116.655 Y102.567 E18.85111
G1 X116.574 Y102.464 E18.85591
G1 X116.56 Y102.386 E18.85881
G1 X116.56 Y98.739 E18.99224
G1 X116.599 Y98.614 E18.99703
G1 X116.702 Y98.533 E19.00182
G1 X116.78 Y98.519 E19.00472
G1 X118.22 Y98.519 E19.0574
G1 X118.345 Y98.558 E19.06219
G1 X118.426 Y98.661 E19.06699
G1 X118.44 Y98.739 E19.06989
G1 X118.44 Y102.385 E19.20328
G1 X118.401 Y102.51 E19.20807
G1 X118.298 Y102.591 E19.21287
G1 X118.22 Y102.605 E19.21576
G1 X117.507 Y102.606 E19.24185
G0 F810 X116.78 Y102.606
M204 S5000
M205 X30 Y30
G0 F7200 X116.78 Y94.23
M204 S500
M205 X20 Y20
G1 F6000 E19.26845
G1 F900 X116.342 Y94.19 E19.28454
G1 X115.919 Y94.072 E19.30061
G1 X115.524 Y93.879 E19.31669
G1 X115.171 Y93.617 E19.33277
G1 X114.87 Y93.296 E19.34887
G1 X114.633 Y92.926 E19.36495
G1 X114.466 Y92.52 E19.38101
G1 X114.376 Y92.089 E19.39712
G1 X114.36 Y91.81 E19.40734
G1 X114.36 Y88.81 E19.5171
G1 X114.4 Y88.372 E19.53319
G1 X114.518 Y87.949 E19.54926
G1 X114.711 Y87.554 E19.56535
G1 X114.973 Y87.201 E19.58143
G1 X115.294 Y86.9 E19.59753
G1 X115.664 Y86.663 E19.6136
G1 X116.07 Y86.496 E19.62967
G1 X116.501 Y86.406 E19.64578
G1 X116.78 Y86.39 E19.656
G1 X118.22 Y86.39 E19.70868
G1 X118.658 Y86.43 E19.72477
G1 X119.081 Y86.548 E19.74084
G1 X119.476 Y86.741 E19.75693
G1 X119.829 Y87.003 E19.77301
G1 X120.13 Y87.324 E19.78911
G1 X120.367 Y87.694 E19.80519
G1 X120.534 Y88.1 E19.82125
G1 X120.624 Y88.531 E19.83736
G1 X120.64 Y88.81 E19.84758
G1 X120.64 Y91.81 E19.95734
G1 X120.6 Y92.248 E19.97343
G1 X120.482 Y92.671 E19.9895
G1 X120.289 Y93.066 E20.00558
G1 X120.027 Y93.419 E20.02166
G1 X119.706 Y93.72 E20.03776
G1 X119.336 Y93.957 E20.05384
G1 X118.93 Y94.124 E20.0699
G1 X118.499 Y94.214 E20.08601
G1 X118.22 Y94.23 E20.09623
G1 X117.507 Y94.23 E20.12232
G0 F810 X116.78 Y94.23
M204 S5000
M205 X30 Y30
G0 F7200 X116.78 Y93.79
M204 S500
M205 X20 Y20
G1 F6000 E20.14892
G1 F900 X116.385 Y93.75 E20.16344
G1 X116.005 Y93.632 E20.178
G1 X115.657 Y93.44 E20.19254
G1 X115.354 Y93.183 E20.20708
G1 X115.108 Y92.871 E20.22161
G1 X114.93 Y92.515 E20.23618
G1 X114.826 Y92.132 E20.2507
G1 X114.8 Y91.81 E20.26252
G1 X114.8 Y88.81 E20.37227
G1 X114.84 Y88.415 E20.3868
G1 X114.958 Y88.035 E20.40136
G1 X115.15 Y87.687 E20.4159
G1 X115.407 Y87.384 E20.43043
G1 X115.719 Y87.138 E20.44497
G1 X116.075 Y86.96 E20.45953
G1 X116.458 Y86.856 E20.47405
G1 X116.78 Y86.83 E20.48587
G1 X118.22 Y86.83 E20.53856
G1 X118.615 Y86.87 E20.55308
G1 X118.995 Y86.988 E20.56764
G1 X119.343 Y87.18 E20.58218
G1 X119.646 Y87.437 E20.59672
G1 X119.892 Y87.749 E20.61125
G1 X120.07 Y88.105 E20.62581
G1 X120.174 Y88.488 E20.64033
G1 X120.2 Y88.81 E20.65215
G1 X120.2 Y91.81 E20.76191
G1 X120.16 Y92.205 E20.77644
G1 X120.042 Y92.585 E20.791
G1 X119.85 Y92.933 E20.80554
G1 X119.593 Y93.236 E20.82007
G1 X119.281 Y93.482 E20.83461
G1 X118.925 Y93.66 E20.84917
G1 X118.542 Y93.764 E20.86369
G1 X118.22 Y93.79 E20.87551
G1 X117.507 Y93.79 E20.9016
G0 F810 X116.78 Y93.79
M204 S5000
M205 X30 Y30
G0 F7200 X116.78 Y93.35
M204 S500
M205 X20 Y20
G1 F6000 E20.92819
G1 F900 X116.432 Y93.31 E20.94101
G1 X116.102 Y93.193 E20.95382
G1 X115.807 Y93.003 E20.96666
G1 X115.562 Y92.753 E20.97946
G1 X115.381 Y92.453 E20.99228
G1 X115.271 Y92.12 E21.00511
G1 X115.24 Y91.81 E21.01651
G1 X115.24 Y88.81 E21.12627
G1 X115.28 Y88.462 E21.13909
G1 X115.397 Y88.132 E21.1519
G1 X115.587 Y87.837 E21.16473
G1 X115.837 Y87.592 E21.17754
G1 X116.137 Y87.411 E21.19036
G1 X116.47 Y87.301 E21.20319
G1 X116.78 Y87.27 E21.21459
G1 X118.22 Y87.27 E21.26727
G1 X118.568 Y87.31 E21.28009
G1 X118.898 Y87.427 E21.2929
G1 X119.193 Y87.617 E21.30574
G1 X119.438 Y87.867 E21.31854
G1 X119.619 Y88.167 E21.33136
G1 X119.729 Y88.5 E21.34419
G1 X119.76 Y88.81 E21.35559
G1 X119.76 Y91.81 E21.46535
G1 X119.72 Y92.158 E21.47816
G1 X119.603 Y92.488 E21.49097
G1 X119.413 Y92.783 E21.50381
G1 X119.163 Y93.028 E21.51662
G1 X118.863 Y93.209 E21.52944
G1 X118.53 Y93.319 E21.54227
G1 X118.22 Y93.35 E21.55367
G1 X117.507 Y93.35 E21.57975
G0 F810 X116.78 Y93.35
M204 S5000
M205 X30 Y30
G0 F7200 X116.78 Y92.91
M204 S500
M205 X20 Y20
G1 F6000 E21.60635
G1 F900 X116.487 Y92.87 E21.61717
G1 X116.215 Y92.754 E21.62799
G1 X115.984 Y92.569 E21.63881
G1 X115.81 Y92.329 E21.64966
G1 X115.707 Y92.052 E21.66047
G1 X115.68 Y91.81 E21.66938
G1 X115.68 Y88.81 E21.77914
G1 X115.72 Y88.517 E21.78996
G1 X115.836 Y88.245 E21.80078
G1 X116.021 Y88.014 E21.81161
G1 X116.261 Y87.84 E21.82245
G1 X116.538 Y87.737 E21.83326
G1 X116.78 Y87.71 E21.84217
G1 X118.22 Y87.71 E21.89486
G1 X118.513 Y87.75 E21.90568
G1 X118.785 Y87.866 E21.91649
G1 X119.016 Y88.051 E21.92732
G1 X119.19 Y88.291 E21.93817
G1 X119.293 Y88.568 E21.94898
G1 X119.32 Y88.81 E21.95789
G1 X119.32 Y91.81 E22.06765
G1 X119.28 Y92.103 E22.07847
G1 X119.164 Y92.375 E22.08928
G1 X118.979 Y92.606 E22.10011
G1 X118.739 Y92.78 E22.11096
G1 X118.462 Y92.883 E22.12177
G1 X118.22 Y92.91 E22.13068
G1 X117.507 Y92.91 E22.15676
G0 F810 X116.78 Y92.91
M204 S5000
M205 X30 Y30
G0 F7200 X116.78 Y92.47
M204 S500
M205 X20 Y20
G1 F6000 E22.18336
G1 F900 X116.555 Y92.43 E22.19172
G1 X116.356 Y92.316 E22.20011
G1 X116.209 Y92.141 E22.20848
G1 X116.13 Y91.926 E22.21686
G1 X116.12 Y91.81 E22.22112
G1 X116.12 Y88.81 E22.33087
G1 X116.16 Y88.585 E22.33924
G1 X116.274 Y88.386 E22.34763
G1 X116.449 Y88.239 E22.35599
G1 X116.664 Y88.16 E22.36437
G1 X116.78 Y88.15 E22.36863
G1 X118.22 Y88.15 E22.42131
G1 X118.445 Y88.19 E22.42967
G1 X118.644 Y88.304 E22.43806
G1 X118.791 Y88.479 E22.44643
G1 X118.87 Y88.694 E22.45481
G1 X118.88 Y88.81 E22.45907
G1 X118.88 Y91.81 E22.56882
G1 X118.84 Y92.035 E22.57718
G1 X118.726 Y92.234 E22.58558
G1 X118.551 Y92.381 E22.59394
G1 X118.336 Y92.46 E22.60232
G1 X118.22 Y92.47 E22.60658
G1 X117.507 Y92.47 E22.63266
G0 F810 X116.78 Y92.47
M204 S5000
M205 X30 Y30
G0 F7200 X116.78 Y92.03
M204 S500
M205 X20 Y20
G1 F6000 E22.65926
G1 F900 X116.655 Y91.991 E22.66405
G1 X116.574 Y91.888 E22.66885
G1 X116.56 Y91.81 E22.67174
G1 X116.56 Y88.81 E22.7815
G1 X116.599 Y88.685 E22.78629
G1 X116.702 Y88.604 E22.79109
G1 X116.78 Y88.59 E22.79399
G1 X118.22 Y88.59 E22.84667
G1 X118.345 Y88.629 E22.85146
G1 X118.426 Y88.732 E22.85626
G1 X118.44 Y88.81 E22.85916
G1 X118.44 Y91.81 E22.96891
G1 X118.401 Y91.935 E22.9737
G1 X118.298 Y92.016 E22.9785
G1 X118.22 Y92.03 E22.9814
G1 X117.507 Y92.03 E23.00748
G0 F810 X116.78 Y92.03
M204 S5000
M205 X30 Y30
G0 F7200 X113.92 Y87.649
M204 S500
M205 X20 Y20
G1 F6000 E23.03408
G1 F900 X113.92 Y137.929 E24.87363
G1 X121.08 Y137.929 E25.13559
G1 X121.08 Y87.648 E26.97518
G1 X121.12 Y87.21 E26.99127
G1 X121.238 Y86.787 E27.00734
G1 X121.431 Y86.392 E27.02342
G1 X121.789 Y85.937 E27.0446
G1 X121.918 Y85.808 E27.05128
G1 X122.256 Y85.527 E27.06736
G1 X122.639 Y85.311 E27.08345
G1 X123.054 Y85.168 E27.09951
G1 X123.629 Y85.099 E27.12069
G1 X154.871 Y85.099 E28.26372
G1 X155.309 Y85.139 E28.27981
G1 X155.732 Y85.257 E28.29588
G1 X156.127 Y85.45 E28.31196
G1 X156.582 Y85.808 E28.33314
G1 X156.711 Y85.937 E28.33982
G1 X156.992 Y86.275 E28.3559
G1 X157.208 Y86.658 E28.37199
G1 X157.351 Y87.073 E28.38804
G1 X157.42 Y87.648 E28.40923
G1 X157.42 Y147.371 E30.59427
G1 X157.38 Y147.809 E30.61036
G1 X157.262 Y148.232 E30.62643
