;FLAVOR:Marlin
;TIME:2228
;Filament used: 1.27845m
;Layer height: 0.16
;Generated with Cura_SteamEngine 4.0.0
M140 S70
M105
M190 S70
M104 S215
M105
M109 S215
M82 ;absolute extrusion mode
G28 ; home all axes
M117 Purge extruder
G92 E0 ; reset extruder
G1 Z1.0 F3000 ; move z up little to prevent scratching of surface
G1 X0.1 Y20 Z0.3 F5000.0 ; move to start-line position G1 X0.1 Y200.0 Z0.3 F1500.0 E15 ; draw 1st line
G1 X0.4 Y200.0 Z0.3 F5000.0 ; move to side a little
G1 X0.4 Y20 Z0.3 F1500.0 E30 ; draw 2nd line
G92 E0 ; reset extruder
G1 Z1.0 F3000 ; move z up little to prevent scratching of surface
M117 All systems go!
G92 E0
G1 F6000 E-5
;LAYER_COUNT:47
;LAYER:0
M107
M204 S5000
M205 X30 Y30
G0 F7200 X88.04 Y18.298 Z0.16
M204 S500
M205 X20 Y20
;TYPE:SKIRT
G1 F6000 E0
G1 F900 X88.251 Y17.438 E0.02356
G1 X88.539 Y16.601 E0.04711
G1 X88.901 Y15.793 E0.07067
G1 X89.516 Y14.741 E0.1031
G1 X89.951 Y14.093 E0.12386
G1 X90.477 Y13.381 E0.14742
G1 X91.066 Y12.719 E0.17099
G1 X91.711 Y12.114 E0.19453
G1 X92.251 Y11.683 E0.21291
G1 X92.723 Y11.333 E0.22854
G1 X93.457 Y10.838 E0.2521
G1 X94.233 Y10.412 E0.27566
G1 X95.278 Y9.971 E0.30584
G1 X95.835 Y9.773 E0.32156
G1 X96.681 Y9.515 E0.3451
G1 X97.548 Y9.333 E0.36867
G1 X98.427 Y9.231 E0.39222
G1 X99.107 Y9.207 E0.41032
G1 X135.486 Y9.171 E1.3783
G1 X136.371 Y9.21 E1.40187
G1 X137.374 Y9.353 E1.42883
G1 X138.137 Y9.502 E1.44951
G1 X138.998 Y9.71 E1.47308
G1 X139.835 Y9.996 E1.49662
G1 X140.644 Y10.356 E1.52018
G1 X141.281 Y10.705 E1.5395
G1 X141.787 Y11.007 E1.55518
G1 X142.526 Y11.494 E1.57873
G1 X143.218 Y12.047 E1.6023
G1 X144.016 Y12.829 E1.63203
G1 X144.417 Y13.27 E1.64789
G1 X144.982 Y13.951 E1.67144
G1 X145.484 Y14.681 E1.69501
G1 X146.025 Y15.672 E1.72505
G1 X146.271 Y16.192 E1.74036
G1 X146.613 Y17.009 E1.76392
G1 X146.88 Y17.853 E1.78748
G1 X147.105 Y18.937 E1.81694
G1 X147.193 Y19.527 E1.83281
G1 X147.284 Y20.408 E1.85637
G1 X147.3 Y20.984 E1.87171
G1 X147.261 Y57.377 E2.84006
G1 X147.22 Y58.261 E2.8636
G1 X147.1 Y59.138 E2.88716
G1 X146.9 Y60 E2.9107
G1 X146.517 Y61.113 E2.94202
G1 X146.222 Y61.826 E2.96255
G1 X145.846 Y62.628 E2.98612
G1 X145.401 Y63.392 E3.00965
G1 X144.888 Y64.114 E3.03321
G1 X144.417 Y64.672 E3.05264
G1 X144.016 Y65.113 E3.0685
G1 X143.391 Y65.74 E3.09206
G1 X142.713 Y66.309 E3.11561
G1 X141.986 Y66.814 E3.13916
G1 X141.368 Y67.172 E3.15817
G1 X140.68 Y67.538 E3.1789
G1 X139.88 Y67.918 E3.20247
G1 X139.05 Y68.224 E3.22601
G1 X138.195 Y68.454 E3.24956
G1 X137.498 Y68.582 E3.26842
G1 X136.918 Y68.667 E3.28402
G1 X136.037 Y68.756 E3.30758
G1 X135.486 Y68.771 E3.32225
G1 X99.093 Y68.731 E4.29059
G1 X98.209 Y68.69 E4.31414
G1 X97.332 Y68.569 E4.3377
G1 X96.469 Y68.37 E4.36126
G1 X95.791 Y68.154 E4.3802
G1 X95.237 Y67.955 E4.39586
G1 X94.418 Y67.618 E4.41943
G1 X93.633 Y67.209 E4.44298
G1 X92.888 Y66.731 E4.46653
G1 X92.307 Y66.286 E4.486
G1 X91.708 Y65.791 E4.50668
G1 X91.052 Y65.197 E4.53023
G1 X90.452 Y64.546 E4.55378
G1 X89.913 Y63.844 E4.57733
G1 X89.533 Y63.255 E4.59598
G1 X89.229 Y62.745 E4.61178
G1 X88.811 Y61.965 E4.63533
G1 X88.464 Y61.15 E4.6589
G1 X88.247 Y60.499 E4.67716
G1 X88.137 Y60.126 E4.6875
G1 X87.925 Y59.267 E4.71105
G1 X87.792 Y58.391 E4.73462
G1 X87.737 Y57.364 E4.76199
G1 X87.7 Y20.985 E5.72996
G1 X87.739 Y20.101 E5.75351
G1 X87.857 Y19.28 E5.77558
G0 F810 X87.887 Y19.07
G0 X88.04 Y18.298
M204 S5000
M205 X30 Y30
G0 F7200 X88.432 Y18.376
M204 S500
M205 X20 Y20
G1 F6000 E5.80219
G1 F900 X88.64 Y17.534 E5.82526
G1 X88.924 Y16.715 E5.84833
G1 X89.283 Y15.925 E5.87142
G1 X89.848 Y14.964 E5.90108
G1 X90.283 Y14.316 E5.92185
G1 X90.799 Y13.619 E5.94492
G1 X91.377 Y12.973 E5.96799
G1 X92.012 Y12.383 E5.99105
G1 X92.489 Y12.004 E6.00726
G1 X92.961 Y11.654 E6.0229
G1 X93.68 Y11.171 E6.04594
G1 X94.441 Y10.755 E6.06902
G1 X95.412 Y10.348 E6.09703
G1 X95.969 Y10.15 E6.11276
G1 X96.798 Y9.898 E6.13582
G1 X97.647 Y9.723 E6.15888
G1 X98.509 Y9.627 E6.18196
G1 X99.108 Y9.607 E6.19791
G1 X135.487 Y9.571 E7.16589
G1 X136.353 Y9.61 E7.18895
G1 X137.298 Y9.745 E7.21435
G1 X138.061 Y9.894 E7.23504
G1 X138.903 Y10.099 E7.2581
G1 X139.723 Y10.381 E7.28117
G1 X140.513 Y10.738 E7.30424
G1 X141.076 Y11.048 E7.32134
G1 X141.582 Y11.35 E7.33702
G1 X142.306 Y11.828 E7.3601
G1 X142.982 Y12.371 E7.38317
G1 X143.72 Y13.098 E7.41074
G1 X144.121 Y13.539 E7.4266
G1 X144.674 Y14.207 E7.44967
G1 X145.163 Y14.922 E7.47272
G1 X145.663 Y15.843 E7.5006
G1 X145.909 Y16.363 E7.51591
G1 X146.243 Y17.163 E7.53898
G1 X146.502 Y17.99 E7.56204
G1 X146.709 Y18.996 E7.58936
G1 X146.797 Y19.586 E7.60524
G1 X146.885 Y20.449 E7.62832
G1 X146.9 Y20.983 E7.64253
G1 X146.861 Y57.376 E8.61088
G1 X146.82 Y58.242 E8.63395
G1 X146.7 Y59.101 E8.65703
G1 X146.5 Y59.944 E8.68008
G1 X146.147 Y60.96 E8.7087
G1 X145.852 Y61.673 E8.72923
G1 X145.484 Y62.458 E8.7523
G1 X145.045 Y63.205 E8.77536
G1 X144.539 Y63.91 E8.79845
G1 X144.121 Y64.403 E8.81564
G1 X143.72 Y64.844 E8.8315
G1 X143.108 Y65.458 E8.85457
G1 X142.441 Y66.013 E8.87766
G1 X141.727 Y66.504 E8.90072
G1 X141.18 Y66.819 E8.91751
G1 X140.492 Y67.185 E8.93825
G1 X139.708 Y67.556 E8.96133
G1 X138.894 Y67.854 E8.98439
G1 X138.056 Y68.075 E9.00745
G1 X137.44 Y68.187 E9.02411
G1 X136.86 Y68.272 E9.03971
G1 X135.997 Y68.358 E9.06278
G1 X135.487 Y68.371 E9.07636
G1 X99.094 Y68.331 E10.04471
G1 X98.228 Y68.29 E10.06778
G1 X97.369 Y68.17 E10.09085
G1 X96.525 Y67.97 E10.11393
G1 X95.926 Y67.778 E10.13067
G1 X95.372 Y67.579 E10.14633
G1 X94.571 Y67.248 E10.1694
G1 X93.803 Y66.845 E10.19247
G1 X93.076 Y66.374 E10.21552
G1 X92.562 Y65.978 E10.23279
G1 X91.963 Y65.483 E10.25346
G1 X91.321 Y64.901 E10.27652
G1 X90.735 Y64.261 E10.29961
G1 X90.211 Y63.571 E10.32266
G1 X89.877 Y63.05 E10.33913
G1 X89.573 Y62.54 E10.35493
G1 X89.164 Y61.776 E10.37799
G1 X88.827 Y60.977 E10.40106
G1 X88.631 Y60.386 E10.41763
G1 X88.521 Y60.013 E10.42797
G1 X88.314 Y59.171 E10.45105
G1 X88.186 Y58.314 E10.4741
G1 X88.137 Y57.364 E10.49941
G1 X88.1 Y20.985 E11.46739
G1 X88.139 Y20.118 E11.49048
G1 X88.249 Y19.358 E11.51092
G0 F810 X88.279 Y19.148
G0 X88.432 Y18.376
M204 S5000
M205 X30 Y30
G0 F7200 X88.825 Y18.453
M204 S500
M205 X20 Y20
G1 F6000 E11.53752
G1 F900 X89.029 Y17.63 E11.56008
G1 X89.309 Y16.829 E11.58266
G1 X89.664 Y16.059 E11.60522
G1 X90.181 Y15.187 E11.6322
G1 X90.616 Y14.539 E11.65296
G1 X91.121 Y13.858 E11.67552
G1 X91.688 Y13.227 E11.69809
G1 X92.313 Y12.652 E11.72069
G1 X92.727 Y12.326 E11.73471
G1 X93.199 Y11.976 E11.75035
G1 X93.904 Y11.503 E11.77294
G1 X94.65 Y11.099 E11.79551
G1 X95.546 Y10.725 E11.82135
G1 X96.103 Y10.527 E11.83707
G1 X96.914 Y10.281 E11.85962
G1 X97.746 Y10.112 E11.88221
G1 X98.589 Y10.022 E11.90477
G1 X99.108 Y10.007 E11.91859
G1 X135.487 Y9.971 E12.88657
G1 X136.334 Y10.01 E12.90913
G1 X137.221 Y10.138 E12.93297
G1 X137.984 Y10.287 E12.95366
G1 X138.808 Y10.488 E12.97623
G1 X139.609 Y10.767 E12.99879
G1 X140.381 Y11.119 E13.02137
G1 X140.871 Y11.392 E13.0363
G1 X141.377 Y11.694 E13.05197
G1 X142.085 Y12.162 E13.07456
G1 X142.744 Y12.695 E13.09711
G1 X143.424 Y13.367 E13.12255
G1 X143.825 Y13.808 E13.13841
G1 X144.365 Y14.462 E13.16097
G1 X144.842 Y15.164 E13.18356
G1 X145.302 Y16.014 E13.20927
G1 X145.548 Y16.534 E13.22458
G1 X145.874 Y17.317 E13.24715
G1 X146.125 Y18.128 E13.26974
G1 X146.314 Y19.055 E13.29491
G1 X146.402 Y19.645 E13.31078
G1 X146.487 Y20.489 E13.33335
G1 X146.5 Y20.983 E13.3465
G1 X146.461 Y57.376 E14.31485
G1 X146.42 Y58.223 E14.33741
G1 X146.3 Y59.063 E14.35999
G1 X146.101 Y59.887 E14.38255
G1 X145.777 Y60.807 E14.4085
G1 X145.482 Y61.52 E14.42903
G1 X145.121 Y62.288 E14.45161
G1 X144.69 Y63.018 E14.47417
G1 X144.191 Y63.704 E14.49674
G1 X143.825 Y64.134 E14.51177
G1 X143.424 Y64.575 E14.52763
G1 X142.824 Y65.175 E14.5502
G1 X142.171 Y65.716 E14.57277
G1 X141.469 Y66.193 E14.59535
G1 X140.992 Y66.466 E14.60997
G1 X140.304 Y66.832 E14.63071
G1 X139.537 Y67.194 E14.65328
G1 X138.739 Y67.483 E14.67586
G1 X137.918 Y67.696 E14.69843
G1 X137.382 Y67.791 E14.71291
G1 X136.802 Y67.876 E14.72851
G1 X135.958 Y67.959 E14.75107
G1 X135.487 Y67.971 E14.76361
G1 X99.094 Y67.931 E15.73196
G1 X98.247 Y67.89 E15.75452
G1 X97.407 Y67.77 E15.7771
G1 X96.582 Y67.571 E15.79968
G1 X96.061 Y67.401 E15.81427
G1 X95.507 Y67.202 E15.82993
G1 X94.724 Y66.878 E15.85248
G1 X93.974 Y66.482 E15.87504
G1 X93.264 Y66.016 E15.89764
G1 X92.817 Y65.67 E15.91268
G1 X92.218 Y65.175 E15.93336
G1 X91.59 Y64.604 E15.95594
G1 X91.019 Y63.977 E15.97851
G1 X90.509 Y63.299 E16.00108
G1 X90.22 Y62.845 E16.0154
G1 X89.916 Y62.335 E16.0312
G1 X89.517 Y61.587 E16.05376
G1 X89.189 Y60.804 E16.07634
G1 X89.015 Y60.273 E16.09121
G1 X88.905 Y59.9 E16.10156
G1 X88.703 Y59.076 E16.12413
G1 X88.58 Y58.236 E16.14672
G1 X88.537 Y57.363 E16.16998
G1 X88.5 Y20.984 E17.13796
G1 X88.539 Y20.137 E17.16052
G1 X88.642 Y19.435 E17.1794
G0 F810 X88.672 Y19.225
G0 X88.825 Y18.453
M204 S5000
M205 X30 Y30
G0 F7200 X89.217 Y18.531
M204 S500
M205 X20 Y20
G1 F6000 E17.206
G1 F900 X89.417 Y17.726 E17.22808
G1 X89.694 Y16.945 E17.25012
G1 X90.045 Y16.193 E17.27221
G1 X90.513 Y15.41 E17.29648
G1 X90.948 Y14.762 E17.31725
G1 X91.442 Y14.096 E17.33931
G1 X91.999 Y13.482 E17.36137
G1 X92.612 Y12.923 E17.38344
G1 X92.966 Y12.647 E17.39539
G1 X93.438 Y12.297 E17.41102
G1 X94.127 Y11.836 E17.43308
G1 X94.857 Y11.443 E17.45514
G1 X95.679 Y11.102 E17.47882
G1 X96.236 Y10.904 E17.49455
G1 X97.03 Y10.664 E17.51662
G1 X97.843 Y10.502 E17.53868
G1 X98.669 Y10.419 E17.56076
G1 X99.108 Y10.407 E17.57245
G1 X135.487 Y10.371 E18.54043
G1 X136.316 Y10.41 E18.56251
G1 X137.144 Y10.53 E18.58477
G1 X137.907 Y10.679 E18.60546
G1 X138.713 Y10.877 E18.62754
G1 X139.495 Y11.152 E18.6496
G1 X140.247 Y11.501 E18.67166
G1 X140.666 Y11.735 E18.68443
G1 X141.172 Y12.037 E18.7001
G1 X141.863 Y12.496 E18.72218
G1 X142.507 Y13.019 E18.74425
G1 X143.128 Y13.636 E18.76755
G1 X143.529 Y14.077 E18.7834
G1 X144.056 Y14.717 E18.80546
G1 X144.52 Y15.405 E18.82755
G1 X144.94 Y16.185 E18.85112
G1 X145.186 Y16.705 E18.86642
G1 X145.504 Y17.471 E18.88849
G1 X145.747 Y18.264 E18.91056
G1 X145.918 Y19.114 E18.93363
G1 X146.006 Y19.704 E18.9495
G1 X146.089 Y20.529 E18.97157
G1 X146.1 Y20.982 E18.98362
G1 X146.061 Y57.375 E19.95197
G1 X146.02 Y58.203 E19.97403
G1 X145.9 Y59.024 E19.99611
G1 X145.701 Y59.829 E20.01817
G1 X145.408 Y60.654 E20.04147
G1 X145.113 Y61.367 E20.062
G1 X144.759 Y62.117 E20.08407
G1 X144.335 Y62.829 E20.10612
G1 X143.844 Y63.498 E20.1282
G1 X143.529 Y63.865 E20.14106
G1 X143.128 Y64.306 E20.15692
G1 X142.541 Y64.892 E20.17899
G1 X141.901 Y65.418 E20.20104
G1 X141.212 Y65.881 E20.22312
G1 X140.804 Y66.113 E20.23561
G1 X140.116 Y66.479 E20.25635
G1 X139.366 Y66.832 E20.2784
G1 X138.585 Y67.112 E20.30048
G1 X137.782 Y67.315 E20.32252
G1 X137.324 Y67.395 E20.33489
G1 X136.744 Y67.48 E20.35049
G1 X135.919 Y67.561 E20.37255
G1 X135.488 Y67.571 E20.38402
G1 X99.095 Y67.531 E21.35237
G1 X98.266 Y67.49 E21.37445
G1 X97.446 Y67.37 E21.3965
G1 X96.641 Y67.171 E21.41857
G1 X96.197 Y67.025 E21.431
G1 X95.643 Y66.826 E21.44667
G1 X94.877 Y66.508 E21.46873
G1 X94.145 Y66.118 E21.4908
G1 X93.454 Y65.66 E21.51286
G1 X93.072 Y65.361 E21.52577
G1 X92.473 Y64.866 E21.54645
G1 X91.86 Y64.308 E21.5685
G1 X91.303 Y63.693 E21.59058
G1 X90.809 Y63.027 E21.61264
G1 X90.564 Y62.64 E21.62483
G1 X90.26 Y62.13 E21.64063
G1 X89.87 Y61.398 E21.6627
G1 X89.553 Y60.632 E21.68476
G1 X89.398 Y60.16 E21.69797
G1 X89.288 Y59.787 E21.70832
G1 X89.092 Y58.981 E21.73039
G1 X88.975 Y58.16 E21.75246
G1 X88.937 Y57.363 E21.77369
G1 X88.9 Y20.984 E22.74167
G1 X88.939 Y20.155 E22.76375
G1 X89.034 Y19.513 E22.78102
G0 F810 X89.064 Y19.303
G0 X89.217 Y18.531
M204 S5000
M205 X30 Y30
G0 F7200 X89.609 Y18.609
M204 S500
M205 X20 Y20
G1 F6000 E22.80763
G1 F900 X89.806 Y17.823 E22.82919
G1 X90.079 Y17.061 E22.85072
G1 X90.426 Y16.329 E22.87228
G1 X90.845 Y15.633 E22.8939
G1 X91.28 Y14.985 E22.91466
G1 X91.764 Y14.335 E22.93623
G1 X92.309 Y13.737 E22.95775
G1 X93.204 Y12.968 E22.98915
G1 X93.676 Y12.618 E23.00479
G1 X94.349 Y12.169 E23.02631
G1 X95.064 Y11.788 E23.04787
G1 X95.813 Y11.479 E23.06943
G1 X96.37 Y11.281 E23.08516
G1 X97.146 Y11.047 E23.10672
G1 X97.94 Y10.892 E23.12825
G1 X99.109 Y10.807 E23.15944
G1 X135.488 Y10.771 E24.12741
G1 X136.297 Y10.81 E24.14896
G1 X137.068 Y10.923 E24.1697
G1 X137.831 Y11.072 E24.19038
G1 X138.617 Y11.266 E24.21193
G1 X139.38 Y11.537 E24.23347
G1 X140.461 Y12.079 E24.26565
G1 X140.967 Y12.381 E24.28133
G1 X141.641 Y12.83 E24.30288
G1 X142.268 Y13.343 E24.32443
G1 X142.832 Y13.905 E24.34562
G1 X143.233 Y14.346 E24.36148
G1 X143.747 Y14.972 E24.38303
G1 X144.198 Y15.645 E24.40458
G1 X144.578 Y16.356 E24.42604
G1 X144.824 Y16.876 E24.44134
G1 X145.134 Y17.624 E24.46289
G1 X145.368 Y18.4 E24.48445
G1 X145.522 Y19.173 E24.50542
G1 X145.61 Y19.763 E24.5213
G1 X145.69 Y20.569 E24.54285
G1 X145.7 Y20.982 E24.55384
G1 X145.661 Y57.375 E25.52219
G1 X145.62 Y58.183 E25.54372
G1 X145.5 Y58.984 E25.56527
G1 X145.301 Y59.769 E25.58682
G1 X145.038 Y60.501 E25.60751
G1 X144.743 Y61.214 E25.62804
G1 X144.397 Y61.946 E25.64959
G1 X143.98 Y62.64 E25.67113
G1 X143.233 Y63.596 E25.70341
G1 X142.832 Y64.037 E25.71927
G1 X142.258 Y64.608 E25.74082
G1 X141.631 Y65.12 E25.76235
G1 X140.616 Y65.759 E25.79427
G1 X139.928 Y66.125 E25.815
G1 X139.195 Y66.47 E25.83656
G1 X138.432 Y66.74 E25.8581
G1 X137.266 Y66.999 E25.88988
G1 X136.686 Y67.084 E25.90547
G1 X135.488 Y67.171 E25.93743
G1 X99.095 Y67.131 E26.90578
G1 X98.286 Y67.09 E26.92734
G1 X97.486 Y66.97 E26.94886
G1 X96.332 Y66.648 E26.98074
G1 X95.778 Y66.449 E26.9964
G1 X95.03 Y66.138 E27.01796
G1 X94.317 Y65.755 E27.03949
G1 X93.645 Y65.303 E27.06104
G1 X93.326 Y65.053 E27.07183
G1 X92.727 Y64.558 E27.0925
G1 X92.13 Y64.012 E27.11403
G1 X91.588 Y63.41 E27.13558
G1 X90.907 Y62.436 E27.16721
G1 X90.603 Y61.926 E27.183
G1 X90.224 Y61.21 E27.20456
G1 X89.916 Y60.461 E27.22611
G1 X89.782 Y60.046 E27.23771
G1 X89.672 Y59.673 E27.24806
G1 X89.481 Y58.886 E27.26961
G1 X89.37 Y58.085 E27.29113
G1 X89.337 Y57.362 E27.31038
G1 X89.3 Y20.983 E28.27836
G1 X89.339 Y20.175 E28.29988
G1 X89.425 Y19.591 E28.31559
G0 F810 X89.456 Y19.381
G0 X89.609 Y18.609
M204 S5000
M205 X30 Y30
G0 F7200 X90.002 Y18.687
M204 S500
M205 X20 Y20
G1 F6000 E28.3422
G1 F900 X90.194 Y17.921 E28.36321
G1 X90.463 Y17.178 E28.38424
G1 X90.806 Y16.467 E28.40524
G1 X91.177 Y15.856 E28.42426
G1 X91.612 Y15.208 E28.44503
G1 X92.085 Y14.575 E28.46605
G1 X92.619 Y13.994 E28.48705
G1 X93.442 Y13.29 E28.51587
G1 X93.914 Y12.94 E28.5315
G1 X94.571 Y12.502 E28.55251
G1 X95.27 Y12.133 E28.57355
G1 X95.947 Y11.856 E28.59301
G1 X96.504 Y11.658 E28.60874
G1 X97.261 Y11.431 E28.62977
G1 X98.036 Y11.282 E28.65077
G1 X99.109 Y11.207 E28.67939
G1 X135.488 Y11.171 E29.64736
G1 X136.277 Y11.21 E29.66838
G1 X136.991 Y11.316 E29.68759
G1 X137.754 Y11.465 E29.70827
G1 X138.52 Y11.655 E29.72927
G1 X139.264 Y11.922 E29.75031
G1 X140.256 Y12.422 E29.77986
G1 X140.762 Y12.724 E29.79554
G1 X141.419 Y13.163 E29.81657
G1 X142.028 Y13.665 E29.83757
G1 X142.536 Y14.175 E29.85672
G1 X142.937 Y14.616 E29.87258
G1 X143.438 Y15.226 E29.89359
G1 X143.875 Y15.884 E29.9146
G1 X144.217 Y16.527 E29.93398
G1 X144.463 Y17.047 E29.94929
G1 X144.764 Y17.777 E29.9703
G1 X144.99 Y18.534 E29.99132
G1 X145.127 Y19.232 E30.01025
G1 X145.215 Y19.822 E30.02612
G1 X145.3 Y20.981 E30.05704
G1 X145.261 Y57.374 E31.02539
G1 X145.22 Y58.163 E31.04641
G1 X145.1 Y58.943 E31.06741
G1 X144.901 Y59.708 E31.08844
G1 X144.668 Y60.348 E31.10657
G1 X144.373 Y61.061 E31.1271
G1 X144.035 Y61.775 E31.14812
G1 X143.626 Y62.45 E31.16912
G1 X142.937 Y63.326 E31.19877
G1 X142.536 Y63.767 E31.21463
G1 X141.976 Y64.324 E31.23565
G1 X141.362 Y64.821 E31.25667
G1 X140.428 Y65.406 E31.28599
G1 X139.74 Y65.772 E31.30673
G1 X139.025 Y66.107 E31.32773
G1 X138.28 Y66.368 E31.34874
G1 X137.208 Y66.604 E31.37795
G1 X136.628 Y66.689 E31.39354
G1 X135.488 Y66.771 E31.42396
G1 X99.095 Y66.731 E32.3923
G1 X98.307 Y66.69 E32.4133
G1 X97.526 Y66.57 E32.43433
G1 X96.467 Y66.272 E32.4636
G1 X95.913 Y66.073 E32.47926
G1 X95.184 Y65.769 E32.50028
G1 X94.49 Y65.392 E32.52129
G1 X93.581 Y64.745 E32.55098
