;FLAVOR:Marlin
;TIME:9580
;Filament used: 10.4719m
;Layer height: 0.25
;Generated with Cura_SteamEngine 3.6.0
M140 S70
M105
M190 S70
M104 S215
M105
M109 S215
M82 ;absolute extrusion mode
; Ender 3 Custom Start G-code
G28 ; Home all axes
G92 E0 ; Reset Extruder
G1 Z2.0 F3000 ; Move Z Axis up little to prevent scratching of Heat Bed
G1 X0.1 Y20 Z0.3 F5000.0 ; Move to start position
G1 X0.1 Y200.0 Z0.3 F1500.0 E15 ; Draw the first line
G1 X0.4 Y200.0 Z0.3 F5000.0 ; Move to side a little
G1 X0.4 Y20 Z0.3 F1500.0 E30 ; Draw the second line
G92 E0 ; Reset Extruder
G1 Z2.0 F3000 ; Move Z Axis up little to prevent scratching of Heat Bed
; End of custom start GCode
G92 E0
G1 F6000 E-5
;LAYER_COUNT:29
;LAYER:0
M107
M204 S5000
M205 X30 Y30
G0 F7200 X36.761 Y25.124 Z0.25
M204 S500
M205 X20 Y20
;TYPE:SKIRT
G1 F6000 E0
G1 F900 X36.984 Y24.805 E0.02023
G1 X37.737 Y23.799 E0.08553
G1 X38.552 Y22.842 E0.15086
G1 X39.426 Y21.939 E0.21617
G1 X40.557 Y20.924 E0.29514
G1 X40.857 Y20.675 E0.3154
G1 X41.849 Y19.903 E0.38073
G1 X42.889 Y19.196 E0.44608
G1 X43.971 Y18.557 E0.51139
G1 X45.211 Y17.932 E0.58355
G1 X45.565 Y17.769 E0.6038
G1 X46.722 Y17.28 E0.66908
G1 X47.909 Y16.866 E0.73441
G1 X49.119 Y16.528 E0.7997
G1 X50.341 Y16.269 E0.86462
G1 X50.726 Y16.2 E0.88495
G1 X51.969 Y16.018 E0.95023
G1 X53.222 Y15.915 E1.01557
G1 X54.214 Y15.89 E1.06714
G1 X178.614 Y15.914 E7.53208
G1 X179.87 Y15.954 E7.59738
G1 X181.121 Y16.074 E7.6627
G1 X182.362 Y16.274 E7.72802
G1 X183.588 Y16.552 E7.79335
G1 X184.793 Y16.907 E7.85864
G1 X185.391 Y17.115 E7.89154
G1 X185.763 Y17.251 E7.91212
G1 X186.93 Y17.72 E7.97749
G1 X188.063 Y18.262 E8.04276
G1 X189.161 Y18.875 E8.10811
G1 X190.375 Y19.668 E8.18347
G1 X190.695 Y19.894 E8.20383
G1 X191.698 Y20.651 E8.26913
G1 X192.651 Y21.471 E8.33447
G1 X193.55 Y22.349 E8.39977
G1 X194.504 Y23.417 E8.47419
G1 X194.752 Y23.716 E8.49438
G1 X195.523 Y24.709 E8.55972
G1 X196.229 Y25.748 E8.625
G1 X196.868 Y26.831 E8.69035
G1 X197.437 Y27.951 E8.75563
G1 X197.933 Y29.106 E8.82096
G1 X198.161 Y29.714 E8.8547
G1 X198.361 Y30.277 E8.88575
G1 X198.743 Y31.474 E8.95105
G1 X199.049 Y32.693 E9.01637
G1 X199.277 Y33.929 E9.08168
G1 X199.426 Y35.177 E9.147
G1 X199.5 Y36.908 E9.23704
G1 X199.484 Y52.995 E10.07307
G1 X199.443 Y54.251 E10.13838
G1 X199.367 Y55.121 E10.18376
G1 X199.234 Y56.338 E10.24738
G1 X198.962 Y58.091 E10.33958
G1 X198.725 Y59.268 E10.40197
G1 X198.311 Y60.942 E10.49159
G1 X197.966 Y62.115 E10.55513
G1 X197.372 Y63.837 E10.64979
G1 X196.928 Y64.954 E10.71226
G1 X196.706 Y65.447 E10.74036
G1 X196.807 Y65.645 E10.75191
G1 X197.304 Y66.8 E10.81726
G1 X197.537 Y67.424 E10.85187
G1 X197.737 Y67.988 E10.88297
G1 X198.119 Y69.186 E10.94832
G1 X198.425 Y70.405 E11.01363
G1 X198.652 Y71.641 E11.07894
G1 X198.8 Y72.889 E11.14425
G1 X198.873 Y74.61 E11.23377
G1 X198.856 Y90.697 E12.0698
G1 X198.815 Y91.953 E12.13511
G1 X198.741 Y92.807 E12.17965
G1 X198.609 Y94.023 E12.24322
G1 X198.335 Y95.791 E12.3362
G1 X198.098 Y96.968 E12.39859
G1 X197.686 Y98.637 E12.48793
G1 X197.341 Y99.811 E12.55152
G1 X196.748 Y101.532 E12.64612
G1 X196.306 Y102.645 E12.70836
G1 X195.576 Y104.266 E12.80075
G1 X195.026 Y105.354 E12.8641
G1 X194.165 Y106.883 E12.9553
G1 X193.528 Y107.906 E13.01793
G1 X192.534 Y109.356 E13.10929
G1 X191.802 Y110.327 E13.17248
G1 X190.655 Y111.712 E13.26594
G1 X189.849 Y112.6 E13.32826
G1 X188.61 Y113.848 E13.41965
G1 X187.703 Y114.684 E13.48376
G1 X186.339 Y115.832 E13.57641
G1 X185.39 Y116.56 E13.63856
G1 X183.944 Y117.57 E13.73023
G1 X182.914 Y118.223 E13.79361
G1 X181.349 Y119.118 E13.8873
G1 X180.282 Y119.665 E13.94961
G1 X178.718 Y120.383 E14.03905
G1 X177.583 Y120.845 E14.10273
G1 X175.912 Y121.439 E14.19489
G1 X174.764 Y121.79 E14.25728
G1 X173.024 Y122.237 E14.35064
G1 X171.826 Y122.487 E14.41424
G1 X170.062 Y122.772 E14.50711
G1 X168.87 Y122.91 E14.56947
G1 X167.137 Y123.034 E14.65976
G1 X165.927 Y123.067 E14.72266
G1 X164.129 Y123.034 E14.81612
G1 X162.909 Y122.956 E14.87965
G1 X161.146 Y122.763 E14.97182
G1 X159.958 Y122.579 E15.0343
G1 X158.229 Y122.232 E15.12594
G1 X157.043 Y121.938 E15.18944
G1 X155.348 Y121.436 E15.28131
G1 X154.213 Y121.044 E15.34372
G1 X153.038 Y120.596 E15.40907
G1 X152.316 Y120.277 E15.45009
G1 X148.094 Y118.309 E15.69217
G1 X143.327 Y116.384 E15.95934
G1 X138.551 Y114.796 E16.2209
G1 X133.628 Y113.496 E16.48552
G1 X128.742 Y112.532 E16.74433
G1 X123.711 Y111.861 E17.0081
G1 X118.715 Y111.513 E17.26837
G1 X113.66 Y111.479 E17.53108
G1 X108.611 Y111.763 E17.79388
G1 X103.629 Y112.358 E18.05463
G1 X98.691 Y113.265 E18.31555
G1 X93.77 Y114.491 E18.57911
G1 X88.958 Y116.018 E18.84147
G1 X84.207 Y117.863 E19.10634
G1 X78.288 Y120.543 E19.444
G1 X77.128 Y121.024 E19.50927
G1 X75.909 Y121.44 E19.5762
G1 X74.756 Y121.792 E19.63885
G1 X73.024 Y122.237 E19.73179
G1 X71.826 Y122.487 E19.79539
G1 X70.062 Y122.772 E19.88825
G1 X68.87 Y122.91 E19.95061
G1 X67.137 Y123.034 E20.0409
G1 X65.927 Y123.067 E20.10381
G1 X64.129 Y123.034 E20.19726
G1 X62.909 Y122.956 E20.2608
G1 X61.146 Y122.763 E20.35296
G1 X59.958 Y122.579 E20.41544
G1 X58.229 Y122.232 E20.50709
G1 X57.043 Y121.938 E20.57059
G1 X55.348 Y121.436 E20.66246
G1 X54.213 Y121.044 E20.72486
G1 X52.583 Y120.399 E20.81596
G1 X51.474 Y119.902 E20.87912
G1 X49.865 Y119.091 E20.97276
G1 X48.813 Y118.499 E21.03549
G1 X47.293 Y117.55 E21.12861
G1 X46.293 Y116.861 E21.19172
G1 X44.919 Y115.823 E21.28121
G1 X43.981 Y115.048 E21.34445
G1 X42.653 Y113.846 E21.43753
G1 X41.797 Y112.997 E21.50019
G1 X40.593 Y111.69 E21.59254
G1 X39.813 Y110.763 E21.6555
G1 X38.731 Y109.353 E21.74787
G1 X38.037 Y108.359 E21.81087
G1 X37.095 Y106.873 E21.9023
G1 X36.491 Y105.819 E21.96543
G1 X35.678 Y104.24 E22.05773
G1 X35.178 Y103.151 E22.12001
G1 X34.506 Y101.491 E22.21308
G1 X34.095 Y100.328 E22.27718
G1 X33.583 Y98.646 E22.36855
G1 X33.287 Y97.49 E22.43056
G1 X32.923 Y95.741 E22.52341
G1 X32.727 Y94.528 E22.58726
G1 X32.525 Y92.79 E22.67819
G1 X32.44 Y91.604 E22.73998
G1 X32.389 Y90.137 E22.81627
G1 X32.433 Y74.458 E23.63109
G1 X32.477 Y73.202 E23.69641
G1 X32.6 Y71.951 E23.76173
G1 X32.803 Y70.71 E23.82708
G1 X33.084 Y69.485 E23.8924
G1 X33.634 Y67.732 E23.98788
G1 X33.77 Y67.36 E24.00846
G1 X34.239 Y66.193 E24.07383
G1 X34.781 Y65.06 E24.1391
G1 X35.283 Y64.16 E24.19265
G1 X35.132 Y63.786 E24.21361
G1 X34.721 Y62.622 E24.27777
G1 X34.212 Y60.949 E24.36865
G1 X33.916 Y59.794 E24.43061
G1 X33.553 Y58.057 E24.52283
G1 X33.356 Y56.844 E24.58669
G1 X33.152 Y55.09 E24.67846
G1 X33.067 Y53.904 E24.74025
G1 X33.016 Y52.435 E24.81664
G1 X33.061 Y36.757 E25.63142
G1 X33.105 Y35.501 E25.69673
G1 X33.228 Y34.25 E25.76206
G1 X33.431 Y33.01 E25.82736
G1 X33.712 Y31.785 E25.89267
G1 X34.266 Y30.021 E25.98876
G1 X34.403 Y29.647 E26.00946
G1 X34.873 Y28.481 E26.07479
G1 X35.416 Y27.347 E26.14013
G1 X36.029 Y26.251 E26.20539
G1 X36.482 Y25.553 E26.24864
G0 F810 X36.761 Y25.124
M204 S5000
M205 X30 Y30
G0 F7200 X37.171 Y25.411
M204 S500
M205 X20 Y20
G1 F6000 E26.27525
G1 F900 X37.394 Y25.092 E26.29547
G1 X38.137 Y24.098 E26.35997
G1 X38.943 Y23.155 E26.42443
G1 X39.808 Y22.265 E26.48893
G1 X40.877 Y21.308 E26.5635
G1 X41.177 Y21.059 E26.58376
G1 X42.156 Y20.298 E26.6482
G1 X43.183 Y19.602 E26.71267
G1 X44.253 Y18.973 E26.77718
G1 X45.42 Y18.387 E26.84504
G1 X45.774 Y18.224 E26.86529
G1 X46.917 Y17.741 E26.92978
G1 X48.089 Y17.333 E26.99427
G1 X49.285 Y17.002 E27.05877
G1 X50.429 Y16.761 E27.11952
G1 X50.814 Y16.692 E27.13985
G1 X52.042 Y16.512 E27.20435
G1 X53.279 Y16.413 E27.26884
G1 X54.214 Y16.39 E27.31745
G1 X178.614 Y16.414 E33.78238
G1 X179.854 Y16.454 E33.84686
G1 X181.089 Y16.574 E33.91134
G1 X182.314 Y16.774 E33.97585
G1 X183.523 Y17.051 E34.04031
G1 X185.22 Y17.584 E34.13275
G1 X185.592 Y17.72 E34.15333
G1 X186.743 Y18.184 E34.21782
G1 X187.862 Y18.72 E34.2823
G1 X188.943 Y19.328 E34.34676
G1 X190.087 Y20.076 E34.41779
G1 X190.407 Y20.302 E34.43815
G1 X191.397 Y21.05 E34.50263
G1 X192.337 Y21.861 E34.56715
G1 X193.222 Y22.73 E34.63161
G1 X194.119 Y23.737 E34.7017
G1 X194.367 Y24.036 E34.72188
G1 X195.128 Y25.016 E34.78637
G1 X195.824 Y26.043 E34.85084
G1 X196.452 Y27.113 E34.91532
G1 X197.011 Y28.221 E34.97981
G1 X197.689 Y29.881 E35.073
G1 X197.889 Y30.444 E35.10405
G1 X198.267 Y31.626 E35.16854
G1 X198.567 Y32.83 E35.23302
G1 X198.79 Y34.051 E35.29753
G1 X198.933 Y35.283 E35.36198
G1 X199 Y36.907 E35.44645
G1 X198.984 Y52.994 E36.28248
G1 X198.943 Y54.234 E36.34695
G1 X198.87 Y55.066 E36.39036
G1 X198.737 Y56.283 E36.45398
G1 X198.472 Y57.992 E36.54386
G1 X198.235 Y59.169 E36.60625
G1 X197.832 Y60.801 E36.69361
G1 X197.487 Y61.974 E36.75716
G1 X196.908 Y63.653 E36.84945
G1 X196.464 Y64.77 E36.91192
G1 X196.152 Y65.462 E36.95137
G1 X196.381 Y65.915 E36.97775
G1 X197.066 Y67.591 E37.07184
G1 X197.266 Y68.155 E37.10294
G1 X197.643 Y69.338 E37.16747
G1 X197.943 Y70.542 E37.23195
G1 X198.164 Y71.762 E37.29639
G1 X198.307 Y72.995 E37.36089
G1 X198.373 Y74.609 E37.44484
G1 X198.356 Y90.696 E38.28087
G1 X198.315 Y91.936 E38.34534
G1 X198.244 Y92.753 E38.38796
G1 X198.112 Y93.969 E38.45153
G1 X197.845 Y95.692 E38.54214
G1 X197.608 Y96.869 E38.60453
G1 X197.206 Y98.496 E38.69163
G1 X196.861 Y99.67 E38.75522
G1 X196.283 Y101.348 E38.84745
G1 X195.841 Y102.461 E38.90969
G1 X195.13 Y104.041 E38.99973
G1 X194.58 Y105.129 E39.06309
G1 X193.741 Y106.619 E39.15195
G1 X193.104 Y107.642 E39.21458
G1 X192.134 Y109.055 E39.30365
G1 X191.402 Y110.026 E39.36684
G1 X190.285 Y111.376 E39.4579
G1 X189.479 Y112.264 E39.52023
G1 X188.272 Y113.481 E39.6093
G1 X187.365 Y114.317 E39.67341
G1 X186.035 Y115.436 E39.76374
G1 X185.086 Y116.164 E39.8259
G1 X183.676 Y117.148 E39.91525
G1 X182.646 Y117.801 E39.97863
G1 X181.121 Y118.673 E40.06992
G1 X180.054 Y119.22 E40.13224
G1 X178.529 Y119.92 E40.21944
G1 X177.394 Y120.382 E40.28312
G1 X175.765 Y120.961 E40.37297
G1 X174.617 Y121.312 E40.43536
G1 X172.921 Y121.747 E40.52635
G1 X171.723 Y121.997 E40.58995
G1 X170.005 Y122.275 E40.68039
G1 X168.813 Y122.413 E40.74275
G1 X167.124 Y122.534 E40.83075
G1 X165.914 Y122.567 E40.89366
G1 X164.161 Y122.535 E40.98478
G1 X162.941 Y122.457 E41.04831
G1 X161.223 Y122.269 E41.13812
G1 X160.035 Y122.085 E41.2006
G1 X158.349 Y121.746 E41.28997
G1 X157.163 Y121.452 E41.35347
G1 X155.511 Y120.963 E41.44301
G1 X154.376 Y120.571 E41.50541
G1 X153.217 Y120.129 E41.56988
G1 X152.527 Y119.823 E41.6091
G1 X148.301 Y117.853 E41.85141
G1 X143.5 Y115.914 E42.1205
G1 X138.688 Y114.314 E42.38403
G1 X133.76 Y113.013 E42.64891
G1 X128.806 Y112.036 E42.91132
G1 X123.764 Y111.364 E43.17567
G1 X118.738 Y111.013 E43.4375
G1 X113.651 Y110.979 E43.70187
G1 X108.572 Y111.264 E43.96624
G1 X103.543 Y111.865 E44.22945
G1 X98.59 Y112.775 E44.49116
G1 X93.626 Y114.012 E44.75702
G1 X88.798 Y115.544 E45.02026
G1 X84.005 Y117.405 E45.28746
G1 X78.082 Y120.087 E45.62536
G1 X76.936 Y120.562 E45.68983
G1 X75.763 Y120.962 E45.75424
G1 X74.61 Y121.314 E45.81689
G1 X72.921 Y121.747 E45.9075
G1 X71.723 Y121.997 E45.9711
G1 X70.005 Y122.275 E46.06155
G1 X68.813 Y122.413 E46.12391
G1 X67.124 Y122.534 E46.21191
G1 X65.914 Y122.567 E46.27481
G1 X64.161 Y122.535 E46.36593
G1 X62.941 Y122.457 E46.42946
G1 X61.223 Y122.269 E46.51928
G1 X60.035 Y122.085 E46.58175
G1 X58.349 Y121.746 E46.67113
G1 X57.163 Y121.452 E46.73463
G1 X55.511 Y120.963 E46.82416
G1 X54.376 Y120.571 E46.88656
G1 X52.787 Y119.943 E46.97536
G1 X51.678 Y119.446 E47.03852
G1 X50.11 Y118.655 E47.12978
G1 X49.058 Y118.063 E47.19252
G1 X47.577 Y117.139 E47.28323
G1 X46.577 Y116.45 E47.34634
G1 X45.238 Y115.438 E47.43357
G1 X44.3 Y114.663 E47.4968
G1 X43.005 Y113.491 E47.58757
G1 X42.149 Y112.642 E47.65023
G1 X40.976 Y111.368 E47.74023
G1 X40.196 Y110.441 E47.80319
G1 X39.141 Y109.067 E47.89321
G1 X38.447 Y108.073 E47.95621
G1 X37.529 Y106.624 E48.04536
G1 X36.925 Y105.57 E48.10849
G1 X36.133 Y104.031 E48.19844
G1 X35.633 Y102.942 E48.26071
G1 X34.977 Y101.324 E48.35145
G1 X34.566 Y100.161 E48.41555
G1 X34.068 Y98.522 E48.50457
G1 X33.772 Y97.366 E48.56659
G1 X33.416 Y95.662 E48.65705
G1 X33.22 Y94.449 E48.72091
G1 X33.023 Y92.754 E48.80959
G1 X32.938 Y91.568 E48.87138
G1 X32.889 Y90.138 E48.94574
G1 X32.933 Y74.459 E49.76057
G1 X32.977 Y73.219 E49.82505
G1 X33.1 Y71.984 E49.88955
G1 X33.302 Y70.76 E49.95402
G1 X33.583 Y69.552 E50.01847
G1 X34.103 Y67.903 E50.10833
G1 X34.239 Y67.531 E50.12891
G1 X34.703 Y66.38 E50.19341
G1 X35.239 Y65.261 E50.25789
G1 X35.837 Y64.197 E50.32132
G1 X35.603 Y63.619 E50.35372
G1 X35.192 Y62.455 E50.41788
G1 X34.697 Y60.825 E50.50641
G1 X34.401 Y59.67 E50.56837
G1 X34.047 Y57.977 E50.65826
G1 X33.85 Y56.764 E50.72212
G1 X33.65 Y55.054 E50.81159
G1 X33.565 Y53.868 E50.87339
G1 X33.516 Y52.437 E50.9478
G1 X33.561 Y36.759 E51.76257
G1 X33.605 Y35.519 E51.82705
G1 X33.728 Y34.284 E51.89155
G1 X33.931 Y33.06 E51.95603
G1 X34.212 Y31.851 E52.02054
G1 X34.736 Y30.193 E52.1109
G1 X34.873 Y29.819 E52.1316
G1 X35.337 Y28.668 E52.19609
G1 X35.874 Y27.55 E52.26055
G1 X36.482 Y26.468 E52.32505
G1 X36.892 Y25.84 E52.36403
G0 F810 X37.171 Y25.411
M204 S5000
M205 X30 Y30
G0 F7200 X37.581 Y25.697
M204 S500
M205 X20 Y20
G1 F6000 E52.39063
G1 F900 X37.804 Y25.378 E52.41086
G1 X38.538 Y24.398 E52.47449
G1 X39.334 Y23.468 E52.53811
G1 X40.19 Y22.592 E52.60176
G1 X41.196 Y21.693 E52.67188
G1 X41.496 Y21.444 E52.69214
G1 X42.463 Y20.693 E52.75577
G1 X43.478 Y20.007 E52.81943
G1 X44.534 Y19.389 E52.88302
G1 X45.629 Y18.841 E52.94665
G1 X45.983 Y18.678 E52.96691
G1 X47.111 Y18.202 E53.03053
G1 X48.268 Y17.801 E53.09417
G1 X49.449 Y17.477 E53.15781
G1 X50.517 Y17.253 E53.21452
G1 X50.902 Y17.184 E53.23485
G1 X52.114 Y17.008 E53.2985
G1 X53.335 Y16.91 E53.36216
G1 X54.214 Y16.89 E53.40785
G1 X178.614 Y16.914 E59.87279
G1 X179.838 Y16.954 E59.93643
G1 X181.056 Y17.074 E60.00004
G1 X182.264 Y17.274 E60.06367
G1 X183.457 Y17.551 E60.12732
G1 X185.048 Y18.054 E60.21403
G1 X185.42 Y18.19 E60.23462
G1 X186.556 Y18.648 E60.29827
G1 X187.659 Y19.179 E60.36189
G1 X188.726 Y19.781 E60.42556
G1 X189.799 Y20.485 E60.49225
G1 X190.119 Y20.711 E60.51261
G1 X191.095 Y21.449 E60.5762
G1 X192.022 Y22.25 E60.63987
G1 X192.894 Y23.11 E60.70352
G1 X193.734 Y24.056 E60.76926
G1 X193.982 Y24.355 E60.78945
G1 X194.732 Y25.322 E60.85305
G1 X195.418 Y26.337 E60.91672
G1 X196.036 Y27.394 E60.98035
G1 X196.584 Y28.489 E61.04398
G1 X197.218 Y30.049 E61.13149
G1 X197.418 Y30.612 E61.16254
G1 X197.79 Y31.778 E61.22615
G1 X198.085 Y32.967 E61.28981
G1 X198.302 Y34.172 E61.35344
G1 X198.44 Y35.389 E61.41709
G1 X198.5 Y36.907 E61.49604
G1 X198.484 Y52.994 E62.33207
G1 X198.443 Y54.218 E62.39571
G1 X198.373 Y55.012 E62.43714
G1 X198.24 Y56.229 E62.50076
G1 X197.982 Y57.893 E62.58827
G1 X197.745 Y59.07 E62.65067
G1 X197.352 Y60.66 E62.73578
G1 X197.007 Y61.833 E62.79932
G1 X196.443 Y63.468 E62.88921
G1 X195.999 Y64.585 E62.95167
G1 X195.599 Y65.473 E63.00229
G1 X195.955 Y66.184 E63.04361
G1 X196.595 Y67.758 E63.13191
G1 X196.795 Y68.322 E63.16301
G1 X197.166 Y69.489 E63.22665
G1 X197.461 Y70.678 E63.29032
G1 X197.677 Y71.883 E63.35394
G1 X197.814 Y73.1 E63.41758
G1 X197.873 Y74.609 E63.49606
G1 X197.856 Y90.696 E64.33209
G1 X197.815 Y91.92 E64.39573
G1 X197.746 Y92.699 E64.43638
G1 X197.614 Y93.915 E64.49994
G1 X197.355 Y95.593 E64.58818
G1 X197.118 Y96.77 E64.65057
G1 X196.726 Y98.355 E64.73543
G1 X196.381 Y99.529 E64.79902
G1 X195.818 Y101.163 E64.88883
G1 X195.376 Y102.276 E64.95107
G1 X194.683 Y103.815 E65.03878
G1 X194.133 Y104.903 E65.10214
G1 X193.317 Y106.355 E65.1887
G1 X192.68 Y107.378 E65.25133
G1 X191.735 Y108.754 E65.33808
G1 X191.003 Y109.725 E65.40127
G1 X189.915 Y111.04 E65.48997
G1 X189.109 Y111.928 E65.55229
G1 X187.933 Y113.113 E65.63905
G1 X187.026 Y113.949 E65.70316
G1 X185.73 Y115.039 E65.79116
G1 X184.781 Y115.767 E65.85332
G1 X183.409 Y116.726 E65.94032
G1 X182.379 Y117.379 E66.00369
G1 X180.893 Y118.228 E66.09264
G1 X179.826 Y118.775 E66.15495
G1 X178.341 Y119.456 E66.23985
G1 X177.206 Y119.918 E66.30353
G1 X175.619 Y120.483 E66.39108
G1 X174.471 Y120.834 E66.45347
G1 X172.819 Y121.258 E66.5421
G1 X171.621 Y121.508 E66.6057
G1 X169.947 Y121.779 E66.69383
G1 X168.755 Y121.917 E66.75619
