;FLAVOR:Marlin
;TIME:5277
;Filament used: 4.247m
;Layer height: 0.16
;Generated with Cura_SteamEngine 3.6.0
M140 S70
M105
M190 S70
M104 S215
M105
M109 S215
M82 ;absolute extrusion mode
G28 ; home all axes
M117 Purge extruder
G92 E0 ; reset extruder
G1 Z1.0 F3000 ; move z up little to prevent scratching of surface
G1 X0.1 Y20 Z0.3 F5000.0 ; move to start-line position G1 X0.1 Y200.0 Z0.3 F1500.0 E15 ; draw 1st line
G1 X0.4 Y200.0 Z0.3 F5000.0 ; move to side a little
G1 X0.4 Y20 Z0.3 F1500.0 E30 ; draw 2nd line
G92 E0 ; reset extruder
G1 Z1.0 F3000 ; move z up little to prevent scratching of surface
M117 All systems go!
G92 E0
G1 F6000 E-5
;LAYER_COUNT:313
;LAYER:0
M107
M204 S5000
M205 X30 Y30
G0 F7200 X106.471 Y89.658 Z0.2
M204 S500
M205 X20 Y20
;TYPE:SKIRT
G1 F6000 E0
G1 F900 X106.989 Y89.051 E0.0292
G1 X107.118 Y88.922 E0.03587
G1 X107.595 Y88.502 E0.05912
G1 X108.121 Y88.144 E0.0824
G1 X108.688 Y87.856 E0.10567
G1 X109.286 Y87.64 E0.12893
G1 X109.907 Y87.502 E0.1522
G1 X110.696 Y87.44 E0.18116
G1 X124.303 Y87.44 E0.67899
G1 X124.938 Y87.48 E0.70227
G1 X125.562 Y87.599 E0.72551
G1 X126.167 Y87.796 E0.74879
G1 X126.742 Y88.067 E0.77204
G1 X127.279 Y88.408 E0.79531
G1 X127.881 Y88.922 E0.82428
G1 X128.01 Y89.051 E0.83095
G1 X128.43 Y89.528 E0.8542
G1 X128.788 Y90.054 E0.87748
G1 X129.076 Y90.621 E0.90075
G1 X129.292 Y91.219 E0.92401
G1 X129.43 Y91.84 E0.94728
G1 X129.492 Y92.63 E0.97628
G1 X129.486 Y117.916 E1.90139
G1 X129.446 Y118.549 E1.9246
G1 X129.274 Y119.912 E1.97486
G1 X129.155 Y120.536 E1.9981
G1 X128.967 Y121.119 E2.02051
G1 X128.835 Y121.457 E2.03379
G1 X128.809 Y121.513 E2.03605
G1 X129.189 Y121.997 E2.05856
G1 X129.516 Y122.543 E2.08185
G1 X129.773 Y123.125 E2.10512
G1 X129.954 Y123.734 E2.12837
G1 X130.057 Y124.362 E2.15165
G1 X130.08 Y125.012 E2.17545
G1 X130.063 Y125.614 E2.19748
G1 X130.149 Y126.059 E2.21406
G1 X130.192 Y126.693 E2.23731
G1 X130.155 Y127.328 E2.26058
G1 X130.038 Y127.953 E2.28385
G1 X130.008 Y128.057 E2.28781
G1 X129.929 Y131.89 E2.42807
G1 X129.954 Y132.004 E2.43234
G1 X130.009 Y132.638 E2.45562
G1 X129.985 Y133.273 E2.47887
G1 X129.881 Y133.9 E2.50213
G1 X129.645 Y134.65 E2.53089
G1 X129.22 Y135.706 E2.57254
G1 X128.946 Y136.28 E2.59581
G1 X128.602 Y136.815 E2.61908
G1 X128.194 Y137.303 E2.64235
G1 X127.728 Y137.735 E2.6656
G1 X127.211 Y138.106 E2.68888
G1 X126.652 Y138.409 E2.71214
G1 X126.278 Y138.564 E2.72695
G1 X125.812 Y138.736 E2.74513
G1 X125.203 Y138.918 E2.76838
G1 X124.576 Y139.023 E2.79164
G1 X124.063 Y139.049 E2.81043
G1 X117.559 Y139.053 E3.04839
G1 X117.127 Y139.159 E3.06467
G1 X116.242 Y139.238 E3.09717
G1 X116.225 Y139.238 E3.09779
G1 X115.79 Y139.343 E3.11417
G1 X114.907 Y139.42 E3.14659
G1 X111.571 Y139.417 E3.26865
G1 X110.937 Y139.376 E3.29189
G1 X110.274 Y139.247 E3.3166
G1 X109.275 Y138.981 E3.35442
G1 X108.672 Y138.779 E3.37769
G1 X108.099 Y138.503 E3.40096
G1 X107.565 Y138.157 E3.42424
G1 X107.079 Y137.747 E3.4475
G1 X106.648 Y137.28 E3.47075
G1 X106.22 Y136.664 E3.4982
G1 X105.897 Y136.117 E3.52144
G1 X105.609 Y135.55 E3.5447
G1 X105.394 Y134.952 E3.56795
G1 X105.256 Y134.331 E3.59123
G1 X105.198 Y133.756 E3.61237
G1 X105.148 Y132.559 E3.6562
G1 X105.09 Y132.321 E3.66517
G1 X104.979 Y131.695 E3.68843
G1 X104.947 Y131.127 E3.70924
G1 X104.947 Y126.65 E3.87304
G1 X104.872 Y126.344 E3.88456
G1 X104.8 Y125.712 E3.90784
G1 X104.808 Y125.076 E3.93111
G1 X104.956 Y124.186 E3.96411
G1 X105.108 Y123.6 E3.98626
G1 X105.306 Y122.995 E4.00955
G1 X105.578 Y122.421 E4.03279
G1 X105.921 Y121.885 E4.05607
G1 X106.207 Y121.54 E4.07247
G1 X105.966 Y120.965 E4.09528
G1 X105.744 Y120.072 E4.12895
G1 X105.596 Y119.11 E4.16456
G1 X105.537 Y118.347 E4.19255
G1 X105.507 Y92.635 E5.13326
G1 X105.546 Y92 E5.15653
G1 X105.665 Y91.375 E5.17981
G1 X105.861 Y90.77 E5.20308
G1 X106.092 Y90.278 E5.22296
G0 F810 X106.131 Y90.195
G0 X106.471 Y89.658
M204 S5000
M205 X30 Y30
G0 F7200 X106.908 Y89.808
M204 S500
M205 X20 Y20
G1 F6000 E5.24956
G1 F900 X107.3 Y89.362 E5.27129
G1 X107.429 Y89.233 E5.27796
G1 X107.886 Y88.833 E5.30018
G1 X108.392 Y88.496 E5.32242
G1 X108.937 Y88.228 E5.34464
G1 X109.513 Y88.034 E5.36688
G1 X110.109 Y87.917 E5.3891
G1 X110.696 Y87.88 E5.41062
G1 X124.303 Y87.88 E5.90845
G1 X124.909 Y87.92 E5.93067
G1 X125.505 Y88.039 E5.9529
G1 X126.08 Y88.235 E5.97513
G1 X126.624 Y88.506 E5.99736
G1 X127.129 Y88.845 E6.01962
G1 X127.57 Y89.233 E6.04111
G1 X127.699 Y89.362 E6.04778
G1 X128.099 Y89.819 E6.07
G1 X128.436 Y90.325 E6.09224
G1 X128.704 Y90.87 E6.11446
G1 X128.898 Y91.446 E6.1367
G1 X129.015 Y92.042 E6.15892
G1 X129.052 Y92.63 E6.18048
G1 X129.046 Y117.916 E7.1056
G1 X129.01 Y118.493 E7.12675
G1 X128.838 Y119.856 E7.17701
G1 X128.722 Y120.453 E7.19926
G1 X128.557 Y120.959 E7.21873
G1 X128.425 Y121.297 E7.23201
G1 X128.282 Y121.603 E7.24436
G1 X128.609 Y121.955 E7.26194
G1 X128.96 Y122.451 E7.28417
G1 X129.243 Y122.988 E7.30638
G1 X129.453 Y123.559 E7.32864
G1 X129.586 Y124.151 E7.35084
G1 X129.64 Y124.999 E7.38193
G1 X129.622 Y125.64 E7.40539
G1 X129.72 Y126.169 E7.42507
G1 X129.752 Y126.776 E7.44731
G1 X129.703 Y127.382 E7.46955
G1 X129.57 Y127.95 E7.4909
G1 X129.488 Y131.936 E7.63676
G1 X129.527 Y132.123 E7.64375
G1 X129.571 Y132.729 E7.66598
G1 X129.535 Y133.336 E7.68822
G1 X129.42 Y133.933 E7.71047
G1 X129.237 Y134.486 E7.73178
G1 X128.812 Y135.542 E7.77343
G1 X128.548 Y136.089 E7.79565
G1 X128.215 Y136.598 E7.8179
G1 X127.819 Y137.058 E7.84011
G1 X127.365 Y137.462 E7.86234
G1 X126.862 Y137.803 E7.88458
G1 X126.126 Y138.151 E7.91436
G1 X125.66 Y138.323 E7.93253
G1 X125.077 Y138.496 E7.95478
G1 X124.477 Y138.59 E7.977
G1 X124.063 Y138.609 E7.99217
G1 X117.514 Y138.613 E8.23177
G1 X116.996 Y138.735 E8.25124
G1 X116.242 Y138.798 E8.27892
G1 X116.179 Y138.798 E8.28123
G1 X115.66 Y138.919 E8.30072
G1 X114.908 Y138.98 E8.32833
G1 X111.572 Y138.977 E8.45038
G1 X110.966 Y138.936 E8.4726
G1 X110.387 Y138.821 E8.4942
G1 X109.388 Y138.555 E8.53202
G1 X108.813 Y138.361 E8.55422
G1 X108.268 Y138.092 E8.57646
G1 X107.762 Y137.755 E8.5987
G1 X107.306 Y137.354 E8.62092
G1 X106.906 Y136.896 E8.64316
G1 X106.599 Y136.44 E8.66328
G1 X106.276 Y135.893 E8.68652
G1 X106.002 Y135.351 E8.70874
G1 X105.802 Y134.777 E8.73098
G1 X105.678 Y134.182 E8.75321
G1 X105.638 Y133.738 E8.76952
G1 X105.586 Y132.502 E8.81478
G1 X105.517 Y132.217 E8.82551
G1 X105.413 Y131.618 E8.84775
G1 X105.387 Y131.127 E8.86574
G1 X105.387 Y126.597 E9.03148
G1 X105.301 Y126.24 E9.04491
G1 X105.237 Y125.635 E9.06717
G1 X105.254 Y125.028 E9.08939
G1 X105.382 Y124.296 E9.11657
G1 X105.534 Y123.71 E9.13872
G1 X105.725 Y123.133 E9.16096
G1 X105.99 Y122.586 E9.1832
G1 X106.324 Y122.079 E9.20541
G1 X106.722 Y121.62 E9.22764
G1 X106.747 Y121.598 E9.22886
G1 X106.594 Y121.332 E9.24008
G1 X106.364 Y120.769 E9.26233
G1 X106.179 Y120.006 E9.29106
G1 X106.031 Y119.044 E9.32667
G1 X105.977 Y118.346 E9.35228
G1 X105.947 Y92.634 E10.29298
G1 X105.986 Y92.028 E10.3152
G1 X106.105 Y91.432 E10.33744
G1 X106.3 Y90.857 E10.35965
G1 X106.517 Y90.42 E10.3775
G0 F810 X106.57 Y90.312
G0 X106.908 Y89.808
M204 S5000
M205 X30 Y30
G0 F7200 X107.345 Y89.966
M204 S500
M205 X20 Y20
G1 F6000 E10.4041
G1 F900 X107.611 Y89.673 E10.41858
G1 X107.74 Y89.544 E10.42525
G1 X108.176 Y89.165 E10.44639
G1 X108.66 Y88.849 E10.46754
G1 X109.183 Y88.603 E10.48868
G1 X109.735 Y88.432 E10.50982
G1 X110.306 Y88.338 E10.531
G1 X110.696 Y88.32 E10.54528
G1 X124.303 Y88.32 E11.04311
G1 X124.88 Y88.36 E11.06427
G1 X125.445 Y88.479 E11.08539
G1 X125.989 Y88.675 E11.10655
G1 X126.5 Y88.944 E11.12768
G1 X126.97 Y89.281 E11.14884
G1 X127.259 Y89.544 E11.16313
G1 X127.388 Y89.673 E11.16981
G1 X127.767 Y90.109 E11.19094
G1 X128.083 Y90.593 E11.21209
G1 X128.329 Y91.116 E11.23324
G1 X128.5 Y91.668 E11.25438
G1 X128.594 Y92.239 E11.27555
G1 X128.612 Y92.63 E11.28987
G1 X128.606 Y117.916 E12.21499
G1 X128.573 Y118.438 E12.23412
G1 X128.401 Y119.801 E12.28439
G1 X128.289 Y120.368 E12.30553
G1 X128.148 Y120.799 E12.32212
G1 X128.016 Y121.137 E12.3354
G1 X127.769 Y121.659 E12.35653
G1 X127.74 Y121.703 E12.35845
G1 X128.034 Y121.968 E12.37293
G1 X128.405 Y122.411 E12.39408
G1 X128.711 Y122.901 E12.41521
G1 X128.947 Y123.429 E12.43637
G1 X129.108 Y123.984 E12.45751
G1 X129.19 Y124.556 E12.47865
G1 X129.2 Y124.987 E12.49443
G1 X129.18 Y125.681 E12.51983
G1 X129.189 Y125.708 E12.52087
G1 X129.289 Y126.277 E12.54201
G1 X129.31 Y126.855 E12.56317
G1 X129.25 Y127.43 E12.58432
G1 X129.131 Y127.91 E12.60241
G1 X129.047 Y131.98 E12.75135
G1 X129.098 Y132.24 E12.76104
G1 X129.131 Y132.817 E12.78219
G1 X129.083 Y133.393 E12.80333
G1 X128.956 Y133.957 E12.82448
G1 X128.829 Y134.322 E12.83862
G1 X128.404 Y135.378 E12.88027
G1 X128.151 Y135.898 E12.90143
G1 X127.83 Y136.378 E12.92255
G1 X127.445 Y136.809 E12.9437
G1 X127.004 Y137.183 E12.96485
G1 X126.516 Y137.493 E12.986
G1 X125.973 Y137.738 E13.0078
G1 X125.507 Y137.91 E13.02597
G1 X124.953 Y138.073 E13.0471
G1 X124.381 Y138.157 E13.06825
G1 X124.063 Y138.169 E13.0799
G1 X117.46 Y138.173 E13.32147
G1 X117.432 Y138.184 E13.32257
G1 X116.868 Y138.31 E13.34372
G1 X116.242 Y138.358 E13.36669
G1 X116.124 Y138.358 E13.371
G1 X116.097 Y138.368 E13.37206
G1 X115.533 Y138.494 E13.3932
G1 X114.908 Y138.54 E13.41613
G1 X111.572 Y138.537 E13.53818
G1 X110.996 Y138.497 E13.55931
G1 X110.5 Y138.396 E13.57782
G1 X109.501 Y138.13 E13.61565
G1 X108.955 Y137.943 E13.63676
G1 X108.439 Y137.683 E13.6579
G1 X107.964 Y137.353 E13.67906
G1 X107.539 Y136.962 E13.70019
G1 X107.172 Y136.515 E13.72135
G1 X106.978 Y136.216 E13.73439
G1 X106.655 Y135.669 E13.75763
G1 X106.396 Y135.153 E13.77876
G1 X106.211 Y134.605 E13.79992
G1 X106.103 Y134.037 E13.82107
G1 X106.078 Y133.719 E13.83274
G1 X106.024 Y132.44 E13.87958
G1 X105.945 Y132.113 E13.89188
G1 X105.848 Y131.543 E13.91304
G1 X105.827 Y131.127 E13.92828
G1 X105.827 Y126.548 E14.0958
G1 X105.73 Y126.137 E14.11125
G1 X105.675 Y125.562 E14.13239
G1 X105.701 Y124.985 E14.15352
G1 X105.808 Y124.406 E14.17506
G1 X105.96 Y123.82 E14.19721
G1 X106.143 Y123.272 E14.21835
G1 X106.401 Y122.755 E14.23949
G1 X106.727 Y122.278 E14.26063
G1 X107.116 Y121.85 E14.28179
G1 X107.311 Y121.688 E14.29106
G1 X107.263 Y121.615 E14.29426
G1 X106.977 Y121.113 E14.3154
G1 X106.764 Y120.576 E14.33653
G1 X106.614 Y119.939 E14.36047
G1 X106.466 Y118.977 E14.39608
G1 X106.417 Y118.346 E14.41924
G1 X106.387 Y92.634 E15.35994
G1 X106.426 Y92.057 E15.3811
G1 X106.545 Y91.492 E15.40223
G1 X106.74 Y90.948 E15.42337
G1 X106.94 Y90.568 E15.43908
G0 F810 X107.009 Y90.436
G0 X107.345 Y89.966
M204 S5000
M205 X30 Y30
G0 F7200 X107.447 Y90.567
M204 S500
M205 X20 Y20
G1 F6000 E15.46568
G1 F900 X107.922 Y89.984 E15.49319
G1 X108.051 Y89.855 E15.49987
G1 X108.465 Y89.498 E15.51987
G1 X108.927 Y89.205 E15.53988
G1 X109.426 Y88.982 E15.55988
G1 X109.952 Y88.835 E15.57986
G1 X110.696 Y88.76 E15.60722
G1 X124.303 Y88.76 E16.10505
G1 X124.848 Y88.8 E16.12504
G1 X125.382 Y88.919 E16.14505
G1 X125.892 Y89.114 E16.16503
G1 X126.369 Y89.382 E16.18505
G1 X126.948 Y89.855 E16.2124
G1 X127.077 Y89.984 E16.21908
G1 X127.434 Y90.398 E16.23908
G1 X127.727 Y90.86 E16.25909
G1 X127.95 Y91.359 E16.27909
G1 X128.097 Y91.885 E16.29907
G1 X128.172 Y92.63 E16.32646
G1 X128.166 Y117.916 E17.25158
G1 X128.137 Y118.383 E17.2687
G1 X127.965 Y119.746 E17.31896
G1 X127.857 Y120.282 E17.33897
G1 X127.738 Y120.639 E17.35274
G1 X127.606 Y120.977 E17.36601
G1 X127.37 Y121.47 E17.38601
G1 X127.148 Y121.8 E17.40056
G1 X127.47 Y122.04 E17.41525
G1 X127.856 Y122.427 E17.43525
G1 X128.182 Y122.866 E17.45526
G1 X128.44 Y123.348 E17.47526
G1 X128.624 Y123.862 E17.49523
G1 X128.732 Y124.398 E17.51524
G1 X128.76 Y124.974 E17.53633
G1 X128.738 Y125.745 E17.56455
G1 X128.769 Y125.843 E17.56831
G1 X128.857 Y126.382 E17.5883
G1 X128.866 Y126.929 E17.60831
G1 X128.795 Y127.471 E17.62831
G1 X128.692 Y127.86 E17.64303
G1 X128.606 Y132.009 E17.79486
G1 X128.669 Y132.354 E17.80769
G1 X128.688 Y132.9 E17.82768
G1 X128.628 Y133.443 E17.84767
G1 X128.421 Y134.157 E17.87486
G1 X127.996 Y135.213 E17.91651
G1 X127.755 Y135.704 E17.93652
G1 X127.445 Y136.155 E17.95654
G1 X127.073 Y136.555 E17.97653
G1 X126.647 Y136.897 E17.99652
G1 X126.175 Y137.174 E18.01654
G1 X125.821 Y137.326 E18.03063
G1 X125.355 Y137.498 E18.04881
G1 X124.83 Y137.649 E18.06879
G1 X124.063 Y137.729 E18.09701
G1 X117.376 Y137.734 E18.34166
G1 X117.278 Y137.77 E18.34548
G1 X116.743 Y137.884 E18.36549
G1 X116.241 Y137.918 E18.3839
G1 X116.044 Y137.918 E18.39111
G1 X115.944 Y137.955 E18.39501
G1 X115.409 Y138.067 E18.41501
G1 X114.909 Y138.1 E18.43334
G1 X111.573 Y138.097 E18.55539
G1 X111.028 Y138.057 E18.57538
G1 X110.614 Y137.971 E18.59085
G1 X109.615 Y137.705 E18.62868
G1 X109.098 Y137.526 E18.64869
G1 X108.613 Y137.274 E18.66869
G1 X108.17 Y136.954 E18.68868
G1 X107.779 Y136.572 E18.70868
G1 X107.357 Y135.993 E18.7349
G1 X107.034 Y135.446 E18.75814
G1 X106.791 Y134.956 E18.77815
G1 X106.622 Y134.436 E18.79815
G1 X106.517 Y133.701 E18.82532
G1 X106.461 Y132.373 E18.87395
G1 X106.373 Y132.009 E18.88765
G1 X106.283 Y131.47 E18.90764
G1 X106.267 Y131.127 E18.9202
G1 X106.267 Y126.5 E19.08949
G1 X106.159 Y126.036 E19.10692
G1 X106.114 Y125.492 E19.12689
G1 X106.149 Y124.946 E19.1469
G1 X106.234 Y124.517 E19.16291
G1 X106.386 Y123.931 E19.18505
G1 X106.561 Y123.413 E19.20506
G1 X106.81 Y122.927 E19.22504
G1 X107.128 Y122.482 E19.24505
G1 X107.507 Y122.088 E19.26505
G1 X107.902 Y121.781 E19.28335
G1 X107.888 Y121.762 E19.28422
G1 X107.629 Y121.372 E19.30134
G1 X107.361 Y120.896 E19.32133
G1 X107.165 Y120.386 E19.34132
G1 X107.048 Y119.872 E19.36061
G1 X106.9 Y118.91 E19.39622
G1 X106.857 Y118.345 E19.41695
G1 X106.827 Y92.633 E20.35765
G1 X106.866 Y92.088 E20.37764
G1 X106.985 Y91.554 E20.39766
G1 X107.116 Y91.213 E20.41102
G0 F810 X107.18 Y91.044
G0 X107.447 Y90.567
M204 S5000
M205 X30 Y30
G0 F7200 X107.885 Y90.707
M204 S500
M205 X20 Y20
G1 F6000 E20.43762
G1 F900 X108.234 Y90.296 E20.45735
G1 X108.363 Y90.167 E20.46402
G1 X108.753 Y89.833 E20.48281
G1 X109.19 Y89.564 E20.50158
G1 X109.664 Y89.366 E20.52038
G1 X110.162 Y89.243 E20.53914
G1 X110.696 Y89.2 E20.55874
G1 X124.303 Y89.2 E21.05657
G1 X124.815 Y89.24 E21.07536
G1 X125.314 Y89.359 E21.09413
G1 X125.789 Y89.554 E21.11291
G1 X126.228 Y89.82 E21.13169
G1 X126.636 Y90.167 E21.15129
G1 X126.765 Y90.296 E21.15796
G1 X127.099 Y90.686 E21.17675
G1 X127.368 Y91.123 E21.19552
G1 X127.566 Y91.597 E21.21432
G1 X127.689 Y92.095 E21.23309
G1 X127.732 Y92.63 E21.25272
G1 X127.726 Y117.916 E22.17784
G1 X127.7 Y118.328 E22.19294
G1 X127.528 Y119.691 E22.24321
G1 X127.424 Y120.194 E22.262
G1 X127.328 Y120.478 E22.27297
G1 X127.196 Y120.816 E22.28624
G1 X126.972 Y121.279 E22.30506
G1 X126.68 Y121.701 E22.32383
G1 X126.483 Y121.908 E22.33429
G1 X126.484 Y121.908 E22.33433
G1 X126.925 Y122.171 E22.35311
G1 X127.32 Y122.499 E22.3719
G1 X127.66 Y122.884 E22.39069
G1 X127.935 Y123.317 E22.40946
G1 X128.14 Y123.788 E22.42825
G1 X128.27 Y124.284 E22.44701
G1 X128.321 Y124.961 E22.47185
G1 X128.297 Y125.812 E22.50299
G1 X128.348 Y125.976 E22.50928
G1 X128.424 Y126.483 E22.52803
G1 X128.42 Y126.997 E22.54684
G1 X128.269 Y127.737 E22.57447
G1 X128.253 Y127.786 E22.57636
G1 X128.166 Y132.038 E22.73195
G1 X128.238 Y132.464 E22.74776
G1 X128.244 Y132.977 E22.76653
G1 X128.171 Y133.485 E22.78531
G1 X128.012 Y133.993 E22.80478
G1 X127.587 Y135.049 E22.84643
G1 X127.359 Y135.509 E22.86521
G1 X127.062 Y135.928 E22.884
G1 X126.704 Y136.296 E22.90279
G1 X126.293 Y136.604 E22.92158
G1 X125.669 Y136.913 E22.94705
G1 X125.203 Y137.085 E22.96523
G1 X124.709 Y137.225 E22.98401
G1 X124.062 Y137.289 E23.0078
G1 X117.296 Y137.294 E23.25534
G1 X117.125 Y137.356 E23.262
G1 X116.622 Y137.456 E23.28076
G1 X116.241 Y137.478 E23.29472
G1 X115.963 Y137.478 E23.30489
G1 X115.793 Y137.54 E23.31151
G1 X115.289 Y137.638 E23.3303
G1 X114.909 Y137.66 E23.34422
G1 X111.573 Y137.657 E23.46627
G1 X111.061 Y137.617 E23.48506
G1 X110.727 Y137.546 E23.49756
G1 X109.728 Y137.28 E23.53538
G1 X109.244 Y137.11 E23.55415
G1 X108.791 Y136.866 E23.57297
G1 X108.383 Y136.556 E23.59172
G1 X108.027 Y136.185 E23.61053
