;FLAVOR:Marlin
;TIME:8224
;Filament used: 6.01396m
;Layer height: 0.16
;Generated with Cura_SteamEngine 3.6.0
M140 S70
M105
M190 S70
M104 S215
M105
M109 S215
M82 ;absolute extrusion mode
G28 ; home all axes
M117 Purge extruder
G92 E0 ; reset extruder
G1 Z1.0 F3000 ; move z up little to prevent scratching of surface
G1 X0.1 Y20 Z0.3 F5000.0 ; move to start-line position G1 X0.1 Y200.0 Z0.3 F1500.0 E15 ; draw 1st line
G1 X0.4 Y200.0 Z0.3 F5000.0 ; move to side a little
G1 X0.4 Y20 Z0.3 F1500.0 E30 ; draw 2nd line
G92 E0 ; reset extruder
G1 Z1.0 F3000 ; move z up little to prevent scratching of surface
M117 All systems go!
G92 E0
G1 F6000 E-5
;LAYER_COUNT:357
;LAYER:0
M107
M204 S5000
M205 X30 Y30
G0 F7200 X92.747 Y106.425 Z0.2
M204 S500
M205 X20 Y20
;TYPE:SKIRT
G1 F6000 E0
G1 F900 X93.235 Y106.05 E0.02252
G1 X93.762 Y105.695 E0.04576
G1 X94.33 Y105.409 E0.06903
G1 X94.781 Y105.249 E0.08654
G1 X95.049 Y105.08 E0.09813
G1 X95.625 Y104.812 E0.12137
G1 X96.231 Y104.617 E0.14466
G1 X96.856 Y104.501 E0.16792
G1 X97.471 Y104.463 E0.19046
G1 X98.088 Y104.463 E0.21304
G1 X98.723 Y104.503 E0.23632
G1 X99.347 Y104.622 E0.25956
G1 X99.952 Y104.819 E0.28284
G1 X100.527 Y105.09 E0.30609
G1 X101.066 Y105.432 E0.32945
G1 X101.566 Y105.796 E0.35207
G1 X102.056 Y106.202 E0.37536
G1 X102.49 Y106.666 E0.3986
G1 X102.864 Y107.181 E0.42189
G1 X103.169 Y107.739 E0.44515
G1 X103.4 Y108.321 E0.46806
G1 X103.591 Y108.908 E0.49065
G1 X103.749 Y109.524 E0.51391
G1 X103.829 Y110.155 E0.53718
G1 X103.829 Y110.791 E0.56045
G1 X103.788 Y111.114 E0.57236
G1 X103.788 Y111.536 E0.5878
G1 X103.708 Y112.167 E0.61107
G1 X103.593 Y112.614 E0.62796
G1 X104.065 Y112.957 E0.64931
G1 X104.555 Y113.363 E0.67259
G1 X104.99 Y113.827 E0.69586
G1 X105.363 Y114.342 E0.71912
G1 X105.669 Y114.9 E0.74241
G1 X105.9 Y115.485 E0.76542
G1 X106.096 Y116.088 E0.78861
G1 X106.254 Y116.704 E0.81188
G1 X106.334 Y117.335 E0.83515
G1 X106.334 Y117.971 E0.85842
G1 X106.254 Y118.602 E0.88169
G1 X106.096 Y119.216 E0.90489
G1 X105.9 Y119.819 E0.92808
G1 X105.666 Y120.41 E0.95134
G1 X105.359 Y120.968 E0.97464
G1 X104.986 Y121.482 E0.99788
G1 X104.555 Y121.94 E1.02089
G1 X109.345 Y121.94 E1.19613
G1 X109.98 Y121.98 E1.21941
G1 X110.324 Y122.046 E1.23223
G1 X110.187 Y121.512 E1.2524
G1 X110.107 Y120.881 E1.27567
G1 X110.107 Y120.245 E1.29894
G1 X110.187 Y119.614 E1.32221
G1 X110.346 Y118.997 E1.34552
G1 X111.358 Y115.889 E1.4651
G1 X111.592 Y115.298 E1.48836
G1 X111.899 Y114.741 E1.51163
G1 X112.273 Y114.227 E1.53488
G1 X112.709 Y113.764 E1.55815
G1 X113.191 Y113.365 E1.58105
G1 X115.838 Y111.438 E1.70083
G1 X116.375 Y111.097 E1.72411
G1 X116.95 Y110.826 E1.74736
G1 X117.554 Y110.629 E1.77061
G1 X118.179 Y110.509 E1.79389
G1 X118.816 Y110.469 E1.81724
G1 X122.088 Y110.469 E1.93695
G1 X122.723 Y110.509 E1.96023
G1 X123.347 Y110.628 E1.98347
G1 X123.952 Y110.825 E2.00675
G1 X124.527 Y111.096 E2.03001
G1 X125.066 Y111.438 E2.05336
G1 X125.377 Y111.664 E2.06743
G1 X129.682 Y111.349 E2.22535
G1 X129.961 Y111.336 E2.23557
G1 X142.545 Y111.11 E2.69604
G1 X142.861 Y110.961 E2.70883
G1 X143.466 Y110.764 E2.7321
G1 X144.09 Y110.645 E2.75534
G1 X144.726 Y110.605 E2.77866
G1 X147.998 Y110.605 E2.89837
G1 X148.401 Y110.63 E2.91314
G1 X148.403 Y110.613 E2.91377
G1 X148.408 Y110.592 E2.91456
G1 X148.386 Y110.269 E2.9264
G1 X148.422 Y109.634 E2.94967
G1 X148.537 Y109.009 E2.97292
G1 X148.634 Y108.669 E2.98586
G1 X148.825 Y108.082 E3.00844
G1 X149.06 Y107.491 E3.03171
G1 X149.366 Y106.934 E3.05496
G1 X149.74 Y106.42 E3.07822
G1 X150.176 Y105.957 E3.10149
G1 X150.666 Y105.552 E3.12475
G1 X150.957 Y105.356 E3.13758
G1 X151.54 Y104.992 E3.16273
G1 X152.1 Y104.69 E3.18601
G1 X152.693 Y104.46 E3.20928
G1 X153.31 Y104.307 E3.23253
G1 X153.941 Y104.232 E3.25578
G1 X154.577 Y104.237 E3.27905
G1 X154.795 Y104.266 E3.2871
G1 X154.796 Y104.264 E3.28718
G1 X155.067 Y103.689 E3.31043
G1 X155.408 Y103.152 E3.33371
G1 X155.922 Y102.551 E3.36264
G1 X156.051 Y102.422 E3.36932
G1 X156.528 Y102.002 E3.39257
G1 X157.054 Y101.644 E3.41585
G1 X157.621 Y101.356 E3.43911
G1 X158.219 Y101.14 E3.46238
G1 X158.84 Y101.002 E3.48565
G1 X159.629 Y100.94 E3.51461
G1 X161.371 Y100.94 E3.57834
G1 X162.006 Y100.98 E3.60162
G1 X162.63 Y101.099 E3.62486
G1 X163.235 Y101.296 E3.64814
G1 X163.81 Y101.567 E3.67139
G1 X164.347 Y101.908 E3.69467
G1 X164.949 Y102.422 E3.72363
G1 X165.078 Y102.551 E3.7303
G1 X165.498 Y103.028 E3.75355
G1 X165.856 Y103.554 E3.77683
G1 X166.144 Y104.121 E3.8001
G1 X166.36 Y104.719 E3.82336
G1 X166.498 Y105.34 E3.84664
G1 X166.56 Y106.129 E3.87559
G1 X166.56 Y128.871 E4.70763
G1 X166.52 Y129.506 E4.73091
G1 X166.401 Y130.13 E4.75415
G1 X166.204 Y130.735 E4.77743
G1 X165.933 Y131.31 E4.80069
G1 X165.592 Y131.847 E4.82396
G1 X165.078 Y132.449 E4.85292
G1 X164.949 Y132.578 E4.8596
G1 X164.472 Y132.998 E4.88285
G1 X163.946 Y133.356 E4.90613
G1 X163.379 Y133.644 E4.92939
G1 X162.781 Y133.86 E4.95266
G1 X162.16 Y133.998 E4.97593
G1 X161.371 Y134.06 E5.00489
G1 X144.937 Y134.06 E5.60614
G1 X144.957 Y134.138 E5.60909
G1 X145.036 Y134.769 E5.63236
G1 X145.036 Y135.405 E5.65562
G1 X144.955 Y136.035 E5.67886
G1 X144.797 Y136.646 E5.70195
G1 X143.836 Y139.598 E5.81553
G1 X143.602 Y140.189 E5.83879
G1 X143.295 Y140.747 E5.86209
G1 X142.921 Y141.261 E5.88535
G1 X142.485 Y141.724 E5.90861
G1 X142.003 Y142.123 E5.93151
G1 X139.488 Y143.954 E6.04532
G1 X138.952 Y144.295 E6.06857
G1 X138.376 Y144.566 E6.09186
G1 X137.772 Y144.763 E6.1151
G1 X137.147 Y144.883 E6.13838
G1 X136.51 Y144.923 E6.16173
G1 X133.402 Y144.923 E6.27544
G1 X132.767 Y144.883 E6.29872
G1 X132.143 Y144.764 E6.32196
G1 X131.538 Y144.567 E6.34524
G1 X130.963 Y144.296 E6.3685
G1 X130.424 Y143.954 E6.39185
G1 X127.909 Y142.123 E6.50567
G1 X127.419 Y141.717 E6.52895
G1 X126.984 Y141.253 E6.55222
G1 X126.611 Y140.738 E6.57549
G1 X126.306 Y140.18 E6.59875
G1 X126.076 Y139.598 E6.62165
G1 X125.115 Y136.646 E6.73523
G1 X124.956 Y136.03 E6.7585
G1 X124.876 Y135.4 E6.78174
G1 X124.876 Y134.764 E6.80501
G1 X124.955 Y134.133 E6.82827
G1 X124.974 Y134.06 E6.83103
G1 X117.553 Y134.06 E7.10254
G1 X116.918 Y134.02 E7.12582
G1 X116.294 Y133.901 E7.14906
G1 X115.689 Y133.704 E7.17234
G1 X115.114 Y133.433 E7.19559
G1 X114.577 Y133.092 E7.21887
G1 X113.975 Y132.578 E7.24783
G1 X113.846 Y132.449 E7.2545
G1 X113.443 Y131.991 E7.27682
G1 X113.052 Y132.449 E7.29885
G1 X112.923 Y132.578 E7.30553
G1 X112.446 Y132.998 E7.32878
G1 X111.92 Y133.356 E7.35206
G1 X111.353 Y133.644 E7.37533
G1 X110.755 Y133.86 E7.39859
G1 X110.134 Y133.998 E7.42186
G1 X109.345 Y134.06 E7.45082
G1 X73.629 Y134.06 E8.75753
G1 X72.994 Y134.02 E8.78081
G1 X72.37 Y133.901 E8.80405
G1 X71.765 Y133.704 E8.82733
G1 X71.19 Y133.433 E8.85058
G1 X70.653 Y133.092 E8.87386
G1 X70.051 Y132.578 E8.90282
G1 X69.922 Y132.449 E8.90949
G1 X69.502 Y131.972 E8.93274
G1 X69.144 Y131.446 E8.95602
G1 X68.856 Y130.879 E8.97929
G1 X68.64 Y130.281 E9.00255
G1 X68.502 Y129.66 E9.02583
G1 X68.44 Y128.871 E9.05478
G1 X68.44 Y127.129 E9.11851
G1 X68.48 Y126.494 E9.14179
G1 X68.599 Y125.87 E9.16503
G1 X68.796 Y125.265 E9.18831
G1 X69.067 Y124.69 E9.21157
G1 X69.408 Y124.153 E9.23484
G1 X69.922 Y123.551 E9.2638
G1 X70.051 Y123.422 E9.27048
G1 X70.528 Y123.002 E9.29373
G1 X71.054 Y122.644 E9.31701
G1 X71.621 Y122.356 E9.34028
G1 X72.219 Y122.14 E9.36354
G1 X72.84 Y122.002 E9.38681
G1 X73.629 Y121.94 E9.41577
G1 X90.901 Y121.94 E10.04768
G1 X90.701 Y121.423 E10.06796
G1 X90.685 Y121.406 E10.06882
G1 X90.31 Y120.892 E10.0921
G1 X90.003 Y120.335 E10.11537
G1 X89.767 Y119.739 E10.13882
G1 X89.571 Y119.136 E10.16202
G1 X89.413 Y118.52 E10.18528
G1 X89.333 Y117.889 E10.20855
G1 X89.333 Y117.253 E10.23182
G1 X89.413 Y116.622 E10.25509
G1 X89.571 Y116.008 E10.27829
G1 X89.767 Y115.405 E10.30149
G1 X90.001 Y114.814 E10.32474
G1 X90.089 Y114.654 E10.33142
G1 X90.07 Y114.579 E10.33425
G1 X89.99 Y113.948 E10.35752
G1 X89.99 Y113.312 E10.38079
G1 X90.07 Y112.681 E10.40406
G1 X90.228 Y112.063 E10.4274
G1 X90.419 Y111.476 E10.44998
G1 X90.426 Y111.459 E10.45066
G1 X90.554 Y110.958 E10.46958
G1 X90.567 Y110.521 E10.48557
G1 X90.666 Y109.893 E10.50883
G1 X90.916 Y109.091 E10.53957
G1 X91.141 Y108.536 E10.56148
G1 X91.416 Y107.963 E10.58473
G1 X91.761 Y107.429 E10.60799
G1 X92.171 Y106.942 E10.63128
G1 X92.747 Y106.425 E10.6596
M204 S5000
M205 X30 Y30
G0 F7200 X93.015 Y106.774
M204 S500
M205 X20 Y20
G1 F900 X93.503 Y106.399 E10.68211
G1 X94.008 Y106.061 E10.70435
G1 X94.553 Y105.792 E10.72658
G1 X94.961 Y105.655 E10.74233
G1 X95.307 Y105.441 E10.75721
G1 X95.862 Y105.192 E10.77947
G1 X96.444 Y105.019 E10.80168
G1 X97.044 Y104.923 E10.82391
G1 X97.471 Y104.903 E10.83955
G1 X98.088 Y104.903 E10.86213
G1 X98.694 Y104.943 E10.88435
G1 X99.29 Y105.062 E10.90658
G1 X99.865 Y105.258 E10.92881
G1 X100.409 Y105.529 E10.95104
G1 X100.807 Y105.788 E10.96842
G1 X101.307 Y106.152 E10.99104
G1 X101.774 Y106.541 E11.01328
G1 X102.185 Y106.988 E11.0355
G1 X102.535 Y107.485 E11.05774
G1 X102.816 Y108.024 E11.07997
G1 X102.981 Y108.457 E11.09693
G1 X103.172 Y109.044 E11.11951
G1 X103.322 Y109.633 E11.14175
G1 X103.393 Y110.237 E11.164
G1 X103.384 Y110.844 E11.18621
G1 X103.351 Y111.068 E11.19449
G1 X103.343 Y111.589 E11.21356
G1 X103.254 Y112.19 E11.23578
G1 X103.134 Y112.636 E11.25268
G1 X103.081 Y112.802 E11.25906
G1 X103.292 Y112.939 E11.26826
G1 X103.806 Y113.313 E11.29152
G1 X104.273 Y113.702 E11.31376
G1 X104.685 Y114.149 E11.336
G1 X105.034 Y114.646 E11.35822
G1 X105.315 Y115.185 E11.38045
G1 X105.482 Y115.621 E11.39754
G1 X105.678 Y116.224 E11.42073
G1 X105.827 Y116.813 E11.44296
G1 X105.898 Y117.416 E11.46518
G1 X105.889 Y118.024 E11.48742
G1 X105.8 Y118.625 E11.50965
G1 X105.678 Y119.08 E11.52688
G1 X105.482 Y119.683 E11.55008
G1 X105.256 Y120.247 E11.57231
G1 X104.959 Y120.777 E11.59454
G1 X104.594 Y121.263 E11.61678
G1 X104.169 Y121.697 E11.639
G1 X103.806 Y121.991 E11.65609
G1 X103.292 Y122.365 E11.67935
G1 X103.268 Y122.38 E11.68038
G1 X109.345 Y122.38 E11.90272
G1 X109.951 Y122.42 E11.92494
G1 X110.547 Y122.539 E11.94717
G1 X110.99 Y122.69 E11.9643
G1 X110.763 Y121.992 E11.99115
G1 X110.614 Y121.403 E12.01338
G1 X110.543 Y120.8 E12.03559
G1 X110.552 Y120.192 E12.05784
G1 X110.641 Y119.591 E12.08007
G1 X110.764 Y119.134 E12.09738
G1 X111.776 Y116.026 E12.21697
G1 X112.002 Y115.461 E12.23923
G1 X112.3 Y114.932 E12.26144
G1 X112.664 Y114.446 E12.28366
G1 X113.09 Y114.012 E12.30591
G1 X113.45 Y113.721 E12.32284
G1 X116.097 Y111.794 E12.44263
G1 X116.611 Y111.469 E12.46488
G1 X117.162 Y111.215 E12.48708
G1 X117.743 Y111.035 E12.50933
G1 X118.342 Y110.933 E12.53156
G1 X118.816 Y110.909 E12.54893
G1 X122.088 Y110.909 E12.66864
G1 X122.694 Y110.949 E12.69086
G1 X123.29 Y111.068 E12.71309
G1 X123.865 Y111.264 E12.73532
G1 X124.409 Y111.535 E12.75755
G1 X124.807 Y111.794 E12.77493
G1 X125.247 Y112.114 E12.79483
G1 X129.714 Y111.787 E12.9587
G1 X129.969 Y111.776 E12.96804
G1 X142.646 Y111.548 E13.43191
G1 X143.074 Y111.351 E13.44915
G1 X143.654 Y111.171 E13.47137
G1 X144.253 Y111.069 E13.4936
G1 X144.726 Y111.045 E13.51093
G1 X147.998 Y111.045 E13.63064
G1 X148.604 Y111.085 E13.65286
G1 X148.779 Y111.12 E13.65939
G1 X148.851 Y110.63 E13.67751
G1 X148.826 Y110.185 E13.69381
G1 X148.873 Y109.579 E13.71605
G1 X149.053 Y108.805 E13.74513
G1 X149.244 Y108.218 E13.76771
G1 X149.469 Y107.654 E13.78993
G1 X149.767 Y107.125 E13.81214
G1 X150.132 Y106.639 E13.83438
G1 X150.557 Y106.205 E13.8566
G1 X151.19 Y105.729 E13.88558
G1 X151.773 Y105.365 E13.91072
G1 X152.309 Y105.078 E13.93297
G1 X152.877 Y104.863 E13.95519
G1 X153.469 Y104.725 E13.97743
G1 X154.074 Y104.666 E13.99967
G1 X154.681 Y104.687 E14.02189
G1 X155.097 Y104.756 E14.03731
G1 X155.236 Y104.351 E14.05298
G1 X155.506 Y103.807 E14.0752
G1 X155.845 Y103.303 E14.09742
G1 X156.233 Y102.862 E14.11891
G1 X156.362 Y102.733 E14.12559
G1 X156.819 Y102.333 E14.14781
G1 X157.325 Y101.996 E14.17005
G1 X157.87 Y101.728 E14.19227
G1 X158.446 Y101.534 E14.21451
G1 X159.042 Y101.417 E14.23673
G1 X159.629 Y101.38 E14.25825
G1 X161.371 Y101.38 E14.32198
G1 X161.977 Y101.42 E14.3442
G1 X162.573 Y101.539 E14.36643
G1 X163.148 Y101.735 E14.38866
G1 X163.692 Y102.006 E14.4109
G1 X164.197 Y102.345 E14.43315
G1 X164.638 Y102.733 E14.45464
G1 X164.767 Y102.862 E14.46131
G1 X165.167 Y103.319 E14.48353
G1 X165.504 Y103.825 E14.50578
G1 X165.772 Y104.37 E14.528
G1 X165.966 Y104.946 E14.55023
G1 X166.083 Y105.542 E14.57245
G1 X166.12 Y106.129 E14.59397
G1 X166.12 Y128.871 E15.42602
G1 X166.08 Y129.477 E15.44823
G1 X165.961 Y130.073 E15.47047
G1 X165.765 Y130.648 E15.4927
G1 X165.494 Y131.192 E15.51493
G1 X165.155 Y131.697 E15.53718
G1 X164.767 Y132.138 E15.55868
G1 X164.638 Y132.267 E15.56535
G1 X164.181 Y132.667 E15.58757
G1 X163.675 Y133.004 E15.60981
G1 X163.13 Y133.272 E15.63203
G1 X162.554 Y133.466 E15.65427
G1 X161.958 Y133.583 E15.67649
G1 X161.371 Y133.62 E15.69801
G1 X144.369 Y133.62 E16.32005
G1 X144.381 Y133.657 E16.32147
G1 X144.53 Y134.246 E16.3437
G1 X144.6 Y134.85 E16.36594
G1 X144.591 Y135.457 E16.38815
G1 X144.501 Y136.058 E16.41039
G1 X144.379 Y136.51 E16.42752
G1 X143.418 Y139.462 E16.5411
G1 X143.192 Y140.026 E16.56333
G1 X142.895 Y140.556 E16.58555
G1 X142.53 Y141.042 E16.60779
G1 X142.105 Y141.476 E16.63002
G1 X141.744 Y141.767 E16.64698
G1 X139.229 Y143.598 E16.7608
G1 X138.716 Y143.923 E16.78301
G1 X138.164 Y144.177 E16.80525
G1 X137.583 Y144.357 E16.8275
G1 X136.984 Y144.459 E16.84973
G1 X136.51 Y144.483 E16.86709
G1 X133.402 Y144.483 E16.9808
G1 X132.796 Y144.443 E17.00302
G1 X132.2 Y144.324 E17.02526
G1 X131.625 Y144.128 E17.04748
G1 X131.081 Y143.857 E17.06972
G1 X130.683 Y143.598 E17.08709
G1 X128.168 Y141.767 E17.20091
G1 X127.701 Y141.378 E17.22315
G1 X127.29 Y140.931 E17.24536
G1 X126.94 Y140.434 E17.2676
G1 X126.659 Y139.895 E17.28984
G1 X126.494 Y139.462 E17.30679
G1 X125.533 Y136.51 E17.42037
G1 X125.383 Y135.921 E17.44261
G1 X125.312 Y135.318 E17.46483
G1 X125.321 Y134.71 E17.48707
G1 X125.409 Y134.109 E17.5093
G1 X125.531 Y133.657 E17.52642
G1 X125.543 Y133.62 E17.52785
G1 X117.553 Y133.62 E17.82017
G1 X116.947 Y133.58 E17.84239
G1 X116.351 Y133.461 E17.86463
G1 X115.776 Y133.265 E17.88685
G1 X115.232 Y132.994 E17.90909
G1 X114.727 Y132.655 E17.93134
G1 X114.286 Y132.267 E17.95283
G1 X114.157 Y132.138 E17.9595
G1 X113.757 Y131.681 E17.98172
G1 X113.45 Y131.219 E18.00202
G1 X113.129 Y131.697 E18.02308
G1 X112.741 Y132.138 E18.04457
G1 X112.612 Y132.267 E18.05125
G1 X112.155 Y132.667 E18.07347
G1 X111.649 Y133.004 E18.09571
G1 X111.104 Y133.272 E18.11793
G1 X110.528 Y133.466 E18.14017
G1 X109.932 Y133.583 E18.16239
G1 X109.345 Y133.62 E18.18391
G1 X73.629 Y133.62 E19.49062
G1 X73.023 Y133.58 E19.51284
G1 X72.427 Y133.461 E19.53507
G1 X71.852 Y133.265 E19.5573
G1 X71.308 Y132.994 E19.57954
G1 X70.803 Y132.655 E19.60179
G1 X70.362 Y132.267 E19.62328
G1 X70.233 Y132.138 E19.62995
G1 X69.833 Y131.681 E19.65217
G1 X69.496 Y131.175 E19.67442
G1 X69.228 Y130.63 E19.69664
G1 X69.034 Y130.054 E19.71887
G1 X68.917 Y129.458 E19.74109
G1 X68.88 Y128.871 E19.76261
G1 X68.88 Y127.129 E19.82635
G1 X68.92 Y126.523 E19.84857
G1 X69.039 Y125.927 E19.8708
G1 X69.235 Y125.352 E19.89303
G1 X69.506 Y124.808 E19.91526
G1 X69.845 Y124.303 E19.93752
G1 X70.233 Y123.862 E19.95901
G1 X70.362 Y123.733 E19.96568
G1 X70.819 Y123.333 E19.9879
G1 X71.325 Y122.996 E20.01014
G1 X71.87 Y122.728 E20.03236
G1 X72.446 Y122.534 E20.0546
G1 X73.042 Y122.417 E20.07682
G1 X73.629 Y122.38 E20.09834
G1 X91.592 Y122.38 E20.75554
G1 X91.358 Y121.905 E20.77491
G1 X91.078 Y121.179 E20.80338
G1 X90.989 Y121.083 E20.80817
G1 X90.638 Y120.587 E20.8304
G1 X90.356 Y120.049 E20.85262
G1 X90.185 Y119.603 E20.8701
G1 X89.989 Y119 E20.89329
G1 X89.84 Y118.411 E20.91552
G1 X89.769 Y117.808 E20.93774
G1 X89.778 Y117.2 E20.95998
G1 X89.867 Y116.599 E20.98221
G1 X89.989 Y116.144 E20.99945
G1 X90.185 Y115.541 E21.02264
G1 X90.411 Y114.977 E21.04487
G1 X90.559 Y114.713 E21.05595
G1 X90.497 Y114.47 E21.06512
G1 X90.426 Y113.866 E21.08737
G1 X90.435 Y113.259 E21.10958
G1 X90.523 Y112.657 E21.13184
G1 X90.647 Y112.199 E21.1492
G1 X90.838 Y111.612 E21.17179
