;FLAVOR:Marlin
;TIME:2579
;Filament used: 1.32517m
;Layer height: 0.16
;Generated with Cura_SteamEngine 3.6.0
M140 S70
M105
M190 S70
M104 S215
M105
M109 S215
M82 ;absolute extrusion mode
G28 ; home all axes
M117 Purge extruder
G92 E0 ; reset extruder
G1 Z1.0 F3000 ; move z up little to prevent scratching of surface
G1 X0.1 Y20 Z0.3 F5000.0 ; move to start-line position G1 X0.1 Y200.0 Z0.3 F1500.0 E15 ; draw 1st line
G1 X0.4 Y200.0 Z0.3 F5000.0 ; move to side a little
G1 X0.4 Y20 Z0.3 F1500.0 E30 ; draw 2nd line
G92 E0 ; reset extruder
G1 Z1.0 F3000 ; move z up little to prevent scratching of surface
M117 All systems go!
G92 E0
G1 F6000 E-5
;LAYER_COUNT:13
;LAYER:0
M107
M204 S5000
M205 X30 Y30
G0 F7200 X69.927 Y85.999 Z0.2
M204 S500
M205 X20 Y20
;TYPE:SKIRT
G1 F6000 E0
G1 F900 X70.442 Y85.626 E0.02326
G1 X71 Y85.32 E0.04655
G1 X71.591 Y85.086 E0.0698
G1 X72.207 Y84.929 E0.09306
G1 X73.15 Y84.84 E0.12772
G1 X161.851 Y84.839 E3.37294
G1 X162.486 Y84.879 E3.39622
G1 X163.11 Y84.998 E3.41946
G1 X163.715 Y85.195 E3.44274
G1 X164.29 Y85.466 E3.466
G1 X164.827 Y85.807 E3.48927
G1 X165.317 Y86.212 E3.51253
G1 X165.752 Y86.676 E3.5358
G1 X166.125 Y87.191 E3.55906
G1 X166.431 Y87.748 E3.58231
G1 X166.665 Y88.34 E3.6056
G1 X166.822 Y88.956 E3.62886
G1 X166.911 Y89.899 E3.66352
G1 X166.91 Y145.1 E5.68311
G1 X166.87 Y145.735 E5.70639
G1 X166.751 Y146.359 E5.72963
G1 X166.554 Y146.964 E5.75291
G1 X166.283 Y147.539 E5.77616
G1 X165.942 Y148.076 E5.79944
G1 X165.537 Y148.566 E5.82269
G1 X165.073 Y149.001 E5.84596
G1 X164.558 Y149.374 E5.86923
G1 X164 Y149.68 E5.89251
G1 X163.409 Y149.914 E5.91577
G1 X162.793 Y150.071 E5.93902
G1 X161.85 Y150.16 E5.97368
G1 X73.15 Y150.16 E9.21887
G1 X72.515 Y150.12 E9.24215
G1 X71.891 Y150.001 E9.26539
G1 X71.286 Y149.804 E9.28867
G1 X70.711 Y149.533 E9.31192
G1 X70.174 Y149.192 E9.3352
G1 X69.684 Y148.787 E9.35845
G1 X69.249 Y148.323 E9.38172
G1 X68.876 Y147.808 E9.40499
G1 X68.57 Y147.25 E9.42827
G1 X68.336 Y146.659 E9.45153
G1 X68.179 Y146.043 E9.47479
G1 X68.09 Y145.1 E9.50944
G1 X68.09 Y89.9 E11.529
G1 X68.13 Y89.265 E11.55227
G1 X68.249 Y88.641 E11.57551
G1 X68.446 Y88.036 E11.59879
G1 X68.717 Y87.461 E11.62205
G1 X69.058 Y86.924 E11.64532
G1 X69.405 Y86.504 E11.66525
G0 F810 X69.463 Y86.434
G0 X69.927 Y85.999
M204 S5000
M205 X30 Y30
G0 F7200 X70.356 Y86.221
M204 S500
M205 X20 Y20
G1 F6000 E11.69185
G1 F900 X70.863 Y85.886 E11.71409
G1 X71.409 Y85.62 E11.73631
G1 X71.986 Y85.429 E11.75854
G1 X72.583 Y85.315 E11.78078
G1 X73.15 Y85.28 E11.80156
G1 X161.851 Y85.279 E15.04679
G1 X162.457 Y85.319 E15.06901
G1 X163.053 Y85.438 E15.09125
G1 X163.628 Y85.634 E15.11347
G1 X164.172 Y85.905 E15.13571
G1 X164.677 Y86.244 E15.15796
G1 X165.132 Y86.646 E15.18017
G1 X165.53 Y87.105 E15.2024
G1 X165.865 Y87.612 E15.22463
G1 X166.131 Y88.158 E15.24685
G1 X166.322 Y88.735 E15.26909
G1 X166.436 Y89.332 E15.29133
G1 X166.471 Y89.899 E15.31211
G1 X166.47 Y145.1 E17.3317
G1 X166.43 Y145.706 E17.35392
G1 X166.311 Y146.302 E17.37616
G1 X166.114 Y146.877 E17.3984
G1 X165.844 Y147.421 E17.42062
G1 X165.505 Y147.926 E17.44287
G1 X165.103 Y148.381 E17.46508
G1 X164.644 Y148.779 E17.48731
G1 X164.137 Y149.114 E17.50954
G1 X163.59 Y149.38 E17.53179
G1 X163.014 Y149.571 E17.554
G1 X162.417 Y149.685 E17.57623
G1 X161.85 Y149.72 E17.59702
G1 X73.15 Y149.72 E20.84221
G1 X72.544 Y149.68 E20.86443
G1 X71.948 Y149.561 E20.88666
G1 X71.373 Y149.365 E20.90889
G1 X70.829 Y149.094 E20.93112
G1 X70.324 Y148.755 E20.95338
G1 X69.869 Y148.353 E20.97559
G1 X69.471 Y147.894 E20.99782
G1 X69.136 Y147.387 E21.02005
G1 X68.87 Y146.841 E21.04227
G1 X68.679 Y146.264 E21.06451
G1 X68.565 Y145.667 E21.08674
G1 X68.53 Y145.1 E21.10753
G1 X68.53 Y89.9 E23.12708
G1 X68.57 Y89.294 E23.1493
G1 X68.689 Y88.698 E23.17154
G1 X68.885 Y88.123 E23.19376
G1 X69.156 Y87.579 E23.216
G1 X69.495 Y87.074 E23.23825
G1 X69.818 Y86.708 E23.25611
G0 F810 X69.897 Y86.619
G0 X70.356 Y86.221
M204 S5000
M205 X30 Y30
G0 F7200 X70.33 Y86.815
M204 S500
M205 X20 Y20
G1 F6000 E23.28271
G1 F900 X70.782 Y86.455 E23.30385
G1 X71.28 Y86.162 E23.32499
G1 X71.813 Y85.939 E23.34613
G1 X72.373 Y85.793 E23.3673
G1 X73.15 Y85.72 E23.39586
G1 X161.851 Y85.719 E26.64108
G1 X162.427 Y85.759 E26.66221
G1 X162.993 Y85.878 E26.68337
G1 X163.537 Y86.074 E26.70452
G1 X164.048 Y86.343 E26.72565
G1 X164.518 Y86.68 E26.74681
G1 X164.936 Y87.079 E26.76795
G1 X165.296 Y87.531 E26.78909
G1 X165.589 Y88.029 E26.81023
G1 X165.812 Y88.562 E26.83137
G1 X165.958 Y89.121 E26.85251
G1 X166.031 Y89.899 E26.8811
G1 X166.03 Y145.1 E28.90069
G1 X165.99 Y145.677 E28.92185
G1 X165.871 Y146.242 E28.94297
G1 X165.675 Y146.786 E28.96413
G1 X165.406 Y147.297 E28.98526
G1 X165.069 Y147.767 E29.00642
G1 X164.67 Y148.185 E29.02756
G1 X164.218 Y148.545 E29.0487
G1 X163.72 Y148.838 E29.06984
G1 X163.186 Y149.061 E29.09101
G1 X162.627 Y149.207 E29.11215
G1 X161.85 Y149.28 E29.1407
G1 X73.15 Y149.28 E32.38589
G1 X72.573 Y149.24 E32.40705
G1 X72.008 Y149.121 E32.42818
G1 X71.464 Y148.925 E32.44933
G1 X70.953 Y148.656 E32.47046
G1 X70.483 Y148.319 E32.49162
G1 X70.065 Y147.92 E32.51276
G1 X69.705 Y147.468 E32.5339
G1 X69.412 Y146.97 E32.55504
G1 X69.189 Y146.437 E32.57618
G1 X69.043 Y145.877 E32.59735
G1 X68.97 Y145.1 E32.62591
G1 X68.97 Y89.9 E34.64546
G1 X69.01 Y89.323 E34.66662
G1 X69.129 Y88.758 E34.68775
G1 X69.325 Y88.214 E34.7089
G1 X69.594 Y87.703 E34.73003
G1 X69.844 Y87.354 E34.74574
G0 F810 X69.931 Y87.233
G0 X70.33 Y86.815
M204 S5000
M205 X30 Y30
G0 F7200 X70.76 Y87.023
M204 S500
M205 X20 Y20
G1 F6000 E34.77234
G1 F900 X71.205 Y86.705 E34.79235
G1 X71.692 Y86.456 E34.81236
G1 X72.209 Y86.28 E34.83234
G1 X72.747 Y86.182 E34.85235
G1 X73.15 Y86.16 E34.86711
G1 X161.851 Y86.159 E38.11234
G1 X162.396 Y86.199 E38.13233
G1 X162.93 Y86.318 E38.15235
G1 X163.44 Y86.513 E38.17233
G1 X163.917 Y86.781 E38.19234
G1 X164.349 Y87.116 E38.21234
G1 X164.728 Y87.509 E38.23232
G1 X165.046 Y87.954 E38.25233
G1 X165.295 Y88.441 E38.27234
G1 X165.471 Y88.958 E38.29232
G1 X165.569 Y89.496 E38.31233
G1 X165.591 Y89.899 E38.3271
G1 X165.59 Y145.1 E40.34669
G1 X165.55 Y145.645 E40.36668
G1 X165.431 Y146.179 E40.3867
G1 X165.236 Y146.689 E40.40667
G1 X164.968 Y147.166 E40.42669
G1 X164.633 Y147.598 E40.44669
G1 X164.239 Y147.977 E40.46669
G1 X163.795 Y148.295 E40.48667
G1 X163.308 Y148.544 E40.50668
G1 X162.79 Y148.72 E40.5267
G1 X162.253 Y148.818 E40.54667
G1 X161.85 Y148.84 E40.56144
G1 X73.15 Y148.84 E43.80663
G1 X72.605 Y148.8 E43.82662
G1 X72.071 Y148.681 E43.84664
G1 X71.561 Y148.486 E43.86661
G1 X71.084 Y148.218 E43.88663
G1 X70.652 Y147.883 E43.90663
G1 X70.273 Y147.49 E43.92661
G1 X69.955 Y147.045 E43.94662
G1 X69.706 Y146.558 E43.96663
G1 X69.53 Y146.041 E43.98661
G1 X69.432 Y145.503 E44.00662
G1 X69.41 Y145.1 E44.02138
G1 X69.41 Y89.9 E46.04094
G1 X69.45 Y89.355 E46.06093
G1 X69.569 Y88.821 E46.08095
G1 X69.764 Y88.311 E46.10093
G1 X70.032 Y87.834 E46.12094
G1 X70.256 Y87.546 E46.13429
G0 F810 X70.367 Y87.402
G0 X70.76 Y87.023
M204 S5000
M205 X30 Y30
G0 F7200 X71.189 Y87.246
M204 S500
M205 X20 Y20
G1 F6000 E46.16089
G1 F900 X71.624 Y86.974 E46.17966
G1 X72.097 Y86.773 E46.19846
G1 X72.594 Y86.647 E46.21722
G1 X73.15 Y86.6 E46.23764
G1 X161.851 Y86.599 E49.48286
G1 X162.363 Y86.639 E49.50165
G1 X162.862 Y86.758 E49.52042
G1 X163.337 Y86.953 E49.53921
G1 X163.776 Y87.219 E49.55799
G1 X164.169 Y87.55 E49.57679
G1 X164.505 Y87.938 E49.59556
G1 X164.777 Y88.373 E49.61433
G1 X164.978 Y88.846 E49.63314
G1 X165.104 Y89.343 E49.6519
G1 X165.151 Y89.899 E49.67231
G1 X165.15 Y145.1 E51.6919
G1 X165.11 Y145.612 E51.71069
G1 X164.991 Y146.111 E51.72946
G1 X164.796 Y146.586 E51.74825
G1 X164.53 Y147.025 E51.76702
G1 X164.199 Y147.418 E51.78582
G1 X163.811 Y147.754 E51.8046
G1 X163.376 Y148.026 E51.82337
G1 X162.903 Y148.227 E51.84217
G1 X162.405 Y148.353 E51.86097
G1 X161.85 Y148.4 E51.88135
G1 X73.15 Y148.4 E55.12654
G1 X72.638 Y148.36 E55.14533
G1 X72.139 Y148.241 E55.1641
G1 X71.664 Y148.046 E55.18288
G1 X71.225 Y147.78 E55.20166
G1 X70.832 Y147.449 E55.22046
G1 X70.496 Y147.061 E55.23924
G1 X70.224 Y146.626 E55.25801
G1 X70.023 Y146.153 E55.27681
G1 X69.897 Y145.656 E55.29557
G1 X69.85 Y145.1 E55.31598
G1 X69.85 Y89.9 E57.33554
G1 X69.89 Y89.388 E57.35433
G1 X70.009 Y88.889 E57.3731
G1 X70.204 Y88.414 E57.39188
G1 X70.47 Y87.975 E57.41066
G1 X70.663 Y87.745 E57.42165
G0 F810 X70.801 Y87.582
G0 X71.189 Y87.246
M204 S5000
M205 X30 Y30
G0 F7200 X71.234 Y87.777
M204 S500
M205 X20 Y20
G1 F6000 E57.44825
G1 F900 X71.614 Y87.488 E57.46571
G1 X72.037 Y87.265 E57.48321
G1 X72.491 Y87.117 E57.50068
G1 X73.15 Y87.04 E57.52495
G1 X161.851 Y87.039 E60.77018
G1 X162.327 Y87.079 E60.78766
G1 X162.79 Y87.198 E60.80515
G1 X163.227 Y87.392 E60.82264
G1 X163.625 Y87.656 E60.84011
G1 X163.974 Y87.983 E60.85761
G1 X164.263 Y88.363 E60.87508
G1 X164.486 Y88.786 E60.89257
G1 X164.634 Y89.24 E60.91004
G1 X164.711 Y89.899 E60.93432
G1 X164.71 Y145.1 E62.95391
G1 X164.67 Y145.576 E62.97139
G1 X164.551 Y146.039 E62.98888
G1 X164.357 Y146.476 E63.00637
G1 X164.093 Y146.874 E63.02384
G1 X163.766 Y147.223 E63.04134
G1 X163.386 Y147.512 E63.05881
G1 X162.963 Y147.735 E63.0763
G1 X162.509 Y147.883 E63.09377
G1 X161.85 Y147.96 E63.11805
G1 X73.15 Y147.96 E66.36324
G1 X72.674 Y147.92 E66.38071
G1 X72.211 Y147.801 E66.3982
G1 X71.774 Y147.607 E66.4157
G1 X71.376 Y147.343 E66.43317
G1 X71.027 Y147.016 E66.45067
G1 X70.738 Y146.636 E66.46813
G1 X70.515 Y146.213 E66.48563
G1 X70.367 Y145.759 E66.5031
G1 X70.29 Y145.1 E66.52737
G1 X70.29 Y89.9 E68.54693
G1 X70.33 Y89.424 E68.5644
G1 X70.449 Y88.961 E68.58189
G1 X70.643 Y88.524 E68.59939
G1 X70.77 Y88.333 E68.60778
G0 F810 X70.907 Y88.126
G0 X71.234 Y87.777
M204 S5000
M205 X30 Y30
G0 F7200 X71.664 Y87.99
M204 S500
M205 X20 Y20
G1 F6000 E68.63438
G1 F900 X72.034 Y87.753 E68.65045
G1 X72.44 Y87.586 E68.66651
G1 X72.871 Y87.496 E68.68262
G1 X73.15 Y87.48 E68.69285
G1 X161.851 Y87.479 E71.93808
G1 X162.289 Y87.519 E71.95417
G1 X162.712 Y87.637 E71.97023
G1 X163.107 Y87.83 E71.98632
G1 X163.46 Y88.092 E72.0024
G1 X163.761 Y88.413 E72.0185
G1 X163.998 Y88.783 E72.03458
G1 X164.165 Y89.189 E72.05064
G1 X164.255 Y89.619 E72.06671
G1 X164.271 Y89.899 E72.07697
G1 X164.27 Y145.1 E74.09656
G1 X164.23 Y145.538 E74.11266
G1 X164.112 Y145.961 E74.12872
G1 X163.919 Y146.356 E74.14481
G1 X163.657 Y146.709 E74.16089
G1 X163.336 Y147.01 E74.17699
G1 X162.966 Y147.247 E74.19307
G1 X162.56 Y147.414 E74.20913
G1 X162.129 Y147.504 E74.22524
G1 X161.85 Y147.52 E74.23546
G1 X73.15 Y147.52 E77.48065
G1 X72.712 Y147.48 E77.49674
G1 X72.289 Y147.362 E77.51281
G1 X71.894 Y147.169 E77.52889
G1 X71.541 Y146.907 E77.54498
G1 X71.24 Y146.586 E77.56108
G1 X71.003 Y146.216 E77.57715
G1 X70.836 Y145.81 E77.59321
G1 X70.746 Y145.379 E77.60932
G1 X70.73 Y145.1 E77.61955
G1 X70.73 Y89.9 E79.6391
G1 X70.77 Y89.462 E79.65519
G1 X70.888 Y89.039 E79.67126
G1 X71.081 Y88.644 E79.68735
G1 X71.172 Y88.521 E79.69294
G0 F810 X71.343 Y88.291
G0 X71.664 Y87.99
M204 S5000
M205 X30 Y30
G0 F7200 X71.777 Y88.474
M204 S500
M205 X20 Y20
G1 F6000 E79.71954
G1 F900 X72.089 Y88.228 E79.73408
G1 X72.445 Y88.05 E79.74864
G1 X72.828 Y87.946 E79.76316
G1 X73.15 Y87.92 E79.77498
G1 X161.851 Y87.919 E83.02021
G1 X162.246 Y87.959 E83.03473
G1 X162.626 Y88.077 E83.04929
G1 X162.974 Y88.268 E83.06381
G1 X163.277 Y88.526 E83.07837
G1 X163.523 Y88.838 E83.09291
G1 X163.701 Y89.194 E83.10747
G1 X163.805 Y89.577 E83.12199
G1 X163.831 Y89.899 E83.13381
G1 X163.83 Y145.1 E85.1534
G1 X163.79 Y145.496 E85.16796
G1 X163.672 Y145.875 E85.18249
G1 X163.48 Y146.223 E85.19703
G1 X163.223 Y146.526 E85.21156
G1 X162.911 Y146.772 E85.2261
G1 X162.555 Y146.95 E85.24066
G1 X162.172 Y147.054 E85.25518
G1 X161.85 Y147.08 E85.267
G1 X73.15 Y147.08 E88.51219
G1 X72.755 Y147.04 E88.52672
G1 X72.375 Y146.922 E88.54128
G1 X72.027 Y146.73 E88.55582
G1 X71.724 Y146.473 E88.57035
G1 X71.478 Y146.161 E88.58489
G1 X71.3 Y145.805 E88.59945
G1 X71.196 Y145.422 E88.61397
G1 X71.17 Y145.1 E88.62579
G1 X71.17 Y89.9 E90.64535
G1 X71.21 Y89.505 E90.65987
G1 X71.328 Y89.125 E90.67443
G1 X71.361 Y89.066 E90.6769
G0 F810 X71.52 Y88.777
G0 X71.777 Y88.474
M204 S5000
M205 X30 Y30
G0 F7200 X72.207 Y88.682
M204 S500
M205 X20 Y20
G1 F6000 E90.7035
G1 F900 X72.507 Y88.501 E90.71632
G1 X72.84 Y88.391 E90.72915
G1 X73.15 Y88.36 E90.74055
G1 X161.851 Y88.359 E93.98578
G1 X162.199 Y88.399 E93.99859
G1 X162.529 Y88.516 E94.0114
G1 X162.824 Y88.706 E94.02424
G1 X163.069 Y88.956 E94.03705
G1 X163.25 Y89.256 E94.04987
G1 X163.36 Y89.589 E94.0627
G1 X163.391 Y89.899 E94.07409
G1 X163.39 Y145.1 E96.09369
G1 X163.35 Y145.448 E96.1065
G1 X163.233 Y145.778 E96.11931
G1 X163.043 Y146.073 E96.13215
G1 X162.792 Y146.318 E96.14498
G1 X162.493 Y146.499 E96.15777
G1 X162.16 Y146.609 E96.1706
G1 X161.85 Y146.64 E96.182
G1 X73.15 Y146.64 E99.42719
G1 X72.802 Y146.6 E99.44001
G1 X72.472 Y146.483 E99.45282
G1 X72.177 Y146.293 E99.46565
G1 X71.932 Y146.043 E99.47846
G1 X71.751 Y145.743 E99.49128
G1 X71.641 Y145.41 E99.50411
G1 X71.61 Y145.1 E99.51551
G1 X71.61 Y89.9 E101.53506
G1 X71.65 Y89.552 E101.54788
G1 X71.758 Y89.247 E101.55972
G0 F810 X71.767 Y89.222
G0 X71.957 Y88.927
G0 X72.207 Y88.682
M204 S5000
M205 X30 Y30
G0 F7200 X72.391 Y89.104
M204 S500
M205 X20 Y20
G1 F6000 E101.58631
G1 F900 X72.631 Y88.93 E101.59716
G1 X72.908 Y88.827 E101.60797
G1 X73.15 Y88.8 E101.61688
G1 X161.851 Y88.799 E104.86211
G1 X162.144 Y88.839 E104.87293
G1 X162.416 Y88.955 E104.88375
G1 X162.647 Y89.14 E104.89457
G1 X162.821 Y89.38 E104.90542
G1 X162.924 Y89.657 E104.91623
G1 X162.951 Y89.899 E104.92514
G1 X162.95 Y145.1 E106.94473
G1 X162.91 Y145.393 E106.95555
G1 X162.794 Y145.665 E106.96637
G1 X162.609 Y145.896 E106.9772
G1 X162.369 Y146.07 E106.98804
G1 X162.092 Y146.173 E106.99886
G1 X161.85 Y146.2 E107.00777
G1 X73.15 Y146.2 E110.25296
G1 X72.857 Y146.16 E110.26378
G1 X72.585 Y146.044 E110.27459
G1 X72.354 Y145.859 E110.28542
G1 X72.18 Y145.619 E110.29627
G1 X72.077 Y145.342 E110.30708
G1 X72.05 Y145.1 E110.31599
G1 X72.05 Y89.9 E112.33554
G1 X72.072 Y89.743 E112.34134
G0 F810 X72.09 Y89.607
G0 X72.206 Y89.335
G0 X72.391 Y89.104
M204 S5000
M205 X30 Y30
G0 F7200 X72.819 Y89.329
M204 S500
M205 X20 Y20
G1 F6000 E112.36794
G1 F900 X73.034 Y89.25 E112.37632
G1 X73.15 Y89.24 E112.38058
G1 X161.851 Y89.239 E115.62581
G1 X162.076 Y89.279 E115.63417
G1 X162.275 Y89.393 E115.64256
G1 X162.422 Y89.568 E115.65092
G1 X162.501 Y89.783 E115.6593
G1 X162.511 Y89.899 E115.66356
G1 X162.51 Y145.1 E117.68316
G1 X162.47 Y145.325 E117.69152
G1 X162.356 Y145.524 E117.69991
G1 X162.181 Y145.671 E117.70827
G1 X161.966 Y145.75 E117.71665
G1 X161.85 Y145.76 E117.72091
G1 X73.15 Y145.76 E120.9661
G1 X72.925 Y145.72 E120.97446
G1 X72.726 Y145.606 E120.98285
G1 X72.579 Y145.431 E120.99121
G1 X72.5 Y145.216 E120.99959
G1 X72.49 Y145.1 E121.00385
G1 X72.49 Y89.942 E123.02187
G0 F810 X72.49 Y89.9
G0 X72.53 Y89.675
G0 X72.644 Y89.476
G0 X72.819 Y89.329
M204 S5000
M205 X30 Y30
G0 F7200 X72.969 Y89.775
M204 S500
M205 X20 Y20
G1 F6000 E123.04847
G1 F900 X73.072 Y89.694 E123.05326
G1 X73.15 Y89.68 E123.05616
G1 X161.851 Y89.679 E126.30139
G1 X161.976 Y89.718 E126.30618
G1 X162.057 Y89.821 E126.31098
G1 X162.071 Y89.899 E126.31388
G1 X162.07 Y145.1 E128.33347
G1 X162.031 Y145.225 E128.33826
G1 X161.928 Y145.306 E128.34305
G1 X161.85 Y145.32 E128.34595
G1 X73.15 Y145.32 E131.59114
G1 X73.025 Y145.281 E131.59593
G1 X72.944 Y145.178 E131.60073
G1 X72.93 Y145.1 E131.60363
G1 X72.93 Y90.497 E133.60134
G0 F810 X72.93 Y89.9
G0 X72.969 Y89.775
M204 S5000
M205 X30 Y30
G1 F6000 E128.60134
;MESH:Ender_3_LCD_Frame_v6.stl
G0 F7200 X73.824 Y90.574
G0 X161.121 Y90.629
G0 X161.631 Y90.339
M204 S500
M205 X20 Y20
;TYPE:WALL-OUTER
G1 F6000 E133.62794
G1 F900 X161.63 Y144.88 E135.62338
G1 X73.37 Y144.88 E138.85248
G1 X73.37 Y90.12 E140.85594
G1 X161.411 Y90.119 E144.07702
G1 X161.631 Y90.119 E144.08507
G1 X161.631 Y90.339 E144.09027
M204 S5000
M205 X30 Y30
G0 F7200 X161.631 Y90.539
G0 X161.146 Y90.604
G0 X161.145 Y90.66
G0 X82.63 Y98.84
G0 X82.63 Y99.38
M204 S500
M205 X20 Y20
