; generated by Slic3r 1.3.1-dev (Build 86a728b39bbba95e844e7b2b7513c43239471327) on 2018-11-09 at 13:40:35

; external perimeters extrusion width = 0.44mm (1.95mm^3/s)
; perimeters extrusion width = 0.56mm (5.05mm^3/s)
; infill extrusion width = 0.50mm (5.96mm^3/s)
; solid infill extrusion width = 0.56mm (3.36mm^3/s)
; top infill extrusion width = 0.56mm (0.84mm^3/s)
; support material extrusion width = 0.44mm (3.89mm^3/s)

M190 S70 ; set bed temperature and wait for it to be reached
M109 S215 ; set temperature and wait for it to be reached
M117 Home Axis and Offset.;
G91 ; set coordinates to relative
G1 F3000 Z5 ; lift nozzle 5mm
G21 ; Set units to mm
G90 ; Absolute positioning
G28 X0 Y0 ; Home XY
G4 S1 ; wait 1 second
G28 Z0 ; Home Z
G92 E0 ; reset extruder
G1 F3000 X0 Y30 Z0.2 ; move to wipe nozzle
G1 F1500 X0 Y200.0 Z0.2 E15 ; wipe 1
G1 F3000 X0.1 Y200.0 Z0.2 ; move to wipe nozzle
G1 F1500 X0.1 Y30 Z0.2 E20 ; wipe 2
M117 Printing Job.;

G28 ; home all axes 
M117 Purge extruder 
G92 E0 ; reset extruder 
G1 Z1.0 F3000 ; move z up little to prevent scratching of surface 
G1 X0.1 Y20 Z0.3 F5000.0 ; move to start-line position G1 X0.1 Y200.0 Z0.3 F1500.0 E15 ; draw 1st line 
G1 X0.4 Y200.0 Z0.3 F5000.0 ; move to side a little 
G1 X0.4 Y20 Z0.3 F1500.0 E30 ; draw 2nd line 
G92 E0 ; reset extruder 
G1 Z1.0 F3000 ; move z up little to prevent scratching of surface 
M117 All systems go!

M109 S215 ; set temperature and wait for it to be reached
G21 ; set units to millimeters
G90 ; use absolute coordinates
M82 ; use absolute distances for extrusion
G92 E0
G92 E0
G1 Z0.240 F7800.000
G1 E-5.00000 F6000.00000
G92 E0
G1 X106.344 Y89.030 F7800.000
G1 E4.80000 F6000.00000
G1 F1800
G1 X107.744 Y88.131 E4.88442
G1 X109.926 Y87.244 E5.00391
G1 X111.789 Y86.915 E5.09991
G1 X113.376 Y87.263 E5.18236
G1 X115.322 Y88.077 E5.28936
G1 X117.288 Y89.666 E5.41765
G1 X117.739 Y90.314 E5.45770
G1 X118.223 Y91.209 E5.50930
G1 X118.878 Y92.836 E5.59832
G1 X119.109 Y93.592 E5.63841
G1 X126.756 Y129.813 E7.51670
G1 X127.379 Y133.891 E7.72600
G1 X127.108 Y136.243 E7.84613
G1 X126.379 Y138.070 E7.94597
G1 X125.376 Y139.594 E8.03854
G1 X125.001 Y139.968 E8.06539
G1 X123.518 Y140.955 E8.15578
G1 X120.316 Y142.268 E8.33137
G1 X118.454 Y142.604 E8.42738
G1 X116.617 Y142.150 E8.52339
G1 X115.476 Y141.356 E8.59390
G1 X109.695 Y135.843 E8.99924
G1 X108.597 Y134.201 E9.09947
G1 X104.405 Y123.363 E9.68908
G1 X104.216 Y122.746 E9.72179
G1 X102.914 Y117.099 E10.01584
G1 X102.809 Y115.786 E10.08266
G1 X104.199 Y94.617 E11.15906
G1 X104.239 Y94.245 E11.17803
G1 X104.432 Y92.953 E11.24429
G1 X104.729 Y91.885 E11.30057
G1 X105.268 Y90.586 E11.37190
G1 X106.310 Y89.079 E11.46487
G1 X106.769 Y89.329 F7800.000
G1 F1800
G1 X107.935 Y88.602 E11.53459
G1 X110.117 Y87.716 E11.65408
G1 X111.875 Y87.428 E11.74446
G1 X113.180 Y87.732 E11.81243
G1 X115.125 Y88.546 E11.91943
G1 X116.871 Y89.957 E12.03331
G1 X117.322 Y90.604 E12.07336
G1 X117.751 Y91.399 E12.11916
G1 X118.407 Y93.026 E12.20818
G1 X118.611 Y93.697 E12.24377
G1 X126.258 Y129.918 E14.12205
G1 X126.876 Y133.967 E14.32986
G1 X126.636 Y136.054 E14.43649
G1 X125.907 Y137.882 E14.53633
G1 X125.016 Y139.235 E14.61849
G1 X124.642 Y139.609 E14.64535
G1 X123.325 Y140.485 E14.72557
G1 X120.123 Y141.798 E14.90117
G1 X118.366 Y142.092 E14.99156
G1 X116.655 Y141.596 E15.08195
G1 X115.827 Y140.988 E15.13406
G1 X110.046 Y135.475 E15.53939
G1 X109.071 Y134.017 E15.62836
G1 X104.879 Y123.179 E16.21797
G1 X104.711 Y122.632 E16.24701
G1 X103.410 Y116.985 E16.54105
G1 X103.316 Y115.819 E16.60037
G1 X104.706 Y94.650 E17.67677
G1 X104.742 Y94.320 E17.69361
G1 X104.935 Y93.028 E17.75987
G1 X105.198 Y92.080 E17.80983
G1 X105.738 Y90.782 E17.88116
G1 X106.735 Y89.378 E17.96850
G1 X107.192 Y89.636 F7800.000
G1 F1800
G1 X108.127 Y89.073 E18.02388
G1 X110.309 Y88.187 E18.14336
G1 X111.954 Y87.944 E18.22776
G1 X112.984 Y88.201 E18.28159
G1 X114.929 Y89.015 E18.38859
G1 X116.454 Y90.247 E18.48806
G1 X116.905 Y90.895 E18.52811
G1 X117.280 Y91.588 E18.56811
G1 X117.935 Y93.216 E18.65712
G1 X118.114 Y93.802 E18.68821
G1 X125.761 Y130.023 E20.56650
G1 X126.374 Y134.043 E20.77280
G1 X126.163 Y135.866 E20.86593
G1 X125.434 Y137.694 E20.96577
G1 X124.656 Y138.875 E21.03754
G1 X124.282 Y139.249 E21.06439
G1 X123.132 Y140.014 E21.13446
G1 X119.930 Y141.328 E21.31006
G1 X118.286 Y141.576 E21.39445
G1 X116.178 Y140.620 E21.51186
G1 X110.397 Y135.107 E21.91720
G1 X109.546 Y133.834 E21.99491
G1 X105.353 Y122.996 E22.58451
G1 X105.207 Y122.518 E22.60988
G1 X103.905 Y116.870 E22.90392
G1 X103.823 Y115.853 E22.95573
G1 X105.245 Y94.395 E24.04682
G1 X105.438 Y93.104 E24.11308
G1 X105.668 Y92.275 E24.15672
G1 X106.207 Y90.977 E24.22805
G1 X107.156 Y89.684 E24.30940
G1 F6240
G1 X108.127 Y89.073 E23.26164
G1 F6240
G1 X109.518 Y88.508 E21.88989
G1 F6240
G1 X109.518 Y88.508 E21.88983
G1 F6240
G1 X110.309 Y88.187 E21.11054
G1 F6240
G1 X111.954 Y87.944 E19.59111
G1 F6240
G1 X111.988 Y87.952 E19.55940
G1 E19.30940 F6000.00000
G92 E0
G1 X115.951 Y134.404 F7800.000
G1 E4.80000 F6000.00000
G1 F270
G1 X115.721 Y134.472 E4.80931
G1 X115.658 Y134.225 E4.81917
G1 X115.876 Y134.163 E4.82798
G1 X115.933 Y134.347 E4.83544
G1 X115.711 Y134.406 F7800.000
G1 F6240
G1 X115.721 Y134.472 E4.61020
G1 F6240
G1 X115.658 Y134.225 E4.37790
G1 F6240
G1 X115.876 Y134.163 E4.17043
G1 F6240
G1 X115.933 Y134.347 E3.99459
G1 E-0.16456 F6000.00000
G92 E0
G1 X114.426 Y129.020 F7800.000
G1 E4.80000 F6000.00000
G1 F900
G1 X114.255 Y128.559 E4.80675
G1 Z0.240 F7800.000
G1 X112.436 Y128.552 F7800.000
G1 F1800
G1 X111.844 Y129.144 E4.83919
G1 X112.088 Y130.000 E4.87367
G1 X112.682 Y129.406 E4.90623
G1 X112.927 Y130.259 E4.94065
G1 X112.331 Y130.855 E4.97335
G1 X112.574 Y131.711 E5.00783
G1 X113.489 Y130.796 E5.05798
G1 X113.734 Y131.650 E5.09241
G1 X112.818 Y132.568 E5.14269
G1 X113.339 Y132.574 E5.16289
G1 X113.547 Y132.936 E5.17905
G1 X113.893 Y132.589 E5.19805
G1 X113.970 Y132.871 E5.20935
G1 X113.873 Y132.899 E5.21326
G1 X113.939 Y133.108 E5.22176
G1 X113.874 Y133.128 E5.22441
G1 X114.004 Y133.578 E5.24256
G1 X113.948 Y133.633 E5.24561
G1 X113.953 Y132.530 F7800.000
G1 F1800
G1 X113.980 Y132.502 E5.24712
G1 X113.734 Y131.650 E5.28152
G1 F6240
G1 X113.980 Y132.502 E4.47098
G1 F6240
G1 X113.953 Y132.530 E4.43540
G1 E0.28152 F6000.00000
G92 E0
G1 X122.760 Y133.612 F7800.000
G1 E4.80000 F6000.00000
G1 F1800
G1 X122.904 Y134.566 E4.83743
G1 X122.831 Y134.640 E4.84148
G1 F6240
G1 X122.904 Y134.566 E4.74602
G1 F6240
G1 X122.760 Y133.612 E3.86407
G1 E-0.15852 F6000.00000
G92 E0
G1 X121.801 Y136.768 F7800.000
G1 E4.80000 F6000.00000
G1 F1800
G1 X122.176 Y136.394 E4.82052
G1 X121.975 Y135.496 E4.85620
G1 X119.939 Y137.532 E4.96784
G1 X118.599 Y138.081 E5.02396
G1 X118.468 Y137.904 E5.03251
G1 X122.760 Y133.612 E5.26781
G1 X122.616 Y132.657 E5.30524
G1 X118.001 Y137.272 E5.55822
G1 X117.540 Y136.634 E5.58873
G1 X122.472 Y131.702 E5.85908
G1 X122.328 Y130.748 E5.89651
G1 X117.143 Y135.932 E6.18072
G1 X116.871 Y135.400 E6.20390
G1 X116.685 Y135.333 E6.21156
G1 X117.481 Y135.095 E6.24378
G1 X117.348 Y134.629 E6.26258
G1 X121.371 Y130.605 E6.48316
G1 X121.027 Y129.851 E6.51531
G1 X117.103 Y133.775 E6.73043
G1 X116.857 Y132.922 E6.76485
G1 X120.682 Y129.097 E6.97452
G1 X120.558 Y128.827 E6.98604
G1 X120.080 Y129.297 E7.01203
G1 X119.868 Y128.812 E7.03255
G1 X116.550 Y132.130 E7.21443
G1 X116.488 Y132.147 E7.21695
G1 X116.408 Y131.819 E7.23004
G1 X116.289 Y131.854 E7.23484
G1 X116.164 Y131.418 E7.25245
G1 X119.410 Y128.172 E7.43039
G1 X119.314 Y128.077 E7.43560
G1 X118.926 Y127.556 E7.46078
G1 X115.874 Y130.608 E7.62809
G1 X115.650 Y129.733 E7.66310
G1 X115.880 Y129.504 E7.67569
G1 X115.942 Y129.485 E7.67821
G1 X115.933 Y129.451 E7.67958
G1 X118.458 Y126.926 E7.81800
G1 X118.171 Y126.541 E7.83662
G1 X117.758 Y126.526 E7.85262
G1 X115.687 Y128.598 E7.96618
G1 X115.451 Y127.780 E7.99919
G1 X115.388 Y127.798 E8.00175
G1 X117.303 Y125.883 E8.10675
G1 X117.045 Y125.042 E8.14084
G1 X114.905 Y127.182 E8.25813
G1 X114.653 Y126.335 E8.29236
G1 X116.787 Y124.202 E8.40934
G1 X116.528 Y123.361 E8.44343
G1 X114.400 Y125.489 E8.56010
G1 X114.148 Y124.643 E8.59434
G1 X116.270 Y122.520 E8.71070
G1 X116.037 Y121.695 E8.74396
G1 X116.025 Y121.667 E8.74514
G1 X113.895 Y123.797 E8.86190
G1 X113.643 Y122.950 E8.89614
G1 X115.700 Y120.893 E9.00890
G1 X115.384 Y120.111 E9.04162
G1 X113.391 Y122.104 E9.15087
G1 X113.138 Y121.257 E9.18512
G1 X115.316 Y119.080 E9.30447
G1 X114.999 Y118.297 E9.33719
G1 X112.886 Y120.410 E9.45303
G1 X112.834 Y120.236 E9.46007
G1 X112.943 Y120.204 E9.46444
G1 X112.717 Y119.481 E9.49381
G1 X114.831 Y117.366 E9.60972
G1 X114.615 Y116.804 E9.63307
G1 X115.047 Y116.052 E9.66668
G1 X112.456 Y118.643 E9.80871
G1 X111.938 Y118.789 E9.82956
G1 X111.710 Y118.290 E9.85084
G1 X114.902 Y115.098 E10.02582
G1 X114.672 Y114.230 E10.06065
G1 X108.880 Y120.022 E10.37818
G1 X109.063 Y118.790 E10.42644
G1 X109.052 Y118.750 E10.42805
G1 X114.441 Y113.361 E10.72348
G1 X114.211 Y112.492 E10.75832
G1 X108.828 Y117.875 E11.05343
G1 X108.731 Y117.498 E11.06853
G1 X109.326 Y117.020 E11.09810
G1 X109.455 Y116.150 E11.13221
G1 X114.091 Y111.513 E11.38638
G1 X114.101 Y110.405 E11.42934
G1 X109.071 Y115.435 E11.70511
G1 X108.847 Y114.884 E11.72816
G1 X108.298 Y115.109 E11.75118
G1 X114.085 Y109.322 E12.06845
G1 X113.911 Y108.397 E12.10492
G1 X107.990 Y114.318 E12.42949
G1 X108.471 Y112.739 E12.49349
G1 X114.285 Y106.924 E12.81224
G1 X114.111 Y105.999 E12.84872
G1 X108.273 Y111.838 E13.16877
G1 X108.431 Y110.581 E13.21788
G1 X113.937 Y105.075 E13.51972
G1 X113.849 Y104.609 E13.53809
G1 X113.830 Y104.083 E13.55851
G1 X108.589 Y109.324 E13.84584
G1 X108.734 Y108.080 E13.89440
G1 X113.792 Y103.022 E14.17165
G1 X113.753 Y101.962 E14.21278
G1 X108.862 Y106.854 E14.48094
G1 X108.989 Y105.628 E14.52872
G1 X113.715 Y100.902 E14.78781
G1 X113.696 Y100.043 E14.82110
G1 X113.716 Y99.801 E14.83051
G1 X109.103 Y104.414 E15.08342
G1 X109.176 Y103.242 E15.12895
G1 X113.796 Y98.623 E15.38217
G1 X113.638 Y97.860 E15.41238
G1 X113.639 Y97.681 E15.41931
G1 X109.263 Y102.057 E15.65917
G1 X109.350 Y100.871 E15.70525
G1 X113.955 Y96.266 E15.95772
G1 X114.681 Y94.527 E16.03076
G1 X114.656 Y94.466 E16.03330
G1 X109.400 Y99.722 E16.32146
G1 X109.351 Y98.960 E16.35108
G1 X109.393 Y98.955 E16.35273
G1 X109.347 Y98.677 E16.36367
G1 X114.340 Y93.683 E16.63742
G1 X114.025 Y92.899 E16.67017
G1 X109.189 Y97.736 E16.93529
G1 X109.031 Y96.794 E16.97228
G1 X113.574 Y92.251 E17.22133
G1 X112.800 Y91.927 E17.25388
G1 X108.874 Y95.853 E17.46911
G1 X108.715 Y94.913 E17.50607
G1 X112.025 Y91.603 E17.68754
G1 X111.629 Y91.437 E17.70419
G1 X110.725 Y91.804 E17.74202
G1 X108.908 Y93.622 E17.84164
G1 X109.447 Y92.323 E17.89614
G1 X110.725 Y91.804 E17.94959
G1 F6240
G1 X109.447 Y92.323 E16.68999
G1 F6240
G1 X108.908 Y93.622 E15.40576
G1 F6240
G1 X110.615 Y91.914 E13.19959
G1 E12.94959 F6000.00000
G92 E0
G1 X114.285 Y106.924 F7800.000
G1 E4.80000 F6000.00000
G1 F1800
G1 X114.459 Y107.849 E4.83647
G1 X114.179 Y108.129 E4.85186
G1 F6240
G1 X114.459 Y107.849 E4.48939
G1 F6240
G1 X114.285 Y106.924 E3.62988
G1 E-0.14814 F6000.00000
G92 E0
G1 X107.990 Y114.318 F7800.000
G1 E4.80000 F6000.00000
G1 F1800
G1 X107.679 Y115.340 E4.84141
G1 X107.324 Y116.083 E4.87332
G1 X107.912 Y115.495 E4.90553
G1 X108.061 Y115.862 E4.92089
G1 X108.176 Y116.071 E4.93015
G1 X108.234 Y116.272 E4.93824
G1 X108.163 Y116.343 E4.94213
G1 F6240
G1 X108.234 Y116.272 E4.85051
G1 F6240
G1 X108.176 Y116.071 E4.65989
G1 F6240
G1 X108.061 Y115.862 E4.44162
G1 F6240
G1 X107.912 Y115.495 E4.07967
G1 F6240
G1 X107.324 Y116.083 E3.32060
G1 F6240
G1 X107.679 Y115.340 E2.56857
G1 F6240
G1 X107.990 Y114.318 E1.59286
G1 E-0.05787 F6000.00000
G92 E0
G1 X108.688 Y121.312 F7800.000
G1 E4.80000 F6000.00000
G1 F1800
G1 X108.626 Y121.730 E4.81637
G1 X110.142 Y120.513 E4.89175
G1 X110.115 Y120.426 E4.89527
G1 X110.353 Y120.344 E4.90503
G1 X110.197 Y119.803 E4.92687
G1 X108.688 Y121.312 E5.00963
M106 S255
G1 Z0.280 F7800.000
G1 X109.314 Y120.094 F7800.000
G1 F3600
G1 X109.602 Y120.382 E5.01256
G1 X109.633 Y120.358 E5.01284
G1 X109.561 Y120.128 E5.01457
G1 X109.812 Y120.056 E5.01644
G1 X109.519 Y119.036 E5.02406
G1 X110.032 Y118.887 E5.02790
G1 X109.874 Y118.248 E5.03261
G1 X110.099 Y118.184 E5.03429
G1 X109.422 Y117.507 E5.04116
G1 X109.736 Y117.255 E5.04405
G1 X109.973 Y115.661 E5.05560
G1 X109.569 Y115.492 E5.05875
G1 X109.204 Y114.594 E5.06570
G1 X112.714 Y118.104 E5.10131
G1 F6240
G1 X109.204 Y114.594 E0.56705
G1 F6240
G1 X109.293 Y114.813 E0.35131
G1 E0.10131 F6000.00000
G92 E0
G1 X115.037 Y120.427 F7800.000
G1 E4.80000 F6000.00000
G1 F3600
G1 X112.764 Y118.154 E4.82306
G1 X113.495 Y120.498 E4.84067
G1 X113.382 Y120.532 E4.84152
G1 X113.417 Y120.653 E4.84242
G1 X113.740 Y121.331 E4.84781
G1 X113.964 Y122.049 E4.85321
G1 X116.419 Y124.504 E4.87812
G1 X117.170 Y126.946 E4.89645
G1 X117.944 Y126.973 E4.90201
G1 X118.981 Y128.367 E4.91447
G1 X119.110 Y128.494 E4.91578
G1 X119.420 Y128.885 E4.91935
G1 X119.933 Y130.058 E4.92854
G1 X120.419 Y129.581 E4.93343
G1 X121.249 Y131.396 E4.94775
G1 X121.913 Y130.946 E4.95350
G1 X122.223 Y133.003 E4.96844
G1 X115.185 Y125.965 E5.03985
G1 X115.594 Y127.279 E5.04974
G1 X115.752 Y127.233 E5.05091
G1 X116.486 Y129.782 E5.06994
G1 X116.348 Y129.823 E5.07097
G1 X121.403 Y134.878 E5.12226
G1 X121.388 Y134.886 E5.12238
G1 X121.710 Y136.330 E5.13300
G1 X120.611 Y136.781 E5.14152
G1 X117.542 Y133.713 E5.17266
G1 F6240
G1 X120.611 Y136.781 E1.20881
G1 F6240
G1 X121.407 Y136.454 E0.42266
G1 E0.17266 F6000.00000
G92 E0
G1 X113.268 Y132.133 F7800.000
G1 E4.80000 F6000.00000
G1 F3600
G1 X113.415 Y132.135 E4.80105
G1 X113.034 Y130.805 E4.81098
G1 X113.014 Y130.804 E4.81112
G1 X112.792 Y130.870 E4.81278
G1 X113.105 Y131.970 E4.82099
G1 X113.268 Y132.133 E4.82264
G1 F6240
G1 X113.105 Y131.970 E4.61197
G1 F6240
G1 X112.792 Y130.870 E3.56710
G1 F6240
G1 X113.014 Y130.804 E3.35605
G1 F6240
G1 X113.034 Y130.805 E3.33791
G1 F6240
G1 X113.415 Y132.135 E2.07421
G1 F6240
G1 X113.268 Y132.133 E1.93991
G1 E-0.17736 F6000.00000
G92 E0
G1 X113.089 Y130.120 F7800.000
G1 E4.80000 F6000.00000
G1 F3600
G1 X112.475 Y127.987 E4.81593
G1 X112.272 Y128.048 E4.81745
G1 X112.314 Y128.265 E4.81904
G1 X111.353 Y128.126 E4.82601
G1 X112.671 Y132.761 E4.86058
G1 X113.226 Y132.767 E4.86456
G1 X114.191 Y134.446 E4.87845
G1 X114.421 Y134.324 E4.88032
G1 X114.114 Y133.258 E4.88828
G1 X114.183 Y133.237 E4.88880
G1 X114.118 Y133.030 E4.89036
G1 X114.204 Y132.989 E4.89104
G1 X114.120 Y132.684 E4.89331
G1 X114.230 Y132.652 E4.89413
G1 X113.586 Y130.429 E4.91074
G1 X113.655 Y130.408 E4.91126
G1 X113.528 Y130.000 E4.91432
G1 X113.089 Y130.120 E4.91759
G1 F6240
G1 X113.528 Y130.000 E4.50220
G1 F6240
G1 X113.655 Y130.408 E4.11191
G1 F6240
G1 X113.586 Y130.429 E4.04575
G1 F6240
G1 X114.230 Y132.652 E1.93120
G1 F6240
G1 X114.120 Y132.684 E1.82674
G1 F6240
G1 X114.204 Y132.989 E1.53801
G1 F6240
G1 X114.118 Y133.030 E1.45094
G1 F6240
G1 X114.183 Y133.237 E1.25240
G1 F6240
G1 X114.114 Y133.258 E1.18623
G1 F6240
G1 X114.421 Y134.324 E0.17303
G1 F6240
G1 X114.416 Y134.327 E0.16759
G1 E-0.08241 F6000.00000
G92 E0
G1 X111.105 Y123.312 F7800.000
G1 E4.80000 F6000.00000
G1 F3600
G1 X110.753 Y122.090 E4.80912
G1 X111.007 Y123.482 E4.81928
G1 X111.105 Y123.312 E4.82069
G1 X110.718 Y121.707 F7800.000
G1 F3600
G1 X110.634 Y121.437 E4.82272
G1 X110.685 Y121.717 E4.82476
G1 X110.718 Y121.707 E4.82501
G1 F6240
G1 X110.685 Y121.717 E4.79332
G1 F6240
G1 X110.634 Y121.437 E4.53307
G1 F6240
G1 X110.718 Y121.707 E4.27441
G1 E-0.17499 F6000.00000
G92 E0
G1 X108.562 Y113.952 F7800.000
G1 E4.80000 F6000.00000
G1 F3600
G1 X108.362 Y114.607 E4.80492
G1 X108.969 Y114.359 E4.80962
G1 X108.562 Y113.952 E4.81375
G1 X109.190 Y111.885 E4.82925
G1 X114.166 Y116.861 E4.87973
G1 X114.130 Y116.766 E4.88045
G1 X114.705 Y115.764 E4.88874
G1 X114.623 Y115.763 E4.88933
G1 X114.212 Y114.212 E4.90084
G1 X109.065 Y109.065 E4.95306
G1 X109.327 Y106.632 E4.97062
G1 X113.656 Y110.961 E5.01455
G1 X113.669 Y109.491 E5.02510
G1 X113.388 Y107.998 E5.03600
