; generated by Slic3r 1.3.1-dev (Build 86a728b39bbba95e844e7b2b7513c43239471327) on 2018-11-09 at 13:41:16

; external perimeters extrusion width = 0.44mm (1.95mm^3/s)
; perimeters extrusion width = 0.56mm (5.05mm^3/s)
; infill extrusion width = 0.50mm (5.96mm^3/s)
; solid infill extrusion width = 0.56mm (3.36mm^3/s)
; top infill extrusion width = 0.56mm (0.84mm^3/s)
; support material extrusion width = 0.44mm (3.89mm^3/s)

M190 S70 ; set bed temperature and wait for it to be reached
M109 S215 ; set temperature and wait for it to be reached
M117 Home Axis and Offset.;
G91 ; set coordinates to relative
G1 F3000 Z5 ; lift nozzle 5mm
G21 ; Set units to mm
G90 ; Absolute positioning
G28 X0 Y0 ; Home XY
G4 S1 ; wait 1 second
G28 Z0 ; Home Z
G92 E0 ; reset extruder
G1 F3000 X0 Y30 Z0.2 ; move to wipe nozzle
G1 F1500 X0 Y200.0 Z0.2 E15 ; wipe 1
G1 F3000 X0.1 Y200.0 Z0.2 ; move to wipe nozzle
G1 F1500 X0.1 Y30 Z0.2 E20 ; wipe 2
M117 Printing Job.;

G28 ; home all axes 
M117 Purge extruder 
G92 E0 ; reset extruder 
G1 Z1.0 F3000 ; move z up little to prevent scratching of surface 
G1 X0.1 Y20 Z0.3 F5000.0 ; move to start-line position G1 X0.1 Y200.0 Z0.3 F1500.0 E15 ; draw 1st line 
G1 X0.4 Y200.0 Z0.3 F5000.0 ; move to side a little 
G1 X0.4 Y20 Z0.3 F1500.0 E30 ; draw 2nd line 
G92 E0 ; reset extruder 
G1 Z1.0 F3000 ; move z up little to prevent scratching of surface 
M117 All systems go!

M109 S215 ; set temperature and wait for it to be reached
G21 ; set units to millimeters
G90 ; use absolute coordinates
M82 ; use absolute distances for extrusion
G92 E0
G92 E0
G1 Z0.240 F7800.000
G1 E-5.00000 F6000.00000
G92 E0
G1 X100.098 Y109.217 F7800.000
G1 E4.80000 F6000.00000
G1 F1800
G1 X101.328 Y108.343 E4.87653
G1 X110.132 Y104.084 E5.37277
G1 X111.611 Y103.659 E5.45081
G1 X113.534 Y103.448 E5.54900
G1 X113.949 Y103.422 E5.57008
G1 X115.167 Y103.405 E5.63188
G1 X116.146 Y103.416 E5.68155
G1 X116.555 Y103.439 E5.70234
G1 X118.481 Y103.636 E5.80055
G1 X120.497 Y104.350 E5.90910
G1 X128.136 Y109.343 E6.37213
G1 X128.810 Y109.882 E6.41595
G1 X129.368 Y110.423 E6.45538
G1 X130.109 Y111.362 E6.51606
G1 X131.298 Y113.364 E6.63420
G1 X131.931 Y115.674 E6.75572
G1 X131.931 Y120.175 E6.98410
G1 X131.765 Y121.390 E7.04629
G1 X131.271 Y123.140 E7.13856
G1 X130.673 Y124.884 E7.23211
G1 X129.609 Y126.570 E7.33330
G1 X128.897 Y127.281 E7.38432
G1 X126.520 Y128.532 E7.52059
G1 X121.180 Y129.519 E7.79616
G1 X120.453 Y129.594 E7.83321
G1 X115.010 Y129.707 E8.10944
G1 X110.315 Y129.636 E8.34771
G1 X108.991 Y129.535 E8.41507
G1 X108.575 Y129.481 E8.43637
G1 X102.628 Y128.420 E8.74283
G1 X100.876 Y127.705 E8.83884
G1 X99.570 Y126.337 E8.93484
G1 X98.925 Y124.459 E9.03557
G1 X98.096 Y116.912 E9.42079
G1 X98.069 Y116.418 E9.44591
G1 X98.070 Y115.212 E9.50707
G1 X98.143 Y112.875 E9.62572
G1 X98.610 Y111.041 E9.72172
G1 X99.465 Y109.850 E9.79611
G1 X100.056 Y109.259 E9.83853
G1 X100.458 Y109.576 F7800.000
G1 F1800
G1 X101.549 Y108.801 E9.90645
G1 X110.354 Y104.542 E10.40270
G1 X111.666 Y104.165 E10.47197
G1 X113.590 Y103.954 E10.57016
G1 X113.958 Y103.931 E10.58887
G1 X115.116 Y103.913 E10.64767
G1 X116.503 Y103.945 E10.71805
G1 X118.429 Y104.141 E10.81626
G1 X120.219 Y104.775 E10.91261
G1 X127.858 Y109.769 E11.37564
G1 X128.456 Y110.247 E11.41454
G1 X129.014 Y110.788 E11.45397
G1 X129.672 Y111.622 E11.50783
G1 X130.860 Y113.624 E11.62597
G1 X131.423 Y115.674 E11.73384
G1 X131.423 Y120.175 E11.96222
G1 X131.276 Y121.253 E12.01742
G1 X130.789 Y122.978 E12.10833
G1 X130.194 Y124.714 E12.20145
G1 X129.249 Y126.211 E12.29127
G1 X128.538 Y126.922 E12.34230
G1 X126.428 Y128.031 E12.46325
G1 X121.087 Y129.019 E12.73882
G1 X120.442 Y129.085 E12.77171
G1 X115.018 Y129.199 E13.04699
G1 X110.322 Y129.127 E13.28526
G1 X109.033 Y129.028 E13.35086
G1 X108.664 Y128.980 E13.36976
G1 X102.718 Y127.919 E13.67622
G1 X101.077 Y127.225 E13.76661
G1 X99.898 Y125.890 E13.85700
G1 X99.431 Y124.403 E13.93605
G1 X98.601 Y116.856 E14.32127
G1 X98.577 Y116.418 E14.34357
G1 X98.578 Y115.224 E14.40412
G1 X98.651 Y112.895 E14.52237
G1 X99.113 Y111.174 E14.61276
G1 X99.825 Y110.210 E14.67356
G1 X100.416 Y109.619 E14.71598
G1 X100.818 Y109.936 F7800.000
G1 F1800
G1 X101.771 Y109.258 E14.77531
G1 X110.575 Y104.999 E15.27155
G1 X111.721 Y104.670 E15.33205
G1 X113.645 Y104.459 E15.43025
G1 X113.967 Y104.439 E15.44659
G1 X115.116 Y104.422 E15.50494
G1 X116.452 Y104.451 E15.57270
G1 X118.377 Y104.647 E15.67091
G1 X119.941 Y105.201 E15.75506
G1 X127.579 Y110.194 E16.21809
G1 X128.102 Y110.612 E16.25207
G1 X128.660 Y111.153 E16.29149
G1 X129.235 Y111.881 E16.33854
G1 X130.423 Y113.884 E16.45668
G1 X130.914 Y115.674 E16.55089
G1 X130.914 Y120.175 E16.77927
G1 X130.786 Y121.117 E16.82748
G1 X130.307 Y122.816 E16.91705
G1 X129.715 Y124.544 E17.00973
G1 X128.889 Y125.851 E17.08818
G1 X128.178 Y126.562 E17.13920
G1 X126.336 Y127.531 E17.24484
G1 X120.995 Y128.519 E17.52042
G1 X120.432 Y128.577 E17.54914
G1 X115.026 Y128.690 E17.82348
G1 X110.330 Y128.619 E18.06175
G1 X109.076 Y128.522 E18.12558
G1 X108.753 Y128.480 E18.14209
G1 X102.807 Y127.418 E18.44855
G1 X101.286 Y126.746 E18.53295
G1 X100.245 Y125.449 E18.61734
G1 X99.936 Y124.348 E18.67537
G1 X99.107 Y116.801 E19.06059
G1 X99.086 Y116.418 E19.08006
G1 X99.087 Y115.236 E19.14001
G1 X99.159 Y112.914 E19.25787
G1 X99.616 Y111.315 E19.34227
G1 X100.184 Y110.569 E19.38983
G1 X100.775 Y109.978 E19.43224
G1 F6240
G1 X101.771 Y109.258 E18.31004
G1 F6240
G1 X105.346 Y107.529 E14.68224
G1 E14.43224 F6000.00000
G92 E0
G1 X117.635 Y117.358 F7800.000
G1 E4.80000 F6000.00000
G1 F270
G1 X116.545 Y118.101 E4.86692
G1 X115.888 Y118.101 E4.90026
G1 X115.193 Y118.176 E4.93575
G1 X114.390 Y118.101 E4.97665
G1 X113.789 Y118.101 E5.00714
G1 X112.691 Y117.310 E5.07578
G1 X112.081 Y116.541 E5.12563
G1 X111.664 Y115.552 E5.18009
G1 X111.574 Y114.589 E5.22915
G1 X111.747 Y113.780 E5.27111
G1 X111.739 Y113.325 E5.29423
G1 X112.529 Y112.211 E5.36348
G1 X113.336 Y111.569 E5.41583
G1 X114.356 Y111.167 E5.47143
G1 X115.310 Y111.072 E5.52007
G1 X116.630 Y111.338 E5.58841
G1 X117.760 Y112.118 E5.65807
G1 X118.565 Y113.212 E5.72699
G1 X118.579 Y113.618 E5.74761
G1 X118.689 Y113.887 E5.76234
G1 X118.785 Y114.735 E5.80563
G1 X118.687 Y115.589 E5.84926
G1 X118.284 Y116.546 E5.90193
G1 X117.673 Y117.311 E5.95164
G1 X117.286 Y116.981 F7800.000
G1 F270
G1 X116.389 Y117.592 E6.00672
G1 X115.861 Y117.592 E6.03350
G1 X115.189 Y117.665 E6.06778
G1 X114.476 Y117.592 E6.10413
G1 X113.953 Y117.592 E6.13066
G1 X113.046 Y116.939 E6.18740
G1 X112.522 Y116.279 E6.23013
G1 X112.163 Y115.426 E6.27709
G1 X112.087 Y114.619 E6.31823
G1 X112.256 Y113.830 E6.35918
G1 X112.251 Y113.483 E6.37679
G1 X112.902 Y112.564 E6.43392
G1 X113.593 Y112.014 E6.47876
G1 X114.477 Y111.666 E6.52693
G1 X115.284 Y111.585 E6.56810
G1 X116.427 Y111.816 E6.62726
G1 X117.401 Y112.488 E6.68730
G1 X118.062 Y113.387 E6.74389
G1 X118.073 Y113.727 E6.76115
G1 X118.191 Y114.015 E6.77694
G1 X118.273 Y114.735 E6.81371
G1 X118.190 Y115.459 E6.85069
G1 X117.843 Y116.283 E6.89609
G1 X117.323 Y116.934 E6.93835
G1 X116.936 Y116.604 F7800.000
G1 F270
G1 X116.232 Y117.084 E6.98159
G1 X115.833 Y117.084 E7.00180
G1 X115.185 Y117.154 E7.03487
G1 X114.569 Y117.084 E7.06632
G1 X114.117 Y117.084 E7.08926
G1 X113.400 Y116.568 E7.13410
G1 X112.964 Y116.018 E7.16972
G1 X112.662 Y115.301 E7.20917
G1 X112.601 Y114.649 E7.24239
G1 X112.766 Y113.880 E7.28233
G1 X112.762 Y113.641 E7.29444
G1 X113.275 Y112.917 E7.33944
G1 X113.851 Y112.460 E7.37676
G1 X114.598 Y112.165 E7.41751
G1 X115.259 Y112.099 E7.45121
G1 X116.224 Y112.294 E7.50119
G1 X117.042 Y112.858 E7.55161
G1 X117.559 Y113.561 E7.59588
G1 X117.568 Y113.835 E7.60977
G1 X117.694 Y114.142 E7.62662
G1 X117.762 Y114.734 E7.65686
G1 X117.693 Y115.328 E7.68720
G1 X117.401 Y116.021 E7.72534
G1 X116.973 Y116.557 E7.76014
G1 X116.586 Y116.227 F7800.000
G1 F270
G1 X116.075 Y116.575 E7.79155
G1 X115.723 Y116.575 E7.80942
G1 X115.182 Y116.643 E7.83708
G1 X114.729 Y116.600 E7.86017
G1 X114.663 Y116.575 E7.86374
G1 X114.281 Y116.575 E7.88309
G1 X113.755 Y116.196 E7.91602
G1 X113.405 Y115.756 E7.94453
G1 X113.161 Y115.176 E7.97649
G1 X113.114 Y114.679 E8.00178
G1 X113.276 Y113.971 E8.03865
G1 X113.273 Y113.799 E8.04737
G1 X113.648 Y113.270 E8.08024
G1 X114.108 Y112.905 E8.11005
G1 X114.719 Y112.664 E8.14337
G1 X115.233 Y112.612 E8.16961
G1 X116.021 Y112.772 E8.21040
G1 X116.683 Y113.228 E8.25120
G1 X117.056 Y113.736 E8.28315
G1 X117.063 Y113.943 E8.29367
G1 X117.197 Y114.270 E8.31158
G1 X117.250 Y114.734 E8.33530
G1 X117.196 Y115.198 E8.35900
G1 X116.960 Y115.759 E8.38988
G1 X116.624 Y116.180 E8.41722
G1 X116.278 Y115.894 F7800.000
G1 F270
G1 X115.937 Y116.127 E8.43324
G1 X115.636 Y116.127 E8.44488
G1 X115.583 Y116.149 E8.44712
G1 X115.179 Y116.192 E8.46287
G1 X114.831 Y116.160 E8.47641
G1 X114.745 Y116.127 E8.47996
G1 X114.426 Y116.127 E8.49234
G1 X114.067 Y115.869 E8.50947
G1 X113.795 Y115.526 E8.52645
G1 X113.601 Y115.065 E8.54582
G1 X113.567 Y114.706 E8.55980
G1 X113.685 Y114.155 E8.58165
G1 X113.726 Y114.075 E8.58514
G1 X113.724 Y113.939 E8.59041
G1 X113.977 Y113.582 E8.60736
G1 X114.334 Y113.298 E8.62507
G1 X114.825 Y113.104 E8.64552
G1 X115.211 Y113.065 E8.66054
G1 X115.842 Y113.193 E8.68551
G1 X116.366 Y113.555 E8.71020
G1 X116.613 Y113.890 E8.72631
G1 X116.618 Y114.038 E8.73208
G1 X116.758 Y114.382 E8.74648
G1 X116.798 Y114.734 E8.76020
G1 X116.758 Y115.083 E8.77383
G1 X116.571 Y115.528 E8.79253
G1 X116.316 Y115.847 E8.80839
G1 X116.366 Y116.285 F7800.000
G1 F6240
G1 X115.937 Y116.127 E8.37821
G1 F6240
G1 X115.636 Y116.127 E8.10393
G1 F6240
G1 X115.583 Y116.149 E8.05101
G1 F6240
G1 X115.179 Y116.192 E7.67984
G1 F6240
G1 X114.831 Y116.160 E7.36093
G1 F6240
G1 X114.745 Y116.127 E7.27709
G1 F6240
G1 X114.426 Y116.127 E6.98557
G1 F6240
G1 X114.067 Y115.869 E6.58175
G1 F6240
G1 X113.795 Y115.526 E6.18161
G1 F6240
G1 X113.601 Y115.065 E5.72530
G1 F6240
G1 X113.567 Y114.706 E5.39580
G1 F6240
G1 X113.685 Y114.155 E4.88082
G1 F6240
G1 X113.726 Y114.075 E4.79874
G1 F6240
G1 X113.724 Y113.939 E4.67442
G1 F6240
G1 X113.977 Y113.582 E4.27501
G1 F6240
G1 X114.162 Y113.434 E4.05839
G1 E3.80839 F6000.00000
G92 E0
G1 X119.072 Y113.152 F7800.000
G1 E4.80000 F6000.00000
G1 F270
G1 X119.439 Y113.433 E4.82346
G1 X119.929 Y115.894 E4.95076
G1 X120.018 Y116.227 E4.96828
G1 X119.218 Y117.746 E5.05534
G1 X119.023 Y118.027 E5.07272
G1 X117.776 Y118.830 E5.14795
G1 X115.058 Y119.323 E5.28814
G1 X112.344 Y118.850 E5.42790
G1 X111.101 Y118.057 E5.50271
G1 X110.909 Y117.782 E5.51974
G1 X110.112 Y116.274 E5.60630
G1 X110.200 Y115.940 E5.62378
G1 X110.689 Y113.471 E5.75150
G1 X111.227 Y113.083 E5.78513
G1 X111.238 Y113.731 E5.81799
G1 X111.060 Y114.559 E5.86096
G1 X111.165 Y115.677 E5.91795
G1 X111.639 Y116.802 E5.97990
G1 X112.337 Y117.682 E6.03687
G1 X113.625 Y118.609 E6.11742
G1 X114.367 Y118.609 E6.15503
G1 X115.196 Y118.687 E6.19731
G1 X115.915 Y118.609 E6.23401
G1 X116.702 Y118.609 E6.27393
G1 X117.985 Y117.735 E6.35268
G1 X118.725 Y116.808 E6.41289
G1 X119.184 Y115.720 E6.47282
G1 X119.297 Y114.735 E6.52309
G1 X119.186 Y113.760 E6.57291
G1 X119.084 Y113.510 E6.58657
G1 X119.074 Y113.212 E6.60171
G1 X119.777 Y113.052 F7800.000
G1 F270
G1 X119.899 Y113.139 E6.60929
G1 X120.424 Y115.779 E6.74587
G1 X120.560 Y116.289 E6.77266
G1 X119.653 Y118.010 E6.87135
G1 X119.384 Y118.400 E6.89542
G1 X117.966 Y119.312 E6.98094
G1 X115.059 Y119.840 E7.13085
G1 X112.156 Y119.334 E7.28036
G1 X110.742 Y118.431 E7.36549
G1 X110.474 Y118.047 E7.38925
G1 X109.569 Y116.336 E7.48747
G1 X109.704 Y115.826 E7.51422
G1 X110.229 Y113.176 E7.65128
G1 X110.786 Y112.774 E7.68614
G1 X114.077 Y110.149 E7.89974
G1 X115.231 Y110.126 E7.95829
G1 X116.070 Y110.144 E8.00085
G1 X118.499 Y112.074 E8.15826
G1 X119.730 Y113.015 E8.23688
G1 X120.080 Y112.643 F7800.000
G1 F270
G1 X120.358 Y112.842 E8.25426
G1 X120.920 Y115.664 E8.40024
G1 X121.103 Y116.350 E8.43628
G1 X120.089 Y118.274 E8.54660
G1 X119.744 Y118.773 E8.57737
G1 X118.157 Y119.795 E8.67317
G1 X115.061 Y120.356 E8.83280
G1 X111.969 Y119.817 E8.99206
G1 X110.383 Y118.805 E9.08751
G1 X110.039 Y118.312 E9.11801
G1 X109.027 Y116.398 E9.22789
G1 X109.209 Y115.711 E9.26390
G1 X109.769 Y112.881 E9.41031
G1 X110.479 Y112.369 E9.45470
G1 X113.651 Y109.838 E9.66061
G1 X113.599 Y109.689 E9.66860
G1 X114.129 Y109.631 E9.69564
G1 X115.231 Y109.618 E9.75152
G1 X116.001 Y109.626 E9.79061
G1 X116.424 Y109.669 E9.81221
G1 X116.395 Y109.753 E9.81672
G1 X118.811 Y111.673 E9.97330
G1 X120.032 Y112.606 E10.05127
G1 F6240
G1 X120.358 Y112.842 E9.68358
G1 F6240
G1 X120.920 Y115.664 E7.05558
G1 F6240
G1 X121.103 Y116.350 E6.40671
G1 F6240
G1 X120.538 Y117.421 E5.30127
G1 E5.05127 F6000.00000
G92 E0
G1 X116.994 Y109.579 F7800.000
G1 E4.80000 F6000.00000
G1 F270
G1 X119.124 Y111.272 E4.93804
G1 X120.382 Y112.234 E5.01840
G1 X120.818 Y112.545 E5.04557
G1 X121.415 Y115.548 E5.20093
G1 X121.645 Y116.411 E5.24624
G1 X120.525 Y118.538 E5.36819
G1 X120.105 Y119.145 E5.40565
G1 X118.347 Y120.277 E5.51173
G1 X115.063 Y120.873 E5.68108
G1 X111.781 Y120.300 E5.85010
G1 X110.024 Y119.179 E5.95587
G1 X109.604 Y118.577 E5.99311
G1 X108.485 Y116.459 E6.11465
G1 X108.713 Y115.597 E6.15992
G1 X109.309 Y112.586 E6.31567
G1 X110.171 Y111.964 E6.36960
G1 X113.052 Y109.665 E6.55659
G1 X112.908 Y109.254 E6.57872
G1 X114.098 Y109.123 E6.63947
G1 X116.029 Y109.117 E6.73745
G1 X117.116 Y109.228 E6.79286
G1 X117.014 Y109.523 E6.80866
G1 X117.593 Y109.405 F7800.000
G1 F1800
G1 X119.437 Y110.871 E6.92816
G1 X120.684 Y111.825 E7.00786
G1 X121.277 Y112.249 E7.04483
G1 X121.911 Y115.433 E7.20958
G1 X122.188 Y116.472 E7.26415
G1 X120.960 Y118.802 E7.39773
G1 X120.466 Y119.518 E7.44189
G1 X118.537 Y120.759 E7.55825
G1 X115.065 Y121.389 E7.73732
G1 X111.594 Y120.784 E7.91610
G1 X109.665 Y119.554 E8.03218
G1 X109.169 Y118.842 E8.07615
G1 X107.942 Y116.521 E8.20935
G1 X108.217 Y115.482 E8.26389
G1 X108.850 Y112.291 E8.42898
G1 X109.864 Y111.558 E8.49244
G1 X112.453 Y109.493 E8.66051
G1 X112.217 Y108.818 E8.69680
G1 X114.067 Y108.615 E8.79125
G1 X115.229 Y108.601 E8.85021
G1 X116.058 Y108.609 E8.89225
G1 X117.807 Y108.788 E8.98147
G1 X117.612 Y109.349 E9.01160
G1 X118.121 Y109.252 F7800.000
G1 F900
G1 X119.712 Y110.517 E9.09041
G1 X120.951 Y111.464 E9.15086
G1 X121.682 Y111.987 E9.18570
G1 X122.348 Y115.332 E9.31790
G1 X122.666 Y116.526 E9.36583
G1 X121.345 Y119.034 E9.47573
G1 X120.784 Y119.846 E9.51398
G1 X118.705 Y121.184 E9.60981
G1 X115.066 Y121.845 E9.75317
G1 X111.428 Y121.210 E9.89633
G1 X109.348 Y119.883 E9.99197
G1 X108.785 Y119.076 E10.03011
G1 X107.464 Y116.576 E10.13973
G1 X107.780 Y115.381 E10.18764
G1 X108.444 Y112.030 E10.32007
G1 X109.592 Y111.201 E10.37498
G1 X111.925 Y109.341 E10.49063
G1 X111.798 Y108.978 E10.50550
G1 X111.605 Y108.979 E10.51299
G1 X111.553 Y108.816 E10.51960
G1 X112.184 Y108.370 E10.54954
G1 X114.040 Y108.167 E10.62195
G1 X115.229 Y108.152 E10.66803
G1 X116.083 Y108.161 E10.70114
G1 X117.942 Y108.351 E10.77356
G1 X118.572 Y108.794 E10.80345
G1 X118.521 Y108.957 E10.81006
G1 X118.223 Y108.957 E10.82162
G1 X118.140 Y109.196 E10.83139
G1 X117.845 Y109.542 F7800.000
G1 F6240
G1 X119.712 Y110.517 E8.95553
G1 F6240
G1 X120.951 Y111.464 E7.53106
G1 F6240
G1 X121.682 Y111.987 E6.70993
G1 F6240
G1 X121.817 Y112.662 E6.08139
G1 E5.83139 F6000.00000
G92 E0
G1 X116.369 Y110.706 F7800.000
G1 E4.80000 F6000.00000
G1 F360
G1 X115.366 Y110.600 E4.84852
G1 F360
G1 X114.752 Y110.629 E4.87218
G1 F360
G1 X114.271 Y110.656 E4.89497
G1 X114.077 Y110.762 E4.90548
G1 F360
G1 X113.821 Y110.910 E4.91724
G1 F360
G1 X113.565 Y111.058 E4.92641
G1 F360
G1 X113.310 Y111.206 E4.93299
G1 F360
G1 X113.164 Y111.292 E4.93527
G1 X112.299 Y111.981 E4.95022
G1 X112.016 Y112.279 E4.95579
G1 F360
G1 X111.746 Y112.564 E4.96419
G1 F360
G1 X111.477 Y112.849 E4.97585
G1 X110.951 Y113.611 F7800.000
G1 F360
G1 X110.777 Y114.508 E4.97839
G1 X110.507 Y115.701 F7800.000
G1 F360
G1 X111.184 Y117.119 E5.07021
G1 X111.523 Y117.618 E5.10544
G1 X111.746 Y117.818 E5.12297
G1 F360
G1 X111.968 Y118.019 E5.13753
G1 F360
G1 X112.964 Y118.700 E5.18855
