;FLAVOR:Marlin
;TIME:3020
;Filament used: 2.35229m
;Layer height: 0.2
;Generated with Cura_SteamEngine 3.6.0
M140 S70
M105
M190 S70
M104 S215
M105
M109 S215
M82 ;absolute extrusion mode
G28 ; home all axes
M117 Purge extruder
G92 E0 ; reset extruder
G1 Z1.0 F3000 ; move z up little to prevent scratching of surface
G1 X0.1 Y20 Z0.3 F5000.0 ; move to start-line position G1 X0.1 Y200.0 Z0.3 F1500.0 E15 ; draw 1st line
G1 X0.4 Y200.0 Z0.3 F5000.0 ; move to side a little
G1 X0.4 Y20 Z0.3 F1500.0 E30 ; draw 2nd line
G92 E0 ; reset extruder
G1 Z1.0 F3000 ; move z up little to prevent scratching of surface
M117 All systems go!
G92 E0
G1 F6000 E-5
;LAYER_COUNT:158
;LAYER:0
M107
M204 S5000
M205 X30 Y30
G0 F7200 X93.559 Y86.057 Z0.2
M204 S500
M205 X20 Y20
;TYPE:SKIRT
G1 F6000 E0
G1 F900 X93.676 Y85.941 E0.00548
G1 X94.597 Y85.084 E0.04732
G1 X95.571 Y84.287 E0.08918
G1 X96.593 Y83.554 E0.13101
G1 X97.66 Y82.887 E0.17286
G1 X98.768 Y82.289 E0.21474
G1 X99.911 Y81.763 E0.25659
G1 X101.085 Y81.31 E0.29844
G1 X102.286 Y80.933 E0.34031
G1 X103.508 Y80.633 E0.38216
G1 X104.746 Y80.411 E0.42399
G1 X105.997 Y80.268 E0.46587
G1 X107.616 Y80.202 E0.51977
G1 X111.442 Y80.202 E0.64702
G1 X112.7 Y80.242 E0.68888
G1 X113.952 Y80.362 E0.73071
G1 X115.195 Y80.561 E0.77258
G1 X116.422 Y80.839 E0.81443
G1 X117.509 Y81.158 E0.85211
G1 X118.144 Y80.956 E0.87427
G1 X119.365 Y80.651 E0.91613
G1 X120.602 Y80.424 E0.95796
G1 X121.852 Y80.275 E0.99983
G1 X123.556 Y80.202 E1.05655
G1 X127.382 Y80.202 E1.18381
G1 X128.64 Y80.242 E1.22567
G1 X129.892 Y80.362 E1.2675
G1 X131.135 Y80.561 E1.30937
G1 X132.362 Y80.839 E1.35122
G1 X133.57 Y81.194 E1.39309
G1 X134.752 Y81.625 E1.43494
G1 X135.904 Y82.13 E1.47677
G1 X137.023 Y82.708 E1.51866
G1 X138.102 Y83.355 E1.56051
G1 X139.138 Y84.069 E1.60236
G1 X140.126 Y84.848 E1.6442
G1 X141.383 Y86.001 E1.70094
G1 X141.5 Y86.118 E1.70644
G1 X142.361 Y87.036 E1.7483
G1 X143.162 Y88.006 E1.79014
G1 X143.9 Y89.026 E1.83202
G1 X144.571 Y90.09 E1.87385
G1 X145.174 Y91.195 E1.91572
G1 X145.705 Y92.336 E1.95758
G1 X146.163 Y93.508 E1.99943
G1 X146.545 Y94.707 E2.04129
G1 X146.85 Y95.928 E2.08314
G1 X147.077 Y97.165 E2.12497
G1 X147.226 Y98.415 E2.16684
G1 X147.299 Y100.09 E2.22261
G1 X147.312 Y108.825 E2.51313
G1 X147.39 Y109.047 E2.52096
G1 X147.794 Y110.33 E2.5657
G1 X148.093 Y111.405 E2.60281
G1 X148.391 Y112.628 E2.64468
G1 X148.691 Y114.483 E2.70718
G1 X148.873 Y116.09 E2.76097
G1 X148.975 Y117.344 E2.80281
G1 X148.991 Y118.875 E2.85374
G1 X148.931 Y121.007 E2.92468
G1 X148.856 Y122.263 E2.96653
G1 X148.701 Y123.512 E3.00839
G1 X148.593 Y124.136 E3.02945
G1 X148.309 Y125.635 E3.08019
G1 X148.036 Y126.863 E3.12203
G1 X147.685 Y128.072 E3.16391
G1 X147.38 Y128.94 E3.19451
G1 X147.186 Y129.454 E3.21278
G1 X147.177 Y129.55 E3.21599
G1 X147.018 Y130.799 E3.25786
G1 X146.78 Y132.034 E3.2997
G1 X146.463 Y133.252 E3.34156
G1 X146.07 Y134.448 E3.38343
G1 X145.602 Y135.616 E3.42528
G1 X145.06 Y136.752 E3.46714
G1 X144.448 Y137.851 E3.50898
G1 X143.767 Y138.909 E3.55083
G1 X143.02 Y139.922 E3.59269
G1 X141.904 Y141.218 E3.64958
G1 X141.629 Y141.511 E3.66294
G1 X140.739 Y142.401 E3.7048
G1 X139.795 Y143.232 E3.74663
G1 X138.799 Y144.002 E3.78851
G1 X137.757 Y144.707 E3.83035
G1 X136.671 Y145.344 E3.87223
G1 X135.548 Y145.911 E3.91407
G1 X134.391 Y146.406 E3.95592
G1 X133.205 Y146.826 E3.99777
G1 X131.994 Y147.17 E4.03964
G1 X130.764 Y147.436 E4.0815
G1 X129.52 Y147.624 E4.12334
G1 X128.266 Y147.732 E4.16521
G1 X127.358 Y147.76 E4.19542
G1 X122.948 Y147.797 E4.3421
G1 X121.69 Y147.768 E4.38395
G1 X120.436 Y147.659 E4.42582
G1 X119.041 Y147.441 E4.47278
G1 X118.724 Y147.38 E4.48352
G1 X117.496 Y147.103 E4.52539
G1 X117.48 Y147.098 E4.52595
G1 X116.94 Y147.245 E4.54456
G1 X115.707 Y147.498 E4.58642
G1 X114.461 Y147.671 E4.62826
G1 X113.206 Y147.766 E4.67012
G1 X112.389 Y147.784 E4.6973
G1 X107.944 Y147.792 E4.84515
G1 X106.686 Y147.754 E4.88701
G1 X105.433 Y147.637 E4.92886
G1 X104.19 Y147.44 E4.97072
G1 X102.962 Y147.164 E5.01258
G1 X101.754 Y146.811 E5.05444
G1 X100.571 Y146.382 E5.0963
G1 X99.504 Y145.92 E5.13497
G1 X99.28 Y145.815 E5.1432
G1 X98.158 Y145.245 E5.18505
G1 X97.075 Y144.605 E5.22689
G1 X96.034 Y143.897 E5.26877
G1 X95.041 Y143.125 E5.3106
G1 X94.098 Y142.291 E5.35247
G1 X93.211 Y141.399 E5.39431
G1 X92.382 Y140.452 E5.43617
G1 X91.614 Y139.455 E5.47803
G1 X90.827 Y138.274 E5.52523
G1 X90.652 Y137.99 E5.53633
G1 X90.026 Y136.898 E5.57819
G1 X89.471 Y135.769 E5.62004
G1 X88.989 Y134.607 E5.66188
G1 X88.582 Y133.416 E5.70374
G1 X88.25 Y132.202 E5.7456
G1 X87.997 Y130.969 E5.78746
G1 X87.815 Y129.502 E5.83663
G1 X87.614 Y128.961 E5.85583
G1 X87.214 Y127.768 E5.89768
G1 X86.795 Y126.125 E5.95407
G1 X86.511 Y124.77 E6.00012
G1 X86.292 Y123.53 E6.042
G1 X86.148 Y122.22 E6.08583
G1 X86.046 Y120.888 E6.13026
G1 X85.99 Y119.631 E6.17211
G1 X85.996 Y118.81 E6.19942
G1 X86.04 Y117.272 E6.2506
G1 X86.116 Y116.016 E6.29245
G1 X86.346 Y114.325 E6.34921
G1 X86.686 Y112.439 E6.41295
G1 X86.949 Y111.208 E6.45481
G1 X87.289 Y109.997 E6.49665
G1 X87.528 Y109.287 E6.52157
G1 X87.697 Y108.813 E6.5383
G1 X87.699 Y100.114 E6.82763
G1 X87.739 Y98.856 E6.8695
G1 X87.859 Y97.604 E6.91133
G1 X88.059 Y96.361 E6.9532
G1 X88.337 Y95.134 E6.99505
G1 X88.692 Y93.927 E7.03689
G1 X89.123 Y92.745 E7.07874
G1 X89.629 Y91.592 E7.12062
G1 X90.206 Y90.474 E7.16246
G1 X90.854 Y89.395 E7.20433
G1 X91.569 Y88.359 E7.24619
G1 X92.348 Y87.371 E7.28804
G1 X93.017 Y86.645 E7.32087
G0 F810 X93.559 Y86.057
M204 S5000
M205 X30 Y30
G0 F7200 X93.84 Y86.341
M204 S500
M205 X20 Y20
G1 F6000 E7.34748
G1 F900 X93.957 Y86.225 E7.35296
G1 X94.869 Y85.377 E7.39438
G1 X95.834 Y84.589 E7.43582
G1 X96.848 Y83.865 E7.47726
G1 X97.905 Y83.207 E7.51867
G1 X99.003 Y82.619 E7.5601
G1 X100.137 Y82.102 E7.60155
G1 X101.301 Y81.659 E7.64297
G1 X102.491 Y81.291 E7.6844
G1 X103.702 Y81.001 E7.72582
G1 X104.93 Y80.789 E7.76727
G1 X106.168 Y80.656 E7.80868
G1 X107.616 Y80.602 E7.85687
G1 X111.442 Y80.602 E7.98413
G1 X112.687 Y80.642 E8.02556
G1 X113.927 Y80.762 E8.06699
G1 X115.156 Y80.961 E8.1084
G1 X116.371 Y81.239 E8.14986
G1 X117.509 Y81.577 E8.18934
G1 X118.351 Y81.313 E8.21869
G1 X119.561 Y81.018 E8.26011
G1 X120.787 Y80.801 E8.30153
G1 X122.025 Y80.662 E8.34296
G1 X123.556 Y80.602 E8.39392
G1 X127.382 Y80.602 E8.52117
G1 X128.627 Y80.642 E8.5626
G1 X129.867 Y80.762 E8.60404
G1 X131.096 Y80.961 E8.64545
G1 X132.311 Y81.239 E8.6869
G1 X133.505 Y81.594 E8.72833
G1 X134.673 Y82.024 E8.76973
G1 X135.812 Y82.529 E8.81117
G1 X136.916 Y83.106 E8.8526
G1 X137.981 Y83.753 E8.89405
G1 X139.002 Y84.467 E8.93549
G1 X139.975 Y85.244 E8.9769
G1 X141.1 Y86.284 E9.02786
G1 X141.217 Y86.401 E9.03336
G1 X142.069 Y87.31 E9.0748
G1 X142.861 Y88.271 E9.11622
G1 X143.59 Y89.281 E9.15765
G1 X144.252 Y90.336 E9.19907
G1 X144.845 Y91.432 E9.24052
G1 X145.367 Y92.563 E9.28195
G1 X145.815 Y93.725 E9.32337
G1 X146.188 Y94.914 E9.36482
G1 X146.483 Y96.124 E9.40624
G1 X146.7 Y97.35 E9.44765
G1 X146.839 Y98.588 E9.48909
G1 X146.899 Y100.091 E9.53912
G1 X146.912 Y108.896 E9.83197
G1 X147.012 Y109.18 E9.84199
G1 X147.409 Y110.437 E9.88583
G1 X147.708 Y111.512 E9.92294
G1 X148.003 Y112.723 E9.9644
G1 X148.294 Y114.528 E10.02521
G1 X148.476 Y116.135 E10.079
G1 X148.576 Y117.376 E10.12041
G1 X148.591 Y118.864 E10.1699
G1 X148.531 Y120.996 E10.24084
G1 X148.456 Y122.239 E10.28226
G1 X148.2 Y124.061 E10.34345
G1 X147.916 Y125.56 E10.3942
G1 X147.645 Y126.776 E10.43563
G1 X147.296 Y127.972 E10.47707
G1 X147.006 Y128.798 E10.50619
G1 X146.793 Y129.361 E10.52621
G1 X146.779 Y129.512 E10.53125
G1 X146.621 Y130.748 E10.5727
G1 X146.384 Y131.971 E10.61413
G1 X146.069 Y133.176 E10.65556
G1 X145.677 Y134.358 E10.69698
G1 X145.21 Y135.513 E10.73841
G1 X144.67 Y136.636 E10.77986
G1 X144.059 Y137.721 E10.82127
G1 X143.38 Y138.765 E10.8627
G1 X142.635 Y139.764 E10.90414
G1 X141.612 Y140.944 E10.95609
G1 X141.337 Y141.237 E10.96945
G1 X140.456 Y142.118 E11.01089
G1 X139.52 Y142.94 E11.05232
G1 X138.534 Y143.7 E11.09373
G1 X137.5 Y144.396 E11.13519
G1 X136.424 Y145.023 E11.17661
G1 X135.31 Y145.581 E11.21805
G1 X134.163 Y146.065 E11.25945
G1 X132.987 Y146.475 E11.30088
G1 X131.787 Y146.809 E11.34231
G1 X130.568 Y147.065 E11.38373
G1 X129.335 Y147.242 E11.42516
G1 X128.093 Y147.34 E11.4666
G1 X127.355 Y147.36 E11.49116
G1 X122.945 Y147.397 E11.63784
G1 X121.699 Y147.368 E11.67929
G1 X120.459 Y147.258 E11.7207
G1 X119.116 Y147.048 E11.76591
G1 X118.799 Y146.987 E11.77665
G1 X117.584 Y146.713 E11.81807
G1 X117.483 Y146.683 E11.82158
G1 X116.823 Y146.862 E11.84432
G1 X115.602 Y147.11 E11.88576
G1 X114.368 Y147.279 E11.92719
G1 X113.126 Y147.369 E11.9686
G1 X112.388 Y147.384 E11.99315
G1 X107.943 Y147.392 E12.141
G1 X106.698 Y147.354 E12.18242
G1 X105.458 Y147.237 E12.22385
G1 X104.228 Y147.04 E12.26528
G1 X103.013 Y146.764 E12.30672
G1 X101.818 Y146.411 E12.34817
G1 X100.649 Y145.983 E12.38957
G1 X99.674 Y145.558 E12.42495
G1 X99.45 Y145.453 E12.43317
G1 X98.34 Y144.888 E12.4746
G1 X97.268 Y144.254 E12.51602
G1 X96.239 Y143.551 E12.55747
G1 X95.257 Y142.785 E12.5989
G1 X94.327 Y141.956 E12.64033
G1 X93.452 Y141.07 E12.68175
G1 X92.635 Y140.13 E12.72317
G1 X91.88 Y139.139 E12.76461
G1 X91.168 Y138.064 E12.8075
G1 X90.993 Y137.78 E12.81859
G1 X90.374 Y136.699 E12.86002
G1 X89.825 Y135.581 E12.90145
G1 X89.35 Y134.43 E12.94286
G1 X88.949 Y133.25 E12.98431
G1 X88.625 Y132.047 E13.02575
G1 X88.379 Y130.826 E13.06718
G1 X88.205 Y129.401 E13.11493
G1 X87.989 Y128.821 E13.13551
G1 X87.593 Y127.64 E13.17694
G1 X87.187 Y126.043 E13.23175
G1 X86.903 Y124.688 E13.27779
G1 X86.686 Y123.461 E13.31924
G1 X86.547 Y122.189 E13.3618
G1 X86.445 Y120.857 E13.40623
G1 X86.389 Y119.613 E13.44765
G1 X86.396 Y118.821 E13.47399
G1 X86.44 Y117.283 E13.52516
G1 X86.516 Y116.04 E13.56658
G1 X86.74 Y114.396 E13.62177
G1 X87.08 Y112.51 E13.68551
G1 X87.34 Y111.292 E13.72693
G1 X87.678 Y110.093 E13.76837
G1 X87.904 Y109.422 E13.79191
G1 X88.097 Y108.881 E13.81102
G1 X88.099 Y100.114 E14.10261
G1 X88.139 Y98.869 E14.14404
G1 X88.259 Y97.629 E14.18548
G1 X88.459 Y96.4 E14.22689
G1 X88.736 Y95.186 E14.26831
G1 X89.092 Y93.992 E14.30975
G1 X89.523 Y92.823 E14.35119
G1 X90.028 Y91.685 E14.3926
G1 X90.605 Y90.581 E14.43403
G1 X91.252 Y89.516 E14.47547
G1 X91.966 Y88.495 E14.51691
G1 X92.744 Y87.523 E14.55832
G1 X93.296 Y86.927 E14.58534
G0 F810 X93.84 Y86.341
M204 S5000
M205 X30 Y30
G0 F7200 X94.122 Y86.625
M204 S500
M205 X20 Y20
G1 F6000 E14.61195
G1 F900 X94.239 Y86.509 E14.61743
G1 X95.142 Y85.67 E14.65843
G1 X96.097 Y84.892 E14.69939
G1 X97.102 Y84.177 E14.74042
G1 X98.15 Y83.528 E14.78142
G1 X99.238 Y82.949 E14.82241
G1 X100.362 Y82.441 E14.86343
G1 X101.516 Y82.008 E14.90443
G1 X102.695 Y81.65 E14.94541
G1 X103.896 Y81.37 E14.98643
G1 X105.112 Y81.168 E15.02743
G1 X106.338 Y81.045 E15.06841
G1 X107.616 Y81.002 E15.11094
G1 X111.442 Y81.002 E15.23819
G1 X112.674 Y81.042 E15.27919
G1 X113.901 Y81.162 E15.32019
G1 X115.117 Y81.361 E15.36118
G1 X116.319 Y81.638 E15.4022
G1 X117.499 Y81.993 E15.44319
G1 X117.505 Y81.995 E15.4434
G1 X118.556 Y81.672 E15.47997
G1 X119.756 Y81.386 E15.521
G1 X120.971 Y81.179 E15.56199
G1 X122.197 Y81.051 E15.60299
G1 X123.556 Y81.002 E15.64822
G1 X127.382 Y81.002 E15.77547
G1 X128.614 Y81.042 E15.81647
G1 X129.841 Y81.162 E15.85748
G1 X131.057 Y81.361 E15.89846
G1 X132.259 Y81.638 E15.93949
G1 X133.439 Y81.993 E15.98047
G1 X134.594 Y82.424 E16.02147
G1 X135.719 Y82.929 E16.06249
G1 X136.808 Y83.505 E16.10346
G1 X137.858 Y84.151 E16.14447
G1 X138.864 Y84.864 E16.18548
G1 X139.822 Y85.64 E16.22648
G1 X140.817 Y86.567 E16.27171
G1 X140.934 Y86.684 E16.27722
G1 X141.777 Y87.583 E16.31821
G1 X142.56 Y88.536 E16.35923
G1 X143.279 Y89.537 E16.40022
G1 X143.932 Y90.582 E16.44121
G1 X144.516 Y91.668 E16.48222
G1 X145.028 Y92.789 E16.52321
G1 X145.467 Y93.941 E16.56421
G1 X145.829 Y95.119 E16.6052
G1 X146.115 Y96.319 E16.64623
G1 X146.322 Y97.534 E16.68722
G1 X146.45 Y98.76 E16.72822
G1 X146.499 Y100.091 E16.77252
G1 X146.512 Y108.965 E17.06767
G1 X146.635 Y109.314 E17.07998
G1 X147.023 Y110.545 E17.12291
G1 X147.322 Y111.62 E17.16002
G1 X147.614 Y112.817 E17.201
G1 X147.896 Y114.573 E17.26015
G1 X148.078 Y116.18 E17.31394
G1 X148.177 Y117.409 E17.35495
G1 X148.191 Y118.852 E17.40295
G1 X148.131 Y120.984 E17.47389
G1 X148.057 Y122.215 E17.51491
G1 X147.807 Y123.987 E17.57443
G1 X147.523 Y125.486 E17.62517
G1 X147.254 Y126.689 E17.66617
G1 X146.908 Y127.872 E17.70717
G1 X146.631 Y128.657 E17.73485
G1 X146.401 Y129.267 E17.75654
G1 X146.381 Y129.474 E17.76345
G1 X146.224 Y130.697 E17.80446
G1 X145.988 Y131.907 E17.84547
G1 X145.674 Y133.099 E17.88646
G1 X145.284 Y134.268 E17.92745
G1 X144.818 Y135.41 E17.96848
G1 X144.28 Y136.519 E18.00947
G1 X143.67 Y137.59 E18.05047
G1 X142.993 Y138.62 E18.09146
G1 X142.25 Y139.604 E18.13247
G1 X141.321 Y140.671 E18.17953
G1 X141.046 Y140.964 E18.19289
G1 X140.173 Y141.835 E18.23391
G1 X139.247 Y142.647 E18.27487
G1 X138.269 Y143.398 E18.31588
G1 X137.244 Y144.084 E18.35691
G1 X136.178 Y144.702 E18.39789
G1 X135.073 Y145.249 E18.4389
G1 X133.936 Y145.724 E18.47988
G1 X132.77 Y146.124 E18.52088
G1 X131.58 Y146.447 E18.56189
G1 X130.372 Y146.693 E18.6029
G1 X129.151 Y146.86 E18.64389
G1 X127.351 Y146.96 E18.70385
G1 X122.941 Y146.997 E18.85053
G1 X121.709 Y146.968 E18.89152
G1 X120.481 Y146.858 E18.93252
G1 X119.192 Y146.656 E18.97592
G1 X118.875 Y146.595 E18.98666
G1 X117.672 Y146.323 E19.02768
G1 X117.486 Y146.268 E19.03413
G1 X116.706 Y146.479 E19.061
G1 X115.497 Y146.722 E19.10202
G1 X114.276 Y146.886 E19.14299
G1 X113.046 Y146.971 E19.184
G1 X112.387 Y146.984 E19.20593
G1 X107.942 Y146.992 E19.35377
G1 X106.71 Y146.954 E19.39476
G1 X105.483 Y146.837 E19.43576
G1 X104.266 Y146.64 E19.47676
G1 X103.065 Y146.364 E19.51775
G1 X101.883 Y146.012 E19.55877
G1 X100.728 Y145.583 E19.59975
G1 X99.844 Y145.196 E19.63184
G1 X99.62 Y145.091 E19.64007
G1 X98.521 Y144.532 E19.68108
G1 X97.461 Y143.902 E19.7221
G1 X96.444 Y143.206 E19.76308
G1 X95.474 Y142.445 E19.80409
G1 X94.556 Y141.622 E19.8451
G1 X93.693 Y140.742 E19.88609
G1 X92.889 Y139.808 E19.92708
G1 X92.147 Y138.823 E19.9681
G1 X91.508 Y137.854 E20.0067
G1 X91.333 Y137.57 E20.0178
G1 X90.721 Y136.5 E20.0588
G1 X90.179 Y135.393 E20.09979
G1 X89.711 Y134.253 E20.14078
G1 X89.317 Y133.085 E20.18178
G1 X89 Y131.894 E20.22277
G1 X88.761 Y130.684 E20.26379
G1 X88.595 Y129.304 E20.31002
G1 X88.364 Y128.682 E20.33209
G1 X87.972 Y127.513 E20.3731
G1 X87.578 Y125.961 E20.42636
G1 X87.294 Y124.606 E20.4724
G1 X87.08 Y123.392 E20.5134
G1 X86.945 Y122.159 E20.55466
G1 X86.843 Y120.827 E20.59909
G1 X86.789 Y119.595 E20.64011
G1 X86.796 Y118.833 E20.66545
G1 X86.84 Y117.295 E20.71663
G1 X86.915 Y116.064 E20.75765
G1 X87.133 Y114.467 E20.81125
G1 X87.473 Y112.581 E20.87499
G1 X87.731 Y111.376 E20.91598
G1 X88.067 Y110.19 E20.95698
G1 X88.281 Y109.556 E20.97924
G1 X88.497 Y108.951 E21.0006
G1 X88.499 Y100.114 E21.29452
G1 X88.539 Y98.882 E21.33552
G1 X88.659 Y97.655 E21.37652
G1 X88.859 Y96.439 E21.41751
G1 X89.136 Y95.238 E21.45851
G1 X89.491 Y94.057 E21.49952
G1 X89.922 Y92.903 E21.54049
G1 X90.427 Y91.778 E21.58151
G1 X91.004 Y90.688 E21.62253
G1 X91.65 Y89.639 E21.6635
G1 X92.363 Y88.633 E21.70452
G1 X93.14 Y87.676 E21.74552
G1 X93.576 Y87.209 E21.76677
G0 F810 X94.122 Y86.625
M204 S5000
M205 X30 Y30
G0 F7200 X94.403 Y86.909
M204 S500
M205 X20 Y20
G1 F6000 E21.79337
G1 F900 X94.52 Y86.793 E21.79885
G1 X95.414 Y85.964 E21.8394
G1 X96.36 Y85.194 E21.87997
G1 X97.355 Y84.488 E21.92055
G1 X98.394 Y83.849 E21.96112
G1 X99.472 Y83.279 E22.00168
G1 X100.586 Y82.782 E22.04225
G1 X101.73 Y82.358 E22.08283
G1 X102.899 Y82.01 E22.1234
G1 X104.088 Y81.74 E22.16395
G1 X105.292 Y81.548 E22.2045
G1 X106.507 Y81.435 E22.24509
G1 X107.616 Y81.402 E22.28199
G1 X111.442 Y81.402 E22.40924
G1 X112.661 Y81.442 E22.44981
G1 X113.875 Y81.562 E22.49038
G1 X115.078 Y81.761 E22.53094
G1 X116.266 Y82.038 E22.57151
G1 X117.433 Y82.393 E22.61208
G1 X117.5 Y82.418 E22.61446
G1 X117.594 Y82.383 E22.6178
G1 X118.761 Y82.031 E22.65834
G1 X119.95 Y81.755 E22.69894
G1 X121.153 Y81.558 E22.73948
