;FLAVOR:Marlin
;TIME:2887
;Filament used: 0.959395m
;Layer height: 0.16
;Generated with Cura_SteamEngine 3.6.0
M140 S70
M105
M190 S70
M104 S215
M105
M109 S215
M82 ;absolute extrusion mode
G28 ; home all axes
M117 Purge extruder
G92 E0 ; reset extruder
G1 Z1.0 F3000 ; move z up little to prevent scratching of surface
G1 X0.1 Y20 Z0.3 F5000.0 ; move to start-line position G1 X0.1 Y200.0 Z0.3 F1500.0 E15 ; draw 1st line
G1 X0.4 Y200.0 Z0.3 F5000.0 ; move to side a little
G1 X0.4 Y20 Z0.3 F1500.0 E30 ; draw 2nd line
G92 E0 ; reset extruder
G1 Z1.0 F3000 ; move z up little to prevent scratching of surface
M117 All systems go!
G92 E0
G1 F6000 E-5
;LAYER_COUNT:328
;LAYER:0
M107
M204 S5000
M205 X30 Y30
G0 F7200 X98.528 Y111.502 Z0.2
M204 S500
M205 X20 Y20
;TYPE:SKIRT
G1 F6000 E0
G1 F900 X99.054 Y111.144 E0.02328
G1 X99.621 Y110.856 E0.04655
G1 X100.219 Y110.64 E0.06981
G1 X100.84 Y110.502 E0.09308
G1 X101.629 Y110.44 E0.12204
G1 X133.371 Y110.44 E1.28335
G1 X134.006 Y110.48 E1.30663
G1 X134.63 Y110.599 E1.32987
G1 X135.235 Y110.796 E1.35315
G1 X135.81 Y111.067 E1.37641
G1 X136.347 Y111.408 E1.39968
G1 X136.949 Y111.922 E1.42864
G1 X137.078 Y112.051 E1.43532
G1 X137.498 Y112.528 E1.45857
G1 X137.856 Y113.054 E1.48185
G1 X138.144 Y113.621 E1.50512
G1 X138.36 Y114.219 E1.52838
G1 X138.498 Y114.84 E1.55165
G1 X138.56 Y115.629 E1.58061
G1 X138.56 Y116.979 E1.63
G1 X138.52 Y117.614 E1.65328
G1 X138.401 Y118.238 E1.67652
G1 X138.204 Y118.843 E1.6998
G1 X137.933 Y119.418 E1.72305
G1 X137.592 Y119.955 E1.74633
G1 X137.078 Y120.557 E1.77529
G1 X136.949 Y120.686 E1.78196
G1 X136.472 Y121.106 E1.80521
G1 X135.946 Y121.464 E1.82849
G1 X135.379 Y121.752 E1.85176
G1 X134.781 Y121.968 E1.87502
G1 X134.16 Y122.106 E1.8983
G1 X133.371 Y122.168 E1.92725
G1 X101.629 Y122.169 E3.08857
G1 X100.994 Y122.129 E3.11185
G1 X100.37 Y122.01 E3.13509
G1 X99.765 Y121.813 E3.15837
G1 X99.19 Y121.542 E3.18162
G1 X98.653 Y121.201 E3.2049
G1 X98.051 Y120.687 E3.23386
G1 X97.922 Y120.558 E3.24053
G1 X97.502 Y120.081 E3.26378
G1 X97.144 Y119.555 E3.28706
G1 X96.856 Y118.988 E3.31033
G1 X96.64 Y118.39 E3.33359
G1 X96.502 Y117.769 E3.35687
G1 X96.44 Y116.98 E3.38582
G1 X96.44 Y115.629 E3.43525
G1 X96.48 Y114.994 E3.45853
G1 X96.599 Y114.37 E3.48177
G1 X96.796 Y113.765 E3.50505
G1 X97.067 Y113.19 E3.5283
G1 X97.408 Y112.653 E3.55158
G1 X97.922 Y112.051 E3.58054
G1 X97.986 Y111.987 E3.58385
G0 F810 X98.051 Y111.922
G0 X98.528 Y111.502
M204 S5000
M205 X30 Y30
G0 F7200 X98.819 Y111.833
M204 S500
M205 X20 Y20
G1 F6000 E3.61045
G1 F900 X99.325 Y111.496 E3.63269
G1 X99.87 Y111.228 E3.65491
G1 X100.446 Y111.034 E3.67715
G1 X101.042 Y110.917 E3.69937
G1 X101.629 Y110.88 E3.72089
G1 X133.371 Y110.88 E4.88221
G1 X133.977 Y110.92 E4.90442
G1 X134.573 Y111.039 E4.92666
G1 X135.148 Y111.235 E4.94889
G1 X135.692 Y111.506 E4.97112
G1 X136.197 Y111.845 E4.99337
G1 X136.638 Y112.233 E5.01486
G1 X136.767 Y112.362 E5.02154
G1 X137.167 Y112.819 E5.04376
G1 X137.504 Y113.325 E5.066
G1 X137.772 Y113.87 E5.08822
G1 X137.966 Y114.446 E5.11046
G1 X138.083 Y115.042 E5.13268
G1 X138.12 Y115.629 E5.1542
G1 X138.12 Y116.979 E5.20359
G1 X138.08 Y117.585 E5.22581
G1 X137.961 Y118.181 E5.24805
G1 X137.765 Y118.756 E5.27027
G1 X137.494 Y119.3 E5.29251
G1 X137.155 Y119.805 E5.31476
G1 X136.767 Y120.246 E5.33625
G1 X136.638 Y120.375 E5.34292
G1 X136.181 Y120.775 E5.36514
G1 X135.675 Y121.112 E5.38739
G1 X135.13 Y121.38 E5.40961
G1 X134.554 Y121.574 E5.43184
G1 X133.958 Y121.691 E5.45406
G1 X133.371 Y121.728 E5.47558
G1 X101.629 Y121.729 E6.6369
G1 X101.023 Y121.689 E6.65912
G1 X100.427 Y121.57 E6.68136
G1 X99.852 Y121.374 E6.70358
G1 X99.308 Y121.103 E6.72582
G1 X98.804 Y120.764 E6.74804
G1 X98.362 Y120.376 E6.76956
G1 X98.233 Y120.247 E6.77623
G1 X97.833 Y119.79 E6.79845
G1 X97.496 Y119.284 E6.82069
G1 X97.228 Y118.739 E6.84291
G1 X97.034 Y118.163 E6.86515
G1 X96.917 Y117.567 E6.88737
G1 X96.88 Y116.98 E6.90889
G1 X96.88 Y115.629 E6.95832
G1 X96.92 Y115.023 E6.98054
G1 X97.039 Y114.427 E7.00277
G1 X97.235 Y113.852 E7.025
G1 X97.506 Y113.308 E7.04724
G1 X97.845 Y112.803 E7.06949
G1 X98.233 Y112.362 E7.09098
G1 X98.277 Y112.318 E7.09326
G0 F810 X98.362 Y112.233
G0 X98.819 Y111.833
M204 S5000
M205 X30 Y30
G0 F7200 X99.109 Y112.165
M204 S500
M205 X20 Y20
G1 F6000 E7.11985
G1 F900 X99.593 Y111.849 E7.141
G1 X100.116 Y111.603 E7.16215
G1 X100.668 Y111.432 E7.18329
G1 X101.239 Y111.338 E7.20446
G1 X101.629 Y111.32 E7.21875
G1 X133.371 Y111.32 E8.38006
G1 X133.948 Y111.36 E8.40122
G1 X134.513 Y111.479 E8.42235
G1 X135.057 Y111.675 E8.4435
G1 X135.568 Y111.944 E8.46463
G1 X136.038 Y112.281 E8.48579
G1 X136.327 Y112.544 E8.50009
G1 X136.456 Y112.673 E8.50676
G1 X136.835 Y113.109 E8.5279
G1 X137.151 Y113.593 E8.54904
G1 X137.397 Y114.116 E8.57019
G1 X137.568 Y114.668 E8.59133
G1 X137.662 Y115.239 E8.6125
G1 X137.68 Y115.629 E8.62679
G1 X137.68 Y116.979 E8.67618
G1 X137.64 Y117.556 E8.69734
G1 X137.521 Y118.121 E8.71847
G1 X137.325 Y118.665 E8.73962
G1 X137.056 Y119.176 E8.76075
G1 X136.719 Y119.646 E8.78191
G1 X136.456 Y119.935 E8.7962
G1 X136.327 Y120.064 E8.80288
G1 X135.891 Y120.443 E8.82401
G1 X135.407 Y120.759 E8.84516
G1 X134.884 Y121.005 E8.86631
G1 X134.332 Y121.176 E8.88745
G1 X133.761 Y121.27 E8.90862
G1 X133.371 Y121.288 E8.92291
G1 X101.629 Y121.289 E10.08422
G1 X101.053 Y121.249 E10.10535
G1 X100.487 Y121.13 E10.12651
G1 X99.943 Y120.934 E10.14766
G1 X99.432 Y120.665 E10.16879
G1 X98.962 Y120.328 E10.18995
G1 X98.673 Y120.065 E10.20425
G1 X98.544 Y119.936 E10.21092
G1 X98.165 Y119.5 E10.23206
G1 X97.849 Y119.016 E10.2532
G1 X97.603 Y118.493 E10.27435
G1 X97.432 Y117.941 E10.29549
G1 X97.338 Y117.37 E10.31666
G1 X97.32 Y116.98 E10.33095
G1 X97.32 Y115.629 E10.38038
G1 X97.36 Y115.052 E10.40154
G1 X97.479 Y114.487 E10.42266
G1 X97.675 Y113.943 E10.44382
G1 X97.944 Y113.432 E10.46494
G1 X98.281 Y112.962 E10.4861
G1 X98.544 Y112.673 E10.5004
G1 X98.567 Y112.65 E10.50159
G0 F810 X98.673 Y112.544
G0 X99.109 Y112.165
M204 S5000
M205 X30 Y30
G0 F7200 X99.398 Y112.498
M204 S500
M205 X20 Y20
G1 F6000 E10.52819
G1 F900 X99.86 Y112.205 E10.5482
G1 X100.359 Y111.982 E10.5682
G1 X100.885 Y111.835 E10.58818
G1 X101.629 Y111.76 E10.61554
G1 X133.371 Y111.76 E11.77686
G1 X133.916 Y111.8 E11.79685
G1 X134.45 Y111.919 E11.81687
G1 X134.96 Y112.114 E11.83684
G1 X135.437 Y112.382 E11.85686
G1 X136.016 Y112.855 E11.88421
G1 X136.145 Y112.984 E11.89089
G1 X136.502 Y113.398 E11.91089
G1 X136.795 Y113.86 E11.9309
G1 X137.018 Y114.359 E11.9509
G1 X137.165 Y114.885 E11.97088
G1 X137.24 Y115.629 E11.99824
G1 X137.24 Y116.979 E12.04763
G1 X137.2 Y117.524 E12.06762
G1 X137.081 Y118.058 E12.08764
G1 X136.886 Y118.568 E12.10762
G1 X136.618 Y119.045 E12.12763
G1 X136.145 Y119.624 E12.15499
G1 X136.016 Y119.753 E12.16166
G1 X135.602 Y120.11 E12.18166
G1 X135.14 Y120.403 E12.20168
G1 X134.641 Y120.626 E12.22167
G1 X134.115 Y120.773 E12.24166
G1 X133.371 Y120.848 E12.26901
G1 X101.629 Y120.849 E13.43033
G1 X101.084 Y120.809 E13.45032
G1 X100.55 Y120.69 E13.47034
G1 X100.04 Y120.495 E13.49032
G1 X99.563 Y120.227 E13.51033
G1 X98.984 Y119.754 E13.53769
G1 X98.855 Y119.625 E13.54436
G1 X98.498 Y119.211 E13.56436
G1 X98.205 Y118.749 E13.58438
G1 X97.982 Y118.25 E13.60438
G1 X97.835 Y117.724 E13.62436
G1 X97.76 Y116.98 E13.65171
G1 X97.76 Y115.629 E13.70114
G1 X97.8 Y115.084 E13.72114
G1 X97.919 Y114.55 E13.74115
G1 X98.114 Y114.04 E13.76113
G1 X98.382 Y113.563 E13.78115
G1 X98.855 Y112.984 E13.8085
G1 X98.856 Y112.983 E13.80855
G0 F810 X98.984 Y112.855
G0 X99.398 Y112.498
M204 S5000
M205 X30 Y30
G0 F7200 X99.686 Y112.833
M204 S500
M205 X20 Y20
G1 F6000 E13.83515
G1 F900 X100.123 Y112.564 E13.85392
G1 X100.597 Y112.366 E13.87272
G1 X101.095 Y112.243 E13.89149
G1 X101.629 Y112.2 E13.91109
G1 X133.371 Y112.2 E15.0724
G1 X133.883 Y112.24 E15.09119
G1 X134.382 Y112.359 E15.10996
G1 X134.857 Y112.554 E15.12875
G1 X135.296 Y112.82 E15.14753
G1 X135.704 Y113.167 E15.16712
G1 X135.833 Y113.296 E15.1738
G1 X136.167 Y113.686 E15.19258
G1 X136.436 Y114.123 E15.21136
G1 X136.634 Y114.597 E15.23015
G1 X136.757 Y115.095 E15.24892
G1 X136.8 Y115.629 E15.26852
G1 X136.8 Y116.979 E15.31791
G1 X136.76 Y117.491 E15.3367
G1 X136.641 Y117.99 E15.35547
G1 X136.446 Y118.465 E15.37425
G1 X136.18 Y118.904 E15.39303
G1 X135.833 Y119.312 E15.41263
G1 X135.704 Y119.441 E15.4193
G1 X135.314 Y119.775 E15.43809
G1 X134.877 Y120.044 E15.45686
G1 X134.403 Y120.242 E15.47566
G1 X133.905 Y120.365 E15.49443
G1 X133.371 Y120.408 E15.51403
G1 X101.629 Y120.409 E16.67534
G1 X101.117 Y120.369 E16.69413
G1 X100.618 Y120.25 E16.7129
G1 X100.143 Y120.055 E16.73169
G1 X99.704 Y119.789 E16.75047
G1 X99.296 Y119.442 E16.77006
G1 X99.167 Y119.313 E16.77674
G1 X98.833 Y118.923 E16.79552
G1 X98.564 Y118.486 E16.8143
G1 X98.366 Y118.012 E16.83309
G1 X98.243 Y117.514 E16.85186
G1 X98.2 Y116.98 E16.87146
G1 X98.2 Y115.629 E16.92089
G1 X98.24 Y115.117 E16.93968
G1 X98.359 Y114.618 E16.95844
G1 X98.554 Y114.143 E16.97723
G1 X98.82 Y113.704 E16.99601
G1 X99.147 Y113.32 E17.01446
G0 F810 X99.167 Y113.296
G0 X99.296 Y113.167
G0 X99.686 Y112.833
M204 S5000
M205 X30 Y30
G0 F7200 X99.972 Y113.169
M204 S500
M205 X20 Y20
G1 F6000 E17.04106
G1 F900 X100.383 Y112.926 E17.05853
G1 X100.829 Y112.754 E17.07602
G1 X101.297 Y112.659 E17.09349
G1 X101.629 Y112.64 E17.10566
G1 X133.371 Y112.64 E18.26697
G1 X133.847 Y112.68 E18.28445
G1 X134.31 Y112.799 E18.30194
G1 X134.747 Y112.993 E18.31943
G1 X135.145 Y113.257 E18.33691
G1 X135.393 Y113.478 E18.34906
G1 X135.522 Y113.607 E18.35573
G1 X135.831 Y113.972 E18.37323
G1 X136.074 Y114.383 E18.3907
G1 X136.246 Y114.829 E18.40819
G1 X136.341 Y115.297 E18.42566
G1 X136.36 Y115.629 E18.43783
G1 X136.36 Y116.979 E18.48722
G1 X136.32 Y117.455 E18.50469
G1 X136.201 Y117.918 E18.52218
G1 X136.007 Y118.355 E18.53968
G1 X135.743 Y118.753 E18.55715
G1 X135.522 Y119.001 E18.5693
G1 X135.393 Y119.13 E18.57598
G1 X135.028 Y119.439 E18.59347
G1 X134.617 Y119.682 E18.61094
G1 X134.171 Y119.854 E18.62843
G1 X133.703 Y119.949 E18.6459
G1 X133.371 Y119.968 E18.65807
G1 X101.629 Y119.969 E19.81939
G1 X101.153 Y119.929 E19.83686
G1 X100.69 Y119.81 E19.85435
G1 X100.253 Y119.616 E19.87185
G1 X99.855 Y119.352 E19.88932
G1 X99.607 Y119.131 E19.90147
G1 X99.478 Y119.002 E19.90815
G1 X99.169 Y118.637 E19.92564
G1 X98.926 Y118.226 E19.94311
G1 X98.754 Y117.78 E19.9606
G1 X98.659 Y117.312 E19.97807
G1 X98.64 Y116.98 E19.99024
G1 X98.64 Y115.629 E20.03967
G1 X98.68 Y115.153 E20.05714
G1 X98.799 Y114.69 E20.07463
G1 X98.993 Y114.253 E20.09213
G1 X99.257 Y113.855 E20.1096
G1 X99.434 Y113.657 E20.11932
G0 F810 X99.478 Y113.607
G0 X99.607 Y113.478
G0 X99.972 Y113.169
M204 S5000
M205 X30 Y30
G0 F7200 X100.256 Y113.508
M204 S500
M205 X20 Y20
G1 F6000 E20.14591
G1 F900 X100.639 Y113.292 E20.162
G1 X101.054 Y113.149 E20.17806
G1 X101.629 Y113.08 E20.19925
G1 X133.371 Y113.08 E21.36057
G1 X133.809 Y113.12 E21.37666
G1 X134.232 Y113.238 E21.39272
G1 X134.627 Y113.431 E21.40881
G1 X135.082 Y113.789 E21.42999
G1 X135.211 Y113.918 E21.43667
G1 X135.492 Y114.256 E21.45275
G1 X135.708 Y114.639 E21.46883
G1 X135.851 Y115.054 E21.48489
G1 X135.92 Y115.629 E21.50608
G1 X135.92 Y116.979 E21.55547
G1 X135.88 Y117.417 E21.57156
G1 X135.762 Y117.84 E21.58763
G1 X135.569 Y118.235 E21.60372
G1 X135.211 Y118.69 E21.6249
G1 X135.082 Y118.819 E21.63157
G1 X134.744 Y119.1 E21.64765
G1 X134.361 Y119.316 E21.66374
G1 X133.946 Y119.459 E21.6798
G1 X133.371 Y119.528 E21.70099
G1 X101.629 Y119.529 E22.86231
G1 X101.191 Y119.489 E22.8784
G1 X100.768 Y119.371 E22.89446
G1 X100.373 Y119.178 E22.91055
G1 X99.918 Y118.82 E22.93173
G1 X99.789 Y118.691 E22.9384
G1 X99.508 Y118.353 E22.95449
G1 X99.292 Y117.97 E22.97057
G1 X99.149 Y117.555 E22.98663
G1 X99.08 Y116.98 E23.00782
G1 X99.08 Y115.629 E23.05725
G1 X99.12 Y115.191 E23.07334
G1 X99.238 Y114.768 E23.08941
G1 X99.431 Y114.373 E23.10549
G1 X99.724 Y114.001 E23.12282
G0 F810 X99.789 Y113.918
G0 X99.918 Y113.789
G0 X100.256 Y113.508
M204 S5000
M205 X30 Y30
G0 F7200 X100.537 Y113.848
M204 S500
M205 X20 Y20
G1 F6000 E23.14941
G1 F900 X100.889 Y113.664 E23.16395
G1 X101.27 Y113.553 E23.17846
G1 X101.629 Y113.52 E23.19165
G1 X133.371 Y113.52 E24.35297
G1 X133.766 Y113.56 E24.3675
G1 X134.146 Y113.678 E24.38205
G1 X134.494 Y113.87 E24.3966
G1 X134.771 Y114.1 E24.40977
G1 X134.9 Y114.229 E24.41644
G1 X135.152 Y114.537 E24.431
G1 X135.336 Y114.889 E24.44553
G1 X135.447 Y115.27 E24.46005
G1 X135.48 Y115.629 E24.47324
G1 X135.48 Y116.979 E24.52263
G1 X135.44 Y117.374 E24.53716
G1 X135.322 Y117.754 E24.55172
G1 X135.13 Y118.102 E24.56626
G1 X134.9 Y118.379 E24.57943
G1 X134.771 Y118.508 E24.58611
G1 X134.463 Y118.76 E24.60066
G1 X134.111 Y118.944 E24.6152
G1 X133.73 Y119.055 E24.62972
G1 X133.371 Y119.088 E24.64291
G1 X101.629 Y119.089 E25.80422
G1 X101.234 Y119.049 E25.81875
G1 X100.854 Y118.931 E25.83331
G1 X100.506 Y118.74 E25.84783
G1 X100.229 Y118.509 E25.86103
G1 X100.1 Y118.38 E25.8677
G1 X99.848 Y118.072 E25.88226
G1 X99.664 Y117.72 E25.89679
G1 X99.553 Y117.339 E25.91131
G1 X99.52 Y116.98 E25.9245
G1 X99.52 Y115.629 E25.97393
G1 X99.56 Y115.234 E25.98845
G1 X99.678 Y114.854 E26.00301
G1 X99.87 Y114.506 E26.01755
G1 X100.006 Y114.342 E26.02535
G0 F810 X100.1 Y114.229
G0 X100.229 Y114.1
G0 X100.537 Y113.848
M204 S5000
M205 X30 Y30
G0 F7200 X100.814 Y114.193
M204 S500
M205 X20 Y20
G1 F6000 E26.05194
G1 F900 X101.131 Y114.043 E26.06478
G1 X101.629 Y113.96 E26.08325
G1 X133.371 Y113.96 E27.24456
G1 X133.719 Y114 E27.25738
G1 X134.049 Y114.117 E27.27019
G1 X134.46 Y114.411 E27.28868
G1 X134.589 Y114.54 E27.29535
G1 X134.807 Y114.814 E27.30816
G1 X134.957 Y115.131 E27.32099
G1 X135.04 Y115.629 E27.33946
G1 X135.04 Y116.979 E27.38886
G1 X135 Y117.327 E27.40167
G1 X134.883 Y117.657 E27.41448
G1 X134.589 Y118.068 E27.43297
G1 X134.46 Y118.197 E27.43964
G1 X134.186 Y118.415 E27.45245
G1 X133.869 Y118.565 E27.46529
G1 X133.371 Y118.648 E27.48376
G1 X101.629 Y118.649 E28.64507
G1 X101.281 Y118.609 E28.65789
G1 X100.951 Y118.492 E28.6707
G1 X100.54 Y118.198 E28.68919
G1 X100.411 Y118.069 E28.69586
G1 X100.193 Y117.795 E28.70867
G1 X100.043 Y117.478 E28.7215
G1 X99.96 Y116.98 E28.73997
G1 X99.96 Y115.629 E28.7894
G1 X100 Y115.281 E28.80222
G1 X100.117 Y114.951 E28.81503
G1 X100.298 Y114.698 E28.82641
G0 F810 X100.411 Y114.54
G0 X100.54 Y114.411
G0 X100.814 Y114.193
M204 S5000
M205 X30 Y30
G0 F7200 X100.851 Y114.722
M204 S500
M205 X20 Y20
G1 F6000 E28.85301
G1 F900 X101.087 Y114.543 E28.86384
G1 X101.362 Y114.433 E28.87468
G1 X101.629 Y114.4 E28.88452
G1 X133.371 Y114.4 E30.04584
G1 X133.664 Y114.44 E30.05666
G1 X133.936 Y114.556 E30.06748
G1 X134.149 Y114.722 E30.07736
G1 X134.278 Y114.851 E30.08403
G1 X134.457 Y115.087 E30.09487
G1 X134.567 Y115.362 E30.10571
G1 X134.6 Y115.629 E30.11555
G1 X134.6 Y116.979 E30.16494
G1 X134.56 Y117.272 E30.17576
G1 X134.444 Y117.544 E30.18658
G1 X134.278 Y117.757 E30.19646
G1 X134.149 Y117.886 E30.20313
G1 X133.913 Y118.065 E30.21397
G1 X133.638 Y118.175 E30.22481
G1 X133.371 Y118.208 E30.23465
G1 X101.629 Y118.209 E31.39597
G1 X101.336 Y118.169 E31.40679
G1 X101.064 Y118.053 E31.4176
G1 X100.851 Y117.887 E31.42748
G1 X100.722 Y117.758 E31.43416
G1 X100.543 Y117.522 E31.445
G1 X100.433 Y117.247 E31.45583
G1 X100.4 Y116.98 E31.46567
G1 X100.4 Y115.629 E31.5151
G1 X100.44 Y115.336 E31.52592
G1 X100.448 Y115.317 E31.52668
G0 F810 X100.556 Y115.064
G0 X100.722 Y114.851
G0 X100.851 Y114.722
M204 S5000
M205 X30 Y30
G0 F7200 X101.162 Y115.033
M204 S500
M205 X20 Y20
G1 F6000 E31.55327
G1 F900 X101.35 Y114.902 E31.56166
G1 X101.629 Y114.84 E31.57211
G1 X133.371 Y114.84 E32.73343
G1 X133.596 Y114.88 E32.74179
G1 X133.838 Y115.033 E32.75227
G1 X133.967 Y115.162 E32.75894
G1 X134.098 Y115.35 E32.76733
G1 X134.16 Y115.629 E32.77778
G1 X134.16 Y116.979 E32.82717
G1 X134.12 Y117.204 E32.83553
G1 X133.967 Y117.446 E32.84601
G1 X133.838 Y117.575 E32.85268
G1 X133.65 Y117.706 E32.86107
G1 X133.371 Y117.768 E32.87152
G1 X101.629 Y117.769 E34.03284
G1 X101.404 Y117.729 E34.0412
G1 X101.162 Y117.576 E34.05168
G1 X101.033 Y117.447 E34.05835
