;FLAVOR:Marlin
;TIME:1651
;Filament used: 0.899986m
;Layer height: 0.2
;Generated with Cura_SteamEngine 3.6.0
M140 S70
M105
M190 S70
M104 S215
M105
M109 S215
M82 ;absolute extrusion mode
G28 ; home all axes
M117 Purge extruder
G92 E0 ; reset extruder
G1 Z1.0 F3000 ; move z up little to prevent scratching of surface
G1 X0.1 Y20 Z0.3 F5000.0 ; move to start-line position G1 X0.1 Y200.0 Z0.3 F1500.0 E15 ; draw 1st line
G1 X0.4 Y200.0 Z0.3 F5000.0 ; move to side a little
G1 X0.4 Y20 Z0.3 F1500.0 E30 ; draw 2nd line
G92 E0 ; reset extruder
G1 Z1.0 F3000 ; move z up little to prevent scratching of surface
M117 All systems go!
G92 E0
G1 F6000 E-5
;LAYER_COUNT:68
;LAYER:0
M107
M204 S5000
M205 X30 Y30
G0 F7200 X78.296 Y32.643 Z0.2
M204 S500
M205 X20 Y20
;TYPE:SKIRT
G1 F6000 E0
G1 F900 X78.798 Y31.489 E0.04186
G1 X79.372 Y30.369 E0.08372
G1 X80.016 Y29.288 E0.12557
G1 X80.728 Y28.25 E0.16743
G1 X81.504 Y27.26 E0.20927
G1 X82.341 Y26.321 E0.25111
G1 X83.237 Y25.436 E0.29299
G1 X84.186 Y24.611 E0.33482
G1 X85.187 Y23.847 E0.3767
G1 X86.233 Y23.149 E0.41852
G1 X87.322 Y22.518 E0.46039
G1 X88.449 Y21.958 E0.50224
G1 X89.61 Y21.471 E0.54412
G1 X90.798 Y21.058 E0.58595
G1 X92.011 Y20.722 E0.62781
G1 X92.871 Y20.541 E0.65704
G1 X93.144 Y19.731 E0.68547
G1 X93.621 Y18.566 E0.72734
G1 X94.172 Y17.435 E0.76919
G1 X94.793 Y16.34 E0.81106
G1 X95.735 Y14.936 E0.86729
G1 X96.028 Y14.537 E0.88376
G1 X96.805 Y13.546 E0.92564
G1 X97.643 Y12.608 E0.96747
G1 X98.539 Y11.724 E1.00934
G1 X99.489 Y10.899 E1.05119
G1 X100.49 Y10.136 E1.09305
G1 X101.537 Y9.438 E1.1349
G1 X102.626 Y8.808 E1.17675
G1 X103.753 Y8.249 E1.21859
G1 X104.914 Y7.762 E1.26046
G1 X106.103 Y7.35 E1.30232
G1 X107.316 Y7.015 E1.34417
G1 X108.548 Y6.757 E1.38604
G1 X109.793 Y6.578 E1.42787
G1 X110.606 Y6.504 E1.45502
G1 X110.792 Y6.491 E1.46122
G1 X112.05 Y6.443 E1.5031
G1 X113.308 Y6.476 E1.54495
G1 X114.561 Y6.588 E1.58679
G1 X115.805 Y6.779 E1.62865
G1 X117.034 Y7.049 E1.67051
G1 X118.244 Y7.397 E1.71238
G1 X119.429 Y7.82 E1.75423
G1 X120.584 Y8.318 E1.79606
G1 X121.706 Y8.889 E1.83794
G1 X122.789 Y9.53 E1.87979
G1 X123.829 Y10.238 E1.92164
G1 X124.823 Y11.011 E1.96352
G1 X125.765 Y11.845 E2.00537
G1 X126.976 Y13.093 E2.0632
G1 X127.334 Y13.496 E2.08113
G1 X128.139 Y14.463 E2.12298
G1 X128.882 Y15.479 E2.16485
G1 X129.558 Y16.54 E2.20669
G1 X130.165 Y17.642 E2.24853
G1 X130.229 Y17.777 E2.2535
G1 X130.314 Y17.783 E2.25634
G1 X130.368 Y17.782 E2.25813
G1 X131.342 Y17.82 E2.29055
G1 X131.485 Y17.81 E2.29532
G1 X133.202 Y17.772 E2.35244
G1 X134.46 Y17.784 E2.39429
G1 X135.715 Y17.876 E2.43614
G1 X136.962 Y18.048 E2.47801
G1 X138.195 Y18.298 E2.51985
G1 X139.41 Y18.626 E2.56171
G1 X140.602 Y19.031 E2.60358
G1 X141.765 Y19.511 E2.64543
G1 X143.014 Y20.126 E2.69173
G1 X143.775 Y20.535 E2.72047
G1 X144.863 Y21.166 E2.7623
G1 X145.91 Y21.865 E2.80417
G1 X146.91 Y22.628 E2.84601
G1 X147.86 Y23.454 E2.88788
G1 X148.755 Y24.338 E2.92972
G1 X149.593 Y25.278 E2.9716
G1 X150.369 Y26.268 E3.01344
G1 X151.08 Y27.306 E3.05529
G1 X151.724 Y28.387 E3.09714
G1 X152.298 Y29.507 E3.139
G1 X152.8 Y30.661 E3.18085
G1 X152.981 Y31.162 E3.19857
G1 X153.413 Y32.024 E3.23064
G1 X154.015 Y33.479 E3.28301
G1 X154.577 Y35.005 E3.3371
G1 X154.974 Y36.199 E3.37895
G1 X155.295 Y37.416 E3.42081
G1 X155.537 Y38.651 E3.46267
G1 X155.661 Y39.595 E3.49434
G1 X155.719 Y39.794 E3.50123
G1 X155.994 Y41.022 E3.54309
G1 X156.19 Y42.265 E3.58494
G1 X156.307 Y43.518 E3.6268
G1 X156.344 Y44.776 E3.66865
G1 X156.301 Y46.034 E3.71052
G1 X156.178 Y47.286 E3.75236
G1 X155.976 Y48.528 E3.79421
G1 X155.695 Y49.755 E3.83608
G1 X155.338 Y50.962 E3.87795
G1 X154.71 Y52.605 E3.93645
G1 X154.387 Y53.35 E3.96345
G1 X153.85 Y54.488 E4.00531
G1 X153.242 Y55.59 E4.04717
G1 X152.565 Y56.651 E4.08903
G1 X151.822 Y57.666 E4.13087
G1 X151.016 Y58.633 E4.17274
G1 X150.15 Y59.546 E4.21459
G1 X149.228 Y60.402 E4.25644
G1 X148.046 Y61.355 E4.30694
G1 X146.562 Y62.46 E4.36847
G1 X145.529 Y63.179 E4.41033
G1 X144.453 Y63.831 E4.45218
G1 X143.338 Y64.414 E4.49403
G1 X142.187 Y64.924 E4.5359
G1 X141.007 Y65.36 E4.57774
G1 X139.801 Y65.72 E4.6196
G1 X138.575 Y66.003 E4.66145
G1 X137.333 Y66.208 E4.70332
G1 X136.081 Y66.333 E4.74517
G1 X134.737 Y66.379 E4.7899
G1 X134.033 Y66.379 E4.81331
G1 X132.775 Y66.339 E4.85517
G1 X132.252 Y66.289 E4.87265
G1 X131.797 Y66.315 E4.8878
G1 X130.539 Y66.308 E4.92965
G1 X129.698 Y66.258 E4.95767
G1 X128.283 Y66.144 E5.00488
G1 X128.116 Y66.125 E5.01047
G1 X127.24 Y66.235 E5.03984
G1 X126.435 Y66.309 E5.06673
G1 X125.179 Y66.384 E5.10858
G1 X123.921 Y66.38 E5.15042
G1 X122.665 Y66.295 E5.19229
G1 X121.418 Y66.131 E5.23412
G1 X120.183 Y65.888 E5.27598
G1 X119.842 Y65.798 E5.28771
G1 X119.39 Y65.829 E5.30278
G1 X118.633 Y65.842 E5.32796
G1 X118.07 Y65.841 E5.34669
G1 X116.812 Y65.799 E5.38855
G1 X115.56 Y65.677 E5.43039
G1 X114.317 Y65.475 E5.47228
G1 X113.091 Y65.196 E5.5141
G1 X111.884 Y64.838 E5.55597
G1 X111.345 Y64.64 E5.57507
G1 X110.231 Y64.964 E5.61366
G1 X109.002 Y65.237 E5.65553
G1 X107.759 Y65.432 E5.69738
G1 X107.248 Y65.479 E5.71444
G1 X106.327 Y65.699 E5.74594
G1 X105.086 Y65.912 E5.78782
G1 X103.835 Y66.046 E5.82967
G1 X102.355 Y66.101 E5.87892
G1 X101.641 Y66.101 E5.90267
G1 X100.383 Y66.061 E5.94453
G1 X99.131 Y65.941 E5.98637
G1 X97.888 Y65.742 E6.02824
G1 X97.258 Y65.599 E6.04972
G1 X96.749 Y65.596 E6.06665
G1 X95.493 Y65.508 E6.10853
G1 X94.246 Y65.34 E6.15038
G1 X93.012 Y65.094 E6.19223
G1 X91.796 Y64.77 E6.23409
G1 X90.603 Y64.369 E6.27595
G1 X89.438 Y63.893 E6.3178
G1 X88.306 Y63.344 E6.35965
G1 X87.21 Y62.725 E6.40151
G1 X86.157 Y62.037 E6.44335
G1 X85.441 Y61.512 E6.47288
G1 X84.863 Y61.068 E6.49712
G1 X83.89 Y60.27 E6.53898
G1 X82.97 Y59.412 E6.58082
G1 X82.106 Y58.497 E6.62267
G1 X81.301 Y57.529 E6.66455
G1 X80.56 Y56.512 E6.7064
G1 X79.885 Y55.45 E6.74825
G1 X79.279 Y54.347 E6.79011
G1 X78.83 Y53.403 E6.82488
G1 X78.496 Y52.651 E6.85225
G1 X78.022 Y51.485 E6.89411
G1 X77.623 Y50.292 E6.93595
G1 X77.3 Y49.075 E6.97783
G1 X77.056 Y47.841 E7.01967
G1 X76.89 Y46.594 E7.06151
G1 X76.804 Y45.338 E7.10338
G1 X76.798 Y44.08 E7.14522
G1 X76.872 Y42.823 E7.1871
G1 X76.888 Y42.694 E7.19143
G1 X76.787 Y41.613 E7.22754
G1 X76.75 Y40.355 E7.2694
G1 X76.793 Y39.097 E7.31126
G1 X76.916 Y37.845 E7.3531
G1 X77.118 Y36.603 E7.39496
G1 X77.399 Y35.376 E7.43682
G1 X77.724 Y34.269 E7.47519
G1 X77.868 Y33.827 E7.49066
G1 X78.024 Y33.395 E7.50593
G0 F810 X78.296 Y32.643
M204 S5000
M205 X30 Y30
G0 F7200 X78.672 Y32.779
M204 S500
M205 X20 Y20
G1 F6000 E7.53254
G1 F900 X79.17 Y31.637 E7.57398
G1 X79.74 Y30.53 E7.61539
G1 X80.38 Y29.461 E7.65683
G1 X81.088 Y28.436 E7.69827
G1 X81.859 Y27.458 E7.73969
G1 X82.692 Y26.532 E7.78111
G1 X83.583 Y25.661 E7.82256
G1 X84.527 Y24.849 E7.86397
G1 X85.522 Y24.1 E7.90539
G1 X86.563 Y23.415 E7.94684
G1 X87.646 Y22.799 E7.98828
G1 X88.766 Y22.254 E8.02971
G1 X89.918 Y21.782 E8.07111
G1 X91.099 Y21.384 E8.11256
G1 X92.302 Y21.064 E8.15397
G1 X93.17 Y20.891 E8.18341
G1 X93.577 Y19.717 E8.22473
G1 X94.06 Y18.569 E8.26616
G1 X94.615 Y17.454 E8.30758
G1 X95.241 Y16.376 E8.34904
G1 X96.057 Y15.172 E8.39742
G1 X96.35 Y14.773 E8.41388
G1 X97.119 Y13.794 E8.45529
G1 X97.95 Y12.865 E8.49675
G1 X98.838 Y11.992 E8.53816
G1 X99.781 Y11.177 E8.57962
G1 X100.773 Y10.425 E8.62102
G1 X101.812 Y9.738 E8.66245
G1 X102.893 Y9.119 E8.70388
G1 X104.012 Y8.571 E8.74532
G1 X105.163 Y8.096 E8.78674
G1 X106.343 Y7.695 E8.82819
G1 X107.546 Y7.371 E8.86963
G1 X108.767 Y7.125 E8.91105
G1 X110.001 Y6.958 E8.95247
G1 X110.634 Y6.903 E8.9736
G1 X110.82 Y6.89 E8.97981
G1 X112.065 Y6.843 E9.02124
G1 X113.31 Y6.876 E9.06267
G1 X114.551 Y6.989 E9.10411
G1 X115.782 Y7.182 E9.14556
G1 X116.997 Y7.452 E9.18695
G1 X118.193 Y7.801 E9.22839
G1 X119.364 Y8.225 E9.26981
G1 X120.506 Y8.724 E9.31126
G1 X121.613 Y9.295 E9.35269
G1 X122.681 Y9.935 E9.3941
G1 X123.706 Y10.643 E9.43554
G1 X124.683 Y11.416 E9.47697
G1 X125.609 Y12.249 E9.5184
G1 X126.677 Y13.359 E9.56963
G1 X127.035 Y13.762 E9.58756
G1 X127.832 Y14.719 E9.62899
G1 X128.566 Y15.726 E9.67043
G1 X129.233 Y16.777 E9.71183
G1 X129.832 Y17.869 E9.75326
G1 X129.975 Y18.175 E9.76449
G1 X130.348 Y18.183 E9.7769
G1 X130.378 Y18.182 E9.7779
G1 X131.34 Y18.221 E9.80992
G1 X131.494 Y18.21 E9.81506
G1 X133.211 Y18.172 E9.87218
G1 X134.456 Y18.184 E9.91359
G1 X135.699 Y18.277 E9.95505
G1 X136.932 Y18.448 E9.99645
G1 X138.152 Y18.699 E10.03788
G1 X139.354 Y19.028 E10.07933
G1 X140.532 Y19.432 E10.12075
G1 X141.681 Y19.912 E10.16216
G1 X142.824 Y20.479 E10.2046
G1 X143.585 Y20.888 E10.23334
G1 X144.663 Y21.512 E10.27476
G1 X145.698 Y22.205 E10.31619
G1 X146.687 Y22.962 E10.35762
G1 X147.625 Y23.782 E10.39905
G1 X148.509 Y24.66 E10.44049
G1 X149.334 Y25.592 E10.48189
G1 X150.098 Y26.576 E10.52333
G1 X150.798 Y27.607 E10.56478
G1 X151.429 Y28.681 E10.60621
G1 X151.991 Y29.793 E10.64765
G1 X152.48 Y30.938 E10.68906
G1 X152.621 Y31.334 E10.70304
G1 X153.091 Y32.284 E10.73829
G1 X153.64 Y33.618 E10.78627
G1 X154.202 Y35.144 E10.84036
G1 X154.594 Y36.326 E10.88178
G1 X154.91 Y37.53 E10.92318
G1 X155.149 Y38.753 E10.96462
G1 X155.267 Y39.674 E10.99551
G1 X155.335 Y39.906 E11.00355
G1 X155.606 Y41.122 E11.04499
G1 X155.798 Y42.353 E11.08642
G1 X155.911 Y43.593 E11.12784
G1 X155.944 Y44.839 E11.16929
G1 X155.897 Y46.083 E11.2107
G1 X155.77 Y47.322 E11.25212
G1 X155.564 Y48.551 E11.29357
G1 X155.279 Y49.764 E11.33501
G1 X154.918 Y50.956 E11.37644
G1 X154.343 Y52.446 E11.42956
G1 X154.02 Y53.191 E11.45657
G1 X153.488 Y54.317 E11.49799
G1 X152.885 Y55.407 E11.53942
G1 X152.213 Y56.456 E11.58085
G1 X151.476 Y57.46 E11.62228
G1 X150.675 Y58.414 E11.66371
G1 X149.815 Y59.315 E11.70514
G1 X148.898 Y60.159 E11.74659
G1 X147.807 Y61.034 E11.7931
G1 X146.323 Y62.139 E11.85464
G1 X145.301 Y62.851 E11.89607
G1 X144.235 Y63.495 E11.93749
G1 X143.13 Y64.07 E11.97892
G1 X141.99 Y64.572 E12.02035
G1 X140.82 Y65.001 E12.0618
G1 X139.625 Y65.353 E12.10323
G1 X138.411 Y65.628 E12.14463
G1 X137.181 Y65.824 E12.18606
G1 X135.94 Y65.942 E12.22752
G1 X134.737 Y65.979 E12.26755
G1 X134.033 Y65.979 E12.29097
G1 X132.788 Y65.939 E12.3324
G1 X132.261 Y65.888 E12.35001
G1 X131.648 Y65.919 E12.37042
G1 X130.403 Y65.902 E12.41184
G1 X129.73 Y65.859 E12.43427
G1 X128.315 Y65.745 E12.48148
G1 X128.125 Y65.724 E12.48784
G1 X127.204 Y65.837 E12.5187
G1 X126.399 Y65.911 E12.54559
G1 X125.155 Y65.985 E12.58704
G1 X123.91 Y65.979 E12.62845
G1 X122.667 Y65.893 E12.66989
G1 X121.433 Y65.728 E12.7113
G1 X120.211 Y65.484 E12.75274
G1 X119.877 Y65.395 E12.76424
G1 X119.275 Y65.433 E12.7843
G1 X118.634 Y65.442 E12.80562
G1 X118.071 Y65.441 E12.82435
G1 X116.826 Y65.399 E12.86578
G1 X115.586 Y65.277 E12.90722
G1 X114.357 Y65.075 E12.94865
G1 X113.143 Y64.796 E12.99008
G1 X111.95 Y64.439 E13.0315
G1 X111.342 Y64.214 E13.05306
G1 X110.844 Y64.379 E13.07051
G1 X109.639 Y64.696 E13.11195
G1 X108.417 Y64.934 E13.15336
G1 X107.182 Y65.094 E13.19478
G1 X107.132 Y65.097 E13.19644
G1 X106.147 Y65.327 E13.23009
G1 X104.918 Y65.531 E13.27152
G1 X103.679 Y65.656 E13.31294
G1 X102.355 Y65.701 E13.357
G1 X101.641 Y65.701 E13.38075
G1 X100.396 Y65.661 E13.42218
G1 X99.156 Y65.541 E13.46362
G1 X97.927 Y65.342 E13.50502
G1 X97.302 Y65.199 E13.52635
G1 X96.751 Y65.195 E13.54468
G1 X95.509 Y65.107 E13.58609
G1 X94.274 Y64.939 E13.62754
G1 X93.053 Y64.693 E13.66897
G1 X91.851 Y64.368 E13.71038
G1 X90.671 Y63.967 E13.75184
G1 X89.52 Y63.492 E13.79325
G1 X88.402 Y62.943 E13.83468
G1 X87.321 Y62.323 E13.87612
G1 X86.283 Y61.636 E13.91752
G1 X85.685 Y61.195 E13.94224
G1 X85.107 Y60.751 E13.96648
G1 X84.144 Y59.961 E14.00791
G1 X83.234 Y59.11 E14.04935
G1 X82.38 Y58.203 E14.09078
G1 X81.586 Y57.244 E14.13219
G1 X80.855 Y56.235 E14.17363
G1 X80.191 Y55.181 E14.21507
G1 X79.596 Y54.087 E14.25649
G1 X79.195 Y53.241 E14.28762
G1 X78.861 Y52.489 E14.31499
G1 X78.392 Y51.335 E14.35642
G1 X77.999 Y50.153 E14.39785
G1 X77.681 Y48.948 E14.4393
G1 X77.442 Y47.726 E14.48072
G1 X77.282 Y46.491 E14.52214
G1 X77.201 Y45.248 E14.56357
G1 X77.201 Y44.002 E14.60501
G1 X77.28 Y42.759 E14.64643
G1 X77.288 Y42.694 E14.64861
G1 X77.183 Y41.538 E14.68722
G1 X77.15 Y40.292 E14.72868
G1 X77.197 Y39.048 E14.77008
G1 X77.324 Y37.809 E14.81151
G1 X77.53 Y36.58 E14.85295
G1 X77.815 Y35.367 E14.8944
G1 X78.104 Y34.393 E14.92819
G1 X78.248 Y33.951 E14.94365
G1 X78.4 Y33.531 E14.95851
G0 F810 X78.672 Y32.779
M204 S5000
M205 X30 Y30
G0 F7200 X79.048 Y32.915
M204 S500
M205 X20 Y20
G1 F6000 E14.98511
G1 F900 X79.542 Y31.786 E15.0261
G1 X80.108 Y30.691 E15.0671
G1 X80.744 Y29.635 E15.1081
G1 X81.447 Y28.622 E15.14911
G1 X82.215 Y27.658 E15.19011
G1 X83.043 Y26.745 E15.2311
G1 X83.929 Y25.887 E15.27212
G1 X84.868 Y25.089 E15.31311
G1 X85.857 Y24.353 E15.35411
G1 X86.892 Y23.684 E15.3951
G1 X87.968 Y23.082 E15.43611
G1 X89.081 Y22.552 E15.47711
G1 X90.226 Y22.095 E15.51811
G1 X91.398 Y21.713 E15.55911
G1 X92.592 Y21.408 E15.6001
G1 X93.491 Y21.24 E15.63052
G1 X93.597 Y20.866 E15.64345
G1 X94.011 Y19.705 E15.68445
G1 X94.499 Y18.573 E15.72545
G1 X95.059 Y17.475 E15.76644
G1 X95.689 Y16.416 E15.80742
G1 X96.38 Y15.409 E15.84804
G1 X96.673 Y15.01 E15.86451
G1 X97.434 Y14.041 E15.90549
G1 X98.257 Y13.123 E15.9465
G1 X99.137 Y12.26 E15.98749
G1 X100.072 Y11.456 E16.0285
G1 X101.057 Y10.715 E16.0695
G1 X102.088 Y10.039 E16.11051
G1 X103.16 Y9.431 E16.1515
G1 X104.27 Y8.894 E16.19251
G1 X105.412 Y8.43 E16.23351
G1 X106.582 Y8.041 E16.27452
G1 X107.774 Y7.729 E16.3155
G1 X108.984 Y7.495 E16.35649
G1 X110.662 Y7.302 E16.41267
G1 X110.848 Y7.289 E16.41887
G1 X112.08 Y7.243 E16.45987
G1 X113.312 Y7.277 E16.50087
G1 X114.54 Y7.391 E16.54188
G1 X115.757 Y7.584 E16.58287
G1 X116.96 Y7.856 E16.62389
G1 X118.142 Y8.205 E16.66488
G1 X119.299 Y8.63 E16.70588
G1 X120.426 Y9.129 E16.74687
G1 X121.519 Y9.7 E16.78789
G1 X122.572 Y10.341 E16.82889
G1 X123.581 Y11.049 E16.86989
G1 X124.542 Y11.821 E16.91088
G1 X125.451 Y12.653 E16.95187
G1 X126.378 Y13.624 E16.99652
G1 X126.736 Y14.027 E17.01445
G1 X127.524 Y14.975 E17.05545
G1 X128.249 Y15.972 E17.09645
G1 X128.908 Y17.014 E17.13746
G1 X129.499 Y18.096 E17.17846
G1 X129.718 Y18.568 E17.19577
G1 X130.259 Y18.585 E17.21377
G1 X130.387 Y18.582 E17.21803
G1 X131.338 Y18.621 E17.24969
G1 X131.503 Y18.61 E17.25519
G1 X133.22 Y18.572 E17.31231
G1 X134.452 Y18.584 E17.35329
G1 X135.681 Y18.677 E17.39428
G1 X136.902 Y18.849 E17.43529
G1 X138.109 Y19.1 E17.4763
G1 X139.297 Y19.429 E17.5173
G1 X140.461 Y19.834 E17.55829
G1 X141.597 Y20.313 E17.59929
G1 X142.635 Y20.831 E17.63788
G1 X143.396 Y21.24 E17.66661
G1 X144.462 Y21.858 E17.70759
G1 X145.486 Y22.545 E17.74861
G1 X146.463 Y23.296 E17.78959
G1 X147.39 Y24.109 E17.8306
G1 X148.262 Y24.981 E17.87162
G1 X149.075 Y25.907 E17.91261
G1 X149.827 Y26.884 E17.95361
G1 X150.514 Y27.907 E17.9946
G1 X151.133 Y28.974 E18.03563
G1 X151.681 Y30.077 E18.07659
G1 X152.157 Y31.215 E18.11762
G1 X152.249 Y31.476 E18.12682
G1 X152.77 Y32.543 E18.16631
G1 X153.264 Y33.756 E18.20988
G1 X153.826 Y35.282 E18.26396
G1 X154.215 Y36.452 E18.30497
G1 X154.526 Y37.644 E18.34595
G1 X154.76 Y38.855 E18.38697
G1 X154.873 Y39.749 E18.41694
G1 X154.951 Y40.018 E18.42626
G1 X155.217 Y41.222 E18.46727
G1 X155.406 Y42.44 E18.50826
G1 X155.514 Y43.668 E18.54926
G1 X155.543 Y44.9 E18.59025
G1 X155.492 Y46.132 E18.63126
G1 X155.361 Y47.358 E18.67227
G1 X155.151 Y48.572 E18.71325
G1 X154.863 Y49.771 E18.75426
G1 X154.497 Y50.948 E18.79526
G1 X153.976 Y52.287 E18.84305
G1 X153.653 Y53.032 E18.87005
G1 X153.126 Y54.146 E18.91104
G1 X152.528 Y55.224 E18.95204
G1 X151.862 Y56.261 E18.99304
G1 X151.129 Y57.253 E19.03406
G1 X150.334 Y58.195 E19.07506
G1 X149.48 Y59.083 E19.11603
G1 X148.569 Y59.914 E19.15705
G1 X147.568 Y60.713 E19.19965
G1 X146.084 Y61.818 E19.26118
G1 X145.072 Y62.522 E19.30219
G1 X144.017 Y63.159 E19.34318
G1 X142.922 Y63.726 E19.38419
G1 X141.793 Y64.22 E19.42518
G1 X140.634 Y64.641 E19.46619
G1 X139.45 Y64.985 E19.5072
G1 X138.247 Y65.252 E19.54818
G1 X137.029 Y65.44 E19.58917
G1 X135.801 Y65.549 E19.63018
G1 X134.737 Y65.579 E19.66558
G1 X134.033 Y65.579 E19.689
G1 X132.801 Y65.539 E19.72999
G1 X132.271 Y65.487 E19.74771
