;FLAVOR:Marlin
;TIME:586
;Filament used: 0.226521m
;Layer height: 0.16
;Generated with Cura_SteamEngine 3.6.0
M140 S70
M105
M190 S70
M104 S215
M105
M109 S215
M82 ;absolute extrusion mode
G28 ; home all axes
M117 Purge extruder
G92 E0 ; reset extruder
G1 Z1.0 F3000 ; move z up little to prevent scratching of surface
G1 X0.1 Y20 Z0.3 F5000.0 ; move to start-line position G1 X0.1 Y200.0 Z0.3 F1500.0 E15 ; draw 1st line
G1 X0.4 Y200.0 Z0.3 F5000.0 ; move to side a little
G1 X0.4 Y20 Z0.3 F1500.0 E30 ; draw 2nd line
G92 E0 ; reset extruder
G1 Z1.0 F3000 ; move z up little to prevent scratching of surface
M117 All systems go!
G92 E0
G1 F6000 E-5
;LAYER_COUNT:58
;LAYER:0
M107
M204 S5000
M205 X30 Y30
G0 F7200 X111.744 Y111.995 Z0.2
M204 S500
M205 X20 Y20
;TYPE:SKIRT
G1 F6000 E0
G1 F900 X112.446 Y111.373 E0.03431
G1 X113.181 Y110.834 E0.06766
G1 X113.716 Y110.49 E0.09093
G1 X114.29 Y110.217 E0.11419
G1 X114.598 Y110.105 E0.12618
G1 X115.462 Y109.822 E0.15944
G1 X116.078 Y109.663 E0.18272
G1 X117.02 Y109.571 E0.21734
G1 X117.93 Y109.568 E0.25064
G1 X118.565 Y109.606 E0.27391
G1 X119.495 Y109.811 E0.30875
G1 X120.36 Y110.089 E0.34199
G1 X120.952 Y110.321 E0.36526
G1 X121.51 Y110.626 E0.38852
G1 X121.779 Y110.807 E0.40039
G1 X122.514 Y111.339 E0.43358
G1 X123.005 Y111.744 E0.45687
G1 X123.627 Y112.446 E0.49118
G1 X124.166 Y113.181 E0.52453
G1 X124.51 Y113.716 E0.5478
G1 X124.783 Y114.29 E0.57105
G1 X124.895 Y114.598 E0.58304
G1 X125.178 Y115.462 E0.61631
G1 X125.337 Y116.078 E0.63958
G1 X125.429 Y117.02 E0.67421
G1 X125.432 Y117.93 E0.7075
G1 X125.394 Y118.565 E0.73078
G1 X125.189 Y119.495 E0.76562
G1 X124.911 Y120.36 E0.79886
G1 X124.679 Y120.952 E0.82212
G1 X124.374 Y121.51 E0.84539
G1 X124.193 Y121.779 E0.85725
G1 X123.661 Y122.514 E0.89045
G1 X123.256 Y123.005 E0.91373
G1 X122.554 Y123.627 E0.94805
G1 X121.819 Y124.166 E0.9814
G1 X121.284 Y124.51 E1.00467
G1 X120.71 Y124.783 E1.02792
G1 X120.402 Y124.895 E1.03991
G1 X119.538 Y125.178 E1.07317
G1 X118.922 Y125.337 E1.09645
G1 X117.98 Y125.429 E1.13108
G1 X117.07 Y125.432 E1.16437
G1 X116.435 Y125.394 E1.18765
G1 X115.81 Y125.277 E1.21091
G1 X115.503 Y125.189 E1.22259
G1 X114.636 Y124.91 E1.25592
G1 X114.044 Y124.677 E1.27919
G1 X113.486 Y124.372 E1.30246
G1 X113.215 Y124.189 E1.31442
G1 X112.48 Y123.656 E1.34764
G1 X111.99 Y123.251 E1.3709
G1 X111.369 Y122.55 E1.40516
G1 X110.832 Y121.817 E1.4384
G1 X110.489 Y121.282 E1.46165
G1 X110.216 Y120.707 E1.48494
G1 X110.105 Y120.402 E1.49682
G1 X109.822 Y119.538 E1.53008
G1 X109.663 Y118.922 E1.55336
G1 X109.571 Y117.98 E1.58798
G1 X109.568 Y117.07 E1.62128
G1 X109.606 Y116.435 E1.64455
G1 X109.811 Y115.505 E1.67939
G1 X110.089 Y114.64 E1.71263
G1 X110.321 Y114.048 E1.7359
G1 X110.626 Y113.49 E1.75916
G1 X110.807 Y113.221 E1.77103
G1 X111.286 Y112.559 E1.80092
G0 F810 X111.339 Y112.486
G0 X111.744 Y111.995
M204 S5000
M205 X30 Y30
G0 F7200 X112.083 Y112.276
M204 S500
M205 X20 Y20
G1 F6000 E1.82752
G1 F900 X112.706 Y111.727 E1.8579
G1 X113.441 Y111.188 E1.89125
G1 X113.953 Y110.862 E1.91345
G1 X114.735 Y110.524 E1.94462
G1 X115.599 Y110.241 E1.97788
G1 X116.188 Y110.09 E2.00013
G1 X117.022 Y110.011 E2.03078
G1 X117.932 Y110.008 E2.06407
G1 X118.538 Y110.046 E2.08629
G1 X119.361 Y110.23 E2.11714
G1 X120.226 Y110.508 E2.15038
G1 X120.791 Y110.731 E2.17261
G1 X121.521 Y111.163 E2.20364
G1 X122.256 Y111.695 E2.23684
G1 X122.724 Y112.083 E2.25908
G1 X123.273 Y112.706 E2.28946
G1 X123.812 Y113.441 E2.3228
G1 X124.138 Y113.953 E2.34501
G1 X124.476 Y114.735 E2.37618
G1 X124.759 Y115.599 E2.40944
G1 X124.91 Y116.188 E2.43169
G1 X124.989 Y117.022 E2.46234
G1 X124.992 Y117.932 E2.49563
G1 X124.954 Y118.538 E2.51785
G1 X124.77 Y119.361 E2.5487
G1 X124.492 Y120.226 E2.58194
G1 X124.269 Y120.791 E2.60416
G1 X123.837 Y121.521 E2.6352
G1 X123.305 Y122.256 E2.66839
G1 X122.917 Y122.724 E2.69064
G1 X122.294 Y123.273 E2.72102
G1 X121.559 Y123.812 E2.75436
G1 X121.047 Y124.138 E2.77657
G1 X120.265 Y124.476 E2.80774
G1 X119.401 Y124.759 E2.841
G1 X118.812 Y124.91 E2.86325
G1 X117.978 Y124.989 E2.8939
G1 X117.068 Y124.992 E2.92719
G1 X116.462 Y124.954 E2.9494
G1 X115.638 Y124.77 E2.98029
G1 X114.771 Y124.491 E3.01362
G1 X114.206 Y124.267 E3.03585
G1 X113.474 Y123.833 E3.06699
G1 X112.739 Y123.3 E3.1002
G1 X112.271 Y122.912 E3.12245
G1 X111.724 Y122.29 E3.15275
G1 X111.187 Y121.557 E3.18599
G1 X110.861 Y121.045 E3.2082
G1 X110.524 Y120.265 E3.23929
G1 X110.241 Y119.401 E3.27255
G1 X110.09 Y118.812 E3.2948
G1 X110.011 Y117.978 E3.32545
G1 X110.008 Y117.068 E3.35874
G1 X110.046 Y116.462 E3.38096
G1 X110.23 Y115.639 E3.41181
G1 X110.508 Y114.774 E3.44505
G1 X110.731 Y114.209 E3.46727
G1 X111.163 Y113.479 E3.49831
G1 X111.625 Y112.841 E3.52713
G0 F810 X111.695 Y112.744
G0 X112.083 Y112.276
M204 S5000
M205 X30 Y30
G0 F7200 X112.422 Y112.559
M204 S500
M205 X20 Y20
G1 F6000 E3.55372
G1 F900 X112.966 Y112.082 E3.5802
G1 X113.701 Y111.543 E3.61354
G1 X114.19 Y111.234 E3.6347
G1 X114.872 Y110.942 E3.66185
G1 X115.736 Y110.659 E3.69511
G1 X116.296 Y110.517 E3.71625
G1 X117.023 Y110.451 E3.74295
G1 X117.933 Y110.448 E3.77625
G1 X118.51 Y110.486 E3.7974
G1 X119.226 Y110.648 E3.82426
G1 X120.091 Y110.926 E3.8575
G1 X120.628 Y111.141 E3.87867
G1 X121.263 Y111.52 E3.90572
G1 X121.998 Y112.052 E3.93892
G1 X122.441 Y112.422 E3.96003
G1 X122.918 Y112.966 E3.9865
G1 X123.457 Y113.701 E4.01985
G1 X123.766 Y114.19 E4.04101
G1 X124.058 Y114.872 E4.06816
G1 X124.341 Y115.736 E4.10142
G1 X124.483 Y116.296 E4.12256
G1 X124.549 Y117.023 E4.14926
G1 X124.552 Y117.933 E4.18256
G1 X124.514 Y118.51 E4.20371
G1 X124.352 Y119.226 E4.23057
G1 X124.074 Y120.091 E4.26381
G1 X123.859 Y120.628 E4.28498
G1 X123.48 Y121.263 E4.31203
G1 X122.948 Y121.998 E4.34523
G1 X122.578 Y122.441 E4.36634
G1 X122.034 Y122.918 E4.39281
G1 X121.299 Y123.457 E4.42616
G1 X120.81 Y123.766 E4.44732
G1 X120.128 Y124.058 E4.47447
G1 X119.264 Y124.341 E4.50773
G1 X118.704 Y124.483 E4.52887
G1 X117.977 Y124.549 E4.55557
G1 X117.067 Y124.552 E4.58887
G1 X116.49 Y124.514 E4.61002
G1 X115.773 Y124.351 E4.63693
G1 X114.906 Y124.072 E4.67025
G1 X114.369 Y123.857 E4.69141
G1 X113.732 Y123.477 E4.71855
G1 X112.997 Y122.944 E4.75176
G1 X112.554 Y122.573 E4.77291
G1 X112.079 Y122.03 E4.7993
G1 X111.542 Y121.297 E4.83254
G1 X111.234 Y120.809 E4.85366
G1 X110.942 Y120.128 E4.88077
G1 X110.659 Y119.264 E4.91403
G1 X110.517 Y118.704 E4.93517
G1 X110.451 Y117.977 E4.96187
G1 X110.448 Y117.067 E4.99517
G1 X110.486 Y116.49 E5.01632
G1 X110.648 Y115.774 E5.04318
G1 X110.926 Y114.909 E5.07642
G1 X111.141 Y114.372 E5.09758
G1 X111.52 Y113.737 E5.12464
G1 X111.965 Y113.123 E5.15238
G0 F810 X112.052 Y113.002
G0 X112.422 Y112.559
M204 S5000
M205 X30 Y30
G0 F7200 X112.76 Y112.842
M204 S500
M205 X20 Y20
G1 F6000 E5.17898
G1 F900 X113.226 Y112.437 E5.20157
G1 X113.961 Y111.898 E5.23492
G1 X114.425 Y111.608 E5.25494
G1 X115.009 Y111.36 E5.27815
G1 X115.873 Y111.077 E5.31141
G1 X116.403 Y110.945 E5.33139
G1 X117.025 Y110.891 E5.35424
G1 X117.935 Y110.888 E5.38753
G1 X118.48 Y110.926 E5.40752
G1 X119.091 Y111.067 E5.43046
G1 X119.956 Y111.345 E5.4637
G1 X120.463 Y111.55 E5.48371
G1 X121.005 Y111.876 E5.50685
G1 X121.74 Y112.408 E5.54005
G1 X122.158 Y112.76 E5.56004
G1 X122.563 Y113.226 E5.58263
G1 X123.102 Y113.961 E5.61597
G1 X123.392 Y114.425 E5.63599
G1 X123.64 Y115.009 E5.6592
G1 X123.923 Y115.873 E5.69247
G1 X124.055 Y116.403 E5.71245
G1 X124.109 Y117.025 E5.73529
G1 X124.112 Y117.935 E5.76859
G1 X124.074 Y118.48 E5.78857
G1 X123.933 Y119.091 E5.81152
G1 X123.655 Y119.956 E5.84476
G1 X123.45 Y120.463 E5.86477
G1 X123.124 Y121.005 E5.88791
G1 X122.592 Y121.74 E5.9211
G1 X122.24 Y122.158 E5.94109
G1 X121.774 Y122.563 E5.96368
G1 X121.039 Y123.102 E5.99703
G1 X120.575 Y123.392 E6.01705
G1 X119.991 Y123.64 E6.04026
G1 X119.127 Y123.923 E6.07352
G1 X118.597 Y124.055 E6.09351
G1 X117.975 Y124.109 E6.11635
G1 X117.065 Y124.112 E6.14964
G1 X116.52 Y124.074 E6.16963
G1 X115.907 Y123.932 E6.19265
G1 X115.04 Y123.653 E6.22597
G1 X114.534 Y123.448 E6.24595
G1 X113.99 Y123.121 E6.26917
G1 X113.255 Y122.588 E6.30239
G1 X112.838 Y122.235 E6.32238
G1 X112.434 Y121.77 E6.34491
G1 X111.897 Y121.037 E6.37816
G1 X111.607 Y120.574 E6.39815
G1 X111.36 Y119.991 E6.42131
G1 X111.077 Y119.127 E6.45457
G1 X110.945 Y118.597 E6.47456
G1 X110.891 Y117.975 E6.4974
G1 X110.888 Y117.065 E6.53069
G1 X110.926 Y116.52 E6.55068
G1 X111.067 Y115.909 E6.57362
G1 X111.345 Y115.044 E6.60686
G1 X111.55 Y114.537 E6.62687
G1 X111.876 Y113.995 E6.65001
G1 X112.302 Y113.406 E6.67661
G0 F810 X112.408 Y113.26
G0 X112.76 Y112.842
M204 S5000
M205 X30 Y30
G0 F7200 X113.097 Y113.127
M204 S500
M205 X20 Y20
G1 F6000 E6.7032
G1 F900 X113.486 Y112.792 E6.72199
G1 X114.221 Y112.253 E6.75533
G1 X114.658 Y111.982 E6.77415
G1 X115.146 Y111.778 E6.7935
G1 X116.01 Y111.495 E6.82676
G1 X116.509 Y111.374 E6.84555
G1 X117.026 Y111.331 E6.86453
G1 X117.936 Y111.328 E6.89782
G1 X118.448 Y111.366 E6.9166
G1 X118.957 Y111.486 E6.93574
G1 X119.822 Y111.764 E6.96898
G1 X120.297 Y111.959 E6.98776
G1 X120.747 Y112.233 E7.00704
G1 X121.482 Y112.765 E7.04023
G1 X121.873 Y113.097 E7.059
G1 X122.208 Y113.486 E7.07778
G1 X122.747 Y114.221 E7.11113
G1 X123.018 Y114.658 E7.12994
G1 X123.222 Y115.146 E7.14929
G1 X123.505 Y116.01 E7.18256
G1 X123.626 Y116.509 E7.20134
G1 X123.669 Y117.026 E7.22032
G1 X123.672 Y117.936 E7.25362
G1 X123.634 Y118.448 E7.2724
G1 X123.514 Y118.957 E7.29153
G1 X123.236 Y119.822 E7.32477
G1 X123.041 Y120.297 E7.34356
G1 X122.767 Y120.747 E7.36283
G1 X122.235 Y121.482 E7.39603
G1 X121.903 Y121.873 E7.4148
G1 X121.514 Y122.208 E7.43358
G1 X120.779 Y122.747 E7.46693
G1 X120.342 Y123.018 E7.48574
G1 X119.854 Y123.222 E7.50509
G1 X118.99 Y123.505 E7.53835
G1 X118.491 Y123.626 E7.55714
G1 X117.974 Y123.669 E7.57612
G1 X117.064 Y123.672 E7.60941
G1 X116.552 Y123.634 E7.6282
G1 X116.042 Y123.513 E7.64737
G1 X115.175 Y123.234 E7.68069
G1 X114.7 Y123.04 E7.69947
G1 X114.249 Y122.764 E7.71881
G1 X113.514 Y122.231 E7.75203
G1 X113.123 Y121.899 E7.7708
G1 X112.789 Y121.51 E7.78955
G1 X112.252 Y120.777 E7.8228
G1 X111.982 Y120.341 E7.84156
G1 X111.778 Y119.854 E7.86088
G1 X111.495 Y118.99 E7.89414
G1 X111.374 Y118.491 E7.91293
G1 X111.331 Y117.974 E7.93191
G1 X111.328 Y117.064 E7.9652
G1 X111.366 Y116.552 E7.98398
G1 X111.486 Y116.043 E8.00312
G1 X111.764 Y115.178 E8.03636
G1 X111.959 Y114.703 E8.05514
G1 X112.233 Y114.253 E8.07442
G1 X112.639 Y113.692 E8.09976
G0 F810 X112.765 Y113.518
G0 X113.097 Y113.127
M204 S5000
M205 X30 Y30
G0 F7200 X113.433 Y113.414
M204 S500
M205 X20 Y20
G1 F6000 E8.12635
G1 F900 X113.747 Y113.147 E8.14143
G1 X114.482 Y112.608 E8.17478
G1 X114.889 Y112.358 E8.19226
G1 X115.283 Y112.196 E8.20784
G1 X116.147 Y111.913 E8.2411
G1 X116.612 Y111.803 E8.25859
G1 X117.028 Y111.771 E8.27385
G1 X117.938 Y111.768 E8.30714
G1 X118.414 Y111.806 E8.32462
G1 X118.822 Y111.905 E8.33998
G1 X119.687 Y112.183 E8.37322
G1 X120.128 Y112.367 E8.3907
G1 X120.489 Y112.589 E8.4062
G1 X121.224 Y113.121 E8.4394
G1 X121.586 Y113.433 E8.45688
G1 X121.853 Y113.747 E8.47196
G1 X122.392 Y114.482 E8.50531
G1 X122.642 Y114.889 E8.52279
G1 X122.804 Y115.283 E8.53837
G1 X123.087 Y116.147 E8.57164
G1 X123.197 Y116.612 E8.58912
G1 X123.229 Y117.028 E8.60438
G1 X123.232 Y117.938 E8.63768
G1 X123.194 Y118.414 E8.65515
G1 X123.095 Y118.822 E8.67051
G1 X122.817 Y119.687 E8.70375
G1 X122.633 Y120.128 E8.72123
G1 X122.411 Y120.489 E8.73674
G1 X121.879 Y121.224 E8.76993
G1 X121.567 Y121.586 E8.78742
G1 X121.253 Y121.853 E8.8025
G1 X120.518 Y122.392 E8.83584
G1 X120.111 Y122.642 E8.85332
G1 X119.717 Y122.804 E8.8689
G1 X118.853 Y123.087 E8.90217
G1 X118.388 Y123.197 E8.91965
G1 X117.972 Y123.229 E8.93491
G1 X117.062 Y123.232 E8.96821
G1 X116.586 Y123.194 E8.98568
G1 X116.177 Y123.095 E9.00107
G1 X115.31 Y122.816 E9.03439
G1 X114.869 Y122.632 E9.05188
G1 X114.507 Y122.408 E9.06745
G1 X113.772 Y121.875 E9.10067
G1 X113.41 Y121.563 E9.11815
G1 X113.144 Y121.25 E9.13318
G1 X112.607 Y120.517 E9.16643
G1 X112.358 Y120.109 E9.18391
G1 X112.196 Y119.717 E9.19943
G1 X111.913 Y118.853 E9.23269
G1 X111.803 Y118.388 E9.25018
G1 X111.771 Y117.972 E9.26544
G1 X111.768 Y117.062 E9.29874
G1 X111.806 Y116.586 E9.31621
G1 X111.905 Y116.178 E9.33157
G1 X112.183 Y115.313 E9.36481
G1 X112.367 Y114.872 E9.38229
G1 X112.589 Y114.511 E9.39779
G1 X112.975 Y113.978 E9.42187
G0 F810 X113.121 Y113.776
G0 X113.433 Y113.414
M204 S5000
M205 X30 Y30
G0 F7200 X113.767 Y113.703
M204 S500
M205 X20 Y20
G1 F6000 E9.44847
G1 F900 X114.007 Y113.501 E9.45995
G1 X114.742 Y112.962 E9.49329
G1 X115.118 Y112.736 E9.50934
G1 X115.42 Y112.614 E9.52126
G1 X116.284 Y112.331 E9.55452
G1 X116.712 Y112.233 E9.57059
G1 X117.029 Y112.211 E9.58221
G1 X117.939 Y112.208 E9.61551
G1 X118.377 Y112.246 E9.63159
G1 X118.687 Y112.324 E9.64329
G1 X119.552 Y112.602 E9.67653
G1 X119.957 Y112.774 E9.69263
G1 X120.231 Y112.946 E9.70446
G1 X120.966 Y113.478 E9.73766
G1 X121.297 Y113.767 E9.75373
G1 X121.499 Y114.007 E9.76521
G1 X122.038 Y114.742 E9.79856
G1 X122.264 Y115.118 E9.81461
G1 X122.386 Y115.42 E9.82652
G1 X122.669 Y116.284 E9.85979
G1 X122.767 Y116.712 E9.87585
G1 X122.789 Y117.029 E9.88748
G1 X122.792 Y117.939 E9.92077
G1 X122.754 Y118.377 E9.93686
G1 X122.676 Y118.687 E9.94855
G1 X122.398 Y119.552 E9.98179
G1 X122.226 Y119.957 E9.99789
G1 X122.054 Y120.231 E10.00973
G1 X121.522 Y120.966 E10.04292
G1 X121.233 Y121.297 E10.059
G1 X120.993 Y121.499 E10.07048
G1 X120.258 Y122.038 E10.10382
G1 X119.882 Y122.264 E10.11987
G1 X119.58 Y122.386 E10.13179
G1 X118.716 Y122.669 E10.16505
G1 X118.288 Y122.767 E10.18112
G1 X117.971 Y122.789 E10.19274
G1 X117.061 Y122.792 E10.22603
G1 X116.623 Y122.754 E10.24212
G1 X116.312 Y122.676 E10.25385
G1 X115.445 Y122.397 E10.28717
G1 X115.04 Y122.225 E10.30327
G1 X114.765 Y122.052 E10.31516
G1 X114.03 Y121.519 E10.34837
G1 X113.699 Y121.23 E10.36445
G1 X113.499 Y120.99 E10.37588
G1 X112.962 Y120.257 E10.40913
G1 X112.735 Y119.88 E10.42523
G1 X112.614 Y119.58 E10.43706
G1 X112.331 Y118.716 E10.47032
G1 X112.233 Y118.288 E10.48639
G1 X112.211 Y117.971 E10.49801
G1 X112.208 Y117.061 E10.53131
G1 X112.246 Y116.623 E10.54739
G1 X112.324 Y116.313 E10.55909
G1 X112.602 Y115.448 E10.59233
G1 X112.774 Y115.043 E10.60843
G1 X112.946 Y114.769 E10.62026
G1 X113.31 Y114.267 E10.64295
G0 F810 X113.478 Y114.034
G0 X113.767 Y113.703
M204 S5000
M205 X30 Y30
G0 F7200 X114.098 Y113.995
M204 S500
M205 X20 Y20
G1 F6000 E10.66955
G1 F900 X114.267 Y113.856 E10.67755
G1 X115.002 Y113.317 E10.7109
G1 X115.345 Y113.116 E10.72544
G1 X115.557 Y113.032 E10.73379
G1 X116.421 Y112.749 E10.76705
G1 X116.809 Y112.664 E10.78158
G1 X117.03 Y112.651 E10.78968
G1 X117.94 Y112.648 E10.82298
G1 X118.336 Y112.687 E10.83753
G1 X118.553 Y112.743 E10.84573
G1 X119.418 Y113.021 E10.87897
G1 X119.782 Y113.18 E10.89351
G1 X119.973 Y113.302 E10.9018
G1 X120.708 Y113.834 E10.93499
G1 X121.005 Y114.098 E10.94953
G1 X121.144 Y114.267 E10.95754
G1 X121.683 Y115.002 E10.99088
G1 X121.884 Y115.345 E11.00543
G1 X121.968 Y115.557 E11.01377
G1 X122.251 Y116.421 E11.04704
G1 X122.336 Y116.809 E11.06157
G1 X122.349 Y117.03 E11.06967
G1 X122.352 Y117.94 E11.10296
G1 X122.313 Y118.336 E11.11752
G1 X122.257 Y118.553 E11.12572
G1 X121.979 Y119.418 E11.15896
G1 X121.82 Y119.782 E11.17349
G1 X121.698 Y119.973 E11.18178
G1 X121.166 Y120.708 E11.21498
G1 X120.902 Y121.005 E11.22952
G1 X120.733 Y121.144 E11.23752
G1 X119.998 Y121.683 E11.27087
G1 X119.655 Y121.884 E11.28542
G1 X119.443 Y121.968 E11.29376
G1 X118.579 Y122.251 E11.32702
G1 X118.191 Y122.336 E11.34155
G1 X117.97 Y122.349 E11.34965
G1 X117.06 Y122.352 E11.38295
G1 X116.664 Y122.313 E11.3975
G1 X116.446 Y122.257 E11.40574
G1 X115.579 Y121.978 E11.43906
G1 X115.215 Y121.819 E11.45359
G1 X115.024 Y121.696 E11.46191
G1 X114.289 Y121.163 E11.49512
G1 X113.992 Y120.898 E11.50969
G1 X113.854 Y120.73 E11.51764
G1 X113.317 Y119.997 E11.55088
G1 X113.115 Y119.655 E11.56542
G1 X113.032 Y119.443 E11.57375
G1 X112.749 Y118.579 E11.60701
G1 X112.664 Y118.191 E11.62154
G1 X112.651 Y117.97 E11.62964
G1 X112.648 Y117.06 E11.66293
