;FLAVOR:Marlin
;TIME:2156
;Filament used: 2.31842m
;Layer height: 0.2
;Generated with Cura_SteamEngine 3.6.0
M140 S70
M105
M190 S70
M104 S210
M105
M109 S210
M82 ;absolute extrusion mode
G28 ; home all axes
M117 Purge extruder
G92 E0 ; reset extruder
G1 Z1.0 F3000 ; move z up little to prevent scratching of surface
G1 X0.1 Y20 Z0.3 F5000.0 ; move to start-line position G1 X0.1 Y200.0 Z0.3 F1500.0 E15 ; draw 1st line
G1 X0.4 Y200.0 Z0.3 F5000.0 ; move to side a little
G1 X0.4 Y20 Z0.3 F1500.0 E30 ; draw 2nd line
G92 E0 ; reset extruder
G1 Z1.0 F3000 ; move z up little to prevent scratching of surface
M117 All systems go!
G92 E0
G1 F6000 E-5
;LAYER_COUNT:56
;LAYER:0
M107
M204 S5000
M205 X30 Y30
G0 F7200 X101.238 Y101.147 Z0.2
M204 S500
M205 X20 Y20
;TYPE:SKIRT
G1 F6000 E0
G1 F900 X102.434 Y100.039 E0.05965
G1 X103.387 Y99.26 E0.10468
G1 X104.725 Y98.299 E0.16495
G1 X105.766 Y97.645 E0.20993
G1 X107.193 Y96.868 E0.26938
G1 X108.303 Y96.35 E0.31419
G1 X109.836 Y95.747 E0.37446
G1 X111.025 Y95.364 E0.42016
G1 X112.617 Y94.96 E0.48025
G1 X113.82 Y94.733 E0.52504
G1 X115.438 Y94.53 E0.5847
G1 X116.646 Y94.453 E0.62899
G1 X118.286 Y94.449 E0.68899
G1 X119.531 Y94.525 E0.73463
G1 X121.148 Y94.726 E0.79424
G1 X122.06 Y94.882 E0.82809
G1 X122.876 Y95.062 E0.85866
G1 X123.768 Y95.303 E0.89247
G1 X125.317 Y95.8 E0.95199
G1 X126.463 Y96.248 E0.99701
G1 X127.957 Y96.942 E1.05727
G1 X129.042 Y97.532 E1.10246
G1 X130.429 Y98.401 E1.16234
G1 X131.417 Y99.108 E1.20679
G1 X132.678 Y100.133 E1.26624
G1 X133.594 Y100.978 E1.31184
G1 X134.734 Y102.172 E1.37224
G1 X135.523 Y103.108 E1.41702
G1 X136.5 Y104.424 E1.47699
G1 X137.174 Y105.462 E1.52227
G1 X137.972 Y106.877 E1.5817
G1 X138.508 Y107.982 E1.62664
G1 X139.135 Y109.51 E1.68706
G1 X139.528 Y110.665 E1.7317
G1 X139.955 Y112.232 E1.79112
G1 X140.158 Y113.145 E1.82534
G1 X140.298 Y113.953 E1.85534
G1 X140.412 Y114.864 E1.88893
G1 X140.542 Y116.511 E1.94938
G1 X140.563 Y117.729 E1.99395
G1 X140.491 Y119.35 E2.05331
G1 X140.412 Y120.236 E2.08585
G1 X140.303 Y120.882 E2.10982
G1 X139.814 Y123.289 E2.19968
G1 X139.598 Y124.152 E2.23223
G1 X139.277 Y125.062 E2.26754
G1 X138.348 Y127.336 E2.35741
G1 X137.975 Y128.144 E2.38997
G1 X137.657 Y128.71 E2.41372
G1 X136.806 Y130.119 E2.47394
G1 X136.294 Y130.885 E2.50765
G1 X135.807 Y131.544 E2.53763
G1 X135.22 Y132.264 E2.57162
G1 X134.132 Y133.479 E2.63129
G1 X133.485 Y134.137 E2.66505
G1 X132.873 Y134.704 E2.69557
G1 X132.169 Y135.298 E2.72927
G1 X130.874 Y136.291 E2.78898
G1 X129.844 Y136.983 E2.83438
G1 X128.43 Y137.809 E2.89429
G1 X127.622 Y138.233 E2.92767
G1 X126.889 Y138.575 E2.95727
G1 X126.037 Y138.925 E2.99097
G1 X124.485 Y139.48 E3.05127
G1 X123.612 Y139.747 E3.08467
G1 X122.821 Y139.95 E3.11455
G1 X122.198 Y140.089 E3.1379
G1 X121.388 Y140.242 E3.16806
G1 X120.478 Y140.37 E3.20168
G1 X118.832 Y140.525 E3.26217
G1 X117.589 Y140.564 E3.30767
G1 X115.955 Y140.512 E3.36748
G1 X114.742 Y140.398 E3.41205
G1 X113.129 Y140.146 E3.47178
G1 X112.213 Y139.959 E3.50599
G1 X111.416 Y139.756 E3.53608
G1 X110.535 Y139.487 E3.56978
G1 X109.001 Y138.94 E3.62936
G1 X108.158 Y138.595 E3.66269
G1 X107.404 Y138.245 E3.6931
G1 X106.577 Y137.813 E3.72724
G1 X105.172 Y136.992 E3.78677
G1 X104.156 Y136.31 E3.83154
G1 X102.846 Y135.309 E3.89186
G1 X102.131 Y134.708 E3.92603
G1 X101.538 Y134.159 E3.9556
G1 X101.104 Y133.731 E3.9779
G1 X100.531 Y133.131 E4.00825
G1 X99.922 Y132.43 E4.04223
G1 X98.908 Y131.146 E4.10209
G1 X98.208 Y130.137 E4.14702
G1 X97.358 Y128.733 E4.20706
G1 X96.786 Y127.64 E4.2522
G1 X96.118 Y126.143 E4.31217
G1 X95.689 Y124.995 E4.35701
G1 X95.216 Y123.443 E4.41637
G1 X94.986 Y122.539 E4.4505
G1 X94.817 Y121.712 E4.48138
G1 X94.676 Y120.811 E4.51474
G1 X94.499 Y119.199 E4.57408
G1 X94.441 Y117.967 E4.6192
G1 X94.466 Y116.333 E4.67899
G1 X94.52 Y115.444 E4.71157
G1 X94.608 Y114.807 E4.7351
G1 X95.022 Y112.399 E4.82449
G1 X95.212 Y111.529 E4.85707
G1 X95.395 Y110.922 E4.88027
G1 X95.917 Y109.369 E4.94021
G1 X96.391 Y108.209 E4.98606
G1 X97.111 Y106.722 E5.0465
G1 X97.71 Y105.656 E5.09124
G1 X98.593 Y104.292 E5.15069
G1 X99.327 Y103.301 E5.1958
G1 X100.389 Y102.038 E5.25618
G1 X100.737 Y101.673 E5.27463
G0 F810 X101.238 Y101.147
M204 S5000
M205 X30 Y30
G0 F7200 X101.537 Y101.469
M204 S500
M205 X20 Y20
G1 F6000 E5.30123
G1 F900 X102.733 Y100.361 E5.36087
G1 X103.643 Y99.617 E5.40388
G1 X104.981 Y98.656 E5.46415
G1 X105.976 Y98.032 E5.50712
G1 X107.403 Y97.255 E5.56657
G1 X108.464 Y96.76 E5.6094
G1 X109.997 Y96.157 E5.66967
G1 X111.133 Y95.791 E5.71334
G1 X112.725 Y95.387 E5.77343
G1 X113.874 Y95.17 E5.81621
G1 X115.492 Y94.967 E5.87587
G1 X116.647 Y94.893 E5.91821
G1 X118.287 Y94.889 E5.97821
G1 X119.477 Y94.961 E6.02183
G1 X121.094 Y95.162 E6.08144
G1 X121.965 Y95.312 E6.11378
G1 X122.781 Y95.492 E6.14435
G1 X123.633 Y95.722 E6.17664
G1 X125.182 Y96.219 E6.23616
G1 X126.277 Y96.647 E6.27917
G1 X127.771 Y97.341 E6.33944
G1 X128.809 Y97.904 E6.38264
G1 X130.196 Y98.773 E6.44253
G1 X131.14 Y99.449 E6.485
G1 X132.401 Y100.474 E6.54446
G1 X133.276 Y101.282 E6.58803
G1 X134.416 Y102.476 E6.64843
G1 X135.17 Y103.37 E6.69122
G1 X136.147 Y104.686 E6.75118
G1 X136.791 Y105.678 E6.79445
G1 X137.589 Y107.093 E6.85389
G1 X138.101 Y108.149 E6.89683
G1 X138.728 Y109.677 E6.95725
G1 X139.103 Y110.781 E6.99991
G1 X139.53 Y112.348 E7.05933
G1 X139.724 Y113.22 E7.09201
G1 X139.864 Y114.028 E7.12202
G1 X139.974 Y114.899 E7.15414
G1 X140.104 Y116.546 E7.21458
G1 X140.124 Y117.71 E7.25717
G1 X140.052 Y119.331 E7.31654
G1 X139.973 Y120.197 E7.34835
G1 X139.872 Y120.794 E7.37051
G1 X139.383 Y123.201 E7.46037
G1 X139.17 Y124.045 E7.49221
G1 X138.869 Y124.896 E7.52524
G1 X137.94 Y127.17 E7.61511
G1 X137.575 Y127.959 E7.64692
G1 X137.281 Y128.483 E7.6689
G1 X136.43 Y129.892 E7.72912
G1 X135.94 Y130.623 E7.76132
G1 X135.453 Y131.282 E7.7913
G1 X134.892 Y131.971 E7.82381
G1 X133.804 Y133.186 E7.88347
G1 X133.186 Y133.814 E7.91571
G1 X132.574 Y134.381 E7.94623
G1 X131.901 Y134.949 E7.97845
G1 X130.606 Y135.942 E8.03816
G1 X129.622 Y136.603 E8.08153
G1 X128.208 Y137.429 E8.14144
G1 X127.436 Y137.834 E8.17334
G1 X126.703 Y138.176 E8.20293
G1 X125.888 Y138.511 E8.23517
G1 X124.336 Y139.066 E8.29547
G1 X123.503 Y139.321 E8.32734
G1 X122.712 Y139.524 E8.35722
G1 X122.116 Y139.657 E8.37956
G1 X121.306 Y139.81 E8.40972
G1 X120.437 Y139.932 E8.44183
G1 X118.791 Y140.087 E8.50231
G1 X117.603 Y140.124 E8.5458
G1 X115.969 Y140.072 E8.60561
G1 X114.81 Y139.964 E8.6482
G1 X113.197 Y139.712 E8.70793
G1 X112.322 Y139.532 E8.74061
G1 X111.525 Y139.329 E8.7707
G1 X110.683 Y139.072 E8.80291
G1 X109.149 Y138.525 E8.86249
G1 X108.343 Y138.196 E8.89434
G1 X107.589 Y137.846 E8.92476
G1 X106.799 Y137.433 E8.95737
G1 X105.394 Y136.612 E9.01691
G1 X104.423 Y135.961 E9.05968
G1 X103.113 Y134.96 E9.12
G1 X102.43 Y134.385 E9.15266
G1 X101.837 Y133.836 E9.18223
G1 X101.423 Y133.428 E9.20349
G1 X100.85 Y132.828 E9.23385
G1 X100.267 Y132.157 E9.26637
G1 X99.253 Y130.873 E9.32623
G1 X98.585 Y129.909 E9.36914
G1 X97.735 Y128.505 E9.42918
G1 X97.188 Y127.461 E9.4723
G1 X96.52 Y125.964 E9.53228
G1 X96.11 Y124.867 E9.57513
G1 X95.637 Y123.315 E9.63449
G1 X95.418 Y122.451 E9.6671
G1 X95.249 Y121.624 E9.69798
G1 X95.114 Y120.763 E9.72986
G1 X94.937 Y119.151 E9.78919
G1 X94.881 Y117.973 E9.83234
G1 X94.906 Y116.339 E9.89213
G1 X94.959 Y115.471 E9.92395
G1 X95.042 Y114.881 E9.94574
G1 X95.456 Y112.473 E10.03514
G1 X95.642 Y111.624 E10.06693
G1 X95.812 Y111.062 E10.08842
G1 X96.334 Y109.509 E10.14836
G1 X96.787 Y108.4 E10.19219
G1 X97.507 Y106.913 E10.25263
G1 X98.08 Y105.895 E10.29537
G1 X98.963 Y104.531 E10.35482
G1 X99.663 Y103.584 E10.3979
G1 X100.725 Y102.321 E10.45828
G1 X101.036 Y101.995 E10.47476
G0 F810 X101.537 Y101.469
M204 S5000
M205 X30 Y30
G0 F7200 X101.836 Y101.792
M204 S500
M205 X20 Y20
G1 F6000 E10.50136
G1 F900 X103.032 Y100.684 E10.56101
G1 X103.9 Y99.975 E10.60201
G1 X105.238 Y99.014 E10.66228
G1 X106.187 Y98.418 E10.70328
G1 X107.614 Y97.641 E10.76273
G1 X108.625 Y97.169 E10.80355
G1 X110.158 Y96.566 E10.86382
G1 X111.241 Y96.217 E10.90545
G1 X112.833 Y95.813 E10.96554
G1 X113.929 Y95.606 E11.00635
G1 X115.547 Y95.403 E11.06601
G1 X116.648 Y95.333 E11.10637
G1 X118.288 Y95.329 E11.16637
G1 X119.423 Y95.398 E11.20797
G1 X121.04 Y95.599 E11.26759
G1 X121.87 Y95.742 E11.2984
G1 X122.686 Y95.922 E11.32897
G1 X123.499 Y96.141 E11.35978
G1 X125.048 Y96.638 E11.4193
G1 X126.092 Y97.047 E11.46032
G1 X127.586 Y97.741 E11.52059
G1 X128.575 Y98.277 E11.56174
G1 X129.962 Y99.146 E11.62163
G1 X130.862 Y99.791 E11.66214
G1 X132.123 Y100.816 E11.72159
G1 X132.958 Y101.586 E11.76315
G1 X134.098 Y102.78 E11.82354
G1 X134.816 Y103.632 E11.86431
G1 X135.793 Y104.948 E11.92427
G1 X136.408 Y105.894 E11.96556
G1 X137.206 Y107.309 E12.02499
G1 X137.694 Y108.316 E12.06593
G1 X138.321 Y109.844 E12.12636
G1 X138.679 Y110.897 E12.16705
G1 X139.106 Y112.464 E12.22647
G1 X139.291 Y113.295 E12.25762
G1 X139.431 Y114.103 E12.28762
G1 X139.535 Y114.933 E12.31822
G1 X139.665 Y116.58 E12.37867
G1 X139.684 Y117.69 E12.41928
G1 X139.612 Y119.311 E12.47865
G1 X139.535 Y120.157 E12.50973
G1 X139.44 Y120.707 E12.53015
G1 X138.951 Y123.114 E12.62001
G1 X138.743 Y123.937 E12.65107
G1 X138.462 Y124.729 E12.68181
G1 X137.533 Y127.003 E12.77169
G1 X137.175 Y127.773 E12.80275
G1 X136.904 Y128.255 E12.82298
G1 X136.053 Y129.664 E12.88321
G1 X135.586 Y130.362 E12.91393
G1 X135.099 Y131.021 E12.94391
G1 X134.565 Y131.677 E12.97486
G1 X133.477 Y132.892 E13.03453
G1 X132.887 Y133.492 E13.06531
G1 X132.275 Y134.059 E13.09584
G1 X131.634 Y134.6 E13.12653
G1 X130.339 Y135.593 E13.18623
G1 X129.4 Y136.223 E13.2276
G1 X127.986 Y137.049 E13.28751
G1 X127.25 Y137.435 E13.31792
G1 X126.517 Y137.777 E13.34751
G1 X125.74 Y138.096 E13.37824
G1 X124.188 Y138.651 E13.43855
G1 X123.393 Y138.895 E13.46897
G1 X122.602 Y139.098 E13.49885
G1 X122.034 Y139.224 E13.52013
G1 X121.224 Y139.377 E13.55029
G1 X120.396 Y139.494 E13.58089
G1 X118.75 Y139.649 E13.64137
G1 X117.617 Y139.684 E13.68285
G1 X115.983 Y139.632 E13.74266
G1 X114.878 Y139.529 E13.78326
G1 X113.265 Y139.277 E13.84299
G1 X112.431 Y139.106 E13.87414
G1 X111.634 Y138.903 E13.90423
G1 X110.83 Y138.658 E13.93498
G1 X109.296 Y138.111 E13.99456
G1 X108.528 Y137.797 E14.02492
G1 X107.774 Y137.447 E14.05533
G1 X107.021 Y137.053 E14.08643
G1 X105.616 Y136.232 E14.14596
G1 X104.69 Y135.611 E14.18675
G1 X103.38 Y134.61 E14.24707
G1 X102.729 Y134.062 E14.2782
G1 X102.136 Y133.513 E14.30777
G1 X101.741 Y133.124 E14.32805
G1 X101.168 Y132.524 E14.35841
G1 X100.612 Y131.884 E14.38942
G1 X99.598 Y130.6 E14.44928
G1 X98.961 Y129.681 E14.49019
G1 X98.111 Y128.277 E14.55024
G1 X97.59 Y127.282 E14.59133
G1 X96.922 Y125.785 E14.65131
G1 X96.531 Y124.739 E14.69216
G1 X96.058 Y123.187 E14.75152
G1 X95.849 Y122.363 E14.78262
G1 X95.68 Y121.536 E14.81351
G1 X95.551 Y120.714 E14.84395
G1 X95.374 Y119.102 E14.90328
G1 X95.321 Y117.98 E14.94437
G1 X95.346 Y116.346 E15.00416
G1 X95.399 Y115.498 E15.03525
G1 X95.475 Y114.956 E15.05527
G1 X95.889 Y112.548 E15.14466
G1 X96.073 Y111.718 E15.17577
G1 X96.229 Y111.202 E15.19549
G1 X96.751 Y109.649 E15.25543
G1 X97.183 Y108.592 E15.29721
G1 X97.903 Y107.105 E15.35766
G1 X98.449 Y106.134 E15.39841
G1 X99.332 Y104.77 E15.45786
G1 X100 Y103.867 E15.49895
G1 X101.062 Y102.604 E15.55933
G1 X101.335 Y102.318 E15.57379
G0 F810 X101.836 Y101.792
M204 S5000
M205 X30 Y30
G0 F7200 X102.135 Y102.115
M204 S500
M205 X20 Y20
G1 F6000 E15.60039
G1 F900 X103.331 Y101.007 E15.66004
G1 X104.157 Y100.332 E15.69907
G1 X105.495 Y99.371 E15.75934
G1 X106.397 Y98.805 E15.7983
G1 X107.824 Y98.028 E15.85774
G1 X108.786 Y97.578 E15.8966
G1 X110.319 Y96.975 E15.95687
G1 X111.35 Y96.644 E15.99648
G1 X112.942 Y96.24 E16.05658
G1 X113.984 Y96.043 E16.09537
G1 X115.602 Y95.84 E16.15503
G1 X116.649 Y95.773 E16.19342
G1 X118.289 Y95.769 E16.25342
G1 X119.368 Y95.835 E16.29297
G1 X120.985 Y96.036 E16.35259
G1 X121.775 Y96.171 E16.38191
G1 X122.591 Y96.351 E16.41248
G1 X123.364 Y96.56 E16.44178
G1 X124.913 Y97.057 E16.50129
G1 X125.907 Y97.446 E16.54035
G1 X127.401 Y98.14 E16.60061
G1 X128.341 Y98.65 E16.63974
G1 X129.728 Y99.519 E16.69962
G1 X130.585 Y100.132 E16.73817
G1 X131.846 Y101.157 E16.79763
G1 X132.64 Y101.89 E16.83716
G1 X133.78 Y103.084 E16.89756
G1 X134.463 Y103.895 E16.93635
G1 X135.44 Y105.211 E16.99632
G1 X136.024 Y106.11 E17.03554
G1 X136.822 Y107.525 E17.09497
G1 X137.287 Y108.483 E17.13393
G1 X137.914 Y110.011 E17.19436
G1 X138.254 Y111.012 E17.23304
G1 X138.681 Y112.579 E17.29246
G1 X138.857 Y113.37 E17.32211
G1 X138.997 Y114.178 E17.35211
G1 X139.096 Y114.968 E17.38124
G1 X139.226 Y116.615 E17.44168
G1 X139.245 Y117.671 E17.48032
G1 X139.173 Y119.292 E17.53969
G1 X139.096 Y120.116 E17.56997
G1 X139.009 Y120.619 E17.58864
G1 X138.52 Y123.026 E17.6785
G1 X138.316 Y123.829 E17.70882
G1 X138.055 Y124.563 E17.73732
G1 X137.126 Y126.837 E17.82719
G1 X136.776 Y127.588 E17.8575
G1 X136.527 Y128.028 E17.876
G1 X135.676 Y129.437 E17.93622
G1 X135.232 Y130.1 E17.96542
G1 X134.745 Y130.759 E17.9954
G1 X134.237 Y131.384 E18.02486
G1 X133.149 Y132.599 E18.08453
G1 X132.588 Y133.169 E18.11379
G1 X131.976 Y133.736 E18.14432
G1 X131.366 Y134.251 E18.17352
G1 X130.071 Y135.244 E18.23323
G1 X129.178 Y135.844 E18.27259
G1 X127.764 Y136.67 E18.3325
G1 X127.064 Y137.036 E18.3614
G1 X126.331 Y137.378 E18.391
G1 X125.592 Y137.682 E18.42023
G1 X124.04 Y138.237 E18.48053
G1 X123.284 Y138.469 E18.50947
G1 X122.493 Y138.672 E18.53934
G1 X121.953 Y138.792 E18.55958
G1 X121.143 Y138.945 E18.58974
G1 X120.354 Y139.056 E18.61889
G1 X118.708 Y139.211 E18.67938
G1 X117.631 Y139.245 E18.7188
G1 X115.997 Y139.193 E18.77861
G1 X114.946 Y139.094 E18.81724
G1 X113.333 Y138.842 E18.87697
G1 X112.539 Y138.68 E18.90661
G1 X111.742 Y138.477 E18.9367
G1 X110.978 Y138.244 E18.96593
G1 X109.444 Y137.697 E19.02551
G1 X108.713 Y137.397 E19.05442
G1 X107.959 Y137.047 E19.08483
G1 X107.243 Y136.673 E19.11439
G1 X105.838 Y135.852 E19.17392
G1 X104.958 Y135.262 E19.21269
G1 X103.648 Y134.261 E19.273
G1 X103.028 Y133.739 E19.30266
G1 X102.435 Y133.19 E19.33222
G1 X102.059 Y132.82 E19.35152
G1 X101.486 Y132.22 E19.38188
G1 X100.958 Y131.612 E19.41134
G1 X99.944 Y130.328 E19.4712
G1 X99.337 Y129.454 E19.51013
G1 X98.487 Y128.05 E19.57018
G1 X97.992 Y127.102 E19.6093
G1 X97.324 Y125.605 E19.66928
G1 X96.952 Y124.61 E19.70814
G1 X96.479 Y123.058 E19.7675
G1 X96.28 Y122.275 E19.79706
G1 X96.111 Y121.448 E19.82794
G1 X95.988 Y120.666 E19.8569
G1 X95.811 Y119.054 E19.91623
G1 X95.761 Y117.987 E19.95531
G1 X95.786 Y116.353 E20.0151
G1 X95.839 Y115.526 E20.04542
G1 X95.909 Y115.03 E20.06375
G1 X96.323 Y112.622 E20.15314
G1 X96.503 Y111.814 E20.18343
G1 X96.646 Y111.342 E20.20147
G1 X97.168 Y109.789 E20.26141
G1 X97.579 Y108.784 E20.30114
G1 X98.299 Y107.297 E20.36158
G1 X98.818 Y106.373 E20.40036
G1 X99.701 Y105.009 E20.4598
G1 X100.337 Y104.15 E20.49891
G1 X101.399 Y102.887 E20.55928
G1 X101.634 Y102.641 E20.57173
G0 F810 X102.135 Y102.115
M204 S5000
M205 X30 Y30
G0 F7200 X102.434 Y102.438
M204 S500
M205 X20 Y20
G1 F6000 E20.59833
G1 F900 X103.63 Y101.33 E20.65797
G1 X104.413 Y100.69 E20.69497
G1 X105.751 Y99.729 E20.75524
G1 X106.607 Y99.191 E20.79223
G1 X108.034 Y98.414 E20.85168
G1 X108.947 Y97.988 E20.88854
G1 X110.48 Y97.385 E20.94881
G1 X111.458 Y97.07 E20.9864
G1 X113.05 Y96.666 E21.04649
G1 X114.039 Y96.479 E21.08332
G1 X115.657 Y96.276 E21.14298
G1 X116.65 Y96.213 E21.17938
G1 X118.29 Y96.209 E21.23938
G1 X119.314 Y96.271 E21.27692
G1 X120.931 Y96.472 E21.33653
G1 X121.68 Y96.601 E21.36434
G1 X122.496 Y96.781 E21.39491
G1 X123.23 Y96.979 E21.42272
G1 X124.779 Y97.476 E21.48224
G1 X125.721 Y97.845 E21.51925
G1 X127.215 Y98.539 E21.57952
G1 X128.108 Y99.023 E21.61669
G1 X129.495 Y99.892 E21.67657
G1 X130.307 Y100.474 E21.71312
G1 X131.568 Y101.499 E21.77257
G1 X132.321 Y102.194 E21.81006
G1 X133.461 Y103.388 E21.87046
G1 X134.11 Y104.157 E21.90727
G1 X135.087 Y105.473 E21.96724
G1 X135.641 Y106.326 E22.00445
G1 X136.439 Y107.741 E22.06389
G1 X136.88 Y108.65 E22.10085
G1 X137.507 Y110.178 E22.16128
G1 X137.83 Y111.128 E22.19799
