;FLAVOR:Marlin
;TIME:1572
;Filament used: 1.32256m
;Layer height: 0.2
;Generated with Cura_SteamEngine 3.6.0
M140 S70
M105
M190 S70
M104 S210
M105
M109 S210
M82 ;absolute extrusion mode
G28 ; home all axes
M117 Purge extruder
G92 E0 ; reset extruder
G1 Z1.0 F3000 ; move z up little to prevent scratching of surface
G1 X0.1 Y20 Z0.3 F5000.0 ; move to start-line position G1 X0.1 Y200.0 Z0.3 F1500.0 E15 ; draw 1st line
G1 X0.4 Y200.0 Z0.3 F5000.0 ; move to side a little
G1 X0.4 Y20 Z0.3 F1500.0 E30 ; draw 2nd line
G92 E0 ; reset extruder
G1 Z1.0 F3000 ; move z up little to prevent scratching of surface
M117 All systems go!
G92 E0
G1 F6000 E-5
;LAYER_COUNT:156
;LAYER:0
M107
M204 S5000
M205 X30 Y30
G0 F7200 X104.872 Y94.287 Z0.2
M204 S500
M205 X20 Y20
;TYPE:SKIRT
G1 F6000 E0
G1 F900 X105.484 Y93.641 E0.03256
G1 X106.054 Y93.132 E0.06052
G1 X107.492 Y91.945 E0.12873
G1 X108.574 Y91.168 E0.17747
G1 X109.636 Y90.509 E0.2232
G1 X110.62 Y89.973 E0.26419
G1 X111.746 Y89.44 E0.30977
G1 X112.567 Y89.096 E0.34234
G1 X113.02 Y88.941 E0.35986
G1 X114.803 Y88.382 E0.42822
G1 X115.663 Y88.155 E0.46076
G1 X116.396 Y88.024 E0.488
G1 X118.251 Y87.765 E0.55653
G1 X119.448 Y87.671 E0.60046
G1 X120.081 Y87.66 E0.62362
G1 X120.97 Y87.685 E0.65616
G1 X121.854 Y87.789 E0.68872
G1 X122.725 Y87.972 E0.72129
G1 X123.509 Y88.21 E0.75126
G1 X123.71 Y88.28 E0.75905
G1 X124.536 Y88.61 E0.79159
G1 X125.329 Y89.013 E0.82414
G1 X126.083 Y89.485 E0.85668
G1 X126.792 Y90.024 E0.88927
G1 X127.449 Y90.623 E0.92179
G1 X128.05 Y91.28 E0.95437
G1 X128.558 Y91.942 E0.9849
G1 X128.638 Y92.056 E0.98999
G1 X129.116 Y92.807 E1.02256
G1 X129.524 Y93.597 E1.05509
G1 X129.86 Y94.421 E1.08765
G1 X130.121 Y95.272 E1.12022
G1 X130.304 Y96.142 E1.15274
G1 X130.408 Y97.026 E1.18531
G1 X130.434 Y97.743 E1.21156
G1 X130.434 Y100.13 E1.29889
G1 X130.394 Y101.019 E1.33145
G1 X130.274 Y101.9 E1.36398
G1 X130.076 Y102.768 E1.39655
G1 X129.801 Y103.614 E1.4291
G1 X129.451 Y104.432 E1.46165
G1 X129.028 Y105.215 E1.49421
G1 X128.648 Y105.802 E1.51979
G1 X128.569 Y105.915 E1.52484
G1 X128.027 Y106.621 E1.5574
G1 X127.424 Y107.275 E1.58995
G1 X126.764 Y107.872 E1.62251
G1 X126.054 Y108.408 E1.65505
G1 X125.298 Y108.878 E1.68762
G1 X124.503 Y109.277 E1.72017
G1 X123.503 Y109.662 E1.75937
G1 X123.262 Y109.74 E1.76864
G1 X122.405 Y109.976 E1.80116
G1 X121.529 Y110.133 E1.83372
G1 X121.308 Y110.151 E1.84183
G1 X121.334 Y124.831 E2.37892
G1 X121.379 Y124.835 E2.38057
G1 X122.26 Y124.958 E2.41311
G1 X123.127 Y125.159 E2.44568
G1 X123.972 Y125.437 E2.47822
G1 X124.788 Y125.79 E2.51075
G1 X125.57 Y126.215 E2.54331
G1 X126.31 Y126.709 E2.57586
G1 X127.004 Y127.266 E2.60842
G1 X127.644 Y127.884 E2.64097
G1 X128.226 Y128.557 E2.67352
G1 X128.603 Y129.068 E2.69676
G1 X128.681 Y129.181 E2.70178
G1 X129.153 Y129.935 E2.73432
G1 X129.556 Y130.729 E2.7669
G1 X129.885 Y131.555 E2.79943
G1 X130.139 Y132.408 E2.83199
G1 X130.316 Y133.28 E2.86455
G1 X130.413 Y134.164 E2.89708
G1 X130.434 Y134.805 E2.92055
G1 X130.434 Y137.254 E3.01015
G1 X130.394 Y138.143 E3.04271
G1 X130.274 Y139.024 E3.07524
G1 X130.076 Y139.892 E3.10781
G1 X129.801 Y140.738 E3.14035
G1 X129.451 Y141.556 E3.17291
G1 X129.028 Y142.339 E3.20547
G1 X128.692 Y142.863 E3.22824
G1 X128.615 Y142.975 E3.23321
G1 X128.079 Y143.684 E3.26573
G1 X127.48 Y144.343 E3.29831
G1 X126.826 Y144.946 E3.33086
G1 X126.12 Y145.487 E3.3634
G1 X125.368 Y145.962 E3.39594
G1 X124.576 Y146.368 E3.4285
G1 X123.599 Y146.754 E3.46694
G1 X123.36 Y146.834 E3.47616
G1 X122.505 Y147.078 E3.50869
G1 X121.631 Y147.245 E3.54124
G1 X120.745 Y147.332 E3.57381
G1 X119.722 Y147.334 E3.61124
G1 X118.605 Y147.278 E3.65216
G1 X117.72 Y147.193 E3.68469
G1 X117.266 Y147.118 E3.70152
G1 X115.405 Y146.767 E3.77081
G1 X114.539 Y146.563 E3.80336
G1 X114.085 Y146.423 E3.82074
G1 X112.907 Y146.027 E3.86621
G1 X111.893 Y145.622 E3.90616
G1 X110.745 Y145.089 E3.95247
G1 X109.756 Y144.56 E3.9935
G1 X108.691 Y143.91 E4.03915
G1 X107.954 Y143.413 E4.07167
G1 X107.573 Y143.116 E4.08934
G1 X106.108 Y141.915 E4.15865
G1 X105.446 Y141.321 E4.19119
G1 X104.931 Y140.775 E4.21865
G1 X103.7 Y139.367 E4.28708
G1 X103.145 Y138.672 E4.31962
G1 X102.711 Y138.022 E4.34821
G1 X101.72 Y136.404 E4.41763
G1 X101.29 Y135.625 E4.45018
G1 X101.089 Y135.194 E4.46758
G1 X100.587 Y134.044 E4.51349
G1 X100.202 Y133.007 E4.55396
G1 X99.835 Y131.82 E4.59942
G1 X99.61 Y130.959 E4.63198
G1 X99.522 Y130.49 E4.64943
G1 X99.217 Y128.62 E4.71875
G1 X99.113 Y127.736 E4.75132
G1 X99.088 Y127.042 E4.77673
G1 X99.058 Y108.617 E5.45083
G1 X99.088 Y107.832 E5.47957
G1 X99.186 Y106.574 E5.52573
G1 X99.295 Y105.691 E5.55828
G1 X99.387 Y105.217 E5.57595
G1 X99.789 Y103.389 E5.64443
G1 X100.019 Y102.529 E5.677
G1 X100.172 Y102.084 E5.69421
G1 X100.605 Y100.912 E5.73993
G1 X101.043 Y99.903 E5.78017
G1 X101.597 Y98.799 E5.82536
G1 X102.133 Y97.861 E5.86489
G1 X102.811 Y96.813 E5.91055
G1 X103.327 Y96.089 E5.94308
G1 X103.639 Y95.711 E5.96101
G1 X104.396 Y94.836 E6.00334
G0 F810 X104.872 Y94.287
M204 S5000
M205 X30 Y30
G0 F7200 X105.204 Y94.575
M204 S500
M205 X20 Y20
G1 F6000 E6.02994
G1 F900 X105.803 Y93.944 E6.06177
G1 X106.334 Y93.471 E6.08779
G1 X107.772 Y92.284 E6.15601
G1 X108.806 Y91.542 E6.20257
G1 X109.868 Y90.883 E6.2483
G1 X110.809 Y90.371 E6.28749
G1 X111.935 Y89.838 E6.33307
G1 X112.737 Y89.502 E6.36488
G1 X113.152 Y89.361 E6.38092
G1 X114.935 Y88.802 E6.44928
G1 X115.776 Y88.58 E6.48111
G1 X116.457 Y88.46 E6.5064
G1 X118.312 Y88.201 E6.57493
G1 X119.456 Y88.111 E6.61691
G1 X120.089 Y88.1 E6.64008
G1 X120.958 Y88.125 E6.67188
G1 X121.821 Y88.23 E6.70369
G1 X122.672 Y88.413 E6.73554
G1 X123.364 Y88.625 E6.76202
G1 X123.565 Y88.695 E6.7698
G1 X124.373 Y89.019 E6.80165
G1 X125.147 Y89.415 E6.83346
G1 X125.881 Y89.881 E6.86527
G1 X126.57 Y90.412 E6.8971
G1 X127.207 Y91.004 E6.92891
G1 X127.787 Y91.652 E6.96073
G1 X128.198 Y92.195 E6.98564
G1 X128.278 Y92.309 E6.99074
G1 X128.744 Y93.043 E7.02255
G1 X129.141 Y93.817 E7.05437
G1 X129.465 Y94.624 E7.08619
G1 X129.714 Y95.457 E7.118
G1 X129.885 Y96.31 E7.14983
G1 X129.977 Y97.175 E7.18165
G1 X129.994 Y97.743 E7.20244
G1 X129.994 Y100.13 E7.28977
G1 X129.954 Y100.999 E7.3216
G1 X129.834 Y101.86 E7.35341
G1 X129.636 Y102.707 E7.38523
G1 X129.361 Y103.532 E7.41705
G1 X129.011 Y104.328 E7.44886
G1 X128.59 Y105.089 E7.48068
G1 X128.287 Y105.55 E7.50086
G1 X128.208 Y105.663 E7.50591
G1 X127.678 Y106.352 E7.53771
G1 X127.086 Y106.99 E7.56955
G1 X126.438 Y107.57 E7.60137
G1 X125.74 Y108.089 E7.63319
G1 X124.997 Y108.541 E7.66501
G1 X124.216 Y108.923 E7.69682
G1 X123.368 Y109.243 E7.72998
G1 X123.127 Y109.321 E7.73925
G1 X122.288 Y109.551 E7.77108
G1 X121.432 Y109.702 E7.80288
G1 X120.867 Y109.746 E7.82361
G1 X120.895 Y125.232 E8.39018
G1 X121.338 Y125.273 E8.40646
G1 X122.199 Y125.394 E8.43827
G1 X123.046 Y125.593 E8.4701
G1 X123.87 Y125.87 E8.50191
G1 X124.666 Y126.22 E8.53372
G1 X125.426 Y126.643 E8.56554
G1 X126.144 Y127.133 E8.59735
G1 X126.815 Y127.688 E8.62921
G1 X127.431 Y128.301 E8.661
G1 X128.241 Y129.318 E8.70857
G1 X128.319 Y129.431 E8.71359
G1 X128.78 Y130.169 E8.74543
G1 X129.171 Y130.946 E8.77725
G1 X129.489 Y131.755 E8.80905
G1 X129.731 Y132.59 E8.84086
G1 X129.896 Y133.444 E8.87268
G1 X129.981 Y134.31 E8.90452
G1 X129.994 Y134.805 E8.92264
G1 X129.994 Y137.254 E9.01224
G1 X129.954 Y138.123 E9.04406
G1 X129.834 Y138.984 E9.07587
G1 X129.636 Y139.831 E9.10769
G1 X129.361 Y140.656 E9.13951
G1 X129.011 Y141.452 E9.17132
G1 X128.59 Y142.213 E9.20314
G1 X128.329 Y142.613 E9.22061
G1 X128.252 Y142.725 E9.22559
G1 X127.727 Y143.419 E9.25742
G1 X127.141 Y144.061 E9.28923
G1 X126.498 Y144.646 E9.32103
G1 X125.803 Y145.17 E9.35287
G1 X125.064 Y145.628 E9.38468
G1 X124.286 Y146.017 E9.41651
G1 X123.46 Y146.337 E9.44892
G1 X123.221 Y146.417 E9.45814
G1 X122.384 Y146.655 E9.48997
G1 X121.529 Y146.815 E9.5218
G1 X120.663 Y146.896 E9.55362
G1 X119.744 Y146.894 E9.58724
G1 X118.627 Y146.838 E9.62816
G1 X117.348 Y146.686 E9.67528
G1 X115.487 Y146.335 E9.74457
G1 X114.226 Y146.006 E9.79225
G1 X113.048 Y145.61 E9.83772
G1 X112.078 Y145.223 E9.87593
G1 X110.93 Y144.69 E9.92223
G1 X109.986 Y144.185 E9.9614
G1 X108.921 Y143.535 E10.00705
G1 X108.2 Y143.048 E10.03888
G1 X107.852 Y142.776 E10.05504
G1 X106.387 Y141.575 E10.12435
G1 X105.74 Y140.993 E10.15619
G1 X105.262 Y140.486 E10.18168
G1 X104.031 Y139.078 E10.25011
G1 X103.489 Y138.397 E10.28195
G1 X103.086 Y137.792 E10.30855
G1 X102.095 Y136.174 E10.37796
G1 X101.675 Y135.412 E10.4098
G1 X101.492 Y135.018 E10.42569
G1 X100.99 Y133.868 E10.4716
G1 X100.622 Y132.877 E10.51027
G1 X100.255 Y131.69 E10.55573
G1 X100.037 Y130.849 E10.58752
G1 X99.956 Y130.419 E10.60353
G1 X99.651 Y128.549 E10.67285
G1 X99.551 Y127.685 E10.70467
G1 X99.528 Y127.041 E10.72824
G1 X99.498 Y108.616 E11.40234
G1 X99.527 Y107.866 E11.4298
G1 X99.625 Y106.608 E11.47597
G1 X99.732 Y105.745 E11.50778
G1 X99.817 Y105.311 E11.52397
G1 X100.219 Y103.483 E11.59244
G1 X100.584 Y102.237 E11.63994
G1 X101.017 Y101.065 E11.68566
G1 X101.436 Y100.1 E11.72415
G1 X101.99 Y98.996 E11.76934
G1 X102.502 Y98.1 E11.80709
G1 X103.18 Y97.052 E11.85276
G1 X103.686 Y96.345 E11.88457
G1 X103.971 Y95.999 E11.90097
G1 X104.728 Y95.124 E11.9433
G0 F810 X105.204 Y94.575
M204 S5000
M205 X30 Y30
G0 F7200 X105.537 Y94.863
M204 S500
M205 X20 Y20
G1 F6000 E11.9699
G1 F900 X106.123 Y94.247 E12.001
G1 X106.614 Y93.811 E12.02503
G1 X108.052 Y92.624 E12.09325
G1 X109.038 Y91.916 E12.13766
G1 X110.1 Y91.257 E12.18338
G1 X110.997 Y90.768 E12.22076
G1 X112.123 Y90.235 E12.26634
G1 X113.284 Y89.781 E12.31195
G1 X115.067 Y89.222 E12.38031
G1 X115.888 Y89.006 E12.41137
G1 X116.518 Y88.896 E12.43477
G1 X118.373 Y88.637 E12.5033
G1 X119.463 Y88.551 E12.5433
G1 X120.096 Y88.54 E12.56646
G1 X120.945 Y88.566 E12.59754
G1 X121.788 Y88.671 E12.62862
G1 X122.617 Y88.854 E12.65968
G1 X123.22 Y89.041 E12.68278
G1 X123.421 Y89.111 E12.69056
G1 X124.208 Y89.428 E12.7216
G1 X124.963 Y89.817 E12.75268
G1 X125.678 Y90.276 E12.78376
G1 X126.346 Y90.8 E12.81482
G1 X126.962 Y91.384 E12.84588
G1 X127.521 Y92.024 E12.87697
G1 X127.837 Y92.448 E12.89632
G1 X127.917 Y92.562 E12.90141
G1 X128.372 Y93.279 E12.93248
G1 X128.757 Y94.036 E12.96355
G1 X129.069 Y94.826 E12.99463
G1 X129.306 Y95.641 E13.02568
G1 X129.465 Y96.476 E13.05678
G1 X129.554 Y97.743 E13.10325
G1 X129.554 Y100.13 E13.19058
G1 X129.514 Y100.978 E13.22164
G1 X129.394 Y101.819 E13.25272
G1 X129.196 Y102.645 E13.2838
G1 X128.921 Y103.448 E13.31485
G1 X128.572 Y104.222 E13.34591
G1 X127.927 Y105.298 E13.39181
G1 X127.848 Y105.411 E13.39685
G1 X127.329 Y106.084 E13.42795
G1 X126.749 Y106.704 E13.45901
G1 X126.113 Y107.267 E13.49009
G1 X125.428 Y107.768 E13.52113
G1 X124.698 Y108.203 E13.55222
G1 X123.931 Y108.567 E13.58329
G1 X123.232 Y108.825 E13.61055
G1 X122.991 Y108.903 E13.61981
G1 X122.172 Y109.126 E13.65087
G1 X121.335 Y109.271 E13.68195
G1 X120.455 Y109.338 E13.71424
G1 X120.426 Y109.339 E13.7153
G1 X120.456 Y125.632 E14.3114
G1 X121.297 Y125.711 E14.3423
G1 X122.138 Y125.83 E14.37338
G1 X122.964 Y126.028 E14.40445
G1 X123.767 Y126.302 E14.4355
G1 X124.542 Y126.65 E14.46658
G1 X125.28 Y127.07 E14.49764
G1 X125.975 Y127.558 E14.52871
G1 X126.622 Y128.108 E14.55978
G1 X127.214 Y128.717 E14.59085
G1 X127.879 Y129.568 E14.63037
G1 X127.957 Y129.681 E14.63539
G1 X128.406 Y130.402 E14.66647
G1 X128.785 Y131.162 E14.69754
G1 X129.092 Y131.954 E14.72862
G1 X129.322 Y132.771 E14.75967
G1 X129.474 Y133.607 E14.79076
G1 X129.554 Y134.805 E14.83468
G1 X129.554 Y137.254 E14.92428
G1 X129.514 Y138.102 E14.95534
G1 X129.394 Y138.943 E14.98642
G1 X129.196 Y139.769 E15.0175
G1 X128.921 Y140.572 E15.04855
G1 X128.572 Y141.346 E15.07962
G1 X127.967 Y142.364 E15.12294
G1 X127.89 Y142.476 E15.12791
G1 X127.376 Y143.152 E15.15898
G1 X126.801 Y143.778 E15.19008
G1 X126.17 Y144.346 E15.22114
G1 X125.489 Y144.852 E15.25218
G1 X124.762 Y145.292 E15.28327
G1 X123.998 Y145.662 E15.31433
G1 X123.32 Y145.92 E15.34087
G1 X123.081 Y146 E15.35009
G1 X122.264 Y146.231 E15.38116
G1 X121.429 Y146.384 E15.41221
G1 X120.583 Y146.459 E15.44329
G1 X119.766 Y146.455 E15.47318
G1 X118.649 Y146.399 E15.5141
G1 X117.429 Y146.254 E15.55905
G1 X115.568 Y145.903 E15.62833
G1 X114.366 Y145.589 E15.67379
G1 X113.188 Y145.193 E15.71925
G1 X112.264 Y144.824 E15.75566
G1 X111.116 Y144.291 E15.80196
G1 X110.215 Y143.809 E15.83935
G1 X109.15 Y143.159 E15.88499
G1 X108.13 Y142.436 E15.93074
G1 X106.665 Y141.235 E16.00004
G1 X106.035 Y140.666 E16.0311
G1 X105.593 Y140.196 E16.05471
G1 X104.362 Y138.788 E16.12313
G1 X103.834 Y138.123 E16.1542
G1 X103.461 Y137.562 E16.17885
G1 X102.47 Y135.944 E16.24826
G1 X101.895 Y134.842 E16.29374
G1 X101.393 Y133.692 E16.33965
G1 X101.042 Y132.747 E16.37653
G1 X100.675 Y131.56 E16.42199
G1 X100.391 Y130.348 E16.46753
G1 X100.086 Y128.478 E16.53685
G1 X99.989 Y127.634 E16.56793
G1 X99.968 Y127.041 E16.58964
G1 X99.938 Y108.616 E17.26374
G1 X99.965 Y107.9 E17.28996
G1 X100.063 Y106.642 E17.33612
G1 X100.247 Y105.406 E17.38184
G1 X100.649 Y103.578 E17.45032
G1 X100.997 Y102.389 E17.49564
G1 X101.43 Y101.217 E17.54135
G1 X101.829 Y100.297 E17.57804
G1 X102.383 Y99.193 E17.62323
G1 X102.872 Y98.339 E17.65924
G1 X103.55 Y97.291 E17.70491
G1 X104.304 Y96.287 E17.75084
G1 X105.061 Y95.412 E17.79317
G0 F810 X105.537 Y94.863
M204 S5000
M205 X30 Y30
G0 F7200 X105.87 Y95.151
M204 S500
M205 X20 Y20
G1 F6000 E17.81977
G1 F900 X106.441 Y94.551 E17.85008
G1 X106.894 Y94.15 E17.87221
G1 X108.332 Y92.963 E17.94043
G1 X109.27 Y92.29 E17.98267
G1 X110.332 Y91.631 E18.02839
G1 X111.185 Y91.166 E18.06394
G1 X112.311 Y90.633 E18.10952
G1 X113.415 Y90.201 E18.15289
G1 X115.198 Y89.642 E18.22125
G1 X116 Y89.433 E18.25157
G1 X116.579 Y89.331 E18.27308
G1 X118.434 Y89.072 E18.34161
G1 X119.471 Y88.991 E18.37967
G1 X120.104 Y88.98 E18.40283
G1 X120.932 Y89.006 E18.43314
G1 X121.753 Y89.111 E18.46342
G1 X122.561 Y89.295 E18.49374
G1 X123.075 Y89.456 E18.51344
G1 X123.276 Y89.526 E18.52123
G1 X124.044 Y89.836 E18.55153
G1 X124.779 Y90.219 E18.58185
G1 X125.473 Y90.67 E18.61213
G1 X126.121 Y91.186 E18.64244
G1 X126.715 Y91.763 E18.67274
G1 X127.477 Y92.7 E18.71692
G1 X127.557 Y92.814 E18.72202
G1 X128 Y93.515 E18.75236
G1 X128.373 Y94.254 E18.78264
G1 X128.673 Y95.026 E18.81295
G1 X128.897 Y95.824 E18.84327
G1 X129.043 Y96.639 E18.87356
G1 X129.114 Y97.743 E18.91404
G1 X129.114 Y100.13 E19.00137
G1 X129.074 Y100.957 E19.03166
G1 X128.954 Y101.777 E19.06198
G1 X128.756 Y102.581 E19.09227
G1 X128.482 Y103.362 E19.12256
G1 X128.133 Y104.114 E19.15289
G1 X127.566 Y105.046 E19.1928
G1 X127.487 Y105.159 E19.19784
G1 X126.98 Y105.814 E19.22815
G1 X126.413 Y106.417 E19.25843
G1 X125.789 Y106.963 E19.28877
G1 X125.117 Y107.446 E19.31904
G1 X124.4 Y107.862 E19.34937
G1 X123.647 Y108.207 E19.37968
G1 X123.097 Y108.406 E19.40107
G1 X122.856 Y108.484 E19.41034
G1 X122.057 Y108.701 E19.44063
G1 X121.24 Y108.839 E19.47095
G1 X120.443 Y108.898 E19.50019
G1 X120.116 Y108.907 E19.51215
G1 X120.004 Y108.927 E19.51632
G1 X119.986 Y108.997 E19.51896
G1 X119.986 Y109 E19.51907
G1 X120.016 Y126.016 E20.14162
G1 X120.129 Y126.043 E20.14587
G1 X121.256 Y126.149 E20.18729
G1 X122.076 Y126.266 E20.21759
G1 X122.88 Y126.462 E20.24787
G1 X123.663 Y126.734 E20.27819
G1 X124.415 Y127.08 E20.30848
G1 X125.131 Y127.497 E20.33879
G1 X125.803 Y127.982 E20.36911
G1 X126.425 Y128.528 E20.3994
G1 X126.991 Y129.133 E20.42971
G1 X127.517 Y129.818 E20.4613
G1 X127.595 Y129.931 E20.46633
G1 X128.032 Y130.634 E20.49661
G1 X128.399 Y131.377 E20.52693
G1 X128.693 Y132.151 E20.55722
G1 X128.911 Y132.95 E20.58752
G1 X129.051 Y133.767 E20.61785
G1 X129.114 Y134.805 E20.6559
G1 X129.114 Y137.254 E20.7455
G1 X129.074 Y138.081 E20.77579
G1 X128.954 Y138.901 E20.80611
G1 X128.756 Y139.705 E20.8364
G1 X128.482 Y140.486 E20.86668
G1 X128.133 Y141.238 E20.89701
G1 X127.604 Y142.115 E20.93449
G1 X127.527 Y142.227 E20.93946
G1 X127.026 Y142.886 E20.96975
G1 X126.463 Y143.494 E21.00006
G1 X125.844 Y144.044 E21.03036
G1 X125.175 Y144.532 E21.06065
G1 X124.462 Y144.954 E21.09097
G1 X123.712 Y145.305 E21.12126
G1 X123.18 Y145.502 E21.14202
