;FLAVOR:Marlin
;TIME:1790
;Filament used: 1.59017m
;Layer height: 0.2
;Generated with Cura_SteamEngine 3.6.0
M140 S70
M105
M190 S70
M104 S210
M105
M109 S210
M82 ;absolute extrusion mode
G28 ; home all axes
M117 Purge extruder
G92 E0 ; reset extruder
G1 Z1.0 F3000 ; move z up little to prevent scratching of surface
G1 X0.1 Y20 Z0.3 F5000.0 ; move to start-line position G1 X0.1 Y200.0 Z0.3 F1500.0 E15 ; draw 1st line
G1 X0.4 Y200.0 Z0.3 F5000.0 ; move to side a little
G1 X0.4 Y20 Z0.3 F1500.0 E30 ; draw 2nd line
G92 E0 ; reset extruder
G1 Z1.0 F3000 ; move z up little to prevent scratching of surface
M117 All systems go!
G92 E0
G1 F6000 E-5
;LAYER_COUNT:65
;LAYER:0
M107
M204 S5000
M205 X30 Y30
G0 F7200 X100.301 Y100.985 Z0.2
M204 S500
M205 X20 Y20
;TYPE:SKIRT
G1 F6000 E0
G1 F900 X101.185 Y100.111 E0.04548
G1 X101.839 Y99.519 E0.07776
G1 X102.789 Y98.734 E0.12284
G1 X103.49 Y98.205 E0.15497
G1 X104.515 Y97.501 E0.20047
G1 X105.261 Y97.036 E0.23263
G1 X106.344 Y96.426 E0.2781
G1 X107.133 Y96.027 E0.31045
G1 X108.275 Y95.512 E0.35628
G1 X109.099 Y95.184 E0.38873
G1 X110.263 Y94.78 E0.43381
G1 X111.302 Y94.482 E0.47336
G1 X113.117 Y94.067 E0.54147
G1 X113.993 Y93.908 E0.57405
G1 X114.448 Y93.857 E0.5908
G1 X116.316 Y93.691 E0.65941
G1 X117.415 Y93.655 E0.69964
G1 X118.657 Y93.683 E0.74509
G1 X119.533 Y93.741 E0.77721
G1 X120.769 Y93.879 E0.82271
G1 X121.654 Y94.019 E0.85549
G1 X122.871 Y94.268 E0.90094
G1 X123.707 Y94.477 E0.93247
G1 X124.888 Y94.828 E0.97755
G1 X125.724 Y95.118 E1.00992
G1 X126.879 Y95.577 E1.05539
G1 X127.685 Y95.94 E1.08773
G1 X128.804 Y96.505 E1.13359
G1 X129.579 Y96.941 E1.16613
G1 X130.625 Y97.593 E1.21122
G1 X131.344 Y98.086 E1.24312
G1 X132.345 Y98.84 E1.28897
G1 X133.027 Y99.403 E1.32132
G1 X133.942 Y100.23 E1.36645
G1 X134.576 Y100.857 E1.39907
G1 X135.425 Y101.776 E1.44484
G1 X135.987 Y102.442 E1.47673
G1 X136.741 Y103.418 E1.52185
G1 X137.252 Y104.143 E1.5543
G1 X137.921 Y105.191 E1.59979
G1 X138.356 Y105.945 E1.63164
G1 X138.93 Y107.047 E1.6771
G1 X139.386 Y108.055 E1.71757
G1 X140.061 Y109.804 E1.78616
G1 X140.456 Y111.076 E1.83489
G1 X140.885 Y112.878 E1.90266
G1 X141.08 Y113.959 E1.94285
G1 X141.232 Y115.191 E1.98827
G1 X141.3 Y116.061 E2.02019
G1 X141.343 Y117.305 E2.06573
G1 X141.334 Y118.197 E2.09837
G1 X141.265 Y119.438 E2.14384
G1 X141.178 Y120.306 E2.17576
G1 X141 Y121.536 E2.22123
G1 X140.777 Y122.634 E2.26222
G1 X140.304 Y124.434 E2.33031
G1 X139.976 Y125.453 E2.36948
G1 X139.528 Y126.625 E2.41538
G1 X139.165 Y127.459 E2.44866
G1 X138.622 Y128.563 E2.49367
G1 X138.198 Y129.336 E2.52593
G1 X137.547 Y130.407 E2.57178
G1 X137.06 Y131.134 E2.6038
G1 X136.329 Y132.127 E2.64891
G1 X135.778 Y132.81 E2.68102
G1 X134.949 Y133.749 E2.72684
G1 X134.328 Y134.391 E2.75952
G1 X133.431 Y135.239 E2.80468
G1 X132.767 Y135.814 E2.83682
G1 X131.791 Y136.585 E2.88233
G1 X131.074 Y137.1 E2.91462
G1 X130.027 Y137.785 E2.9604
G1 X129.27 Y138.234 E2.9926
G1 X128.182 Y138.815 E3.03773
G1 X127.185 Y139.278 E3.07794
G1 X125.454 Y139.968 E3.14612
G1 X124.194 Y140.375 E3.19456
G1 X122.378 Y140.83 E3.26306
G1 X121.076 Y141.065 E3.31146
G1 X119.232 Y141.272 E3.37935
G1 X118.128 Y141.334 E3.41981
G1 X116.877 Y141.334 E3.46558
G1 X115.986 Y141.294 E3.49821
G1 X114.747 Y141.182 E3.54372
G1 X113.887 Y141.066 E3.57547
G1 X112.663 Y140.846 E3.62097
G1 X111.79 Y140.648 E3.65372
G1 X110.593 Y140.319 E3.69914
G1 X109.768 Y140.053 E3.73085
G1 X108.603 Y139.62 E3.77632
G1 X107.779 Y139.271 E3.80906
G1 X106.667 Y138.739 E3.85416
G1 X105.888 Y138.322 E3.88649
G1 X104.811 Y137.683 E3.93231
G1 X104.091 Y137.212 E3.96378
G1 X103.089 Y136.493 E4.00891
G1 X102.226 Y135.797 E4.04947
G1 X100.843 Y134.548 E4.11765
G1 X99.92 Y133.596 E4.16616
G1 X98.71 Y132.166 E4.23469
G1 X98.041 Y131.277 E4.2754
G1 X97.349 Y130.243 E4.32092
G1 X96.892 Y129.49 E4.35315
G1 X96.296 Y128.401 E4.39856
G1 X95.912 Y127.621 E4.43037
G1 X95.413 Y126.482 E4.47587
G1 X95.09 Y125.642 E4.50879
G1 X94.7 Y124.473 E4.55388
G1 X94.464 Y123.65 E4.5852
G1 X94.172 Y122.433 E4.63099
G1 X94.002 Y121.548 E4.66396
G1 X93.823 Y120.317 E4.70948
G1 X93.736 Y119.446 E4.7415
G1 X93.667 Y118.216 E4.78657
G1 X93.656 Y117.336 E4.81877
G1 X93.697 Y116.093 E4.86427
G1 X93.767 Y115.201 E4.89701
G1 X93.921 Y113.959 E4.9428
G1 X94.169 Y112.669 E4.99086
G1 X94.798 Y110.267 E5.0817
G1 X95.062 Y109.417 E5.11426
G1 X95.304 Y108.808 E5.13824
G1 X96.047 Y107.109 E5.20608
G1 X96.542 Y106.131 E5.24619
G1 X97.163 Y105.054 E5.29167
G1 X97.63 Y104.32 E5.3235
G1 X98.343 Y103.302 E5.36897
G1 X98.895 Y102.586 E5.40205
G1 X99.704 Y101.63 E5.44787
G1 X99.807 Y101.519 E5.45341
G0 F810 X100.301 Y100.985
M204 S5000
M205 X30 Y30
G0 F7200 X100.61 Y101.298
M204 S500
M205 X20 Y20
G1 F6000 E5.48
G1 F900 X101.494 Y100.424 E5.52548
G1 X102.119 Y99.859 E5.55631
G1 X103.069 Y99.074 E5.6014
G1 X103.739 Y98.568 E5.63211
G1 X104.764 Y97.864 E5.67761
G1 X105.477 Y97.42 E5.70834
G1 X106.56 Y96.81 E5.75382
G1 X107.314 Y96.428 E5.78474
G1 X108.456 Y95.913 E5.83057
G1 X109.243 Y95.6 E5.86156
G1 X110.407 Y95.196 E5.90664
G1 X111.4 Y94.911 E5.94443
G1 X113.215 Y94.496 E6.01255
G1 X114.487 Y94.295 E6.05967
G1 X116.355 Y94.129 E6.12828
G1 X117.405 Y94.094 E6.16672
G1 X118.647 Y94.122 E6.21217
G1 X119.484 Y94.178 E6.24286
G1 X120.72 Y94.316 E6.28836
G1 X121.566 Y94.45 E6.3197
G1 X122.783 Y94.699 E6.36515
G1 X123.582 Y94.899 E6.39528
G1 X124.763 Y95.25 E6.44036
G1 X125.562 Y95.527 E6.4713
G1 X126.717 Y95.986 E6.51677
G1 X127.487 Y96.332 E6.54765
G1 X128.606 Y96.897 E6.59351
G1 X129.346 Y97.314 E6.62459
G1 X130.392 Y97.966 E6.66969
G1 X131.08 Y98.438 E6.70021
G1 X132.081 Y99.192 E6.74606
G1 X132.732 Y99.73 E6.77696
G1 X133.647 Y100.557 E6.82208
G1 X134.253 Y101.156 E6.85326
G1 X135.102 Y102.075 E6.89903
G1 X135.639 Y102.711 E6.92949
G1 X136.393 Y103.687 E6.97461
G1 X136.881 Y104.38 E7.00562
G1 X137.55 Y105.428 E7.05111
G1 X137.966 Y106.148 E7.08153
G1 X138.54 Y107.25 E7.12699
G1 X138.976 Y108.214 E7.1657
G1 X139.651 Y109.963 E7.23429
G1 X140.028 Y111.178 E7.28083
G1 X140.457 Y112.98 E7.3486
G1 X140.643 Y114.013 E7.387
G1 X140.795 Y115.245 E7.43242
G1 X140.86 Y116.076 E7.46291
G1 X140.903 Y117.32 E7.50845
G1 X140.894 Y118.172 E7.53963
G1 X140.825 Y119.413 E7.5851
G1 X140.742 Y120.243 E7.61562
G1 X140.564 Y121.473 E7.66109
G1 X140.351 Y122.522 E7.70025
G1 X139.878 Y124.322 E7.76834
G1 X139.565 Y125.296 E7.80577
G1 X139.117 Y126.468 E7.85168
G1 X138.77 Y127.265 E7.88348
G1 X138.227 Y128.369 E7.92849
G1 X137.822 Y129.108 E7.95932
G1 X137.171 Y130.179 E8.00518
G1 X136.705 Y130.873 E8.03576
G1 X135.974 Y131.866 E8.08087
G1 X135.448 Y132.519 E8.11155
G1 X134.619 Y133.458 E8.15738
G1 X134.026 Y134.071 E8.18858
G1 X133.129 Y134.919 E8.23374
G1 X132.494 Y135.468 E8.26445
G1 X131.518 Y136.239 E8.30996
G1 X130.833 Y136.732 E8.34084
G1 X129.786 Y137.417 E8.38661
G1 X129.063 Y137.846 E8.41737
G1 X127.975 Y138.427 E8.4625
G1 X127.022 Y138.87 E8.50095
G1 X125.291 Y139.56 E8.56912
G1 X124.087 Y139.948 E8.6154
G1 X122.271 Y140.403 E8.6839
G1 X121.027 Y140.628 E8.73015
G1 X119.183 Y140.835 E8.79804
G1 X118.128 Y140.894 E8.8367
G1 X116.877 Y140.894 E8.88247
G1 X116.025 Y140.856 E8.91367
G1 X114.786 Y140.744 E8.95918
G1 X113.964 Y140.633 E8.98953
G1 X112.74 Y140.413 E9.03503
G1 X111.907 Y140.224 E9.06628
G1 X110.71 Y139.895 E9.1117
G1 X109.921 Y139.64 E9.14203
G1 X108.756 Y139.207 E9.18751
G1 X107.969 Y138.874 E9.21877
G1 X106.857 Y138.342 E9.26387
G1 X106.113 Y137.944 E9.29474
G1 X105.036 Y137.305 E9.34056
G1 X104.348 Y136.855 E9.37063
G1 X103.346 Y136.136 E9.41576
G1 X102.521 Y135.471 E9.45452
G1 X101.138 Y134.222 E9.5227
G1 X100.256 Y133.312 E9.56907
G1 X99.046 Y131.882 E9.6376
G1 X98.406 Y131.032 E9.67653
G1 X97.714 Y129.998 E9.72205
G1 X97.278 Y129.279 E9.75281
G1 X96.682 Y128.19 E9.79823
G1 X96.315 Y127.444 E9.82865
G1 X95.816 Y126.305 E9.87415
G1 X95.507 Y125.503 E9.90559
G1 X95.117 Y124.334 E9.95068
G1 X94.892 Y123.547 E9.98062
G1 X94.6 Y122.33 E10.02641
G1 X94.437 Y121.484 E10.05793
G1 X94.258 Y120.253 E10.10345
G1 X94.175 Y119.422 E10.134
G1 X94.106 Y118.192 E10.17907
G1 X94.096 Y117.35 E10.20988
G1 X94.137 Y116.107 E10.25538
G1 X94.204 Y115.255 E10.28665
G1 X94.358 Y114.013 E10.33244
G1 X94.595 Y112.781 E10.37834
G1 X95.224 Y110.379 E10.46918
G1 X95.482 Y109.548 E10.50101
G1 X95.708 Y108.985 E10.52321
G1 X96.451 Y107.286 E10.59105
G1 X96.923 Y106.351 E10.62937
G1 X97.544 Y105.274 E10.67486
G1 X97.99 Y104.572 E10.70529
G1 X98.703 Y103.554 E10.75076
G1 X99.231 Y102.87 E10.78237
G1 X100.04 Y101.914 E10.82819
G1 X100.117 Y101.831 E10.83233
G0 F810 X100.61 Y101.298
M204 S5000
M205 X30 Y30
G0 F7200 X100.919 Y101.611
M204 S500
M205 X20 Y20
G1 F6000 E10.85893
G1 F900 X101.803 Y100.737 E10.90441
G1 X102.399 Y100.198 E10.93381
G1 X103.349 Y99.413 E10.9789
G1 X103.988 Y98.931 E11.00818
G1 X105.013 Y98.227 E11.05368
G1 X105.693 Y97.803 E11.083
G1 X106.776 Y97.193 E11.12847
G1 X107.495 Y96.829 E11.15796
G1 X108.637 Y96.314 E11.20379
G1 X109.387 Y96.016 E11.23331
G1 X110.551 Y95.612 E11.27839
G1 X111.498 Y95.34 E11.31444
G1 X113.313 Y94.925 E11.38256
G1 X114.526 Y94.733 E11.42749
G1 X116.394 Y94.567 E11.4961
G1 X117.395 Y94.534 E11.53275
G1 X118.637 Y94.562 E11.5782
G1 X119.435 Y94.616 E11.60746
G1 X120.671 Y94.754 E11.65296
G1 X121.478 Y94.881 E11.68285
G1 X122.695 Y95.13 E11.7283
G1 X123.457 Y95.321 E11.75704
G1 X124.638 Y95.672 E11.80211
G1 X125.399 Y95.936 E11.83158
G1 X126.554 Y96.395 E11.87706
G1 X127.288 Y96.725 E11.9065
G1 X128.407 Y97.29 E11.95236
G1 X129.113 Y97.687 E11.98199
G1 X130.159 Y98.339 E12.02709
G1 X130.815 Y98.789 E12.05619
G1 X131.816 Y99.543 E12.10204
G1 X132.437 Y100.056 E12.13151
G1 X133.352 Y100.883 E12.17664
G1 X133.929 Y101.454 E12.20634
G1 X134.778 Y102.373 E12.25211
G1 X135.291 Y102.98 E12.28119
G1 X136.045 Y103.956 E12.32631
G1 X136.51 Y104.617 E12.35588
G1 X137.179 Y105.665 E12.40137
G1 X137.576 Y106.351 E12.43037
G1 X138.15 Y107.453 E12.47582
G1 X138.565 Y108.372 E12.51272
G1 X139.24 Y110.121 E12.58131
G1 X139.6 Y111.28 E12.62571
G1 X140.029 Y113.082 E12.69348
G1 X140.206 Y114.067 E12.73009
G1 X140.358 Y115.299 E12.77551
G1 X140.421 Y116.091 E12.80458
G1 X140.464 Y117.335 E12.85012
G1 X140.455 Y118.148 E12.87986
G1 X140.386 Y119.389 E12.92534
G1 X140.307 Y120.18 E12.95442
G1 X140.129 Y121.41 E12.99989
G1 X139.926 Y122.41 E13.03722
G1 X139.453 Y124.21 E13.10531
G1 X139.154 Y125.139 E13.14102
G1 X138.706 Y126.311 E13.18692
G1 X138.375 Y127.071 E13.21725
G1 X137.832 Y128.175 E13.26226
G1 X137.446 Y128.879 E13.29164
G1 X136.795 Y129.95 E13.33749
G1 X136.351 Y130.612 E13.36666
G1 X135.62 Y131.605 E13.41177
G1 X135.118 Y132.228 E13.44104
G1 X134.289 Y133.167 E13.48687
G1 X133.724 Y133.752 E13.51662
G1 X132.827 Y134.6 E13.56178
G1 X132.221 Y135.123 E13.59107
G1 X131.245 Y135.894 E13.63658
G1 X130.592 Y136.364 E13.66601
G1 X129.545 Y137.049 E13.71179
G1 X128.856 Y137.458 E13.7411
G1 X127.768 Y138.039 E13.78623
G1 X126.859 Y138.461 E13.82289
G1 X125.128 Y139.151 E13.89107
G1 X123.98 Y139.522 E13.93521
G1 X122.164 Y139.977 E14.0037
G1 X120.978 Y140.191 E14.0478
G1 X119.134 Y140.398 E14.11569
G1 X118.128 Y140.454 E14.15255
G1 X116.877 Y140.454 E14.19832
G1 X116.065 Y140.417 E14.22806
G1 X114.826 Y140.305 E14.27357
G1 X114.042 Y140.2 E14.30251
G1 X112.818 Y139.98 E14.34801
G1 X112.023 Y139.799 E14.37784
G1 X110.826 Y139.47 E14.42326
G1 X110.075 Y139.228 E14.45213
G1 X108.91 Y138.795 E14.4976
G1 X108.159 Y138.477 E14.52743
G1 X107.047 Y137.945 E14.57253
G1 X106.337 Y137.565 E14.602
G1 X105.26 Y136.926 E14.64781
G1 X104.604 Y136.497 E14.67649
G1 X103.602 Y135.778 E14.72161
G1 X102.815 Y135.144 E14.75859
G1 X101.432 Y133.895 E14.82677
G1 X100.592 Y133.027 E14.87096
G1 X99.382 Y131.597 E14.93949
G1 X98.772 Y130.788 E14.97656
G1 X98.08 Y129.754 E15.02208
G1 X97.663 Y129.067 E15.05148
G1 X97.067 Y127.978 E15.0969
G1 X96.718 Y127.268 E15.12585
G1 X96.219 Y126.129 E15.17134
G1 X95.925 Y125.364 E15.20133
G1 X95.535 Y124.195 E15.24641
G1 X95.32 Y123.444 E15.27499
G1 X95.028 Y122.227 E15.32078
G1 X94.873 Y121.421 E15.35081
G1 X94.694 Y120.19 E15.39632
G1 X94.614 Y119.397 E15.42548
G1 X94.545 Y118.167 E15.47055
G1 X94.536 Y117.365 E15.4999
G1 X94.577 Y116.122 E15.5454
G1 X94.641 Y115.309 E15.57524
G1 X94.795 Y114.067 E15.62102
G1 X95.02 Y112.892 E15.66479
G1 X95.649 Y110.49 E15.75564
G1 X95.903 Y109.68 E15.78669
G1 X96.111 Y109.161 E15.80715
G1 X96.854 Y107.462 E15.87499
G1 X97.304 Y106.57 E15.91155
G1 X97.925 Y105.493 E15.95703
G1 X98.351 Y104.824 E15.98605
G1 X99.064 Y103.806 E16.03152
G1 X99.567 Y103.154 E16.06165
G1 X100.376 Y102.198 E16.10747
G1 X100.425 Y102.145 E16.11011
G0 F810 X100.919 Y101.611
M204 S5000
M205 X30 Y30
G0 F7200 X101.229 Y101.924
M204 S500
M205 X20 Y20
G1 F6000 E16.13671
G1 F900 X102.113 Y101.05 E16.18219
G1 X102.68 Y100.537 E16.21016
G1 X103.63 Y99.752 E16.25525
G1 X104.237 Y99.294 E16.28307
G1 X105.262 Y98.59 E16.32856
G1 X105.909 Y98.186 E16.35647
G1 X106.992 Y97.576 E16.40195
G1 X107.676 Y97.231 E16.42997
G1 X108.818 Y96.716 E16.47581
G1 X109.532 Y96.431 E16.50393
G1 X110.696 Y96.027 E16.54901
G1 X111.597 Y95.769 E16.5833
G1 X113.412 Y95.354 E16.65142
G1 X114.565 Y95.172 E16.69413
G1 X116.433 Y95.006 E16.76274
G1 X117.385 Y94.974 E16.79759
G1 X118.627 Y95.002 E16.84304
G1 X119.386 Y95.053 E16.87087
G1 X120.622 Y95.191 E16.91637
G1 X121.39 Y95.312 E16.94482
G1 X122.607 Y95.561 E16.99026
G1 X123.331 Y95.743 E17.01758
G1 X124.512 Y96.094 E17.06265
G1 X125.237 Y96.345 E17.09072
G1 X126.392 Y96.804 E17.13619
G1 X127.09 Y97.118 E17.1642
G1 X128.209 Y97.683 E17.21006
G1 X128.881 Y98.061 E17.23827
G1 X129.927 Y98.713 E17.28336
G1 X130.55 Y99.141 E17.31102
G1 X131.551 Y99.895 E17.35687
G1 X132.142 Y100.383 E17.38491
G1 X133.057 Y101.21 E17.43003
G1 X133.606 Y101.753 E17.45828
G1 X134.455 Y102.672 E17.50406
G1 X134.943 Y103.249 E17.5317
G1 X135.697 Y104.225 E17.57683
G1 X136.139 Y104.853 E17.60492
G1 X136.808 Y105.901 E17.65041
G1 X137.186 Y106.554 E17.67802
G1 X137.76 Y107.656 E17.72348
G1 X138.155 Y108.531 E17.7586
G1 X138.83 Y110.28 E17.82719
G1 X139.172 Y111.382 E17.8694
G1 X139.601 Y113.184 E17.93717
G1 X139.769 Y114.12 E17.97197
G1 X139.921 Y115.352 E18.01738
G1 X139.981 Y116.107 E18.04509
G1 X140.024 Y117.351 E18.09063
G1 X140.016 Y118.123 E18.11888
G1 X139.947 Y119.364 E18.16435
G1 X139.872 Y120.117 E18.19204
G1 X139.694 Y121.347 E18.23751
G1 X139.5 Y122.299 E18.27305
G1 X139.027 Y124.099 E18.34114
G1 X138.743 Y124.982 E18.37508
G1 X138.295 Y126.154 E18.42098
G1 X137.98 Y126.877 E18.44984
G1 X137.437 Y127.981 E18.49485
G1 X137.07 Y128.651 E18.5228
G1 X136.419 Y129.722 E18.56865
G1 X135.997 Y130.352 E18.5964
G1 X135.266 Y131.345 E18.64151
G1 X134.788 Y131.937 E18.66935
G1 X133.959 Y132.876 E18.71517
G1 X133.421 Y133.432 E18.74348
G1 X132.524 Y134.28 E18.78864
G1 X131.949 Y134.778 E18.81647
G1 X130.973 Y135.549 E18.86198
G1 X130.351 Y135.996 E18.89
G1 X129.304 Y136.681 E18.93578
G1 X128.649 Y137.069 E18.96363
G1 X127.561 Y137.65 E19.00875
G1 X126.696 Y138.052 E19.04365
G1 X124.965 Y138.742 E19.11183
G1 X123.873 Y139.095 E19.15382
G1 X122.057 Y139.55 E19.22231
G1 X120.929 Y139.753 E19.26424
G1 X119.085 Y139.96 E19.33213
G1 X118.128 Y140.014 E19.3672
G1 X116.877 Y140.014 E19.41297
G1 X116.105 Y139.979 E19.44124
G1 X114.866 Y139.867 E19.48676
G1 X114.12 Y139.767 E19.51429
G1 X112.896 Y139.547 E19.55979
G1 X112.14 Y139.375 E19.58816
G1 X110.943 Y139.046 E19.63358
G1 X110.228 Y138.815 E19.66107
G1 X109.063 Y138.382 E19.70654
G1 X108.349 Y138.08 E19.7349
G1 X107.237 Y137.548 E19.78
G1 X106.562 Y137.187 E19.80801
G1 X105.485 Y136.548 E19.85383
G1 X104.861 Y136.14 E19.8811
G1 X103.859 Y135.421 E19.92622
G1 X103.11 Y134.818 E19.9614
G1 X101.727 Y133.569 E20.02958
G1 X100.928 Y132.743 E20.07163
G1 X99.718 Y131.313 E20.14016
G1 X99.138 Y130.543 E20.17543
G1 X98.446 Y129.509 E20.22095
G1 X98.049 Y128.856 E20.24891
G1 X97.453 Y127.767 E20.29433
G1 X97.121 Y127.091 E20.32188
G1 X96.622 Y125.952 E20.36738
G1 X96.342 Y125.224 E20.39591
G1 X95.952 Y124.055 E20.441
G1 X95.748 Y123.342 E20.46813
G1 X95.456 Y122.125 E20.51392
G1 X95.308 Y121.358 E20.5425
G1 X95.129 Y120.127 E20.58801
