;FLAVOR:Marlin
;TIME:187
;Filament used: 0.0757829m
;Layer height: 0.2
;Generated with Cura_SteamEngine 3.6.0
M140 S70
M105
M190 S70
M104 S210
M105
M109 S210
M82 ;absolute extrusion mode
G28 ; home all axes
M117 Purge extruder
G92 E0 ; reset extruder
G1 Z1.0 F3000 ; move z up little to prevent scratching of surface
G1 X0.1 Y20 Z0.3 F5000.0 ; move to start-line position G1 X0.1 Y200.0 Z0.3 F1500.0 E15 ; draw 1st line
G1 X0.4 Y200.0 Z0.3 F5000.0 ; move to side a little
G1 X0.4 Y20 Z0.3 F1500.0 E30 ; draw 2nd line
G92 E0 ; reset extruder
G1 Z1.0 F3000 ; move z up little to prevent scratching of surface
M117 All systems go!
G92 E0
G1 F6000 E-5
;LAYER_COUNT:35
;LAYER:0
M107
M204 S5000
M205 X30 Y30
G0 F7200 X108.785 Y108.631 Z0.2
M204 S500
M205 X20 Y20
;TYPE:SKIRT
G1 F6000 E0
G1 F900 X109.439 Y108.027 E0.03257
G1 X110.4 Y107.312 E0.07639
G1 X111.015 Y106.91 E0.10327
G1 X111.781 Y106.457 E0.13583
G1 X112.959 Y105.926 E0.18311
G1 X113.314 Y105.793 E0.19698
G1 X114.16 Y105.519 E0.22951
G1 X115.381 Y105.264 E0.27515
G1 X116.099 Y105.161 E0.30169
G1 X116.985 Y105.075 E0.33425
G1 X117.874 Y105.068 E0.36678
G1 X118.947 Y105.167 E0.4062
G1 X119.667 Y105.273 E0.43283
G1 X120.54 Y105.442 E0.46536
G1 X121.395 Y105.688 E0.49791
G1 X122.367 Y106.075 E0.53619
G1 X123.027 Y106.379 E0.56277
G1 X123.817 Y106.787 E0.5953
G1 X124.568 Y107.265 E0.62787
G1 X125.435 Y107.948 E0.66825
G1 X125.988 Y108.436 E0.69524
G1 X126.628 Y109.054 E0.72779
G1 X127.21 Y109.727 E0.76034
G1 X127.84 Y110.623 E0.80041
G1 X128.227 Y111.244 E0.82718
G1 X128.663 Y112.019 E0.85972
G1 X129.028 Y112.831 E0.89229
G1 X129.219 Y113.355 E0.91269
G1 X129.388 Y113.863 E0.93228
G1 X129.63 Y114.719 E0.96483
G1 X129.795 Y115.593 E0.99737
G1 X129.881 Y116.479 E1.02994
G1 X129.887 Y117.368 E1.06246
G1 X129.813 Y118.255 E1.09503
G1 X129.659 Y119.132 E1.1276
G1 X129.569 Y119.468 E1.14033
G1 X129.505 Y120.148 E1.16532
G1 X129.343 Y121.023 E1.19787
G1 X129.103 Y121.879 E1.2304
G1 X128.787 Y122.711 E1.26296
G1 X128.398 Y123.511 E1.29551
G1 X127.81 Y124.46 E1.33635
G1 X127.6 Y124.76 E1.34975
G1 X127.058 Y125.466 E1.38231
G1 X126.454 Y126.119 E1.41486
G1 X125.729 Y126.77 E1.45051
G1 X124.885 Y127.455 E1.49027
G1 X124.169 Y127.984 E1.52284
G1 X123.409 Y128.447 E1.5554
G1 X122.611 Y128.839 E1.58793
G1 X121.785 Y129.157 E1.62031
G1 X121.091 Y129.389 E1.64709
G1 X120.235 Y129.633 E1.67965
G1 X119.361 Y129.799 E1.7122
G1 X118.647 Y129.876 E1.73847
G1 X118.093 Y129.915 E1.75879
G1 X117.204 Y129.937 E1.79133
G1 X116.316 Y129.88 E1.82388
G1 X115.597 Y129.774 E1.85047
G1 X114.889 Y129.643 E1.87681
G1 X114.022 Y129.442 E1.90938
G1 X113.177 Y129.164 E1.94192
G1 X112.199 Y128.731 E1.98105
G1 X111.535 Y128.393 E2.00831
G1 X110.761 Y127.954 E2.04087
G1 X110.03 Y127.447 E2.07342
G1 X109.177 Y126.718 E2.11447
G1 X108.651 Y126.214 E2.14112
G1 X108.037 Y125.57 E2.17367
G1 X107.483 Y124.874 E2.20622
G1 X106.915 Y123.997 E2.24445
G1 X106.552 Y123.365 E2.27111
G1 X106.144 Y122.574 E2.30368
G1 X105.809 Y121.75 E2.33622
G1 X105.664 Y121.309 E2.3532
G1 X105.535 Y120.884 E2.36945
G1 X105.315 Y120.022 E2.402
G1 X105.173 Y119.144 E2.43454
G1 X105.111 Y118.256 E2.46711
G1 X105.129 Y117.367 E2.49964
G1 X105.226 Y116.482 E2.53221
G1 X105.403 Y115.61 E2.56477
G1 X105.437 Y115.495 E2.56915
G1 X105.482 Y114.96 E2.5888
G1 X105.635 Y114.083 E2.62137
G1 X105.866 Y113.224 E2.65391
G1 X106.173 Y112.389 E2.68646
G1 X106.555 Y111.585 E2.71903
G1 X107.006 Y110.819 E2.75155
G1 X107.672 Y109.914 E2.79266
G1 X108.188 Y109.29 E2.82228
G1 X108.297 Y109.169 E2.82824
G0 F810 X108.785 Y108.631
M204 S5000
M205 X30 Y30
G0 F7200 X109.111 Y108.926
M204 S500
M205 X20 Y20
G1 F6000 E2.85484
G1 F900 X109.752 Y108.339 E2.88664
G1 X110.641 Y107.681 E2.9271
G1 X111.256 Y107.279 E2.95398
G1 X112.005 Y106.837 E2.9858
G1 X113.113 Y106.338 E3.03026
G1 X113.468 Y106.205 E3.04413
G1 X114.296 Y105.938 E3.07596
G1 X115.444 Y105.7 E3.11886
G1 X116.162 Y105.597 E3.14539
G1 X117.027 Y105.513 E3.17719
G1 X117.897 Y105.509 E3.20902
G1 X118.883 Y105.602 E3.24525
G1 X119.603 Y105.708 E3.27188
G1 X120.457 Y105.874 E3.30371
G1 X121.291 Y106.118 E3.3355
G1 X122.183 Y106.475 E3.37065
G1 X122.843 Y106.779 E3.39724
G1 X123.615 Y107.178 E3.42903
G1 X124.347 Y107.647 E3.46084
G1 X125.144 Y108.278 E3.49803
G1 X125.697 Y108.766 E3.52501
G1 X126.322 Y109.371 E3.55684
G1 X126.889 Y110.03 E3.58864
G1 X127.467 Y110.856 E3.62553
G1 X127.854 Y111.477 E3.6523
G1 X128.279 Y112.235 E3.68409
G1 X128.633 Y113.03 E3.71593
G1 X128.801 Y113.494 E3.73399
G1 X128.97 Y114.002 E3.75357
G1 X129.207 Y114.839 E3.7854
G1 X129.365 Y115.694 E3.81721
G1 X129.444 Y116.56 E3.84903
G1 X129.444 Y117.43 E3.88086
G1 X129.363 Y118.296 E3.91268
G1 X129.203 Y119.151 E3.9445
G1 X129.14 Y119.372 E3.95291
G1 X129.053 Y120.203 E3.98348
G1 X128.883 Y121.056 E4.0153
G1 X128.635 Y121.89 E4.04713
G1 X128.312 Y122.697 E4.07894
G1 X127.916 Y123.472 E4.11078
G1 X127.45 Y124.208 E4.14265
G1 X127.24 Y124.508 E4.15605
G1 X126.709 Y125.197 E4.18787
G1 X126.117 Y125.834 E4.21969
G1 X125.451 Y126.428 E4.25234
G1 X124.607 Y127.113 E4.29211
G1 X123.908 Y127.63 E4.32391
G1 X123.163 Y128.08 E4.35576
G1 X122.381 Y128.459 E4.38755
G1 X121.645 Y128.74 E4.41637
G1 X120.951 Y128.972 E4.44315
G1 X120.115 Y129.209 E4.47494
G1 X119.26 Y129.369 E4.50676
G1 X118.616 Y129.437 E4.53045
G1 X118.062 Y129.476 E4.55077
G1 X117.193 Y129.497 E4.58258
G1 X116.325 Y129.438 E4.61441
G1 X115.677 Y129.341 E4.63838
G1 X114.969 Y129.21 E4.66472
G1 X114.122 Y129.013 E4.69654
G1 X113.297 Y128.738 E4.72835
G1 X112.399 Y128.339 E4.7643
G1 X111.735 Y128.001 E4.79156
G1 X110.978 Y127.571 E4.82342
G1 X110.265 Y127.073 E4.85523
G1 X109.481 Y126.401 E4.89301
G1 X108.955 Y125.897 E4.91967
G1 X108.355 Y125.267 E4.9515
G1 X107.816 Y124.584 E4.98333
G1 X107.297 Y123.778 E5.0184
G1 X106.934 Y123.146 E5.04507
G1 X106.536 Y122.372 E5.07691
G1 X106.085 Y121.182 E5.12347
G1 X105.956 Y120.757 E5.13972
G1 X105.742 Y119.914 E5.17154
G1 X105.606 Y119.055 E5.20336
G1 X105.55 Y118.187 E5.23518
G1 X105.573 Y117.317 E5.26702
G1 X105.677 Y116.454 E5.29882
G1 X105.859 Y115.603 E5.33066
G1 X105.871 Y115.565 E5.33212
G1 X105.934 Y114.9 E5.35656
G1 X106.095 Y114.045 E5.38839
G1 X106.334 Y113.209 E5.4202
G1 X106.649 Y112.398 E5.45203
G1 X107.037 Y111.619 E5.48387
G1 X107.494 Y110.88 E5.51566
G1 X108.011 Y110.194 E5.54709
G1 X108.527 Y109.57 E5.57671
G1 X108.623 Y109.464 E5.58194
G0 F810 X109.111 Y108.926
M204 S5000
M205 X30 Y30
G0 F7200 X109.437 Y109.223
M204 S500
M205 X20 Y20
G1 F6000 E5.60854
G1 F900 X110.065 Y108.651 E5.63962
G1 X110.882 Y108.049 E5.67675
G1 X111.497 Y107.647 E5.70363
G1 X112.229 Y107.216 E5.73471
G1 X113.267 Y106.75 E5.77634
G1 X113.622 Y106.617 E5.79021
G1 X114.431 Y106.357 E5.8213
G1 X115.506 Y106.135 E5.86146
G1 X116.224 Y106.032 E5.88799
G1 X117.07 Y105.952 E5.91908
G1 X117.919 Y105.95 E5.95015
G1 X118.819 Y106.037 E5.98323
G1 X119.539 Y106.143 E6.00985
G1 X120.372 Y106.306 E6.04091
G1 X121.187 Y106.547 E6.072
G1 X121.999 Y106.874 E6.10403
G1 X122.659 Y107.178 E6.13061
G1 X123.412 Y107.57 E6.16167
G1 X124.126 Y108.03 E6.19275
G1 X124.853 Y108.608 E6.22673
G1 X125.406 Y109.096 E6.25371
G1 X126.016 Y109.687 E6.28478
G1 X126.567 Y110.333 E6.31585
G1 X127.093 Y111.088 E6.34951
G1 X127.48 Y111.709 E6.37628
G1 X127.895 Y112.45 E6.40736
G1 X128.238 Y113.227 E6.43843
G1 X128.384 Y113.633 E6.45422
G1 X128.553 Y114.141 E6.4738
G1 X128.783 Y114.958 E6.50486
G1 X128.935 Y115.794 E6.53594
G1 X129.007 Y116.64 E6.56701
G1 X129 Y117.489 E6.59807
G1 X128.913 Y118.334 E6.62915
G1 X128.747 Y119.167 E6.66022
G1 X128.7 Y119.324 E6.66622
G1 X128.698 Y119.412 E6.66944
G1 X128.599 Y120.256 E6.70053
G1 X128.421 Y121.086 E6.73159
G1 X128.166 Y121.896 E6.76266
G1 X127.836 Y122.678 E6.79371
G1 X127.433 Y123.426 E6.82479
G1 X127.089 Y123.956 E6.84791
G1 X126.879 Y124.256 E6.86131
G1 X126.36 Y124.928 E6.89237
G1 X125.78 Y125.548 E6.92344
G1 X125.174 Y126.087 E6.95311
G1 X124.33 Y126.772 E6.99288
G1 X123.646 Y127.275 E7.02394
G1 X122.918 Y127.712 E7.05501
G1 X122.152 Y128.079 E7.08608
G1 X121.506 Y128.323 E7.11134
G1 X120.812 Y128.555 E7.13812
G1 X119.995 Y128.786 E7.16918
G1 X119.159 Y128.939 E7.20027
G1 X118.585 Y128.998 E7.22138
G1 X118.031 Y129.037 E7.2417
G1 X117.182 Y129.056 E7.27277
G1 X116.335 Y128.996 E7.30384
G1 X115.757 Y128.908 E7.32523
G1 X115.049 Y128.777 E7.35157
G1 X114.222 Y128.584 E7.38264
G1 X113.417 Y128.313 E7.41372
G1 X112.598 Y127.946 E7.44655
G1 X111.934 Y127.608 E7.47381
G1 X111.196 Y127.188 E7.50488
G1 X110.501 Y126.7 E7.53595
G1 X109.786 Y126.083 E7.5705
G1 X109.26 Y125.579 E7.59715
G1 X108.675 Y124.963 E7.62823
G1 X108.15 Y124.295 E7.65932
G1 X107.678 Y123.558 E7.69134
G1 X107.315 Y122.926 E7.718
G1 X106.928 Y122.171 E7.74904
G1 X106.506 Y121.054 E7.79273
G1 X106.377 Y120.629 E7.80898
G1 X106.169 Y119.805 E7.84007
G1 X106.039 Y118.966 E7.87113
G1 X105.989 Y118.118 E7.90221
G1 X106.018 Y117.27 E7.93326
G1 X106.128 Y116.428 E7.96432
G1 X106.298 Y115.679 E7.99242
G1 X106.387 Y114.842 E8.02322
G1 X106.557 Y114.01 E8.05429
G1 X106.803 Y113.198 E8.08533
G1 X107.126 Y112.412 E8.11642
G1 X107.52 Y111.66 E8.14748
G1 X107.984 Y110.949 E8.17854
G1 X108.35 Y110.475 E8.20045
G1 X108.866 Y109.851 E8.23007
G1 X108.948 Y109.761 E8.23453
G0 F810 X109.437 Y109.223
M204 S5000
M205 X30 Y30
G0 F7200 X109.763 Y109.519
M204 S500
M205 X20 Y20
G1 F6000 E8.26113
G1 F900 X110.377 Y108.964 E8.29141
G1 X111.123 Y108.417 E8.32525
G1 X111.738 Y108.015 E8.35213
G1 X112.452 Y107.596 E8.38242
G1 X113.422 Y107.162 E8.4213
G1 X113.777 Y107.029 E8.43517
G1 X114.566 Y106.777 E8.46547
G1 X115.569 Y106.571 E8.50294
G1 X116.287 Y106.468 E8.52947
G1 X117.111 Y106.39 E8.55975
G1 X117.939 Y106.392 E8.59005
G1 X118.755 Y106.472 E8.62005
G1 X119.475 Y106.578 E8.64667
G1 X120.287 Y106.739 E8.67696
G1 X121.081 Y106.976 E8.70727
G1 X121.815 Y107.274 E8.73626
G1 X122.475 Y107.578 E8.76284
G1 X123.209 Y107.96 E8.79312
G1 X123.904 Y108.412 E8.82345
G1 X124.562 Y108.938 E8.85427
G1 X125.115 Y109.426 E8.88125
G1 X125.709 Y110.003 E8.91155
G1 X126.244 Y110.635 E8.94184
G1 X126.72 Y111.321 E8.97239
G1 X127.107 Y111.942 E8.99916
G1 X127.51 Y112.665 E9.02945
G1 X127.966 Y113.772 E9.07325
G1 X128.135 Y114.28 E9.09284
G1 X128.359 Y115.077 E9.12312
G1 X128.504 Y115.893 E9.15345
G1 X128.57 Y116.718 E9.18373
G1 X128.556 Y117.546 E9.21402
G1 X128.462 Y118.369 E9.24433
G1 X128.289 Y119.179 E9.27463
G1 X128.258 Y119.277 E9.27839
G1 X128.251 Y119.484 E9.28597
G1 X128.144 Y120.305 E9.31626
G1 X127.958 Y121.112 E9.34656
G1 X127.695 Y121.897 E9.37685
G1 X127.357 Y122.654 E9.40718
G1 X126.729 Y123.703 E9.45191
G1 X126.519 Y124.003 E9.46531
G1 X126.012 Y124.658 E9.49561
G1 X125.444 Y125.261 E9.52592
G1 X124.897 Y125.745 E9.55264
G1 X124.053 Y126.43 E9.59241
G1 X123.385 Y126.92 E9.62272
G1 X122.674 Y127.344 E9.65301
G1 X121.924 Y127.697 E9.68334
G1 X121.366 Y127.905 E9.70512
G1 X120.672 Y128.137 E9.7319
G1 X119.875 Y128.362 E9.76219
G1 X119.06 Y128.508 E9.79249
G1 X118.555 Y128.559 E9.81106
G1 X118.001 Y128.598 E9.83138
G1 X117.172 Y128.616 E9.86171
G1 X116.347 Y128.554 E9.89198
G1 X115.837 Y128.476 E9.91086
G1 X115.129 Y128.345 E9.9372
G1 X114.323 Y128.155 E9.9675
G1 X113.539 Y127.888 E9.9978
G1 X112.798 Y127.554 E10.02754
G1 X112.134 Y127.216 E10.0548
G1 X111.415 Y126.805 E10.08509
G1 X110.738 Y126.327 E10.11542
G1 X110.09 Y125.765 E10.1468
G1 X109.564 Y125.261 E10.17345
G1 X108.994 Y124.66 E10.20375
G1 X108.485 Y124.007 E10.23405
G1 X108.06 Y123.339 E10.26301
G1 X107.697 Y122.707 E10.28968
G1 X107.32 Y121.97 E10.31996
G1 X106.927 Y120.926 E10.36078
G1 X106.798 Y120.501 E10.37703
G1 X106.596 Y119.698 E10.40732
G1 X106.472 Y118.879 E10.43763
G1 X106.428 Y118.052 E10.46793
G1 X106.464 Y117.224 E10.49825
G1 X106.579 Y116.404 E10.52854
G1 X106.74 Y115.735 E10.55372
G1 X106.743 Y115.611 E10.55826
G1 X106.842 Y114.789 E10.58855
G1 X107.019 Y113.98 E10.61884
G1 X107.274 Y113.192 E10.64915
G1 X107.604 Y112.432 E10.67946
G1 X108.005 Y111.707 E10.70977
G1 X108.689 Y110.755 E10.75266
G1 X109.205 Y110.131 E10.78228
G1 X109.274 Y110.056 E10.78601
G0 F810 X109.763 Y109.519
M204 S5000
M205 X30 Y30
G0 F7200 X110.088 Y109.816
M204 S500
M205 X20 Y20
G1 F6000 E10.81261
G1 F900 X110.689 Y109.278 E10.84212
G1 X111.363 Y108.785 E10.87267
G1 X111.978 Y108.383 E10.89955
G1 X112.675 Y107.976 E10.92908
G1 X113.576 Y107.574 E10.96518
G1 X113.931 Y107.441 E10.97905
G1 X114.7 Y107.196 E11.00858
G1 X115.631 Y107.006 E11.04334
G1 X116.349 Y106.903 E11.06988
G1 X117.152 Y106.829 E11.09938
G1 X117.959 Y106.834 E11.12891
G1 X118.691 Y106.908 E11.15583
G1 X119.411 Y107.014 E11.18245
G1 X120.202 Y107.171 E11.21196
G1 X120.974 Y107.405 E11.24147
G1 X121.63 Y107.674 E11.26741
G1 X122.29 Y107.978 E11.294
G1 X123.006 Y108.351 E11.32353
G1 X123.68 Y108.793 E11.35302
G1 X124.271 Y109.268 E11.38076
G1 X124.824 Y109.756 E11.40774
G1 X125.402 Y110.319 E11.43727
G1 X125.921 Y110.936 E11.46676
G1 X126.346 Y111.554 E11.4942
G1 X126.733 Y112.175 E11.52097
G1 X127.126 Y112.88 E11.55051
G1 X127.549 Y113.91 E11.59124
G1 X127.718 Y114.418 E11.61083
G1 X127.934 Y115.196 E11.64037
G1 X128.073 Y115.99 E11.66986
G1 X128.132 Y116.795 E11.69939
G1 X128.111 Y117.601 E11.72889
G1 X128.01 Y118.402 E11.75843
G1 X127.831 Y119.188 E11.78792
G1 X127.819 Y119.225 E11.78934
G1 X127.804 Y119.552 E11.80132
G1 X127.688 Y120.35 E11.83082
G1 X127.493 Y121.133 E11.86035
G1 X127.222 Y121.893 E11.88987
G1 X126.878 Y122.623 E11.91939
G1 X126.369 Y123.451 E11.95495
G1 X126.159 Y123.751 E11.96835
G1 X125.664 Y124.388 E11.99786
G1 X125.108 Y124.973 E12.02739
G1 X124.62 Y125.403 E12.05119
G1 X123.776 Y126.088 E12.09096
G1 X123.125 Y126.565 E12.12048
G1 X122.43 Y126.975 E12.15
G1 X121.698 Y127.314 E12.17952
G1 X121.227 Y127.488 E12.19789
G1 X120.533 Y127.72 E12.22466
G1 X119.756 Y127.938 E12.25419
G1 X118.961 Y128.077 E12.28371
G1 X118.524 Y128.12 E12.29978
G1 X117.97 Y128.159 E12.3201
G1 X117.163 Y128.176 E12.34963
G1 X116.359 Y128.112 E12.37914
G1 X115.917 Y128.043 E12.3955
G1 X115.209 Y127.912 E12.42185
G1 X114.424 Y127.726 E12.45136
G1 X113.661 Y127.464 E12.48088
G1 X112.997 Y127.162 E12.50756
G1 X112.333 Y126.824 E12.53482
G1 X111.633 Y126.423 E12.56434
G1 X110.977 Y125.955 E12.59382
G1 X110.394 Y125.447 E12.62211
G1 X109.868 Y124.943 E12.64877
G1 X109.314 Y124.357 E12.67827
G1 X108.821 Y123.719 E12.70777
G1 X108.441 Y123.12 E12.73372
G1 X108.078 Y122.488 E12.76039
G1 X107.712 Y121.77 E12.78987
G1 X107.348 Y120.798 E12.82784
G1 X107.219 Y120.373 E12.84409
G1 X107.023 Y119.591 E12.87359
G1 X106.906 Y118.792 E12.90313
G1 X106.868 Y117.987 E12.93262
G1 X106.91 Y117.181 E12.96215
G1 X107.032 Y116.384 E12.99165
G1 X107.181 Y115.802 E13.01362
G1 X107.19 Y115.538 E13.02329
G1 X107.298 Y114.738 E13.05282
G1 X107.484 Y113.953 E13.08234
G1 X107.747 Y113.191 E13.11183
G1 X108.084 Y112.458 E13.14135
G1 X108.492 Y111.762 E13.17086
G1 X109.028 Y111.036 E13.20388
G1 X109.544 Y110.412 E13.2335
G1 X109.598 Y110.353 E13.23643
G0 F810 X110.088 Y109.816
M204 S5000
M205 X30 Y30
G0 F7200 X110.413 Y110.114
M204 S500
M205 X20 Y20
G1 F6000 E13.26303
G1 F900 X110.999 Y109.592 E13.29174
G1 X111.604 Y109.154 E13.31907
G1 X112.219 Y108.752 E13.34595
G1 X112.897 Y108.357 E13.37466
G1 X113.731 Y107.986 E13.40805
G1 X114.086 Y107.853 E13.42192
G1 X114.833 Y107.616 E13.45059
G1 X115.694 Y107.442 E13.48273
G1 X116.412 Y107.339 E13.50927
G1 X117.193 Y107.267 E13.53796
G1 X117.977 Y107.276 E13.56665
G1 X118.627 Y107.343 E13.59056
G1 X119.347 Y107.449 E13.61718
G1 X120.116 Y107.603 E13.64588
G1 X120.866 Y107.834 E13.67459
G1 X121.446 Y108.073 E13.69754
G1 X122.106 Y108.377 E13.72412
G1 X122.801 Y108.741 E13.75283
G1 X123.456 Y109.174 E13.78155
G1 X123.98 Y109.598 E13.80622
G1 X124.533 Y110.086 E13.8332
G1 X125.094 Y110.634 E13.86189
G1 X125.596 Y111.237 E13.8906
G1 X125.973 Y111.787 E13.91499
G1 X126.36 Y112.408 E13.94176
G1 X126.74 Y113.094 E13.97046
G1 X127.131 Y114.049 E14.00821
G1 X127.3 Y114.557 E14.0278
G1 X127.51 Y115.313 E14.0565
G1 X127.641 Y116.087 E14.08522
G1 X127.693 Y116.87 E14.11393
G1 X127.665 Y117.654 E14.14264
G1 X127.558 Y118.431 E14.17133
G1 X127.382 Y119.148 E14.19834
