;FLAVOR:Marlin
;TIME:356
;Filament used: 0.20103m
;Layer height: 0.2
;Generated with Cura_SteamEngine 3.6.0
M140 S70
M105
M190 S70
M104 S210
M105
M109 S210
M82 ;absolute extrusion mode
G28 ; home all axes
M117 Purge extruder
G92 E0 ; reset extruder
G1 Z1.0 F3000 ; move z up little to prevent scratching of surface
G1 X0.1 Y20 Z0.3 F5000.0 ; move to start-line position G1 X0.1 Y200.0 Z0.3 F1500.0 E15 ; draw 1st line
G1 X0.4 Y200.0 Z0.3 F5000.0 ; move to side a little
G1 X0.4 Y20 Z0.3 F1500.0 E30 ; draw 2nd line
G92 E0 ; reset extruder
G1 Z1.0 F3000 ; move z up little to prevent scratching of surface
M117 All systems go!
G92 E0
G1 F6000 E-5
;LAYER_COUNT:22
;LAYER:0
M107
M204 S5000
M205 X30 Y30
G0 F7200 X107.938 Y103.56 Z0.2
M204 S500
M205 X20 Y20
;TYPE:SKIRT
G1 F6000 E0
G1 F900 X108.067 Y103.432 E0.00665
G1 X108.726 Y102.835 E0.03918
G1 X109.436 Y102.299 E0.07173
G1 X110.191 Y101.829 E0.10427
G1 X110.986 Y101.428 E0.13684
G1 X111.813 Y101.101 E0.16938
G1 X112.667 Y100.849 E0.20196
G1 X113.539 Y100.674 E0.23449
G1 X114.424 Y100.579 E0.26706
G1 X115.04 Y100.56 E0.28961
G1 X119.96 Y100.56 E0.46961
G1 X120.849 Y100.6 E0.50217
G1 X121.73 Y100.72 E0.5347
G1 X122.598 Y100.918 E0.56727
G1 X123.444 Y101.193 E0.59982
G1 X124.262 Y101.543 E0.63237
G1 X125.045 Y101.966 E0.66493
G1 X125.787 Y102.456 E0.69746
G1 X126.482 Y103.012 E0.73002
G1 X126.933 Y103.432 E0.75257
G1 X127.062 Y103.56 E0.75922
G1 X127.665 Y104.215 E0.79179
G1 X128.206 Y104.921 E0.82433
G1 X128.682 Y105.672 E0.85686
G1 X129.089 Y106.464 E0.88944
G1 X129.423 Y107.288 E0.92197
G1 X129.682 Y108.14 E0.95455
G1 X129.863 Y109.011 E0.9871
G1 X129.965 Y109.895 E1.01966
G1 X129.989 Y110.552 E1.04371
G1 X130.04 Y124.415 E1.55091
G1 X130.003 Y125.304 E1.58346
G1 X129.887 Y126.186 E1.61601
G1 X129.692 Y127.054 E1.64856
G1 X129.42 Y127.901 E1.6811
G1 X129.072 Y128.72 E1.71366
G1 X128.653 Y129.505 E1.74621
G1 X128.165 Y130.248 E1.77874
G1 X127.612 Y130.946 E1.81132
G1 X127.14 Y131.451 E1.83661
G1 X127.011 Y131.58 E1.84328
G1 X126.355 Y132.181 E1.87583
G1 X125.647 Y132.719 E1.90836
G1 X124.893 Y133.193 E1.94095
G1 X124.1 Y133.596 E1.97349
G1 X123.274 Y133.927 E2.00605
G1 X122.422 Y134.182 E2.03859
G1 X121.55 Y134.36 E2.07115
G1 X120.666 Y134.458 E2.10369
G1 X120.011 Y134.48 E2.12767
G1 X114.989 Y134.48 E2.3114
G1 X114.1 Y134.44 E2.34396
G1 X113.219 Y134.32 E2.37649
G1 X112.351 Y134.122 E2.40906
G1 X111.505 Y133.847 E2.44161
G1 X110.687 Y133.497 E2.47416
G1 X109.904 Y133.074 E2.50672
G1 X109.162 Y132.584 E2.53925
G1 X108.467 Y132.028 E2.57182
G1 X107.989 Y131.58 E2.59578
G1 X107.86 Y131.451 E2.60246
G1 X107.259 Y130.795 E2.63501
G1 X106.721 Y130.087 E2.66754
G1 X106.247 Y129.333 E2.70013
G1 X105.844 Y128.54 E2.73267
G1 X105.513 Y127.714 E2.76523
G1 X105.258 Y126.862 E2.79776
G1 X105.08 Y125.99 E2.83032
G1 X104.982 Y125.106 E2.86286
G1 X104.96 Y124.415 E2.88816
G1 X105.011 Y110.552 E3.39536
G1 X105.054 Y109.663 E3.42792
G1 X105.177 Y108.782 E3.46046
G1 X105.379 Y107.915 E3.49303
G1 X105.657 Y107.07 E3.52558
G1 X106.01 Y106.253 E3.55814
G1 X106.435 Y105.472 E3.59067
G1 X106.929 Y104.732 E3.62322
G1 X107.444 Y104.093 E3.65325
G0 F810 X107.487 Y104.039
G0 X107.938 Y103.56
M204 S5000
M205 X30 Y30
G0 F7200 X108.248 Y103.873
M204 S500
M205 X20 Y20
G1 F6000 E3.67985
G1 F900 X108.377 Y103.745 E3.6865
G1 X109.022 Y103.161 E3.71833
G1 X109.717 Y102.639 E3.75013
G1 X110.458 Y102.184 E3.78194
G1 X111.238 Y101.798 E3.81378
G1 X112.049 Y101.485 E3.84559
G1 X112.886 Y101.248 E3.87742
G1 X113.741 Y101.09 E3.90923
G1 X115.04 Y101 E3.95687
G1 X119.96 Y101 E4.13687
G1 X120.829 Y101.04 E4.1687
G1 X121.69 Y101.16 E4.2005
G1 X122.537 Y101.358 E4.23233
G1 X123.362 Y101.633 E4.26414
G1 X124.158 Y101.983 E4.29596
G1 X124.919 Y102.404 E4.32777
G1 X125.638 Y102.894 E4.35961
G1 X126.623 Y103.745 E4.40723
G1 X126.752 Y103.873 E4.41388
G1 X127.341 Y104.513 E4.4457
G1 X127.868 Y105.205 E4.47753
G1 X128.329 Y105.942 E4.50933
G1 X128.721 Y106.718 E4.54114
G1 X129.04 Y107.527 E4.57295
G1 X129.283 Y108.362 E4.60477
G1 X129.449 Y109.216 E4.6366
G1 X129.535 Y110.082 E4.66844
G1 X129.549 Y110.553 E4.68568
G1 X129.6 Y124.416 E5.19288
G1 X129.563 Y125.285 E5.2247
G1 X129.447 Y126.147 E5.25652
G1 X129.252 Y126.995 E5.28836
G1 X128.98 Y127.821 E5.32017
G1 X128.633 Y128.618 E5.35197
G1 X128.214 Y129.381 E5.38382
G1 X127.727 Y130.101 E5.41562
G1 X127.176 Y130.774 E5.44745
G1 X126.829 Y131.14 E5.4659
G1 X126.7 Y131.269 E5.47257
G1 X126.058 Y131.855 E5.50437
G1 X125.364 Y132.38 E5.53621
G1 X124.625 Y132.839 E5.56804
G1 X123.847 Y133.227 E5.59985
G1 X123.037 Y133.543 E5.63166
G1 X122.201 Y133.783 E5.66348
G1 X121.346 Y133.945 E5.69532
G1 X120.481 Y134.028 E5.72711
G1 X120.011 Y134.04 E5.74431
G1 X114.989 Y134.04 E5.92805
G1 X114.12 Y134 E5.95987
G1 X113.259 Y133.88 E5.99168
G1 X112.412 Y133.682 E6.0235
G1 X111.587 Y133.407 E6.05532
G1 X110.791 Y133.057 E6.08713
G1 X110.03 Y132.636 E6.11895
G1 X109.311 Y132.146 E6.15078
G1 X108.64 Y131.593 E6.1826
G1 X108.3 Y131.269 E6.19978
G1 X108.171 Y131.14 E6.20645
G1 X107.585 Y130.498 E6.23825
G1 X107.06 Y129.804 E6.27009
G1 X106.601 Y129.065 E6.30192
G1 X106.213 Y128.287 E6.33373
G1 X105.897 Y127.477 E6.36554
G1 X105.657 Y126.641 E6.39736
G1 X105.495 Y125.786 E6.4292
G1 X105.412 Y124.921 E6.46099
G1 X105.4 Y124.416 E6.47947
G1 X105.451 Y110.553 E6.98667
G1 X105.494 Y109.685 E7.01846
G1 X105.617 Y108.824 E7.05028
G1 X105.818 Y107.977 E7.08213
G1 X106.097 Y107.153 E7.11396
G1 X106.449 Y106.358 E7.14577
G1 X106.873 Y105.599 E7.17758
G1 X107.366 Y104.882 E7.20941
G1 X107.758 Y104.41 E7.23186
G0 F810 X107.921 Y104.213
G0 X108.248 Y103.873
M204 S5000
M205 X30 Y30
G0 F7200 X108.558 Y104.185
M204 S500
M205 X20 Y20
G1 F6000 E7.25846
G1 F900 X108.687 Y104.057 E7.26511
G1 X109.317 Y103.488 E7.29617
G1 X109.998 Y102.981 E7.32723
G1 X110.724 Y102.54 E7.35831
G1 X111.488 Y102.169 E7.38938
G1 X112.283 Y101.872 E7.42043
G1 X113.103 Y101.65 E7.45151
G1 X113.94 Y101.507 E7.48258
G1 X115.04 Y101.44 E7.5229
G1 X119.96 Y101.44 E7.7029
G1 X120.808 Y101.48 E7.73396
G1 X121.649 Y101.6 E7.76504
G1 X122.475 Y101.798 E7.79612
G1 X123.278 Y102.073 E7.82717
G1 X124.052 Y102.422 E7.85823
G1 X124.79 Y102.842 E7.8893
G1 X125.485 Y103.33 E7.92037
G1 X126.313 Y104.057 E7.96068
G1 X126.442 Y104.185 E7.96733
G1 X127.016 Y104.811 E7.9984
G1 X127.529 Y105.488 E8.02948
G1 X127.975 Y106.21 E8.06053
G1 X128.352 Y106.971 E8.0916
G1 X128.656 Y107.765 E8.12271
G1 X128.883 Y108.583 E8.15377
G1 X129.033 Y109.419 E8.18484
G1 X129.109 Y110.555 E8.22649
G1 X129.16 Y124.418 E8.73369
G1 X129.123 Y125.266 E8.76475
G1 X129.007 Y126.107 E8.79581
G1 X128.812 Y126.934 E8.82689
G1 X128.54 Y127.738 E8.85795
G1 X128.193 Y128.514 E8.88905
G1 X127.775 Y129.253 E8.92011
G1 X127.29 Y129.95 E8.95118
G1 X126.518 Y130.829 E8.99398
G1 X126.389 Y130.958 E9.00065
G1 X125.761 Y131.53 E9.03173
G1 X125.082 Y132.04 E9.0628
G1 X124.358 Y132.483 E9.09385
G1 X123.595 Y132.857 E9.12494
G1 X122.801 Y133.158 E9.15601
G1 X121.982 Y133.382 E9.18707
G1 X121.145 Y133.528 E9.21816
G1 X120.011 Y133.6 E9.25973
G1 X114.989 Y133.6 E9.44346
G1 X114.141 Y133.56 E9.47452
G1 X113.3 Y133.44 E9.5056
G1 X112.474 Y133.242 E9.53668
G1 X111.671 Y132.967 E9.56773
G1 X110.897 Y132.618 E9.5988
G1 X110.159 Y132.198 E9.62987
G1 X109.464 Y131.71 E9.66093
G1 X108.611 Y130.958 E9.70254
G1 X108.482 Y130.829 E9.70921
G1 X107.91 Y130.201 E9.74029
G1 X107.4 Y129.522 E9.77136
G1 X106.957 Y128.798 E9.80241
G1 X106.583 Y128.035 E9.8335
G1 X106.282 Y127.241 E9.86457
G1 X106.058 Y126.422 E9.89563
G1 X105.912 Y125.585 E9.92672
G1 X105.84 Y124.418 E9.9695
G1 X105.891 Y110.555 E10.47669
G1 X105.934 Y109.707 E10.50776
G1 X106.057 Y108.866 E10.53885
G1 X106.258 Y108.041 E10.56992
G1 X106.536 Y107.239 E10.60098
G1 X106.888 Y106.466 E10.63205
G1 X107.311 Y105.73 E10.66311
G1 X107.802 Y105.037 E10.69418
G1 X108.076 Y104.728 E10.70929
G0 F810 X108.558 Y104.185
M204 S5000
M205 X30 Y30
G0 F7200 X108.868 Y104.497
M204 S500
M205 X20 Y20
G1 F6000 E10.73589
G1 F900 X108.997 Y104.369 E10.74254
G1 X109.612 Y103.815 E10.77282
G1 X110.278 Y103.323 E10.80312
G1 X110.988 Y102.897 E10.83341
G1 X111.737 Y102.541 E10.86375
G1 X112.515 Y102.26 E10.89401
G1 X113.318 Y102.055 E10.92433
G1 X114.136 Y101.928 E10.95462
G1 X115.04 Y101.88 E10.98774
G1 X119.96 Y101.88 E11.16774
G1 X120.787 Y101.92 E11.19804
G1 X121.607 Y102.04 E11.22836
G1 X122.411 Y102.238 E11.25865
G1 X123.192 Y102.512 E11.28893
G1 X123.944 Y102.861 E11.31926
G1 X124.658 Y103.28 E11.34955
G1 X125.328 Y103.767 E11.37986
G1 X126.003 Y104.369 E11.41295
G1 X126.132 Y104.497 E11.4196
G1 X126.691 Y105.109 E11.44992
G1 X127.189 Y105.771 E11.48023
G1 X127.62 Y106.478 E11.51052
G1 X127.982 Y107.223 E11.54083
G1 X128.269 Y108 E11.57113
G1 X128.481 Y108.801 E11.60145
G1 X128.614 Y109.618 E11.63173
G1 X128.669 Y110.556 E11.66611
G1 X128.72 Y124.419 E12.1733
G1 X128.683 Y125.247 E12.20363
G1 X128.566 Y126.067 E12.23393
G1 X128.371 Y126.872 E12.26424
G1 X128.1 Y127.654 E12.29452
G1 X127.754 Y128.407 E12.32483
G1 X127.337 Y129.122 E12.35512
G1 X126.853 Y129.795 E12.38545
G1 X126.207 Y130.518 E12.42092
G1 X126.078 Y130.647 E12.42759
G1 X125.465 Y131.204 E12.4579
G1 X124.801 Y131.699 E12.4882
G1 X124.092 Y132.127 E12.5185
G1 X123.345 Y132.486 E12.54882
G1 X122.567 Y132.77 E12.57912
G1 X121.766 Y132.979 E12.60941
G1 X120.948 Y133.109 E12.63971
G1 X120.011 Y133.16 E12.67404
G1 X114.989 Y133.16 E12.85778
G1 X114.162 Y133.12 E12.88807
G1 X113.342 Y133 E12.91839
G1 X112.538 Y132.802 E12.94868
G1 X111.757 Y132.528 E12.97896
G1 X111.005 Y132.179 E13.0093
G1 X110.291 Y131.76 E13.03958
G1 X109.621 Y131.273 E13.06989
G1 X108.922 Y130.647 E13.10422
G1 X108.793 Y130.518 E13.11089
G1 X108.236 Y129.905 E13.1412
G1 X107.741 Y129.241 E13.1715
G1 X107.313 Y128.532 E13.2018
G1 X106.954 Y127.785 E13.23212
G1 X106.67 Y127.007 E13.26242
G1 X106.461 Y126.206 E13.29271
G1 X106.331 Y125.388 E13.32301
G1 X106.28 Y124.419 E13.35851
G1 X106.331 Y110.556 E13.86571
G1 X106.374 Y109.729 E13.896
G1 X106.497 Y108.91 E13.9263
G1 X106.698 Y108.107 E13.95659
G1 X106.975 Y107.326 E13.98691
G1 X107.327 Y106.576 E14.01722
G1 X107.749 Y105.864 E14.0475
G1 X108.238 Y105.195 E14.07782
G1 X108.381 Y105.036 E14.08564
G0 F810 X108.868 Y104.497
M204 S5000
M205 X30 Y30
G0 F7200 X109.178 Y104.81
M204 S500
M205 X20 Y20
G1 F6000 E14.11224
G1 F900 X109.307 Y104.682 E14.11889
G1 X109.907 Y104.143 E14.1484
G1 X110.557 Y103.666 E14.17789
G1 X111.252 Y103.255 E14.20743
G1 X111.984 Y102.916 E14.23695
G1 X112.745 Y102.65 E14.26644
G1 X113.53 Y102.461 E14.29598
G1 X114.329 Y102.351 E14.32549
G1 X115.04 Y102.32 E14.35153
G1 X119.96 Y102.32 E14.53153
G1 X120.766 Y102.36 E14.56106
G1 X121.564 Y102.48 E14.59058
G1 X122.346 Y102.677 E14.62009
G1 X123.104 Y102.952 E14.64959
G1 X123.832 Y103.3 E14.67911
G1 X124.522 Y103.718 E14.70862
G1 X125.167 Y104.203 E14.73815
G1 X125.693 Y104.682 E14.76418
G1 X125.822 Y104.81 E14.77082
G1 X126.366 Y105.406 E14.80035
G1 X126.848 Y106.052 E14.82984
G1 X127.264 Y106.744 E14.85938
G1 X127.609 Y107.473 E14.88888
G1 X127.881 Y108.233 E14.91842
G1 X128.076 Y109.015 E14.9479
G1 X128.192 Y109.814 E14.97744
G1 X128.229 Y110.558 E15.0047
G1 X128.28 Y124.421 E15.51189
G1 X128.243 Y125.227 E15.54141
G1 X128.126 Y126.025 E15.57092
G1 X127.931 Y126.808 E15.60044
G1 X127.66 Y127.568 E15.62996
G1 X127.314 Y128.297 E15.65949
G1 X126.898 Y128.988 E15.68899
G1 X126.416 Y129.635 E15.71851
G1 X125.896 Y130.207 E15.74679
G1 X125.767 Y130.336 E15.75347
G1 X125.169 Y130.877 E15.78297
G1 X124.52 Y131.357 E15.81251
G1 X123.827 Y131.77 E15.84202
G1 X123.097 Y132.112 E15.87151
G1 X122.336 Y132.381 E15.90104
G1 X121.552 Y132.573 E15.93058
G1 X120.754 Y132.686 E15.96006
G1 X120.011 Y132.72 E15.98727
G1 X114.989 Y132.72 E16.17101
G1 X114.183 Y132.68 E16.20053
G1 X113.385 Y132.56 E16.23006
G1 X112.603 Y132.363 E16.25956
G1 X111.845 Y132.088 E16.28906
G1 X111.117 Y131.74 E16.31859
G1 X110.427 Y131.322 E16.3481
G1 X109.782 Y130.837 E16.37763
G1 X109.233 Y130.336 E16.40482
G1 X109.104 Y130.207 E16.41149
G1 X108.563 Y129.609 E16.441
G1 X108.083 Y128.96 E16.47053
G1 X107.67 Y128.267 E16.50004
G1 X107.328 Y127.537 E16.52954
G1 X107.059 Y126.776 E16.55907
G1 X106.867 Y125.992 E16.5886
G1 X106.754 Y125.194 E16.61809
G1 X106.72 Y124.421 E16.64639
G1 X106.771 Y110.558 E17.15359
G1 X106.814 Y109.752 E17.18312
G1 X106.936 Y108.955 E17.21262
G1 X107.137 Y108.174 E17.24213
G1 X107.414 Y107.416 E17.27165
G1 X107.765 Y106.69 E17.30115
G1 X108.186 Y106.002 E17.33066
G1 X108.673 Y105.358 E17.3602
G1 X108.686 Y105.344 E17.3609
G0 F810 X109.178 Y104.81
M204 S5000
M205 X30 Y30
G0 F7200 X109.488 Y105.122
M204 S500
M205 X20 Y20
G1 F6000 E17.3875
G1 F900 X109.617 Y104.994 E17.39415
G1 X110.201 Y104.471 E17.42283
G1 X110.836 Y104.009 E17.45156
G1 X111.514 Y103.615 E17.48025
G1 X112.229 Y103.292 E17.50896
G1 X112.973 Y103.043 E17.53766
G1 X113.738 Y102.871 E17.56635
G1 X114.517 Y102.778 E17.59505
G1 X115.04 Y102.76 E17.6142
G1 X119.96 Y102.76 E17.7942
G1 X120.744 Y102.8 E17.82292
G1 X121.519 Y102.919 E17.85161
G1 X122.278 Y103.117 E17.88031
G1 X123.013 Y103.391 E17.90901
G1 X123.717 Y103.739 E17.93774
G1 X124.381 Y104.156 E17.96642
G1 X125 Y104.639 E17.99515
G1 X125.383 Y104.994 E18.01425
G1 X125.512 Y105.122 E18.0209
G1 X126.041 Y105.702 E18.04962
G1 X126.507 Y106.333 E18.07832
G1 X126.906 Y107.009 E18.10704
G1 X127.235 Y107.721 E18.13574
G1 X127.49 Y108.463 E18.16444
G1 X127.668 Y109.227 E18.19314
G1 X127.767 Y110.006 E18.22187
G1 X127.789 Y110.56 E18.24216
G1 X127.84 Y124.423 E18.74936
G1 X127.803 Y125.206 E18.77803
G1 X127.686 Y125.982 E18.80675
G1 X127.491 Y126.742 E18.83545
G1 X127.22 Y127.478 E18.86415
G1 X126.875 Y128.183 E18.89286
G1 X126.46 Y128.849 E18.92157
G1 X125.98 Y129.47 E18.95029
G1 X125.585 Y129.896 E18.97154
G1 X125.456 Y130.025 E18.97822
G1 X124.873 Y130.551 E19.00695
G1 X124.241 Y131.014 E19.03561
G1 X123.564 Y131.411 E19.06432
G1 X122.85 Y131.737 E19.09304
G1 X122.107 Y131.989 E19.12174
G1 X121.342 Y132.164 E19.15045
G1 X120.563 Y132.26 E19.17917
G1 X120.011 Y132.28 E19.19938
G1 X114.989 Y132.28 E19.38312
G1 X114.205 Y132.24 E19.41184
G1 X113.43 Y132.121 E19.44052
G1 X112.671 Y131.923 E19.46922
G1 X111.936 Y131.649 E19.49792
G1 X111.232 Y131.301 E19.52665
G1 X110.568 Y130.884 E19.55534
G1 X109.949 Y130.401 E19.58406
G1 X109.544 Y130.025 E19.60428
G1 X109.415 Y129.896 E19.61096
G1 X108.889 Y129.313 E19.63968
G1 X108.426 Y128.681 E19.66835
G1 X108.029 Y128.004 E19.69706
G1 X107.703 Y127.29 E19.72578
G1 X107.451 Y126.547 E19.75448
G1 X107.276 Y125.782 E19.78319
G1 X107.18 Y125.003 E19.81191
G1 X107.16 Y124.423 E19.83314
G1 X107.211 Y110.56 E20.34034
G1 X107.254 Y109.776 E20.36907
G1 X107.376 Y109.001 E20.39777
G1 X107.577 Y108.243 E20.42646
G1 X107.854 Y107.509 E20.45516
G1 X108.204 Y106.806 E20.48389
G1 X108.623 Y106.143 E20.51259
G1 X109.002 Y105.662 E20.53499
G0 F810 X109.108 Y105.527
G0 X109.488 Y105.122
M204 S5000
M205 X30 Y30
G0 F7200 X109.797 Y105.434
M204 S500
M205 X20 Y20
G1 F6000 E20.56159
G1 F900 X109.926 Y105.306 E20.56824
G1 X110.495 Y104.799 E20.59612
G1 X111.113 Y104.354 E20.62399
G1 X111.774 Y103.976 E20.65184
G1 X112.472 Y103.669 E20.67974
G1 X113.198 Y103.438 E20.70762
G1 X113.944 Y103.283 E20.73549
G1 X115.04 Y103.2 E20.77571
G1 X119.96 Y103.2 E20.95571
G1 X120.721 Y103.24 E20.98359
G1 X121.473 Y103.359 E21.01144
G1 X122.209 Y103.557 E21.03933
G1 X122.92 Y103.831 E21.06721
G1 X123.598 Y104.177 E21.09506
G1 X124.237 Y104.593 E21.12295
G1 X125.074 Y105.306 E21.16318
G1 X125.203 Y105.434 E21.16983
G1 X125.714 Y105.999 E21.1977
G1 X126.164 Y106.613 E21.22555
G1 X126.547 Y107.272 E21.25344
G1 X126.859 Y107.967 E21.28131
G1 X127.097 Y108.691 E21.30919
G1 X127.257 Y109.436 E21.33707
G1 X127.349 Y110.561 E21.37837
G1 X127.4 Y124.424 E21.88556
G1 X127.363 Y125.185 E21.91344
G1 X127.246 Y125.938 E21.94132
G1 X127.051 Y126.675 E21.96921
G1 X126.78 Y127.387 E21.99708
G1 X126.436 Y128.066 E22.02493
G1 X126.022 Y128.706 E22.05282
G1 X125.544 Y129.299 E22.08068
G1 X125.274 Y129.585 E22.09507
G1 X125.145 Y129.714 E22.10175
G1 X124.578 Y130.223 E22.12963
G1 X123.962 Y130.671 E22.15749
G1 X123.302 Y131.051 E22.18536
