;FLAVOR:Marlin
;TIME:2437
;Filament used: 2.47091m
;Layer height: 0.2
;Generated with Cura_SteamEngine 3.6.0
M140 S70
M105
M190 S70
M104 S210
M105
M109 S210
M82 ;absolute extrusion mode
G28 ; home all axes
M117 Purge extruder
G92 E0 ; reset extruder
G1 Z1.0 F3000 ; move z up little to prevent scratching of surface
G1 X0.1 Y20 Z0.3 F5000.0 ; move to start-line position G1 X0.1 Y200.0 Z0.3 F1500.0 E15 ; draw 1st line
G1 X0.4 Y200.0 Z0.3 F5000.0 ; move to side a little
G1 X0.4 Y20 Z0.3 F1500.0 E30 ; draw 2nd line
G92 E0 ; reset extruder
G1 Z1.0 F3000 ; move z up little to prevent scratching of surface
M117 All systems go!
G92 E0
G1 F6000 E-5
;LAYER_COUNT:67
;LAYER:0
M107
M204 S5000
M205 X30 Y30
G0 F7200 X100.795 Y101.485 Z0.2
M204 S500
M205 X20 Y20
;TYPE:SKIRT
G1 F6000 E0
G1 F900 X102.048 Y100.273 E0.06378
G1 X103.013 Y99.453 E0.11011
G1 X104.342 Y98.462 E0.17076
G1 X105.408 Y97.768 E0.2173
G1 X106.895 Y96.932 E0.27971
G1 X108.045 Y96.38 E0.32638
G1 X109.652 Y95.732 E0.38978
G1 X110.846 Y95.337 E0.43579
G1 X112.446 Y94.918 E0.4963
G1 X113.394 Y94.719 E0.53174
G1 X114.259 Y94.581 E0.56379
G1 X115.187 Y94.477 E0.59795
G1 X116.859 Y94.37 E0.65925
G1 X118.144 Y94.372 E0.70626
G1 X119.885 Y94.487 E0.7701
G1 X121.139 Y94.65 E0.81636
G1 X122.764 Y94.969 E0.87695
G1 X123.957 Y95.282 E0.92207
G1 X125.525 Y95.799 E0.98248
G1 X126.72 Y96.281 E1.02962
G1 X128.321 Y97.052 E1.09463
G1 X129.429 Y97.676 E1.14116
G1 X130.814 Y98.578 E1.20163
G1 X131.813 Y99.322 E1.2472
G1 X133.08 Y100.396 E1.30797
G1 X134.002 Y101.287 E1.35488
G1 X135.189 Y102.592 E1.41942
G1 X135.984 Y103.589 E1.46607
G1 X136.93 Y104.945 E1.52656
G1 X137.594 Y106.041 E1.57345
G1 X138.408 Y107.606 E1.63799
G1 X138.796 Y108.446 E1.67184
G1 X139.094 Y109.179 E1.70079
G1 X139.41 Y110.077 E1.73562
G1 X139.902 Y111.726 E1.79858
G1 X140.135 Y112.677 E1.8344
G1 X140.296 Y113.51 E1.86544
G1 X140.433 Y114.467 E1.90081
G1 X140.596 Y116.21 E1.96486
G1 X140.633 Y117.474 E2.01112
G1 X140.576 Y119.123 E2.07149
G1 X140.456 Y120.357 E2.11685
G1 X140.189 Y122.013 E2.17822
G1 X139.903 Y123.262 E2.2251
G1 X139.409 Y124.921 E2.28843
G1 X138.974 Y126.103 E2.33451
G1 X138.303 Y127.619 E2.39516
G1 X137.907 Y128.415 E2.42769
G1 X137.557 Y128.997 E2.45253
G1 X136.177 Y131.126 E2.54536
G1 X135.66 Y131.85 E2.57791
G1 X135.186 Y132.411 E2.60478
G1 X133.989 Y133.724 E2.66978
G1 X133.327 Y134.385 E2.70401
G1 X132.753 Y134.906 E2.73237
G1 X132.02 Y135.509 E2.7671
G1 X130.609 Y136.562 E2.83151
G1 X129.529 Y137.264 E2.87864
G1 X128.084 Y138.074 E2.93924
G1 X126.974 Y138.608 E2.98431
G1 X125.443 Y139.231 E3.04478
G1 X124.224 Y139.637 E3.09179
G1 X122.505 Y140.088 E3.15681
G1 X121.246 Y140.332 E3.20373
G1 X119.6 Y140.542 E3.26444
G1 X118.353 Y140.622 E3.31015
G1 X116.655 Y140.623 E3.37228
G1 X115.379 Y140.541 E3.41906
G1 X113.655 Y140.318 E3.48266
G1 X112.699 Y140.146 E3.51819
G1 X111.919 Y139.966 E3.54748
G1 X111.023 Y139.715 E3.58152
G1 X109.38 Y139.169 E3.64487
G1 X108.19 Y138.686 E3.69186
G1 X106.677 Y137.954 E3.75335
G1 X105.593 Y137.342 E3.79889
G1 X104.178 Y136.422 E3.86064
G1 X103.15 Y135.654 E3.90759
G1 X101.838 Y134.535 E3.97068
G1 X100.93 Y133.655 E4.01694
G1 X99.805 Y132.415 E4.07819
G1 X99.004 Y131.408 E4.12527
G1 X98.01 Y129.976 E4.18905
G1 X97.363 Y128.904 E4.23486
G1 X96.601 Y127.441 E4.29521
G1 X96.092 Y126.291 E4.34122
G1 X95.505 Y124.698 E4.40333
G1 X95.224 Y123.809 E4.43744
G1 X95.004 Y122.978 E4.46889
G1 X94.849 Y122.299 E4.49437
G1 X94.683 Y121.429 E4.52678
G1 X94.552 Y120.51 E4.56074
G1 X94.395 Y118.857 E4.62149
G1 X94.356 Y117.6 E4.6675
G1 X94.411 Y115.903 E4.72962
G1 X94.534 Y114.635 E4.77623
G1 X94.808 Y112.95 E4.83869
G1 X95.089 Y111.724 E4.8847
G1 X95.565 Y110.119 E4.94595
G1 X96 Y108.934 E4.99214
G1 X96.686 Y107.381 E5.05425
G1 X97.277 Y106.247 E5.10104
G1 X98.162 Y104.788 E5.16347
G1 X98.88 Y103.758 E5.2094
G1 X99.931 Y102.437 E5.27116
G1 X100.307 Y102.023 E5.29163
G0 F810 X100.795 Y101.485
M204 S5000
M205 X30 Y30
G0 F7200 X101.101 Y101.801
M204 S500
M205 X20 Y20
G1 F6000 E5.31822
G1 F900 X102.354 Y100.589 E5.382
G1 X103.276 Y99.805 E5.42628
G1 X104.605 Y98.814 E5.48693
G1 X105.624 Y98.152 E5.53139
G1 X107.111 Y97.316 E5.5938
G1 X108.209 Y96.788 E5.63838
G1 X109.816 Y96.14 E5.70177
G1 X110.957 Y95.763 E5.74574
G1 X112.557 Y95.344 E5.80625
G1 X113.464 Y95.153 E5.84016
G1 X114.329 Y95.015 E5.87221
G1 X115.215 Y94.916 E5.90483
G1 X116.887 Y94.809 E5.96612
G1 X118.115 Y94.811 E6.01105
G1 X119.856 Y94.926 E6.07489
G1 X121.054 Y95.082 E6.11909
G1 X122.679 Y95.401 E6.17967
G1 X123.819 Y95.7 E6.22279
G1 X125.387 Y96.217 E6.2832
G1 X126.53 Y96.678 E6.32829
G1 X128.131 Y97.449 E6.3933
G1 X129.189 Y98.045 E6.43773
G1 X130.574 Y98.947 E6.4982
G1 X131.528 Y99.658 E6.54173
G1 X132.795 Y100.732 E6.6025
G1 X133.676 Y101.583 E6.64731
G1 X134.863 Y102.888 E6.71185
G1 X135.624 Y103.84 E6.75644
G1 X136.57 Y105.196 E6.81693
G1 X137.204 Y106.244 E6.86175
G1 X138.018 Y107.809 E6.92628
G1 X138.388 Y108.611 E6.9586
G1 X138.686 Y109.344 E6.98755
G1 X138.988 Y110.202 E7.02083
G1 X139.48 Y111.851 E7.08379
G1 X139.703 Y112.761 E7.11806
G1 X139.864 Y113.594 E7.1491
G1 X139.995 Y114.508 E7.18289
G1 X140.158 Y116.251 E7.24693
G1 X140.193 Y117.459 E7.29115
G1 X140.136 Y119.108 E7.35151
G1 X140.021 Y120.287 E7.39485
G1 X139.754 Y121.943 E7.45622
G1 X139.482 Y123.137 E7.50103
G1 X138.988 Y124.796 E7.56436
G1 X138.572 Y125.925 E7.60838
G1 X137.901 Y127.441 E7.66903
G1 X137.512 Y128.219 E7.70086
G1 X137.188 Y128.757 E7.72383
G1 X135.808 Y130.886 E7.81666
G1 X135.302 Y131.594 E7.8485
G1 X134.861 Y132.114 E7.87344
G1 X133.664 Y133.427 E7.93844
G1 X133.031 Y134.059 E7.97117
G1 X132.457 Y134.58 E7.99953
G1 X131.757 Y135.157 E8.03272
G1 X130.346 Y136.21 E8.09713
G1 X129.314 Y136.88 E8.14215
G1 X127.869 Y137.69 E8.20276
G1 X126.809 Y138.2 E8.24579
G1 X125.278 Y138.823 E8.30627
G1 X124.113 Y139.211 E8.35119
G1 X122.394 Y139.662 E8.41621
G1 X121.19 Y139.896 E8.46109
G1 X119.544 Y140.106 E8.52179
G1 X118.353 Y140.182 E8.56546
G1 X116.655 Y140.183 E8.62758
G1 X115.435 Y140.105 E8.67231
G1 X113.711 Y139.882 E8.73591
G1 X112.798 Y139.718 E8.76984
G1 X112.018 Y139.538 E8.79913
G1 X111.162 Y139.297 E8.83167
G1 X109.519 Y138.751 E8.89501
G1 X108.382 Y138.29 E8.9399
G1 X106.869 Y137.558 E9.00139
G1 X105.832 Y136.973 E9.04495
G1 X104.417 Y136.053 E9.1067
G1 X103.435 Y135.32 E9.15153
G1 X102.123 Y134.201 E9.21462
G1 X101.256 Y133.359 E9.25884
G1 X100.131 Y132.119 E9.3201
G1 X99.366 Y131.157 E9.36506
G1 X98.372 Y129.725 E9.42884
G1 X97.753 Y128.701 E9.47262
G1 X96.991 Y127.238 E9.53297
G1 X96.504 Y126.139 E9.57695
G1 X95.917 Y124.546 E9.63906
G1 X95.649 Y123.696 E9.67167
G1 X95.429 Y122.865 E9.70312
G1 X95.282 Y122.217 E9.72743
G1 X95.116 Y121.347 E9.75983
G1 X94.99 Y120.468 E9.79232
G1 X94.833 Y118.815 E9.85307
G1 X94.796 Y117.615 E9.89699
G1 X94.851 Y115.918 E9.95911
G1 X94.969 Y114.706 E10.00366
G1 X95.243 Y113.021 E10.06612
G1 X95.51 Y111.849 E10.1101
G1 X95.986 Y110.244 E10.17135
G1 X96.403 Y109.112 E10.21548
G1 X97.089 Y107.559 E10.2776
G1 X97.654 Y106.475 E10.32232
G1 X98.539 Y105.016 E10.38475
G1 X99.224 Y104.032 E10.42862
G1 X100.275 Y102.711 E10.49038
G1 X100.612 Y102.339 E10.50874
G0 F810 X101.101 Y101.801
M204 S5000
M205 X30 Y30
G0 F7200 X101.407 Y102.118
M204 S500
M205 X20 Y20
G1 F6000 E10.53534
G1 F900 X102.66 Y100.906 E10.59912
G1 X103.539 Y100.158 E10.64135
G1 X104.868 Y99.167 E10.702
G1 X105.84 Y98.535 E10.74442
G1 X107.327 Y97.699 E10.80683
G1 X108.374 Y97.197 E10.84931
G1 X109.981 Y96.549 E10.91271
G1 X111.069 Y96.188 E10.95465
G1 X112.669 Y95.769 E11.01516
G1 X113.533 Y95.588 E11.04745
G1 X114.398 Y95.45 E11.0795
G1 X115.243 Y95.355 E11.11061
G1 X116.915 Y95.248 E11.17191
G1 X118.086 Y95.25 E11.21475
G1 X119.827 Y95.365 E11.27859
G1 X120.97 Y95.514 E11.32076
G1 X122.595 Y95.833 E11.38134
G1 X123.681 Y96.118 E11.42242
G1 X125.249 Y96.635 E11.48283
G1 X126.339 Y97.074 E11.52582
G1 X127.94 Y97.845 E11.59083
G1 X128.949 Y98.414 E11.63321
G1 X130.334 Y99.316 E11.69368
G1 X131.243 Y99.993 E11.73515
G1 X132.51 Y101.067 E11.79592
G1 X133.351 Y101.879 E11.83869
G1 X134.538 Y103.184 E11.90323
G1 X135.263 Y104.092 E11.94574
G1 X136.209 Y105.448 E12.00623
G1 X136.813 Y106.447 E12.04894
G1 X137.627 Y108.012 E12.11348
G1 X137.981 Y108.777 E12.14432
G1 X138.279 Y109.51 E12.17327
G1 X138.566 Y110.328 E12.20499
G1 X139.058 Y111.977 E12.26794
G1 X139.271 Y112.844 E12.30061
G1 X139.432 Y113.677 E12.33165
G1 X139.557 Y114.549 E12.36388
G1 X139.72 Y116.292 E12.42792
G1 X139.754 Y117.444 E12.47009
G1 X139.697 Y119.093 E12.53046
G1 X139.587 Y120.217 E12.57178
G1 X139.32 Y121.873 E12.63315
G1 X139.06 Y123.011 E12.67585
G1 X138.566 Y124.67 E12.73918
G1 X138.169 Y125.747 E12.78118
G1 X137.498 Y127.263 E12.84183
G1 X137.118 Y128.022 E12.87289
G1 X136.819 Y128.518 E12.89408
G1 X135.439 Y130.647 E12.9869
G1 X134.944 Y131.337 E13.01797
G1 X134.536 Y131.818 E13.04105
G1 X133.339 Y133.131 E13.10605
G1 X132.735 Y133.733 E13.13725
G1 X132.161 Y134.254 E13.16561
G1 X131.494 Y134.804 E13.19724
G1 X130.083 Y135.857 E13.26165
G1 X129.099 Y136.496 E13.30458
G1 X127.654 Y137.306 E13.36519
G1 X126.643 Y137.793 E13.40624
G1 X125.112 Y138.416 E13.46672
G1 X124.001 Y138.786 E13.50956
G1 X122.282 Y139.237 E13.57458
G1 X121.135 Y139.459 E13.61732
G1 X119.489 Y139.669 E13.67803
G1 X118.352 Y139.742 E13.71971
G1 X116.654 Y139.743 E13.78184
G1 X115.492 Y139.668 E13.82444
G1 X113.768 Y139.445 E13.88804
G1 X112.897 Y139.289 E13.92041
G1 X112.117 Y139.109 E13.9497
G1 X111.3 Y138.88 E13.98074
G1 X109.657 Y138.334 E14.04409
G1 X108.574 Y137.894 E14.08685
G1 X107.061 Y137.162 E14.14835
G1 X106.072 Y136.604 E14.18989
G1 X104.657 Y135.684 E14.25164
G1 X103.721 Y134.985 E14.29438
G1 X102.409 Y133.866 E14.35747
G1 X101.582 Y133.064 E14.39962
G1 X100.457 Y131.824 E14.46087
G1 X99.727 Y130.906 E14.50378
G1 X98.733 Y129.474 E14.56756
G1 X98.143 Y128.498 E14.60929
G1 X97.381 Y127.035 E14.66964
G1 X96.917 Y125.987 E14.71157
G1 X96.33 Y124.394 E14.77368
G1 X96.074 Y123.583 E14.8048
G1 X95.854 Y122.752 E14.83625
G1 X95.714 Y122.135 E14.85939
G1 X95.548 Y121.265 E14.8918
G1 X95.428 Y120.427 E14.92277
G1 X95.271 Y118.774 E14.98352
G1 X95.236 Y117.629 E15.02543
G1 X95.291 Y115.932 E15.08755
G1 X95.403 Y114.776 E15.13004
G1 X95.677 Y113.091 E15.1925
G1 X95.932 Y111.974 E15.23442
G1 X96.408 Y110.369 E15.29566
G1 X96.805 Y109.289 E15.33776
G1 X97.491 Y107.736 E15.39988
G1 X98.03 Y106.703 E15.44251
G1 X98.915 Y105.244 E15.50494
G1 X99.568 Y104.306 E15.54675
G1 X100.619 Y102.985 E15.60851
G1 X100.918 Y102.656 E15.62478
G0 F810 X101.407 Y102.118
M204 S5000
M205 X30 Y30
G0 F7200 X101.713 Y102.434
M204 S500
M205 X20 Y20
G1 F6000 E15.65138
G1 F900 X102.966 Y101.222 E15.71516
G1 X103.802 Y100.511 E15.75531
G1 X105.131 Y99.52 E15.81596
G1 X106.055 Y98.919 E15.85629
G1 X107.542 Y98.083 E15.9187
G1 X108.538 Y97.605 E15.95912
G1 X110.145 Y96.957 E16.02251
G1 X111.18 Y96.614 E16.0624
G1 X112.78 Y96.195 E16.12292
G1 X113.602 Y96.022 E16.15365
G1 X114.467 Y95.884 E16.1857
G1 X115.271 Y95.795 E16.21529
G1 X116.943 Y95.688 E16.27659
G1 X118.057 Y95.689 E16.31735
G1 X119.798 Y95.804 E16.38118
G1 X120.885 Y95.946 E16.42129
G1 X122.51 Y96.265 E16.48188
G1 X123.544 Y96.536 E16.52098
G1 X125.112 Y97.053 E16.58139
G1 X126.148 Y97.471 E16.62226
G1 X127.749 Y98.242 E16.68727
G1 X128.708 Y98.782 E16.72754
G1 X130.093 Y99.684 E16.78801
G1 X130.959 Y100.329 E16.82752
G1 X132.226 Y101.403 E16.88828
G1 X133.025 Y102.175 E16.92893
G1 X134.212 Y103.48 E16.99347
G1 X134.902 Y104.344 E17.03393
G1 X135.848 Y105.7 E17.09442
G1 X136.423 Y106.65 E17.13504
G1 X137.237 Y108.215 E17.19958
G1 X137.573 Y108.943 E17.22892
G1 X137.871 Y109.676 E17.25787
G1 X138.145 Y110.454 E17.28805
G1 X138.637 Y112.103 E17.351
G1 X138.839 Y112.928 E17.38208
G1 X139 Y113.761 E17.41312
G1 X139.119 Y114.59 E17.44376
G1 X139.282 Y116.333 E17.50781
G1 X139.314 Y117.428 E17.54789
G1 X139.257 Y119.077 E17.60825
G1 X139.153 Y120.147 E17.64759
G1 X138.886 Y121.803 E17.70895
G1 X138.638 Y122.886 E17.7496
G1 X138.144 Y124.545 E17.81293
G1 X137.767 Y125.569 E17.85286
G1 X137.096 Y127.085 E17.91351
G1 X136.724 Y127.825 E17.94381
G1 X136.45 Y128.279 E17.96321
G1 X135.07 Y130.408 E18.05604
G1 X134.586 Y131.08 E18.08634
G1 X134.211 Y131.521 E18.10752
G1 X133.014 Y132.834 E18.17252
G1 X132.44 Y133.407 E18.20219
G1 X131.866 Y133.928 E18.23055
G1 X131.231 Y134.451 E18.26065
G1 X129.82 Y135.504 E18.32506
G1 X128.883 Y136.112 E18.36593
G1 X127.438 Y136.922 E18.42654
G1 X126.477 Y137.385 E18.46556
G1 X124.946 Y138.008 E18.52604
G1 X123.889 Y138.36 E18.5668
G1 X122.17 Y138.811 E18.63182
G1 X121.079 Y139.023 E18.67248
G1 X119.433 Y139.233 E18.73319
G1 X118.352 Y139.302 E18.77282
G1 X116.654 Y139.303 E18.83494
G1 X115.548 Y139.232 E18.87549
G1 X113.824 Y139.009 E18.93909
G1 X112.996 Y138.86 E18.96987
G1 X112.216 Y138.68 E18.99916
G1 X111.439 Y138.462 E19.02868
G1 X109.796 Y137.916 E19.09202
G1 X108.765 Y137.498 E19.13273
G1 X107.252 Y136.766 E19.19422
G1 X106.312 Y136.235 E19.23372
G1 X104.897 Y135.315 E19.29547
G1 X104.006 Y134.65 E19.33615
G1 X102.694 Y133.531 E19.39923
G1 X101.908 Y132.768 E19.43931
G1 X100.783 Y131.528 E19.50057
G1 X100.089 Y130.656 E19.54134
G1 X99.095 Y129.224 E19.60512
G1 X98.533 Y128.294 E19.64487
G1 X97.771 Y126.831 E19.70522
G1 X97.33 Y125.835 E19.74507
G1 X96.743 Y124.242 E19.80719
G1 X96.5 Y123.471 E19.83676
G1 X96.28 Y122.64 E19.86821
G1 X96.146 Y122.052 E19.89028
G1 X95.98 Y121.182 E19.92268
G1 X95.866 Y120.385 E19.95214
G1 X95.709 Y118.732 E20.01289
G1 X95.676 Y117.643 E20.05275
G1 X95.731 Y115.946 E20.11487
G1 X95.837 Y114.847 E20.15526
G1 X96.111 Y113.162 E20.21772
G1 X96.354 Y112.099 E20.25761
G1 X96.83 Y110.494 E20.31886
G1 X97.208 Y109.467 E20.3589
G1 X97.894 Y107.914 E20.42102
G1 X98.406 Y106.931 E20.46157
G1 X99.291 Y105.472 E20.524
G1 X99.913 Y104.58 E20.56378
G1 X100.964 Y103.259 E20.62554
G1 X101.225 Y102.972 E20.63974
G0 F810 X101.713 Y102.434
M204 S5000
M205 X30 Y30
G0 F7200 X102.019 Y102.75
M204 S500
M205 X20 Y20
G1 F6000 E20.66633
G1 F900 X103.272 Y101.538 E20.73011
G1 X104.065 Y100.863 E20.76821
G1 X105.394 Y99.872 E20.82887
G1 X106.271 Y99.302 E20.86713
G1 X107.758 Y98.466 E20.92955
G1 X108.703 Y98.013 E20.96789
G1 X110.31 Y97.365 E21.03128
G1 X111.292 Y97.04 E21.06912
G1 X112.892 Y96.621 E21.12964
G1 X113.672 Y96.457 E21.1588
G1 X114.537 Y96.319 E21.19085
G1 X115.299 Y96.234 E21.2189
G1 X116.971 Y96.127 E21.28019
G1 X118.028 Y96.128 E21.31887
G1 X119.769 Y96.243 E21.3827
G1 X120.8 Y96.377 E21.42074
G1 X122.425 Y96.696 E21.48133
G1 X123.406 Y96.953 E21.51843
G1 X124.974 Y97.47 E21.57883
G1 X125.957 Y97.867 E21.61762
G1 X127.558 Y98.638 E21.68263
G1 X128.468 Y99.151 E21.72085
G1 X129.853 Y100.053 E21.78132
G1 X130.674 Y100.665 E21.81879
G1 X131.941 Y101.739 E21.87955
G1 X132.7 Y102.471 E21.91813
G1 X133.887 Y103.776 E21.98267
G1 X134.541 Y104.596 E22.02105
G1 X135.487 Y105.952 E22.08154
G1 X136.033 Y106.853 E22.12008
G1 X136.847 Y108.418 E22.18462
G1 X137.166 Y109.108 E22.21243
G1 X137.464 Y109.841 E22.24138
G1 X137.723 Y110.58 E22.27003
G1 X138.215 Y112.229 E22.33299
G1 X138.407 Y113.011 E22.36245
G1 X138.568 Y113.844 E22.39349
G1 X138.681 Y114.631 E22.42258
G1 X138.844 Y116.374 E22.48663
G1 X138.874 Y117.413 E22.52466
G1 X138.817 Y119.062 E22.58502
G1 X138.718 Y120.077 E22.62233
G1 X138.451 Y121.733 E22.6837
G1 X138.216 Y122.76 E22.72225
G1 X137.722 Y124.419 E22.78558
G1 X137.364 Y125.391 E22.82348
G1 X136.693 Y126.907 E22.88413
G1 X136.331 Y127.627 E22.91361
G1 X136.081 Y128.04 E22.93128
G1 X134.701 Y130.169 E23.0241
G1 X134.229 Y130.823 E23.05361
G1 X133.885 Y131.225 E23.07297
G1 X132.688 Y132.538 E23.13797
G1 X132.144 Y133.081 E23.16609
G1 X131.57 Y133.602 E23.19445
G1 X130.967 Y134.099 E23.22304
G1 X129.556 Y135.152 E23.28746
G1 X128.668 Y135.729 E23.3262
G1 X127.223 Y136.539 E23.38681
G1 X126.311 Y136.978 E23.42384
G1 X124.78 Y137.601 E23.48431
G1 X123.778 Y137.935 E23.52295
G1 X122.059 Y138.386 E23.58797
G1 X121.023 Y138.587 E23.62658
G1 X119.377 Y138.797 E23.68729
G1 X118.352 Y138.862 E23.72487
G1 X116.654 Y138.863 E23.78699
G1 X115.605 Y138.796 E23.82545
