;FLAVOR:Marlin
;TIME:1635
;Filament used: 0.625339m
;Layer height: 0.2
;Generated with Cura_SteamEngine 3.6.0
M140 S70
M105
M190 S70
M104 S210
M105
M109 S210
M82 ;absolute extrusion mode
G28 ; home all axes
M117 Purge extruder
G92 E0 ; reset extruder
G1 Z1.0 F3000 ; move z up little to prevent scratching of surface
G1 X0.1 Y20 Z0.3 F5000.0 ; move to start-line position G1 X0.1 Y200.0 Z0.3 F1500.0 E15 ; draw 1st line
G1 X0.4 Y200.0 Z0.3 F5000.0 ; move to side a little
G1 X0.4 Y20 Z0.3 F1500.0 E30 ; draw 2nd line
G92 E0 ; reset extruder
G1 Z1.0 F3000 ; move z up little to prevent scratching of surface
M117 All systems go!
G92 E0
G1 F6000 E-5
;LAYER_COUNT:196
;LAYER:0
M107
M204 S5000
M205 X30 Y30
G0 F7200 X108.523 Y104.311 Z0.2
M204 S500
M205 X20 Y20
;TYPE:SKIRT
G1 F6000 E0
G1 F900 X109.176 Y103.706 E0.03257
G1 X109.88 Y103.163 E0.0651
G1 X110.631 Y102.685 E0.09767
G1 X111.421 Y102.276 E0.13021
G1 X112.245 Y101.94 E0.16277
G1 X113.095 Y101.679 E0.1953
G1 X113.966 Y101.496 E0.22786
G1 X114.85 Y101.391 E0.26043
G1 X115.334 Y101.368 E0.27816
G1 X118.066 Y101.303 E0.37814
G1 X118.955 Y101.322 E0.41067
G1 X119.839 Y101.42 E0.44322
G1 X120.711 Y101.598 E0.47578
G1 X121.563 Y101.853 E0.50831
G1 X122.389 Y102.184 E0.54087
G1 X123.182 Y102.587 E0.57341
G1 X123.936 Y103.06 E0.60598
G1 X124.644 Y103.599 E0.63853
G1 X125.301 Y104.199 E0.67109
G1 X125.901 Y104.856 E0.70364
G1 X126.626 Y105.842 E0.74842
G1 X126.756 Y106.044 E0.7572
G1 X127.203 Y106.813 E0.78975
G1 X127.58 Y107.62 E0.82233
G1 X127.883 Y108.456 E0.85487
G1 X128.109 Y109.317 E0.88744
G1 X128.257 Y110.194 E0.91997
G1 X128.326 Y111.081 E0.95252
G1 X128.315 Y111.971 E0.98509
G1 X128.224 Y112.856 E1.01764
G1 X128.054 Y113.729 E1.05018
G1 X127.806 Y114.584 E1.08275
G1 X127.57 Y115.209 E1.10719
G1 X127.371 Y115.687 E1.12613
G1 X127.235 Y116.184 E1.14499
G1 X127.252 Y116.475 E1.15565
G1 X127.253 Y118.516 E1.23032
G1 X127.241 Y118.793 E1.24047
G1 X127.779 Y120.337 E1.30029
G1 X128.034 Y121.19 E1.33286
G1 X128.211 Y122.062 E1.36541
G1 X128.31 Y122.946 E1.39796
G1 X128.328 Y123.835 E1.43049
G1 X128.267 Y124.723 E1.46305
G1 X128.126 Y125.602 E1.49562
G1 X127.907 Y126.464 E1.52816
G1 X127.612 Y127.303 E1.5607
G1 X127.242 Y128.112 E1.59325
G1 X126.756 Y128.956 E1.62888
G1 X126.626 Y129.158 E1.63767
G1 X126.111 Y129.883 E1.67021
G1 X125.534 Y130.56 E1.70275
G1 X124.898 Y131.182 E1.7353
G1 X124.208 Y131.745 E1.76788
G1 X123.471 Y132.243 E1.80042
G1 X122.692 Y132.673 E1.83298
G1 X121.878 Y133.031 E1.86551
G1 X121.035 Y133.315 E1.89805
G1 X120.169 Y133.522 E1.93063
G1 X119.289 Y133.651 E1.96317
G1 X118.208 Y133.7 E2.00276
G1 X115.544 Y133.675 E2.10023
G1 X114.656 Y133.626 E2.13277
G1 X113.775 Y133.498 E2.16534
G1 X112.91 Y133.292 E2.19787
G1 X112.066 Y133.009 E2.23044
G1 X111.252 Y132.651 E2.26297
G1 X110.473 Y132.221 E2.29553
G1 X109.735 Y131.723 E2.3281
G1 X109.045 Y131.162 E2.36064
G1 X108.409 Y130.54 E2.39318
G1 X108.11 Y130.206 E2.40958
G1 X107.934 Y130 E2.4195
G1 X107.387 Y129.298 E2.45206
G1 X106.905 Y128.55 E2.48461
G1 X106.493 Y127.762 E2.51715
G1 X106.152 Y126.94 E2.5497
G1 X105.887 Y126.09 E2.58228
G1 X105.7 Y125.221 E2.6148
G1 X105.591 Y124.338 E2.64735
G1 X105.561 Y123.575 E2.67529
G1 X105.554 Y111.477 E3.11791
G1 X105.593 Y110.588 E3.15046
G1 X105.713 Y109.706 E3.18303
G1 X105.91 Y108.839 E3.21556
G1 X106.185 Y107.993 E3.2481
G1 X106.535 Y107.174 E3.28069
G1 X106.81 Y106.645 E3.3025
G1 X106.925 Y106.439 E3.31113
G1 X107.393 Y105.683 E3.34366
G1 X107.927 Y104.971 E3.37623
G1 X108.036 Y104.85 E3.38218
G0 F810 X108.523 Y104.311
M204 S5000
M205 X30 Y30
G0 F7200 X108.878 Y104.578
M204 S500
M205 X20 Y20
G1 F6000 E3.40878
G1 F900 X109.52 Y103.992 E3.44058
G1 X110.213 Y103.467 E3.47239
G1 X110.952 Y103.008 E3.50422
G1 X111.73 Y102.619 E3.53604
G1 X112.54 Y102.303 E3.56785
G1 X113.376 Y102.063 E3.59968
G1 X114.231 Y101.9 E3.63152
G1 X115.344 Y101.808 E3.67238
G1 X118.076 Y101.743 E3.77236
G1 X118.945 Y101.762 E3.80416
G1 X119.81 Y101.861 E3.83602
G1 X120.661 Y102.039 E3.86782
G1 X121.492 Y102.295 E3.89964
G1 X122.297 Y102.625 E3.93147
G1 X123.067 Y103.028 E3.96326
G1 X123.798 Y103.501 E3.99512
G1 X124.481 Y104.038 E4.02691
G1 X125.113 Y104.636 E4.05874
G1 X125.687 Y105.289 E4.09055
G1 X126.256 Y106.08 E4.1262
G1 X126.386 Y106.282 E4.13499
G1 X126.823 Y107.035 E4.16684
G1 X127.188 Y107.824 E4.19864
G1 X127.48 Y108.643 E4.23046
G1 X127.695 Y109.486 E4.26229
G1 X127.832 Y110.345 E4.29411
G1 X127.889 Y111.213 E4.32594
G1 X127.867 Y112.082 E4.35774
G1 X127.764 Y112.946 E4.38957
G1 X127.583 Y113.796 E4.42137
G1 X127.324 Y114.627 E4.45321
G1 X127.164 Y115.04 E4.46942
G1 X126.951 Y115.551 E4.48967
G1 X126.794 Y116.122 E4.51134
G1 X126.812 Y116.475 E4.52427
G1 X126.813 Y118.516 E4.59894
G1 X126.797 Y118.86 E4.61154
G1 X127.363 Y120.482 E4.67439
G1 X127.612 Y121.316 E4.70624
G1 X127.782 Y122.169 E4.73806
G1 X127.874 Y123.033 E4.76985
G1 X127.886 Y123.903 E4.80168
G1 X127.818 Y124.77 E4.8335
G1 X127.671 Y125.627 E4.86531
G1 X127.445 Y126.467 E4.89714
G1 X127.144 Y127.283 E4.92896
G1 X126.769 Y128.068 E4.96079
G1 X126.386 Y128.718 E4.98839
G1 X126.256 Y128.92 E4.99718
G1 X125.752 Y129.628 E5.02897
G1 X125.185 Y130.288 E5.06081
G1 X124.56 Y130.893 E5.09263
G1 X123.883 Y131.438 E5.12443
G1 X123.158 Y131.918 E5.15624
G1 X122.391 Y132.33 E5.18809
G1 X121.591 Y132.67 E5.2199
G1 X120.762 Y132.934 E5.25173
G1 X119.913 Y133.122 E5.28354
G1 X119.05 Y133.23 E5.31536
G1 X118.212 Y133.26 E5.34604
G1 X115.548 Y133.235 E5.44351
G1 X114.68 Y133.186 E5.47532
G1 X113.82 Y133.059 E5.50712
G1 X112.975 Y132.853 E5.53894
G1 X112.152 Y132.57 E5.57078
G1 X111.359 Y132.213 E5.6026
G1 X110.602 Y131.784 E5.63444
G1 X109.888 Y131.288 E5.66624
G1 X109.222 Y130.728 E5.69808
G1 X108.445 Y129.92 E5.73909
G1 X108.269 Y129.714 E5.749
G1 X107.735 Y129.027 E5.78084
G1 X107.266 Y128.295 E5.81264
G1 X106.867 Y127.522 E5.84447
G1 X106.54 Y126.716 E5.87629
G1 X106.289 Y125.884 E5.90809
G1 X106.115 Y125.031 E5.93994
G1 X106.02 Y124.167 E5.97174
G1 X106.001 Y123.574 E5.99345
G1 X105.994 Y111.476 E6.43607
G1 X106.033 Y110.608 E6.46786
G1 X106.153 Y109.746 E6.4997
G1 X106.35 Y108.899 E6.53151
G1 X106.625 Y108.074 E6.56333
G1 X106.974 Y107.278 E6.59513
G1 X107.194 Y106.86 E6.61241
G1 X107.309 Y106.654 E6.62104
G1 X107.767 Y105.915 E6.65285
G1 X108.292 Y105.221 E6.68469
G1 X108.388 Y105.115 E6.68992
G0 F810 X108.878 Y104.578
M204 S5000
M205 X30 Y30
G0 F7200 X109.231 Y104.847
M204 S500
M205 X20 Y20
G1 F6000 E6.71652
G1 F900 X109.863 Y104.279 E6.74761
G1 X110.545 Y103.774 E6.77865
G1 X111.272 Y103.334 E6.80974
G1 X112.037 Y102.965 E6.84082
G1 X112.833 Y102.67 E6.87188
G1 X113.654 Y102.451 E6.90296
G1 X114.491 Y102.31 E6.93402
G1 X115.354 Y102.248 E6.96567
G1 X118.086 Y102.183 E7.06565
G1 X118.935 Y102.202 E7.09672
G1 X119.779 Y102.302 E7.12782
G1 X120.609 Y102.48 E7.15888
G1 X121.419 Y102.736 E7.18996
G1 X122.201 Y103.067 E7.22102
G1 X122.949 Y103.47 E7.25211
G1 X123.655 Y103.941 E7.28316
G1 X124.314 Y104.477 E7.31424
G1 X124.92 Y105.072 E7.34531
G1 X125.467 Y105.722 E7.37639
G1 X125.886 Y106.319 E7.40307
G1 X126.016 Y106.521 E7.41186
G1 X126.441 Y107.256 E7.44293
G1 X126.796 Y108.027 E7.47398
G1 X127.076 Y108.829 E7.50506
G1 X127.28 Y109.653 E7.53612
G1 X127.405 Y110.493 E7.56719
G1 X127.451 Y111.341 E7.59826
G1 X127.417 Y112.19 E7.62934
G1 X127.303 Y113.031 E7.66039
G1 X127.11 Y113.859 E7.6915
G1 X126.757 Y114.871 E7.73071
G1 X126.537 Y115.4 E7.75167
G1 X126.356 Y116.059 E7.77668
G1 X126.372 Y116.476 E7.79194
G1 X126.373 Y118.517 E7.86662
G1 X126.354 Y118.924 E7.88152
G1 X126.948 Y120.627 E7.94751
G1 X127.189 Y121.441 E7.97857
G1 X127.353 Y122.275 E8.00967
G1 X127.438 Y123.12 E8.04074
G1 X127.443 Y123.969 E8.0718
G1 X127.369 Y124.815 E8.10287
G1 X127.215 Y125.65 E8.13394
G1 X126.983 Y126.467 E8.16501
G1 X126.675 Y127.258 E8.19606
G1 X126.294 Y128.017 E8.22714
G1 X126.016 Y128.479 E8.24686
G1 X125.886 Y128.681 E8.25565
G1 X125.393 Y129.373 E8.28674
G1 X124.838 Y130.015 E8.31779
G1 X124.224 Y130.603 E8.34889
G1 X123.558 Y131.13 E8.37996
G1 X122.846 Y131.591 E8.41099
G1 X122.093 Y131.984 E8.44207
G1 X121.306 Y132.305 E8.47317
G1 X120.493 Y132.55 E8.50423
G1 X119.66 Y132.717 E8.53531
G1 X118.816 Y132.805 E8.56636
G1 X118.216 Y132.82 E8.58832
G1 X115.552 Y132.795 E8.68579
G1 X114.704 Y132.747 E8.71686
G1 X113.865 Y132.619 E8.74791
G1 X113.041 Y132.413 E8.77899
G1 X112.24 Y132.131 E8.81006
G1 X111.469 Y131.774 E8.84114
G1 X110.735 Y131.347 E8.87221
G1 X110.045 Y130.852 E8.90328
G1 X109.404 Y130.295 E8.93435
G1 X108.779 Y129.634 E8.96763
G1 X108.603 Y129.428 E8.97754
G1 X108.082 Y128.757 E9.00862
G1 X107.627 Y128.04 E9.03969
G1 X107.241 Y127.284 E9.07075
G1 X106.929 Y126.494 E9.10182
G1 X106.691 Y125.679 E9.13289
G1 X106.532 Y124.845 E9.16395
G1 X106.451 Y123.999 E9.19504
G1 X106.441 Y123.574 E9.2106
G1 X106.434 Y111.476 E9.65322
G1 X106.473 Y110.628 E9.68427
G1 X106.593 Y109.787 E9.71535
G1 X106.79 Y108.961 E9.74642
G1 X107.065 Y108.157 E9.77751
G1 X107.578 Y107.074 E9.82135
G1 X107.693 Y106.868 E9.82998
G1 X108.142 Y106.147 E9.86106
G1 X108.656 Y105.471 E9.89213
G1 X108.739 Y105.381 E9.89661
G0 F810 X109.231 Y104.847
M204 S5000
M205 X30 Y30
G0 F7200 X109.584 Y105.117
M204 S500
M205 X20 Y20
G1 F6000 E9.92321
G1 F900 X110.205 Y104.568 E9.95353
G1 X110.876 Y104.082 E9.98384
G1 X111.59 Y103.663 E10.01413
G1 X112.342 Y103.315 E10.04445
G1 X113.123 Y103.041 E10.07473
G1 X113.927 Y102.843 E10.10502
G1 X114.747 Y102.724 E10.13534
G1 X115.365 Y102.687 E10.15799
G1 X118.097 Y102.622 E10.25797
G1 X118.925 Y102.643 E10.28827
G1 X119.747 Y102.743 E10.31857
G1 X120.556 Y102.922 E10.34888
G1 X121.344 Y103.178 E10.3792
G1 X122.103 Y103.508 E10.40948
G1 X122.827 Y103.911 E10.43979
G1 X123.509 Y104.381 E10.4701
G1 X124.142 Y104.915 E10.50039
G1 X124.721 Y105.507 E10.53069
G1 X125.24 Y106.153 E10.56101
G1 X125.516 Y106.557 E10.57891
G1 X125.646 Y106.759 E10.5877
G1 X126.06 Y107.476 E10.61799
G1 X126.403 Y108.23 E10.6483
G1 X126.672 Y109.013 E10.67859
G1 X126.864 Y109.819 E10.7089
G1 X126.977 Y110.64 E10.73922
G1 X127.011 Y111.467 E10.7695
G1 X126.965 Y112.294 E10.79981
G1 X126.839 Y113.113 E10.83012
G1 X126.635 Y113.915 E10.8604
G1 X126.351 Y114.701 E10.89097
G1 X126.121 Y115.252 E10.91282
G1 X125.917 Y115.999 E10.94115
G1 X125.92 Y116.033 E10.9424
G1 X125.932 Y116.476 E10.95861
G1 X125.933 Y118.517 E11.03328
G1 X125.91 Y118.989 E11.05057
G1 X126.532 Y120.772 E11.11966
G1 X126.767 Y121.566 E11.14996
G1 X126.924 Y122.38 E11.18029
G1 X127.002 Y123.204 E11.21057
G1 X127 Y124.033 E11.2409
G1 X126.918 Y124.857 E11.27119
G1 X126.757 Y125.669 E11.30148
G1 X126.519 Y126.462 E11.33177
G1 X126.205 Y127.229 E11.36209
G1 X125.646 Y128.241 E11.40439
G1 X125.516 Y128.443 E11.41318
G1 X125.035 Y129.117 E11.44348
G1 X124.491 Y129.742 E11.47379
G1 X123.889 Y130.311 E11.5041
G1 X123.235 Y130.819 E11.53439
G1 X122.535 Y131.262 E11.5647
G1 X121.796 Y131.636 E11.59501
G1 X121.024 Y131.936 E11.62531
G1 X120.227 Y132.161 E11.65561
G1 X119.412 Y132.308 E11.6859
G1 X118.22 Y132.38 E11.7296
G1 X115.556 Y132.355 E11.82706
G1 X114.73 Y132.307 E11.85734
G1 X113.911 Y132.18 E11.88766
G1 X113.109 Y131.974 E11.91795
G1 X112.33 Y131.692 E11.94826
G1 X111.582 Y131.336 E11.97857
G1 X110.872 Y130.91 E12.00886
G1 X110.206 Y130.417 E12.03918
G1 X109.591 Y129.863 E12.06946
G1 X109.114 Y129.348 E12.09515
G1 X108.938 Y129.142 E12.10506
G1 X108.431 Y128.487 E12.13536
G1 X107.989 Y127.787 E12.16565
G1 X107.617 Y127.047 E12.19595
G1 X107.319 Y126.274 E12.22626
G1 X107.096 Y125.476 E12.25658
G1 X106.951 Y124.661 E12.28686
G1 X106.881 Y123.574 E12.32672
G1 X106.874 Y111.476 E12.76933
G1 X106.913 Y110.649 E12.79962
G1 X107.033 Y109.829 E12.82995
G1 X107.23 Y109.025 E12.86023
G1 X107.504 Y108.243 E12.89055
G1 X107.962 Y107.289 E12.92926
G1 X108.077 Y107.083 E12.93789
G1 X108.515 Y106.38 E12.9682
G1 X109.019 Y105.723 E12.99849
G1 X109.088 Y105.649 E13.0022
G0 F810 X109.584 Y105.117
M204 S5000
M205 X30 Y30
G0 F7200 X109.936 Y105.388
M204 S500
M205 X20 Y20
G1 F6000 E13.02879
G1 F900 X110.546 Y104.86 E13.05831
G1 X111.204 Y104.394 E13.08781
G1 X111.906 Y103.996 E13.11733
G1 X112.644 Y103.669 E13.14687
G1 X113.41 Y103.417 E13.17637
G1 X114.197 Y103.241 E13.20587
G1 X115.375 Y103.127 E13.24917
G1 X118.107 Y103.062 E13.34915
G1 X118.914 Y103.083 E13.37869
G1 X119.714 Y103.184 E13.40819
G1 X120.501 Y103.363 E13.43772
G1 X121.266 Y103.619 E13.46723
G1 X122.002 Y103.95 E13.49676
G1 X122.701 Y104.352 E13.52626
G1 X123.357 Y104.821 E13.55576
G1 X123.964 Y105.353 E13.58529
G1 X124.515 Y105.942 E13.6148
G1 X125.146 Y106.795 E13.65362
G1 X125.276 Y106.997 E13.66241
G1 X125.678 Y107.696 E13.69191
G1 X126.01 Y108.432 E13.72145
G1 X126.266 Y109.196 E13.75093
G1 X126.446 Y109.983 E13.78047
G1 X126.547 Y110.783 E13.80997
G1 X126.569 Y111.59 E13.8395
G1 X126.51 Y112.394 E13.869
G1 X126.372 Y113.189 E13.89852
G1 X126.157 Y113.966 E13.92802
G1 X125.945 Y114.532 E13.95013
G1 X125.701 Y115.117 E13.97332
G1 X125.461 Y115.992 E14.00651
G1 X125.492 Y116.476 E14.02426
G1 X125.493 Y118.517 E14.09893
G1 X125.466 Y119.052 E14.11853
G1 X126.117 Y120.917 E14.1908
G1 X126.344 Y121.691 E14.22031
G1 X126.494 Y122.484 E14.24984
G1 X126.565 Y123.287 E14.27933
G1 X126.556 Y124.094 E14.30886
G1 X126.467 Y124.896 E14.33838
G1 X126.299 Y125.685 E14.36789
G1 X126.054 Y126.453 E14.39739
G1 X125.734 Y127.194 E14.42692
G1 X125.276 Y128.003 E14.46093
G1 X125.146 Y128.205 E14.46972
G1 X124.676 Y128.861 E14.49924
G1 X124.144 Y129.467 E14.52874
G1 X123.554 Y130.018 E14.55828
G1 X122.913 Y130.507 E14.58778
G1 X122.227 Y130.931 E14.61728
G1 X121.501 Y131.284 E14.64682
G1 X120.745 Y131.564 E14.67631
G1 X119.964 Y131.768 E14.70584
G1 X119.167 Y131.894 E14.73537
G1 X118.225 Y131.94 E14.76987
G1 X115.561 Y131.915 E14.86734
G1 X114.755 Y131.867 E14.89688
G1 X113.959 Y131.74 E14.92637
G1 X113.178 Y131.535 E14.95591
G1 X112.422 Y131.253 E14.98543
G1 X111.698 Y130.898 E15.01494
G1 X111.012 Y130.474 E15.04444
G1 X110.372 Y129.983 E15.07395
G1 X109.783 Y129.431 E15.10349
G1 X109.448 Y129.063 E15.12169
G1 X109.272 Y128.857 E15.13161
G1 X108.779 Y128.218 E15.16113
G1 X108.352 Y127.534 E15.19063
G1 X107.994 Y126.811 E15.22015
G1 X107.71 Y126.056 E15.24966
G1 X107.502 Y125.276 E15.2792
G1 X107.372 Y124.48 E15.30871
G1 X107.321 Y123.574 E15.34191
G1 X107.314 Y111.476 E15.78453
G1 X107.354 Y110.67 E15.81405
G1 X107.473 Y109.872 E15.84357
G1 X107.67 Y109.09 E15.87307
G1 X107.944 Y108.331 E15.9026
G1 X108.347 Y107.503 E15.93629
G1 X108.462 Y107.297 E15.94492
G1 X108.889 Y106.613 E15.97442
G1 X109.382 Y105.975 E16.00392
G1 X109.437 Y105.916 E16.00687
G0 F810 X109.936 Y105.388
M204 S5000
M205 X30 Y30
G0 F7200 X110.288 Y105.662
M204 S500
M205 X20 Y20
G1 F6000 E16.03347
G1 F900 X110.885 Y105.153 E16.06217
G1 X111.532 Y104.708 E16.0909
G1 X112.22 Y104.332 E16.11959
G1 X112.943 Y104.027 E16.14829
G1 X113.693 Y103.797 E16.177
G1 X114.463 Y103.645 E16.20571
G1 X115.386 Y103.567 E16.2396
G1 X118.118 Y103.502 E16.33958
G1 X118.902 Y103.524 E16.36828
G1 X119.68 Y103.625 E16.39698
G1 X120.444 Y103.804 E16.42569
G1 X121.185 Y104.061 E16.45438
G1 X121.897 Y104.391 E16.48309
G1 X122.571 Y104.793 E16.51181
G1 X123.201 Y105.26 E16.5405
G1 X123.78 Y105.79 E16.56922
G1 X124.302 Y106.376 E16.59793
G1 X124.776 Y107.033 E16.62757
G1 X124.906 Y107.235 E16.63636
G1 X125.296 Y107.915 E16.66504
G1 X125.616 Y108.632 E16.69376
G1 X125.86 Y109.378 E16.72248
G1 X126.028 Y110.144 E16.75117
G1 X126.116 Y110.924 E16.77989
G1 X126.125 Y111.708 E16.80857
G1 X126.054 Y112.49 E16.8373
G1 X125.904 Y113.26 E16.866
G1 X125.539 Y114.363 E16.90851
G1 X125.285 Y114.972 E16.93265
G1 X125.024 Y115.925 E16.9688
G1 X125.052 Y116.476 E16.98899
G1 X125.053 Y118.517 E17.06366
G1 X125.022 Y119.117 E17.08564
G1 X125.701 Y121.062 E17.16101
G1 X125.922 Y121.815 E17.18972
G1 X126.064 Y122.587 E17.21844
G1 X126.128 Y123.369 E17.24715
G1 X126.111 Y124.153 E17.27584
G1 X126.015 Y124.932 E17.30455
G1 X125.84 Y125.697 E17.33326
G1 X125.588 Y126.44 E17.36197
G1 X125.261 Y127.153 E17.39067
G1 X124.906 Y127.765 E17.41655
G1 X124.776 Y127.967 E17.42534
G1 X124.318 Y128.604 E17.45404
G1 X123.798 Y129.192 E17.48276
