;FLAVOR:Marlin
;TIME:1409
;Filament used: 0.959475m
;Layer height: 0.16
;Generated with Cura_SteamEngine 3.6.0
M140 S70
M105
M190 S70
M104 S215
M105
M109 S215
M82 ;absolute extrusion mode
G28 ; home all axes
M117 Purge extruder
G92 E0 ; reset extruder
G1 Z1.0 F3000 ; move z up little to prevent scratching of surface
G1 X0.1 Y20 Z0.3 F5000.0 ; move to start-line position G1 X0.1 Y200.0 Z0.3 F1500.0 E15 ; draw 1st line
G1 X0.4 Y200.0 Z0.3 F5000.0 ; move to side a little
G1 X0.4 Y20 Z0.3 F1500.0 E30 ; draw 2nd line
G92 E0 ; reset extruder
G1 Z1.0 F3000 ; move z up little to prevent scratching of surface
M117 All systems go!
G92 E0
G1 F6000 E-5
;LAYER_COUNT:60
;LAYER:0
M107
M204 S5000
M205 X30 Y30
G0 F7200 X94.886 Y111.645 Z0.2
M204 S500
M205 X20 Y20
;TYPE:SKIRT
G1 F6000 E0
G1 F900 X95.404 Y111.276 E0.02327
G1 X95.791 Y111.058 E0.03952
G1 X96.509 Y110.695 E0.06895
G1 X97.093 Y110.445 E0.0922
G1 X97.948 Y110.222 E0.12452
G1 X98.894 Y110.062 E0.15963
G1 X99.527 Y109.995 E0.18291
G1 X99.974 Y110.005 E0.19927
G1 X100.1 Y109.958 E0.20419
G1 X100.884 Y109.789 E0.23353
G1 X101.444 Y109.714 E0.25421
G1 X102.079 Y109.669 E0.2775
G1 X102.357 Y109.684 E0.28768
G1 X102.527 Y109.623 E0.29429
G1 X103.267 Y109.468 E0.32195
G1 X103.821 Y109.394 E0.3424
G1 X104.455 Y109.349 E0.36565
G1 X104.733 Y109.365 E0.37584
G1 X104.907 Y109.302 E0.38261
G1 X105.639 Y109.148 E0.40998
G1 X106.194 Y109.073 E0.43047
G1 X106.829 Y109.027 E0.45376
G1 X107.117 Y109.043 E0.46432
G1 X107.283 Y108.983 E0.47077
G1 X108.029 Y108.827 E0.49866
G1 X108.588 Y108.753 E0.51929
G1 X109.222 Y108.709 E0.54254
G1 X109.493 Y108.724 E0.55247
G1 X109.663 Y108.663 E0.55908
G1 X110.407 Y108.507 E0.58689
G1 X110.964 Y108.433 E0.60745
G1 X111.598 Y108.389 E0.6307
G1 X111.872 Y108.405 E0.64074
G1 X112.042 Y108.343 E0.64736
G1 X112.83 Y108.181 E0.67679
G1 X116.882 Y107.679 E0.82617
G1 X117.517 Y107.641 E0.84945
G1 X118.127 Y107.679 E0.87181
G1 X122.182 Y108.182 E1.0213
G1 X122.807 Y108.3 E1.04457
G1 X123.126 Y108.403 E1.05684
G1 X123.447 Y108.387 E1.06859
G1 X124.074 Y108.435 E1.0916
G1 X124.63 Y108.512 E1.11214
G1 X125.253 Y108.638 E1.13539
G1 X125.509 Y108.725 E1.14528
G1 X125.684 Y108.711 E1.15171
G1 X126.442 Y108.756 E1.17949
G1 X126.994 Y108.831 E1.19987
G1 X127.618 Y108.956 E1.22315
G1 X127.875 Y109.042 E1.23307
G1 X127.98 Y109.032 E1.23693
G1 X128.77 Y109.07 E1.26586
G1 X129.33 Y109.141 E1.28652
G1 X129.955 Y109.261 E1.3098
G1 X130.273 Y109.364 E1.32203
G1 X130.562 Y109.349 E1.33262
G1 X131.176 Y109.393 E1.35514
G1 X131.736 Y109.467 E1.3758
G1 X132.36 Y109.589 E1.39907
G1 X132.637 Y109.681 E1.40975
G1 X132.792 Y109.668 E1.41544
G1 X133.574 Y109.713 E1.44409
G1 X134.134 Y109.789 E1.46477
G1 X134.758 Y109.914 E1.48805
G1 X135.012 Y109.999 E1.49785
G1 X135.122 Y109.989 E1.50189
G1 X135.758 Y110.01 E1.52517
G1 X136.132 Y110.061 E1.53898
G1 X137.082 Y110.225 E1.57426
G1 X137.7 Y110.372 E1.5975
G1 X138.534 Y110.71 E1.63042
G1 X139.256 Y111.081 E1.66012
G1 X139.802 Y111.407 E1.68338
G1 X140.303 Y111.799 E1.70666
G1 X140.614 Y112.099 E1.72247
G1 X141.169 Y112.684 E1.75197
G1 X141.577 Y113.172 E1.77524
G1 X141.92 Y113.708 E1.79852
G1 X142.116 Y114.099 E1.81453
G1 X142.442 Y114.827 E1.84371
G1 X142.665 Y115.423 E1.86699
G1 X142.811 Y116.041 E1.89022
G1 X142.865 Y116.454 E1.90546
G1 X142.936 Y117.265 E1.93525
G1 X142.951 Y117.9 E1.95849
G1 X142.887 Y118.533 E1.98176
G1 X142.79 Y118.989 E1.99882
G1 X142.584 Y119.775 E2.02855
G1 X142.384 Y120.379 E2.05182
G1 X142.11 Y120.953 E2.0751
G1 X141.881 Y121.326 E2.09111
G1 X141.43 Y121.993 E2.12057
G1 X141.041 Y122.497 E2.14386
G1 X140.582 Y122.957 E2.16763
G1 X140.281 Y123.222 E2.18231
G1 X139.778 Y123.611 E2.20557
G1 X139.225 Y123.937 E2.22906
G1 X138.505 Y124.302 E2.25859
G1 X137.921 Y124.554 E2.28186
G1 X137.08 Y124.775 E2.31367
G1 X136.138 Y124.938 E2.34865
G1 X135.506 Y125.007 E2.37191
G1 X135.025 Y124.999 E2.38951
G1 X134.908 Y125.042 E2.39407
G1 X134.121 Y125.212 E2.42353
G1 X133.565 Y125.286 E2.44405
G1 X132.93 Y125.33 E2.46734
G1 X132.655 Y125.314 E2.47742
G1 X132.458 Y125.384 E2.48507
G1 X131.745 Y125.533 E2.51171
G1 X131.194 Y125.607 E2.53205
G1 X130.559 Y125.652 E2.55534
G1 X130.275 Y125.636 E2.56575
G1 X130.152 Y125.682 E2.57056
G1 X129.368 Y125.851 E2.5999
G1 X128.808 Y125.926 E2.62057
G1 X128.173 Y125.971 E2.64386
G1 X127.895 Y125.956 E2.65405
G1 X127.723 Y126.018 E2.66074
G1 X126.992 Y126.172 E2.68807
G1 X126.438 Y126.247 E2.70852
G1 X125.804 Y126.293 E2.73178
G1 X125.509 Y126.277 E2.74259
G1 X125.345 Y126.336 E2.74896
G1 X124.626 Y126.489 E2.77586
G1 X124.075 Y126.565 E2.79621
G1 X123.441 Y126.612 E2.81947
G1 X123.137 Y126.596 E2.8306
G1 X123.016 Y126.641 E2.83533
G1 X122.184 Y126.816 E2.86643
G1 X118.127 Y127.32 E3.016
G1 X117.492 Y127.359 E3.03928
G1 X116.88 Y127.32 E3.06172
G1 X112.828 Y126.817 E3.2111
G1 X112.203 Y126.7 E3.23436
G1 X111.88 Y126.595 E3.24679
G1 X111.704 Y126.609 E3.25325
G1 X110.968 Y126.567 E3.28022
G1 X110.412 Y126.494 E3.30074
G1 X109.788 Y126.372 E3.324
G1 X109.507 Y126.279 E3.33483
G1 X109.37 Y126.291 E3.33986
G1 X108.578 Y126.247 E3.36888
G1 X108.019 Y126.172 E3.38952
G1 X107.395 Y126.048 E3.41279
G1 X107.127 Y125.959 E3.42312
G1 X106.979 Y125.971 E3.42856
G1 X106.182 Y125.925 E3.45776
G1 X105.623 Y125.848 E3.47841
G1 X104.999 Y125.721 E3.50171
G1 X104.745 Y125.635 E3.51152
G1 X104.55 Y125.65 E3.51867
G1 X103.829 Y125.607 E3.5451
G1 X103.275 Y125.534 E3.56554
G1 X102.651 Y125.411 E3.58881
G1 X102.373 Y125.319 E3.59952
G1 X102.217 Y125.332 E3.60525
G1 X101.433 Y125.287 E3.63398
G1 X100.874 Y125.211 E3.65462
G1 X100.251 Y125.086 E3.67787
G1 X99.982 Y124.995 E3.68826
G1 X99.69 Y125.011 E3.69896
G1 X99.088 Y124.969 E3.72104
G1 X98.533 Y124.897 E3.74151
G1 X97.651 Y124.701 E3.77457
G1 X96.871 Y124.453 E3.80451
G1 X96.278 Y124.223 E3.82778
G1 X95.719 Y123.92 E3.85105
G1 X95.362 Y123.674 E3.86691
G1 X94.716 Y123.188 E3.89648
G1 X94.233 Y122.775 E3.91974
G1 X93.805 Y122.304 E3.94302
G1 X93.546 Y121.949 E3.9591
G1 X93.1 Y121.279 E3.98854
G1 X92.781 Y120.728 E4.01184
G1 X92.535 Y120.142 E4.03509
G1 X92.406 Y119.715 E4.05141
G1 X92.207 Y118.928 E4.08111
G1 X92.091 Y118.303 E4.10437
G1 X92.053 Y117.669 E4.1276
G1 X92.074 Y117.226 E4.14383
G1 X92.148 Y116.419 E4.17348
G1 X92.246 Y115.791 E4.19673
G1 X92.422 Y115.179 E4.22003
G1 X92.582 Y114.785 E4.23559
G1 X92.912 Y114.06 E4.26473
G1 X93.211 Y113.499 E4.28799
G1 X93.578 Y112.98 E4.31125
G1 X93.861 Y112.657 E4.32696
G1 X94.355 Y112.141 E4.35309
G0 F810 X94.418 Y112.075
G0 X94.886 Y111.645
M204 S5000
M205 X30 Y30
G0 F7200 X95.184 Y111.969
M204 S500
M205 X20 Y20
G1 F6000 E4.37969
G1 F900 X95.682 Y111.621 E4.40192
G1 X95.99 Y111.451 E4.41479
G1 X96.708 Y111.088 E4.44422
G1 X97.267 Y110.85 E4.46645
G1 X98.022 Y110.656 E4.49497
G1 X98.968 Y110.496 E4.53007
G1 X99.572 Y110.434 E4.55229
G1 X100.047 Y110.448 E4.56967
G1 X100.331 Y110.349 E4.58068
G1 X100.943 Y110.225 E4.60352
G1 X101.503 Y110.15 E4.62419
G1 X102.109 Y110.109 E4.64642
G1 X102.421 Y110.129 E4.65786
G1 X102.754 Y110.017 E4.67071
G1 X103.325 Y109.904 E4.692
G1 X103.879 Y109.83 E4.71245
G1 X104.486 Y109.789 E4.73471
G1 X104.798 Y109.809 E4.74615
G1 X105.134 Y109.696 E4.75912
G1 X105.698 Y109.584 E4.78016
G1 X106.253 Y109.509 E4.80065
G1 X106.859 Y109.467 E4.82287
G1 X107.183 Y109.487 E4.83475
G1 X107.51 Y109.377 E4.84737
G1 X108.087 Y109.263 E4.86889
G1 X108.646 Y109.189 E4.88952
G1 X109.252 Y109.149 E4.91174
G1 X109.557 Y109.169 E4.92292
G1 X109.89 Y109.057 E4.93577
G1 X110.465 Y108.943 E4.95722
G1 X111.022 Y108.869 E4.97778
G1 X111.628 Y108.829 E5
G1 X111.936 Y108.849 E5.01129
G1 X112.269 Y108.737 E5.02414
G1 X112.884 Y108.618 E5.04706
G1 X116.936 Y108.116 E5.19644
G1 X117.543 Y108.081 E5.21869
G1 X118.073 Y108.116 E5.23812
G1 X122.128 Y108.619 E5.38761
G1 X122.724 Y108.733 E5.40981
G1 X123.048 Y108.841 E5.42231
G1 X123.63 Y108.834 E5.4436
G1 X124.014 Y108.871 E5.45772
G1 X124.57 Y108.948 E5.47825
G1 X125.165 Y109.07 E5.50048
G1 X125.452 Y109.17 E5.5116
G1 X125.799 Y109.15 E5.52431
G1 X126.383 Y109.192 E5.54573
G1 X126.935 Y109.267 E5.56611
G1 X127.53 Y109.388 E5.58833
G1 X127.825 Y109.49 E5.59975
G1 X128.102 Y109.47 E5.60991
G1 X128.715 Y109.507 E5.63238
G1 X129.275 Y109.578 E5.65303
G1 X129.872 Y109.694 E5.67528
G1 X130.198 Y109.803 E5.68786
G1 X130.747 Y109.795 E5.70794
G1 X131.118 Y109.829 E5.72158
G1 X131.678 Y109.903 E5.74224
G1 X132.274 Y110.022 E5.76448
G1 X132.583 Y110.127 E5.77642
G1 X132.909 Y110.107 E5.78837
G1 X133.515 Y110.149 E5.81059
G1 X134.075 Y110.225 E5.83127
G1 X134.671 Y110.346 E5.85352
G1 X134.965 Y110.447 E5.86489
G1 X135.244 Y110.427 E5.87512
G1 X136.057 Y110.494 E5.90497
G1 X137.007 Y110.658 E5.94024
G1 X137.598 Y110.801 E5.96249
G1 X138.333 Y111.102 E5.99155
G1 X139.055 Y111.473 E6.02124
G1 X139.576 Y111.785 E6.04346
G1 X140.051 Y112.164 E6.06569
G1 X140.295 Y112.402 E6.07816
G1 X140.85 Y112.987 E6.10767
G1 X141.238 Y113.455 E6.12991
G1 X141.562 Y113.969 E6.15214
G1 X141.715 Y114.279 E6.16479
G1 X142.041 Y115.007 E6.19397
G1 X142.252 Y115.577 E6.21621
G1 X142.387 Y116.169 E6.23842
G1 X142.426 Y116.492 E6.25032
G1 X142.497 Y117.303 E6.28011
G1 X142.51 Y117.911 E6.30236
G1 X142.444 Y118.514 E6.32455
G1 X142.364 Y118.877 E6.33815
G1 X142.158 Y119.663 E6.36788
G1 X141.966 Y120.24 E6.39013
G1 X141.699 Y120.786 E6.41236
G1 X141.516 Y121.08 E6.42503
G1 X141.065 Y121.747 E6.45449
G1 X140.693 Y122.227 E6.47671
G1 X140.291 Y122.627 E6.49746
G1 X139.99 Y122.892 E6.51213
G1 X139.508 Y123.262 E6.53436
G1 X139.026 Y123.545 E6.55481
G1 X138.306 Y123.91 E6.58434
G1 X137.747 Y124.148 E6.60657
G1 X137.005 Y124.341 E6.63462
G1 X136.063 Y124.504 E6.6696
G1 X135.458 Y124.568 E6.69186
G1 X134.952 Y124.555 E6.71038
G1 X134.678 Y124.651 E6.721
G1 X134.063 Y124.776 E6.74396
G1 X133.507 Y124.85 E6.76448
G1 X132.9 Y124.89 E6.78674
G1 X132.594 Y124.87 E6.79795
G1 X132.233 Y124.99 E6.81187
G1 X131.686 Y125.097 E6.83226
G1 X131.135 Y125.171 E6.8526
G1 X130.529 Y125.212 E6.87483
G1 X130.207 Y125.191 E6.88663
G1 X129.921 Y125.291 E6.89772
G1 X129.309 Y125.415 E6.92056
G1 X128.749 Y125.49 E6.94123
G1 X128.143 Y125.531 E6.96346
G1 X127.832 Y125.511 E6.97486
G1 X127.496 Y125.624 E6.98783
G1 X126.933 Y125.736 E7.00883
G1 X126.379 Y125.811 E7.02928
G1 X125.773 Y125.853 E7.05151
G1 X125.443 Y125.832 E7.0636
G1 X125.118 Y125.942 E7.07616
G1 X124.566 Y126.053 E7.09676
G1 X124.015 Y126.129 E7.11711
G1 X123.409 Y126.172 E7.13933
G1 X123.069 Y126.151 E7.1518
G1 X122.785 Y126.25 E7.1628
G1 X122.13 Y126.38 E7.18723
G1 X118.073 Y126.884 E7.3368
G1 X117.466 Y126.919 E7.35905
G1 X116.934 Y126.884 E7.37855
G1 X112.882 Y126.381 E7.52794
G1 X112.285 Y126.266 E7.55018
G1 X111.935 Y126.15 E7.56367
G1 X111.589 Y126.17 E7.57635
G1 X111.026 Y126.131 E7.597
G1 X110.47 Y126.058 E7.61752
G1 X109.874 Y125.939 E7.63975
G1 X109.559 Y125.832 E7.65192
G1 X109.252 Y125.852 E7.66318
G1 X108.637 Y125.811 E7.68573
G1 X108.078 Y125.736 E7.70636
G1 X107.482 Y125.616 E7.72861
G1 X107.179 Y125.512 E7.74033
G1 X106.861 Y125.532 E7.75199
G1 X106.242 Y125.489 E7.77469
G1 X105.683 Y125.412 E7.79533
G1 X105.087 Y125.289 E7.8176
G1 X104.802 Y125.19 E7.82863
G1 X104.437 Y125.21 E7.84201
G1 X103.886 Y125.17 E7.86222
G1 X103.332 Y125.097 E7.88266
G1 X102.737 Y124.979 E7.90486
G1 X102.425 Y124.873 E7.91691
G1 X102.1 Y124.893 E7.92883
G1 X101.493 Y124.851 E7.95109
G1 X100.934 Y124.775 E7.97173
G1 X100.338 Y124.654 E7.99398
G1 X100.058 Y124.557 E8.00482
G1 X99.505 Y124.565 E8.02505
G1 X99.145 Y124.533 E8.03828
G1 X98.59 Y124.461 E8.05875
G1 X97.784 Y124.282 E8.08896
G1 X97.004 Y124.034 E8.1189
G1 X96.438 Y123.812 E8.14115
G1 X95.907 Y123.518 E8.16335
G1 X95.627 Y123.323 E8.17584
G1 X94.981 Y122.837 E8.20541
G1 X94.52 Y122.44 E8.22767
G1 X94.116 Y121.987 E8.24988
G1 X93.912 Y121.705 E8.26261
G1 X93.466 Y121.035 E8.29206
G1 X93.163 Y120.508 E8.3143
G1 X92.933 Y119.946 E8.33652
G1 X92.833 Y119.608 E8.34941
G1 X92.634 Y118.821 E8.37911
G1 X92.524 Y118.223 E8.40136
G1 X92.494 Y117.616 E8.42359
G1 X92.512 Y117.266 E8.43641
G1 X92.586 Y116.459 E8.46606
G1 X92.681 Y115.859 E8.48829
G1 X92.855 Y115.277 E8.51051
G1 X92.982 Y114.967 E8.52277
G1 X93.312 Y114.242 E8.55191
G1 X93.6 Y113.707 E8.57414
G1 X93.955 Y113.214 E8.59637
G1 X94.179 Y112.962 E8.6087
G1 X94.653 Y112.466 E8.63381
G0 F810 X94.736 Y112.38
G0 X95.184 Y111.969
M204 S5000
M205 X30 Y30
G0 F7200 X95.482 Y112.295
M204 S500
M205 X20 Y20
G1 F6000 E8.6604
G1 F900 X96.188 Y111.844 E8.69105
G1 X96.906 Y111.481 E8.72049
G1 X97.439 Y111.256 E8.74166
G1 X98.095 Y111.09 E8.76641
G1 X99.041 Y110.93 E8.80151
G1 X99.616 Y110.873 E8.82265
G1 X100.099 Y110.892 E8.84034
G1 X100.557 Y110.745 E8.85794
G1 X101.001 Y110.661 E8.87447
G1 X101.561 Y110.586 E8.89514
G1 X102.138 Y110.549 E8.9163
G1 X102.465 Y110.573 E8.92829
G1 X102.976 Y110.415 E8.94786
G1 X103.384 Y110.34 E8.96304
G1 X103.938 Y110.266 E8.98349
G1 X104.514 Y110.229 E9.0046
G1 X104.841 Y110.253 E9.0166
G1 X105.356 Y110.094 E9.03632
G1 X105.757 Y110.02 E9.05124
G1 X106.312 Y109.945 E9.07173
G1 X106.889 Y109.907 E9.09288
G1 X107.226 Y109.932 E9.10525
G1 X107.732 Y109.775 E9.12463
G1 X108.144 Y109.699 E9.13996
G1 X108.703 Y109.625 E9.16059
G1 X109.28 Y109.589 E9.18174
G1 X109.601 Y109.613 E9.19352
G1 X110.112 Y109.455 E9.21308
G1 X110.523 Y109.379 E9.22838
G1 X111.08 Y109.305 E9.24893
G1 X111.656 Y109.269 E9.27005
G1 X111.979 Y109.294 E9.2819
G1 X112.491 Y109.135 E9.30152
G1 X112.938 Y109.055 E9.31813
G1 X116.99 Y108.553 E9.46751
G1 X117.567 Y108.521 E9.48865
G1 X118.019 Y108.553 E9.50523
G1 X122.074 Y109.056 E9.65472
G1 X122.641 Y109.166 E9.67586
G1 X123.01 Y109.293 E9.69013
G1 X123.226 Y109.27 E9.69808
G1 X123.953 Y109.307 E9.72471
G1 X124.509 Y109.384 E9.74525
G1 X125.075 Y109.502 E9.7664
G1 X125.376 Y109.61 E9.7781
G1 X125.908 Y109.593 E9.79758
G1 X126.324 Y109.628 E9.81285
G1 X126.876 Y109.703 E9.83323
G1 X127.442 Y109.82 E9.85438
G1 X127.76 Y109.933 E9.86672
G1 X128.218 Y109.911 E9.8835
G1 X128.66 Y109.943 E9.89971
G1 X129.22 Y110.014 E9.92036
G1 X129.787 Y110.126 E9.94151
G1 X130.153 Y110.253 E9.95568
G1 X130.344 Y110.232 E9.96271
G1 X131.061 Y110.265 E9.98897
G1 X131.621 Y110.339 E10.00964
G1 X132.187 Y110.454 E10.03077
G1 X132.512 Y110.568 E10.04337
G1 X133.02 Y110.549 E10.06197
G1 X133.456 Y110.585 E10.07798
G1 X134.016 Y110.661 E10.09865
G1 X134.582 Y110.778 E10.1198
G1 X134.897 Y110.89 E10.13203
G1 X135.359 Y110.868 E10.14895
G1 X135.982 Y110.928 E10.17185
G1 X136.932 Y111.092 E10.20712
G1 X137.493 Y111.229 E10.22825
G1 X138.131 Y111.493 E10.25351
G1 X138.853 Y111.864 E10.28321
G1 X139.348 Y112.163 E10.30437
G1 X139.975 Y112.705 E10.33469
G1 X140.53 Y113.29 E10.36419
G1 X140.898 Y113.736 E10.38535
G1 X141.313 Y114.459 E10.41585
G1 X141.639 Y115.187 E10.44503
G1 X141.838 Y115.729 E10.46615
G1 X141.988 Y116.53 E10.49597
G1 X142.059 Y117.341 E10.52575
G1 X142.07 Y117.919 E10.5469
G1 X141.938 Y118.766 E10.57827
G1 X141.732 Y119.552 E10.60799
G1 X141.548 Y120.099 E10.62911
G1 X141.152 Y120.833 E10.65962
G1 X140.701 Y121.5 E10.68908
G1 X140.345 Y121.956 E10.71024
G1 X140 Y122.296 E10.72797
G1 X139.699 Y122.561 E10.74264
G1 X139.24 Y122.912 E10.76378
G1 X138.827 Y123.152 E10.78125
G1 X138.107 Y123.517 E10.81079
G1 X137.575 Y123.742 E10.83192
G1 X136.93 Y123.908 E10.85629
G1 X135.988 Y124.071 E10.89126
G1 X135.413 Y124.13 E10.91241
G1 X134.899 Y124.111 E10.93123
G1 X134.452 Y124.255 E10.94841
G1 X134.004 Y124.339 E10.96509
G1 X133.448 Y124.413 E10.98561
G1 X132.872 Y124.45 E11.00673
G1 X132.553 Y124.426 E11.01843
G1 X132.012 Y124.591 E11.03912
G1 X131.627 Y124.661 E11.05344
G1 X131.076 Y124.735 E11.07378
G1 X130.5 Y124.772 E11.0949
G1 X130.157 Y124.746 E11.10748
G1 X129.695 Y124.895 E11.12524
G1 X129.251 Y124.979 E11.14178
G1 X128.691 Y125.054 E11.16245
G1 X128.114 Y125.091 E11.1836
G1 X127.788 Y125.067 E11.19556
G1 X127.274 Y125.226 E11.21524
G1 X126.874 Y125.3 E11.23013
G1 X126.32 Y125.375 E11.25058
G1 X125.743 Y125.413 E11.27174
G1 X125.4 Y125.388 E11.28432
G1 X124.896 Y125.544 E11.30362
G1 X124.506 Y125.617 E11.31814
G1 X123.955 Y125.693 E11.33849
G1 X123.379 Y125.732 E11.35961
G1 X123.018 Y125.706 E11.37285
G1 X122.559 Y125.854 E11.3905
