;FLAVOR:Marlin
;TIME:3999
;Filament used: 3.45518m
;Layer height: 0.16
;Generated with Cura_SteamEngine 3.6.0
M140 S70
M105
M190 S70
M104 S215
M105
M109 S215
M82 ;absolute extrusion mode
G28 ; home all axes
M117 Purge extruder
G92 E0 ; reset extruder
G1 Z1.0 F3000 ; move z up little to prevent scratching of surface
G1 X0.1 Y20 Z0.3 F5000.0 ; move to start-line position G1 X0.1 Y200.0 Z0.3 F1500.0 E15 ; draw 1st line
G1 X0.4 Y200.0 Z0.3 F5000.0 ; move to side a little
G1 X0.4 Y20 Z0.3 F1500.0 E30 ; draw 2nd line
G92 E0 ; reset extruder
G1 Z1.0 F3000 ; move z up little to prevent scratching of surface
M117 All systems go!
G92 E0
G1 F6000 E-5
;LAYER_COUNT:141
;LAYER:0
M107
M204 S5000
M205 X30 Y30
G0 F7200 X90.277 Y108.349 Z0.2
M204 S500
M205 X20 Y20
;TYPE:SKIRT
G1 F6000 E0
G1 F900 X90.792 Y107.976 E0.02326
G1 X91.35 Y107.67 E0.04655
G1 X91.941 Y107.436 E0.0698
G1 X92.557 Y107.279 E0.09306
G1 X93.5 Y107.19 E0.12772
G1 X141.5 Y107.19 E1.88385
G1 X142.135 Y107.23 E1.90713
G1 X142.759 Y107.349 E1.93037
G1 X143.364 Y107.546 E1.95365
G1 X143.939 Y107.817 E1.9769
G1 X144.476 Y108.158 E2.00018
G1 X144.966 Y108.563 E2.02344
G1 X145.401 Y109.027 E2.04671
G1 X145.774 Y109.542 E2.06997
G1 X146.08 Y110.1 E2.09325
G1 X146.314 Y110.691 E2.11651
G1 X146.471 Y111.307 E2.13977
G1 X146.56 Y112.25 E2.17442
G1 X146.56 Y122.25 E2.54028
G1 X146.52 Y122.885 E2.56356
G1 X146.401 Y123.509 E2.5868
G1 X146.204 Y124.114 E2.61008
G1 X145.933 Y124.689 E2.63334
G1 X145.592 Y125.226 E2.65661
G1 X145.187 Y125.716 E2.67987
G1 X144.723 Y126.151 E2.70314
G1 X144.208 Y126.524 E2.7264
G1 X143.65 Y126.83 E2.74969
G1 X143.059 Y127.064 E2.77294
G1 X142.443 Y127.221 E2.7962
G1 X141.5 Y127.31 E2.83085
G1 X93.5 Y127.31 E4.58699
G1 X92.865 Y127.27 E4.61027
G1 X92.241 Y127.151 E4.63351
G1 X91.636 Y126.954 E4.65679
G1 X91.061 Y126.683 E4.68004
G1 X90.524 Y126.342 E4.70332
G1 X90.034 Y125.937 E4.72657
G1 X89.599 Y125.473 E4.74984
G1 X89.226 Y124.958 E4.77311
G1 X88.92 Y124.4 E4.79639
G1 X88.686 Y123.809 E4.81965
G1 X88.529 Y123.193 E4.8429
G1 X88.44 Y122.25 E4.87756
G1 X88.44 Y112.25 E5.24342
G1 X88.48 Y111.615 E5.2667
G1 X88.599 Y110.991 E5.28994
G1 X88.796 Y110.386 E5.31322
G1 X89.067 Y109.811 E5.33647
G1 X89.408 Y109.274 E5.35975
G1 X89.755 Y108.854 E5.37968
G0 F810 X89.813 Y108.784
G0 X90.277 Y108.349
M204 S5000
M205 X30 Y30
G0 F7200 X90.706 Y108.571
M204 S500
M205 X20 Y20
G1 F6000 E5.40628
G1 F900 X91.213 Y108.236 E5.42851
G1 X91.759 Y107.97 E5.45073
G1 X92.336 Y107.779 E5.47297
G1 X92.933 Y107.665 E5.4952
G1 X93.5 Y107.63 E5.51599
G1 X141.5 Y107.63 E7.27212
G1 X142.106 Y107.67 E7.29434
G1 X142.702 Y107.789 E7.31658
G1 X143.277 Y107.985 E7.3388
G1 X143.821 Y108.256 E7.36104
G1 X144.326 Y108.595 E7.38329
G1 X144.781 Y108.997 E7.40551
G1 X145.179 Y109.456 E7.42773
G1 X145.514 Y109.963 E7.44997
G1 X145.78 Y110.509 E7.47219
G1 X145.971 Y111.086 E7.49442
G1 X146.085 Y111.683 E7.51666
G1 X146.12 Y112.25 E7.53744
G1 X146.12 Y122.25 E7.9033
G1 X146.08 Y122.856 E7.92552
G1 X145.961 Y123.452 E7.94776
G1 X145.765 Y124.027 E7.96999
G1 X145.494 Y124.571 E7.99222
G1 X145.155 Y125.076 E8.01447
G1 X144.753 Y125.531 E8.03669
G1 X144.294 Y125.929 E8.05891
G1 X143.787 Y126.264 E8.08115
G1 X143.241 Y126.53 E8.10337
G1 X142.664 Y126.721 E8.1256
G1 X142.067 Y126.835 E8.14784
G1 X141.5 Y126.87 E8.16862
G1 X93.5 Y126.87 E9.92476
G1 X92.894 Y126.83 E9.94698
G1 X92.298 Y126.711 E9.96921
G1 X91.723 Y126.515 E9.99144
G1 X91.179 Y126.244 E10.01368
G1 X90.674 Y125.905 E10.03593
G1 X90.219 Y125.503 E10.05814
G1 X89.821 Y125.044 E10.08037
G1 X89.486 Y124.537 E10.1026
G1 X89.22 Y123.991 E10.12482
G1 X89.029 Y123.414 E10.14706
G1 X88.915 Y122.817 E10.1693
G1 X88.88 Y122.25 E10.19008
G1 X88.88 Y112.25 E10.55594
G1 X88.92 Y111.644 E10.57816
G1 X89.039 Y111.048 E10.6004
G1 X89.235 Y110.473 E10.62262
G1 X89.506 Y109.929 E10.64486
G1 X89.845 Y109.424 E10.66711
G1 X90.168 Y109.058 E10.68497
G0 F810 X90.247 Y108.969
G0 X90.706 Y108.571
M204 S5000
M205 X30 Y30
G0 F7200 X90.68 Y109.165
M204 S500
M205 X20 Y20
G1 F6000 E10.71157
G1 F900 X91.132 Y108.805 E10.73271
G1 X91.63 Y108.512 E10.75385
G1 X92.163 Y108.289 E10.77499
G1 X92.723 Y108.143 E10.79616
G1 X93.5 Y108.07 E10.82471
G1 X141.5 Y108.07 E12.58085
G1 X142.077 Y108.11 E12.60201
G1 X142.642 Y108.229 E12.62313
G1 X143.186 Y108.425 E12.64429
G1 X143.697 Y108.694 E12.66542
G1 X144.167 Y109.031 E12.68658
G1 X144.585 Y109.43 E12.70772
G1 X144.945 Y109.882 E12.72886
G1 X145.238 Y110.38 E12.75
G1 X145.461 Y110.913 E12.77114
G1 X145.607 Y111.473 E12.79231
G1 X145.68 Y112.25 E12.82086
G1 X145.68 Y122.25 E13.18672
G1 X145.64 Y122.827 E13.20788
G1 X145.521 Y123.392 E13.22901
G1 X145.325 Y123.936 E13.25016
G1 X145.056 Y124.447 E13.27129
G1 X144.719 Y124.917 E13.29245
G1 X144.32 Y125.335 E13.31359
G1 X143.868 Y125.695 E13.33473
G1 X143.37 Y125.988 E13.35587
G1 X142.837 Y126.211 E13.37701
G1 X142.277 Y126.357 E13.39818
G1 X141.5 Y126.43 E13.42674
G1 X93.5 Y126.43 E15.18287
G1 X92.923 Y126.39 E15.20403
G1 X92.358 Y126.271 E15.22516
G1 X91.814 Y126.075 E15.24631
G1 X91.303 Y125.806 E15.26744
G1 X90.833 Y125.469 E15.2886
G1 X90.415 Y125.07 E15.30974
G1 X90.055 Y124.618 E15.33088
G1 X89.762 Y124.12 E15.35202
G1 X89.539 Y123.587 E15.37316
G1 X89.393 Y123.027 E15.39433
G1 X89.32 Y122.25 E15.42289
G1 X89.32 Y112.25 E15.78875
G1 X89.36 Y111.673 E15.80991
G1 X89.479 Y111.108 E15.83103
G1 X89.675 Y110.564 E15.85219
G1 X89.944 Y110.053 E15.87332
G1 X90.194 Y109.704 E15.88902
G0 F810 X90.281 Y109.583
G0 X90.68 Y109.165
M204 S5000
M205 X30 Y30
G0 F7200 X91.11 Y109.373
M204 S500
M205 X20 Y20
G1 F6000 E15.91562
G1 F900 X91.555 Y109.055 E15.93563
G1 X92.042 Y108.806 E15.95564
G1 X92.559 Y108.63 E15.97562
G1 X93.097 Y108.532 E15.99563
G1 X93.5 Y108.51 E16.0104
G1 X141.5 Y108.51 E17.76653
G1 X142.045 Y108.55 E17.78653
G1 X142.579 Y108.669 E17.80654
G1 X143.089 Y108.864 E17.82652
G1 X143.566 Y109.132 E17.84654
G1 X143.998 Y109.467 E17.86654
G1 X144.377 Y109.86 E17.88651
G1 X144.695 Y110.305 E17.90652
G1 X144.944 Y110.792 E17.92653
G1 X145.12 Y111.309 E17.94651
G1 X145.218 Y111.847 E17.96652
G1 X145.24 Y112.25 E17.98129
G1 X145.24 Y122.25 E18.34715
G1 X145.2 Y122.795 E18.36714
G1 X145.081 Y123.329 E18.38716
G1 X144.886 Y123.839 E18.40713
G1 X144.618 Y124.316 E18.42715
G1 X144.283 Y124.748 E18.44715
G1 X143.89 Y125.127 E18.46713
G1 X143.445 Y125.445 E18.48714
G1 X142.958 Y125.694 E18.50715
G1 X142.441 Y125.87 E18.52713
G1 X141.903 Y125.968 E18.54714
G1 X141.5 Y125.99 E18.5619
G1 X93.5 Y125.99 E20.31804
G1 X92.955 Y125.95 E20.33803
G1 X92.421 Y125.831 E20.35805
G1 X91.911 Y125.636 E20.37803
G1 X91.434 Y125.368 E20.39804
G1 X91.002 Y125.033 E20.41804
G1 X90.623 Y124.64 E20.43802
G1 X90.305 Y124.195 E20.45803
G1 X90.056 Y123.708 E20.47804
G1 X89.88 Y123.191 E20.49802
G1 X89.782 Y122.653 E20.51803
G1 X89.76 Y122.25 E20.53279
G1 X89.76 Y112.25 E20.89866
G1 X89.8 Y111.705 E20.91865
G1 X89.919 Y111.171 E20.93867
G1 X90.114 Y110.661 E20.95864
G1 X90.382 Y110.184 E20.97866
G1 X90.606 Y109.896 E20.99201
G0 F810 X90.717 Y109.752
G0 X91.11 Y109.373
M204 S5000
M205 X30 Y30
G0 F7200 X91.539 Y109.596
M204 S500
M205 X20 Y20
G1 F6000 E21.01861
G1 F900 X91.974 Y109.324 E21.03738
G1 X92.447 Y109.123 E21.05618
G1 X92.944 Y108.997 E21.07494
G1 X93.5 Y108.95 E21.09535
G1 X141.5 Y108.95 E22.85149
G1 X142.012 Y108.99 E22.87028
G1 X142.511 Y109.109 E22.88904
G1 X142.986 Y109.304 E22.90783
G1 X143.425 Y109.57 E22.92661
G1 X143.818 Y109.901 E22.94541
G1 X144.154 Y110.289 E22.96419
G1 X144.426 Y110.724 E22.98296
G1 X144.627 Y111.197 E23.00176
G1 X144.753 Y111.694 E23.02052
G1 X144.8 Y112.25 E23.04093
G1 X144.8 Y122.25 E23.40679
G1 X144.76 Y122.762 E23.42558
G1 X144.641 Y123.261 E23.44435
G1 X144.446 Y123.736 E23.46314
G1 X144.18 Y124.175 E23.48192
G1 X143.849 Y124.568 E23.50072
G1 X143.461 Y124.904 E23.5195
G1 X143.026 Y125.176 E23.53827
G1 X142.553 Y125.377 E23.55707
G1 X142.056 Y125.503 E23.57583
G1 X141.5 Y125.55 E23.59624
G1 X93.5 Y125.55 E25.35238
G1 X92.988 Y125.51 E25.37117
G1 X92.489 Y125.391 E25.38993
G1 X92.014 Y125.196 E25.40872
G1 X91.575 Y124.93 E25.4275
G1 X91.182 Y124.599 E25.4463
G1 X90.846 Y124.211 E25.46508
G1 X90.574 Y123.776 E25.48385
G1 X90.373 Y123.303 E25.50265
G1 X90.247 Y122.806 E25.52141
G1 X90.2 Y122.25 E25.54182
G1 X90.2 Y112.25 E25.90768
G1 X90.24 Y111.738 E25.92647
G1 X90.359 Y111.239 E25.94524
G1 X90.554 Y110.764 E25.96403
G1 X90.82 Y110.325 E25.98281
G1 X91.013 Y110.095 E25.99379
G0 F810 X91.151 Y109.932
G0 X91.539 Y109.596
M204 S5000
M205 X30 Y30
G0 F7200 X91.584 Y110.127
M204 S500
M205 X20 Y20
G1 F6000 E26.02039
G1 F900 X91.964 Y109.838 E26.03786
G1 X92.387 Y109.615 E26.05535
G1 X92.841 Y109.467 E26.07282
G1 X93.5 Y109.39 E26.0971
G1 X141.5 Y109.39 E27.85323
G1 X141.976 Y109.43 E27.87071
G1 X142.439 Y109.549 E27.8882
G1 X142.876 Y109.743 E27.90569
G1 X143.274 Y110.007 E27.92316
G1 X143.623 Y110.334 E27.94066
G1 X143.912 Y110.714 E27.95813
G1 X144.135 Y111.137 E27.97562
G1 X144.283 Y111.591 E27.99309
G1 X144.36 Y112.25 E28.01737
G1 X144.36 Y122.25 E28.38323
G1 X144.32 Y122.726 E28.40071
G1 X144.201 Y123.189 E28.4182
G1 X144.007 Y123.626 E28.43569
G1 X143.743 Y124.024 E28.45316
G1 X143.416 Y124.373 E28.47066
G1 X143.036 Y124.662 E28.48813
G1 X142.613 Y124.885 E28.50562
G1 X142.159 Y125.033 E28.52309
G1 X141.5 Y125.11 E28.54737
G1 X93.5 Y125.11 E30.3035
G1 X93.024 Y125.07 E30.32098
G1 X92.561 Y124.951 E30.33847
G1 X92.124 Y124.757 E30.35596
G1 X91.726 Y124.493 E30.37343
G1 X91.377 Y124.166 E30.39093
G1 X91.088 Y123.786 E30.4084
G1 X90.865 Y123.363 E30.42589
G1 X90.717 Y122.909 E30.44336
G1 X90.64 Y122.25 E30.46764
G1 X90.64 Y112.25 E30.8335
G1 X90.68 Y111.774 E30.85098
G1 X90.799 Y111.311 E30.86846
G1 X90.993 Y110.874 E30.88596
G1 X91.12 Y110.683 E30.89435
G0 F810 X91.257 Y110.476
G0 X91.584 Y110.127
M204 S5000
M205 X30 Y30
G0 F7200 X92.014 Y110.34
M204 S500
M205 X20 Y20
G1 F6000 E30.92095
G1 F900 X92.384 Y110.103 E30.93702
G1 X92.79 Y109.936 E30.95308
G1 X93.221 Y109.846 E30.96919
G1 X93.5 Y109.83 E30.97942
G1 X141.5 Y109.83 E32.73555
G1 X141.938 Y109.87 E32.75164
G1 X142.361 Y109.988 E32.76771
G1 X142.756 Y110.181 E32.7838
G1 X143.109 Y110.443 E32.79988
G1 X143.41 Y110.764 E32.81598
G1 X143.647 Y111.134 E32.83205
G1 X143.814 Y111.54 E32.84812
G1 X143.904 Y111.971 E32.86422
G1 X143.92 Y112.25 E32.87445
G1 X143.92 Y122.25 E33.24031
G1 X143.88 Y122.688 E33.2564
G1 X143.762 Y123.111 E33.27247
G1 X143.569 Y123.506 E33.28855
G1 X143.307 Y123.859 E33.30464
G1 X142.986 Y124.16 E33.32074
G1 X142.616 Y124.397 E33.33681
G1 X142.21 Y124.564 E33.35287
G1 X141.779 Y124.654 E33.36898
G1 X141.5 Y124.67 E33.37921
G1 X93.5 Y124.67 E35.13534
G1 X93.062 Y124.63 E35.15143
G1 X92.639 Y124.512 E35.1675
G1 X92.244 Y124.319 E35.18358
G1 X91.891 Y124.057 E35.19967
G1 X91.59 Y123.736 E35.21577
G1 X91.353 Y123.366 E35.23184
G1 X91.186 Y122.96 E35.2479
G1 X91.096 Y122.529 E35.26401
G1 X91.08 Y122.25 E35.27424
G1 X91.08 Y112.25 E35.6401
G1 X91.12 Y111.812 E35.65619
G1 X91.238 Y111.389 E35.67226
G1 X91.431 Y110.994 E35.68834
G1 X91.522 Y110.871 E35.69394
G0 F810 X91.693 Y110.641
G0 X92.014 Y110.34
M204 S5000
M205 X30 Y30
G0 F7200 X92.127 Y110.824
M204 S500
M205 X20 Y20
G1 F6000 E35.72054
G1 F900 X92.439 Y110.578 E35.73507
G1 X92.795 Y110.4 E35.74964
G1 X93.178 Y110.296 E35.76416
G1 X93.5 Y110.27 E35.77598
G1 X141.5 Y110.27 E37.53211
G1 X141.895 Y110.31 E37.54664
G1 X142.275 Y110.428 E37.56119
G1 X142.623 Y110.62 E37.57573
G1 X142.926 Y110.877 E37.59027
G1 X143.172 Y111.189 E37.60481
G1 X143.35 Y111.545 E37.61937
G1 X143.454 Y111.928 E37.63389
G1 X143.48 Y112.25 E37.64571
G1 X143.48 Y122.25 E38.01157
G1 X143.44 Y122.645 E38.02609
G1 X143.322 Y123.025 E38.04065
G1 X143.13 Y123.373 E38.05519
G1 X142.873 Y123.676 E38.06973
G1 X142.561 Y123.922 E38.08427
G1 X142.205 Y124.1 E38.09883
G1 X141.822 Y124.204 E38.11335
G1 X141.5 Y124.23 E38.12517
G1 X93.5 Y124.23 E39.8813
G1 X93.105 Y124.19 E39.89583
G1 X92.725 Y124.072 E39.91039
G1 X92.377 Y123.88 E39.92493
G1 X92.074 Y123.623 E39.93946
G1 X91.828 Y123.311 E39.954
G1 X91.65 Y122.955 E39.96856
G1 X91.546 Y122.572 E39.98308
G1 X91.52 Y122.25 E39.9949
G1 X91.52 Y112.25 E40.36076
G1 X91.56 Y111.855 E40.37529
G1 X91.678 Y111.475 E40.38984
G1 X91.711 Y111.416 E40.39232
G0 F810 X91.87 Y111.127
G0 X92.127 Y110.824
M204 S5000
M205 X30 Y30
G0 F7200 X92.557 Y111.032
M204 S500
M205 X20 Y20
G1 F6000 E40.41892
G1 F900 X92.857 Y110.851 E40.43173
G1 X93.19 Y110.741 E40.44457
G1 X93.5 Y110.71 E40.45596
G1 X141.5 Y110.71 E42.2121
G1 X141.848 Y110.75 E42.22491
G1 X142.178 Y110.867 E42.23772
G1 X142.473 Y111.057 E42.25056
G1 X142.718 Y111.307 E42.26337
G1 X142.899 Y111.607 E42.27619
G1 X143.009 Y111.94 E42.28902
G1 X143.04 Y112.25 E42.30042
G1 X143.04 Y122.25 E42.66628
G1 X143 Y122.598 E42.67909
G1 X142.883 Y122.928 E42.6919
G1 X142.693 Y123.223 E42.70474
G1 X142.443 Y123.468 E42.71755
G1 X142.143 Y123.649 E42.73037
G1 X141.81 Y123.759 E42.7432
G1 X141.5 Y123.79 E42.7546
G1 X93.5 Y123.79 E44.51073
G1 X93.152 Y123.75 E44.52355
G1 X92.822 Y123.633 E44.53636
G1 X92.527 Y123.443 E44.54919
G1 X92.282 Y123.193 E44.562
G1 X92.101 Y122.893 E44.57482
G1 X91.991 Y122.56 E44.58765
G1 X91.96 Y122.25 E44.59905
G1 X91.96 Y112.25 E44.96491
G1 X92 Y111.902 E44.97773
G1 X92.108 Y111.597 E44.98956
G0 F810 X92.117 Y111.572
G0 X92.307 Y111.277
G0 X92.557 Y111.032
M204 S5000
M205 X30 Y30
G0 F7200 X92.741 Y111.454
M204 S500
M205 X20 Y20
G1 F6000 E45.01616
G1 F900 X92.981 Y111.28 E45.02701
G1 X93.258 Y111.177 E45.03782
G1 X93.5 Y111.15 E45.04673
G1 X141.5 Y111.15 E46.80286
G1 X141.793 Y111.19 E46.81368
G1 X142.065 Y111.306 E46.8245
G1 X142.296 Y111.491 E46.83533
G1 X142.47 Y111.731 E46.84617
G1 X142.573 Y112.008 E46.85699
G1 X142.6 Y112.25 E46.8659
G1 X142.6 Y122.25 E47.23176
G1 X142.56 Y122.543 E47.24258
G1 X142.444 Y122.815 E47.25339
G1 X142.259 Y123.046 E47.26422
G1 X142.019 Y123.22 E47.27507
G1 X141.742 Y123.323 E47.28588
G1 X141.5 Y123.35 E47.29479
G1 X93.5 Y123.35 E49.05092
G1 X93.207 Y123.31 E49.06174
G1 X92.935 Y123.194 E49.07256
G1 X92.704 Y123.009 E49.08339
G1 X92.53 Y122.769 E49.09424
G1 X92.427 Y122.492 E49.10505
G1 X92.4 Y122.25 E49.11396
G1 X92.4 Y112.25 E49.47982
G1 X92.422 Y112.093 E49.48562
G0 F810 X92.44 Y111.957
G0 X92.556 Y111.685
G0 X92.741 Y111.454
M204 S5000
M205 X30 Y30
G0 F7200 X93.169 Y111.679
M204 S500
M205 X20 Y20
G1 F6000 E49.51222
G1 F900 X93.384 Y111.6 E49.5206
G1 X93.5 Y111.59 E49.52486
G1 X141.5 Y111.59 E51.28099
G1 X141.725 Y111.63 E51.28935
G1 X141.924 Y111.744 E51.29774
G1 X142.071 Y111.919 E51.3061
G1 X142.15 Y112.134 E51.31448
G1 X142.16 Y112.25 E51.31874
G1 X142.16 Y122.25 E51.68461
G1 X142.12 Y122.475 E51.69297
G1 X142.006 Y122.674 E51.70136
G1 X141.831 Y122.821 E51.70972
G1 X141.616 Y122.9 E51.7181
G1 X141.5 Y122.91 E51.72236
G1 X93.5 Y122.91 E53.47849
G1 X93.275 Y122.87 E53.48686
G1 X93.076 Y122.756 E53.49525
G1 X92.929 Y122.581 E53.50361
G1 X92.85 Y122.366 E53.51199
G1 X92.84 Y122.25 E53.51625
G1 X92.84 Y112.292 E53.88057
G0 F810 X92.84 Y112.25
G0 X92.88 Y112.025
G0 X92.994 Y111.826
G0 X93.169 Y111.679
M204 S5000
M205 X30 Y30
G0 F7200 X93.319 Y112.125
M204 S500
M205 X20 Y20
G1 F6000 E53.90717
G1 F900 X93.422 Y112.044 E53.91196
G1 X93.5 Y112.03 E53.91486
G1 X141.5 Y112.03 E55.671
G1 X141.625 Y112.069 E55.67579
G1 X141.706 Y112.172 E55.68058
G1 X141.72 Y112.25 E55.68348
G1 X141.72 Y122.25 E56.04934
G1 X141.681 Y122.375 E56.05414
G1 X141.578 Y122.456 E56.05893
G1 X141.5 Y122.47 E56.06183
G1 X93.5 Y122.47 E57.81796
G1 X93.375 Y122.431 E57.82275
G1 X93.294 Y122.328 E57.82755
G1 X93.28 Y122.25 E57.83045
G1 X93.28 Y112.847 E58.17447
G0 F810 X93.28 Y112.25
G0 X93.319 Y112.125
M204 S5000
M205 X30 Y30
G1 F6000 E53.17447
;MESH:Putty_Knife_Holder_Fixed.stl
G0 F7200 X94.174 Y112.924
G0 X140.77 Y121.52
G0 X141.28 Y122.03
M204 S500
M205 X20 Y20
;TYPE:WALL-OUTER
G1 F6000 E58.20107
G1 F900 X93.72 Y122.03 E59.9411
G1 X93.72 Y112.47 E60.29087
G1 X141.28 Y112.47 E62.0309
G1 X141.28 Y121.303 E62.35407
G0 F810 X141.28 Y122.03
M204 S5000
M205 X30 Y30
G0 F7200 X141.08 Y122.03
G0 X140.796 Y121.546
G0 X140.84 Y121.59
M204 S500
M205 X20 Y20
;TYPE:WALL-INNER
