;FLAVOR:Marlin
;TIME:13069
;Filament used: 6.08854m
;Layer height: 0.2
;Generated with Cura_SteamEngine 3.6.0
M140 S70
M105
M190 S70
M104 S215
M105
M109 S215
M82 ;absolute extrusion mode
G28 ; home all axes
M117 Purge extruder
G92 E0 ; reset extruder
G1 Z1.0 F3000 ; move z up little to prevent scratching of surface
G1 X0.1 Y20 Z0.3 F5000.0 ; move to start-line position G1 X0.1 Y200.0 Z0.3 F1500.0 E15 ; draw 1st line
G1 X0.4 Y200.0 Z0.3 F5000.0 ; move to side a little
G1 X0.4 Y20 Z0.3 F1500.0 E30 ; draw 2nd line
G92 E0 ; reset extruder
G1 Z1.0 F3000 ; move z up little to prevent scratching of surface
M117 All systems go!
G92 E0
G1 F6000 E-5
;LAYER_COUNT:6
;LAYER:0
M107
M204 S5000
M205 X30 Y30
G0 F7200 X63.408 Y49.653 Z0.2
M204 S500
M205 X20 Y20
;TYPE:SKIRT
G1 F6000 E0
G1 F900 X63.922 Y49.051 E0.02896
G1 X64.051 Y48.922 E0.03564
G1 X64.528 Y48.502 E0.05889
G1 X65.054 Y48.144 E0.08217
G1 X65.621 Y47.856 E0.10543
G1 X66.219 Y47.64 E0.1287
G1 X66.84 Y47.502 E0.15197
G1 X67.629 Y47.44 E0.18093
G1 X167.371 Y47.44 E3.8301
G1 X168.006 Y47.48 E3.85338
G1 X168.63 Y47.599 E3.87662
G1 X169.235 Y47.796 E3.8999
G1 X169.81 Y48.067 E3.92316
G1 X170.347 Y48.408 E3.94643
G1 X170.949 Y48.922 E3.97539
G1 X171.078 Y49.051 E3.98206
G1 X171.498 Y49.528 E4.00532
G1 X171.856 Y50.054 E4.0286
G1 X172.144 Y50.621 E4.05186
G1 X172.36 Y51.219 E4.07512
G1 X172.498 Y51.84 E4.0984
G1 X172.56 Y52.629 E4.12735
G1 X172.56 Y182.371 E8.87411
G1 X172.52 Y183.006 E8.89739
G1 X172.401 Y183.63 E8.92063
G1 X172.204 Y184.235 E8.94391
G1 X171.933 Y184.81 E8.96717
G1 X171.592 Y185.347 E8.99044
G1 X171.078 Y185.949 E9.0194
G1 X170.949 Y186.078 E9.02608
G1 X170.472 Y186.498 E9.04933
G1 X169.946 Y186.856 E9.07261
G1 X169.379 Y187.144 E9.09587
G1 X168.781 Y187.36 E9.11914
G1 X168.16 Y187.498 E9.14241
G1 X167.371 Y187.56 E9.17137
G1 X67.629 Y187.56 E12.82054
G1 X66.994 Y187.52 E12.84382
G1 X66.37 Y187.401 E12.86706
G1 X65.765 Y187.204 E12.89034
G1 X65.19 Y186.933 E12.9136
G1 X64.653 Y186.592 E12.93687
G1 X64.051 Y186.078 E12.96583
G1 X63.922 Y185.949 E12.97251
G1 X63.502 Y185.472 E12.99576
G1 X63.144 Y184.946 E13.01904
G1 X62.856 Y184.379 E13.0423
G1 X62.64 Y183.781 E13.06557
G1 X62.502 Y183.16 E13.08884
G1 X62.44 Y182.371 E13.1178
G1 X62.44 Y52.629 E17.86456
G1 X62.48 Y51.994 E17.88783
G1 X62.599 Y51.37 E17.91107
G1 X62.796 Y50.765 E17.93435
G1 X63.029 Y50.272 E17.9543
G0 F810 X63.067 Y50.19
G0 X63.408 Y49.653
M204 S5000
M205 X30 Y30
G0 F7200 X63.845 Y49.803
M204 S500
M205 X20 Y20
G1 F6000 E17.9809
G1 F900 X64.233 Y49.362 E18.00239
G1 X64.362 Y49.233 E18.00907
G1 X64.819 Y48.833 E18.03129
G1 X65.325 Y48.496 E18.05353
G1 X65.87 Y48.228 E18.07575
G1 X66.446 Y48.034 E18.09799
G1 X67.042 Y47.917 E18.12021
G1 X67.629 Y47.88 E18.14173
G1 X167.371 Y47.88 E21.7909
G1 X167.977 Y47.92 E21.81312
G1 X168.573 Y48.039 E21.83536
G1 X169.148 Y48.235 E21.85758
G1 X169.692 Y48.506 E21.87982
G1 X170.197 Y48.845 E21.90207
G1 X170.638 Y49.233 E21.92356
G1 X170.767 Y49.362 E21.93024
G1 X171.167 Y49.819 E21.95246
G1 X171.504 Y50.325 E21.9747
G1 X171.772 Y50.87 E21.99692
G1 X171.966 Y51.446 E22.01915
G1 X172.083 Y52.042 E22.04138
G1 X172.12 Y52.629 E22.06289
G1 X172.12 Y182.371 E26.80965
G1 X172.08 Y182.977 E26.83187
G1 X171.961 Y183.573 E26.85411
G1 X171.765 Y184.148 E26.87634
G1 X171.494 Y184.692 E26.89857
G1 X171.155 Y185.197 E26.92082
G1 X170.767 Y185.638 E26.94231
G1 X170.638 Y185.767 E26.94899
G1 X170.181 Y186.167 E26.97121
G1 X169.675 Y186.504 E26.99345
G1 X169.13 Y186.772 E27.01567
G1 X168.554 Y186.966 E27.03791
G1 X167.958 Y187.083 E27.06013
G1 X167.371 Y187.12 E27.08165
G1 X67.629 Y187.12 E30.73082
G1 X67.023 Y187.08 E30.75304
G1 X66.427 Y186.961 E30.77528
G1 X65.852 Y186.765 E30.7975
G1 X65.308 Y186.494 E30.81974
G1 X64.803 Y186.155 E30.84199
G1 X64.362 Y185.767 E30.86348
G1 X64.233 Y185.638 E30.87016
G1 X63.833 Y185.181 E30.89238
G1 X63.496 Y184.675 E30.91462
G1 X63.228 Y184.13 E30.93684
G1 X63.034 Y183.554 E30.95908
G1 X62.917 Y182.958 E30.9813
G1 X62.88 Y182.371 E31.00282
G1 X62.88 Y52.629 E35.74958
G1 X62.92 Y52.023 E35.7718
G1 X63.039 Y51.427 E35.79403
G1 X63.235 Y50.852 E35.81626
G1 X63.453 Y50.414 E35.83416
G0 F810 X63.506 Y50.308
G0 X63.845 Y49.803
M204 S5000
M205 X30 Y30
G0 F7200 X64.281 Y49.962
M204 S500
M205 X20 Y20
G1 F6000 E35.86076
G1 F900 X64.544 Y49.673 E35.87505
G1 X64.673 Y49.544 E35.88173
G1 X65.109 Y49.165 E35.90286
G1 X65.593 Y48.849 E35.92401
G1 X66.116 Y48.603 E35.94516
G1 X66.668 Y48.432 E35.9663
G1 X67.239 Y48.338 E35.98747
G1 X67.629 Y48.32 E36.00175
G1 X167.371 Y48.32 E39.65093
G1 X167.948 Y48.36 E39.67209
G1 X168.513 Y48.479 E39.69322
G1 X169.057 Y48.675 E39.71437
G1 X169.568 Y48.944 E39.7355
G1 X170.038 Y49.281 E39.75666
G1 X170.327 Y49.544 E39.77095
G1 X170.456 Y49.673 E39.77763
G1 X170.835 Y50.109 E39.79876
G1 X171.151 Y50.593 E39.81991
G1 X171.397 Y51.116 E39.84106
G1 X171.568 Y51.668 E39.8622
G1 X171.662 Y52.239 E39.88337
G1 X171.68 Y52.629 E39.89766
G1 X171.68 Y182.371 E44.64442
G1 X171.64 Y182.948 E44.66558
G1 X171.521 Y183.513 E44.6867
G1 X171.325 Y184.057 E44.70786
G1 X171.056 Y184.568 E44.72898
G1 X170.719 Y185.038 E44.75014
G1 X170.456 Y185.327 E44.76444
G1 X170.327 Y185.456 E44.77111
G1 X169.891 Y185.835 E44.79225
G1 X169.407 Y186.151 E44.8134
G1 X168.884 Y186.397 E44.83454
G1 X168.332 Y186.568 E44.85569
G1 X167.761 Y186.662 E44.87686
G1 X167.371 Y186.68 E44.89114
G1 X67.629 Y186.68 E48.54032
G1 X67.052 Y186.64 E48.56148
G1 X66.487 Y186.521 E48.5826
G1 X65.943 Y186.325 E48.60376
G1 X65.432 Y186.056 E48.62488
G1 X64.962 Y185.719 E48.64604
G1 X64.673 Y185.456 E48.66034
G1 X64.544 Y185.327 E48.66701
G1 X64.165 Y184.891 E48.68815
G1 X63.849 Y184.407 E48.7093
G1 X63.603 Y183.884 E48.73044
G1 X63.432 Y183.332 E48.75159
G1 X63.338 Y182.761 E48.77276
G1 X63.32 Y182.371 E48.78704
G1 X63.32 Y52.629 E53.5338
G1 X63.36 Y52.052 E53.55496
G1 X63.479 Y51.487 E53.57609
G1 X63.675 Y50.943 E53.59724
G1 X63.875 Y50.563 E53.61295
G0 F810 X63.944 Y50.432
G0 X64.281 Y49.962
M204 S5000
M205 X30 Y30
G0 F7200 X64.382 Y50.563
M204 S500
M205 X20 Y20
G1 F6000 E53.63955
G1 F900 X64.855 Y49.984 E53.6669
G1 X64.984 Y49.855 E53.67358
G1 X65.398 Y49.498 E53.69358
G1 X65.86 Y49.205 E53.7136
G1 X66.359 Y48.982 E53.73359
G1 X66.885 Y48.835 E53.75357
G1 X67.629 Y48.76 E53.78093
G1 X167.371 Y48.76 E57.43011
G1 X167.916 Y48.8 E57.4501
G1 X168.45 Y48.919 E57.47012
G1 X168.96 Y49.114 E57.49009
G1 X169.437 Y49.382 E57.51011
G1 X170.016 Y49.855 E57.53746
G1 X170.145 Y49.984 E57.54414
G1 X170.502 Y50.398 E57.56414
G1 X170.795 Y50.86 E57.58415
G1 X171.018 Y51.359 E57.60415
G1 X171.165 Y51.885 E57.62413
G1 X171.24 Y52.629 E57.65149
G1 X171.24 Y182.371 E62.39825
G1 X171.2 Y182.916 E62.41824
G1 X171.081 Y183.45 E62.43826
G1 X170.886 Y183.96 E62.45824
G1 X170.618 Y184.437 E62.47825
G1 X170.145 Y185.016 E62.50561
G1 X170.016 Y185.145 E62.51228
G1 X169.602 Y185.502 E62.53228
G1 X169.14 Y185.795 E62.5523
G1 X168.641 Y186.018 E62.57229
G1 X168.115 Y186.165 E62.59228
G1 X167.371 Y186.24 E62.61963
G1 X67.629 Y186.24 E66.26881
G1 X67.084 Y186.2 E66.2888
G1 X66.55 Y186.081 E66.30882
G1 X66.04 Y185.886 E66.3288
G1 X65.563 Y185.618 E66.34881
G1 X64.984 Y185.145 E66.37617
G1 X64.855 Y185.016 E66.38284
G1 X64.498 Y184.602 E66.40284
G1 X64.205 Y184.14 E66.42286
G1 X63.982 Y183.641 E66.44285
G1 X63.835 Y183.115 E66.46283
G1 X63.76 Y182.371 E66.49019
G1 X63.76 Y52.629 E71.23695
G1 X63.8 Y52.084 E71.25695
G1 X63.919 Y51.55 E71.27696
G1 X64.05 Y51.208 E71.29036
G0 F810 X64.114 Y51.04
G0 X64.382 Y50.563
M204 S5000
M205 X30 Y30
G0 F7200 X64.82 Y50.704
M204 S500
M205 X20 Y20
G1 F6000 E71.31696
G1 F900 X65.167 Y50.296 E71.33656
G1 X65.296 Y50.167 E71.34323
G1 X65.686 Y49.833 E71.36202
G1 X66.123 Y49.564 E71.38079
G1 X66.597 Y49.366 E71.39958
G1 X67.095 Y49.243 E71.41835
G1 X67.629 Y49.2 E71.43795
G1 X167.371 Y49.2 E75.08713
G1 X167.883 Y49.24 E75.10592
G1 X168.382 Y49.359 E75.12469
G1 X168.857 Y49.554 E75.14347
G1 X169.296 Y49.82 E75.16225
G1 X169.704 Y50.167 E75.18185
G1 X169.833 Y50.296 E75.18852
G1 X170.167 Y50.686 E75.20731
G1 X170.436 Y51.123 E75.22608
G1 X170.634 Y51.597 E75.24488
G1 X170.757 Y52.095 E75.26364
G1 X170.8 Y52.629 E75.28324
G1 X170.8 Y182.371 E80.03
G1 X170.76 Y182.883 E80.04879
G1 X170.641 Y183.382 E80.06756
G1 X170.446 Y183.857 E80.08635
G1 X170.18 Y184.296 E80.10513
G1 X169.833 Y184.704 E80.12472
G1 X169.704 Y184.833 E80.1314
G1 X169.314 Y185.167 E80.15018
G1 X168.877 Y185.436 E80.16896
G1 X168.403 Y185.634 E80.18775
G1 X167.905 Y185.757 E80.20652
G1 X167.371 Y185.8 E80.22612
G1 X67.629 Y185.8 E83.87529
G1 X67.117 Y185.76 E83.89408
G1 X66.618 Y185.641 E83.91285
G1 X66.143 Y185.446 E83.93164
G1 X65.704 Y185.18 E83.95042
G1 X65.296 Y184.833 E83.97001
G1 X65.167 Y184.704 E83.97669
G1 X64.833 Y184.314 E83.99547
G1 X64.564 Y183.877 E84.01425
G1 X64.366 Y183.403 E84.03304
G1 X64.243 Y182.905 E84.05181
G1 X64.2 Y182.371 E84.07141
G1 X64.2 Y52.629 E88.81817
G1 X64.24 Y52.117 E88.83696
G1 X64.359 Y51.618 E88.85573
G1 X64.473 Y51.341 E88.86669
G0 F810 X64.554 Y51.143
G0 X64.82 Y50.704
M204 S5000
M205 X30 Y30
G0 F7200 X65.257 Y50.855
M204 S500
M205 X20 Y20
G1 F6000 E88.89328
G1 F900 X65.478 Y50.607 E88.90544
G1 X65.607 Y50.478 E88.91211
G1 X65.972 Y50.169 E88.92961
G1 X66.383 Y49.926 E88.94708
G1 X66.829 Y49.754 E88.96457
G1 X67.297 Y49.659 E88.98204
G1 X67.629 Y49.64 E88.9942
G1 X167.371 Y49.64 E92.64338
G1 X167.847 Y49.68 E92.66086
G1 X168.31 Y49.799 E92.67835
G1 X168.747 Y49.993 E92.69584
G1 X169.145 Y50.257 E92.71331
G1 X169.393 Y50.478 E92.72547
G1 X169.522 Y50.607 E92.73214
G1 X169.831 Y50.972 E92.74964
G1 X170.074 Y51.383 E92.76711
G1 X170.246 Y51.829 E92.78459
G1 X170.341 Y52.297 E92.80207
G1 X170.36 Y52.629 E92.81423
G1 X170.36 Y182.371 E97.56099
G1 X170.32 Y182.847 E97.57847
G1 X170.201 Y183.31 E97.59596
G1 X170.007 Y183.747 E97.61345
G1 X169.743 Y184.145 E97.63093
G1 X169.522 Y184.393 E97.64308
G1 X169.393 Y184.522 E97.64975
G1 X169.028 Y184.831 E97.66725
G1 X168.617 Y185.074 E97.68472
G1 X168.171 Y185.246 E97.70221
G1 X167.703 Y185.341 E97.71968
G1 X167.371 Y185.36 E97.73185
G1 X67.629 Y185.36 E101.38102
G1 X67.153 Y185.32 E101.3985
G1 X66.69 Y185.201 E101.41599
G1 X66.253 Y185.007 E101.43348
G1 X65.855 Y184.743 E101.45095
G1 X65.607 Y184.522 E101.46311
G1 X65.478 Y184.393 E101.46978
G1 X65.169 Y184.028 E101.48728
G1 X64.926 Y183.617 E101.50475
G1 X64.754 Y183.171 E101.52224
G1 X64.659 Y182.703 E101.53971
G1 X64.64 Y182.371 E101.55187
G1 X64.64 Y52.629 E106.29863
G1 X64.68 Y52.153 E106.31611
G1 X64.799 Y51.69 E106.3336
G1 X64.892 Y51.481 E106.34197
G0 F810 X64.993 Y51.253
G0 X65.257 Y50.855
M204 S5000
M205 X30 Y30
G0 F7200 X65.431 Y51.373
M204 S500
M205 X20 Y20
G1 F6000 E106.36857
G1 F900 X65.789 Y50.918 E106.38975
G1 X65.918 Y50.789 E106.39642
G1 X66.256 Y50.508 E106.4125
G1 X66.639 Y50.292 E106.42859
G1 X67.054 Y50.149 E106.44465
G1 X67.629 Y50.08 E106.46584
G1 X167.371 Y50.08 E110.11501
G1 X167.809 Y50.12 E110.13111
G1 X168.232 Y50.238 E110.14717
G1 X168.627 Y50.431 E110.16326
G1 X169.082 Y50.789 E110.18444
G1 X169.211 Y50.918 E110.19111
G1 X169.492 Y51.256 E110.2072
G1 X169.708 Y51.639 E110.22328
G1 X169.851 Y52.054 E110.23934
G1 X169.92 Y52.629 E110.26053
G1 X169.92 Y182.371 E115.00729
G1 X169.88 Y182.809 E115.02338
G1 X169.762 Y183.232 E115.03945
G1 X169.569 Y183.627 E115.05553
G1 X169.211 Y184.082 E115.07671
G1 X169.082 Y184.211 E115.08339
G1 X168.744 Y184.492 E115.09947
G1 X168.361 Y184.708 E115.11556
G1 X167.946 Y184.851 E115.13162
G1 X167.371 Y184.92 E115.1528
G1 X67.629 Y184.92 E118.80198
G1 X67.191 Y184.88 E118.81807
G1 X66.768 Y184.762 E118.83414
G1 X66.373 Y184.569 E118.85022
G1 X65.918 Y184.211 E118.8714
G1 X65.789 Y184.082 E118.87808
G1 X65.508 Y183.744 E118.89416
G1 X65.292 Y183.361 E118.91025
G1 X65.149 Y182.946 E118.92631
G1 X65.08 Y182.371 E118.9475
G1 X65.08 Y52.629 E123.69426
G1 X65.12 Y52.191 E123.71035
G1 X65.161 Y52.045 E123.7159
G0 F810 X65.238 Y51.768
G0 X65.431 Y51.373
M204 S5000
M205 X30 Y30
G0 F7200 X65.87 Y51.506
M204 S500
M205 X20 Y20
G1 F6000 E123.74249
G1 F900 X66.1 Y51.229 E123.75567
G1 X66.229 Y51.1 E123.76234
G1 X66.537 Y50.848 E123.7769
G1 X66.889 Y50.664 E123.79143
G1 X67.27 Y50.553 E123.80595
G1 X67.629 Y50.52 E123.81914
G1 X167.371 Y50.52 E127.46832
G1 X167.766 Y50.56 E127.48284
G1 X168.146 Y50.678 E127.4974
G1 X168.494 Y50.87 E127.51194
G1 X168.771 Y51.1 E127.52511
G1 X168.9 Y51.229 E127.53179
G1 X169.152 Y51.537 E127.54635
G1 X169.336 Y51.889 E127.56088
G1 X169.447 Y52.27 E127.5754
G1 X169.48 Y52.629 E127.58859
G1 X169.48 Y182.371 E132.33535
G1 X169.44 Y182.766 E132.34987
G1 X169.322 Y183.146 E132.36443
G1 X169.13 Y183.494 E132.37897
G1 X168.9 Y183.771 E132.39214
G1 X168.771 Y183.9 E132.39882
G1 X168.463 Y184.152 E132.41338
G1 X168.111 Y184.336 E132.42791
G1 X167.73 Y184.447 E132.44243
G1 X167.371 Y184.48 E132.45562
G1 X67.629 Y184.48 E136.10479
G1 X67.234 Y184.44 E136.11932
G1 X66.854 Y184.322 E136.13388
G1 X66.506 Y184.13 E136.14842
G1 X66.229 Y183.9 E136.16159
G1 X66.1 Y183.771 E136.16827
G1 X65.848 Y183.463 E136.18283
G1 X65.664 Y183.111 E136.19736
G1 X65.553 Y182.73 E136.21188
G1 X65.52 Y182.371 E136.22507
G1 X65.52 Y52.629 E140.97183
G1 X65.56 Y52.234 E140.98635
G1 X65.58 Y52.169 E140.98884
G0 F810 X65.678 Y51.854
G0 X65.87 Y51.506
M204 S5000
M205 X30 Y30
G0 F7200 X66.411 Y51.54
M204 S500
M205 X20 Y20
G1 F6000 E141.01544
G1 F900 X66.54 Y51.411 E141.02211
G1 X66.814 Y51.193 E141.03492
G1 X67.131 Y51.043 E141.04775
G1 X67.629 Y50.96 E141.06622
G1 X167.371 Y50.96 E144.7154
G1 X167.719 Y51 E144.72822
G1 X168.049 Y51.117 E144.74103
G1 X168.46 Y51.411 E144.75951
G1 X168.589 Y51.54 E144.76619
G1 X168.807 Y51.814 E144.779
G1 X168.957 Y52.131 E144.79183
G1 X169.04 Y52.629 E144.8103
G1 X169.04 Y182.371 E149.55706
G1 X169 Y182.719 E149.56988
G1 X168.883 Y183.049 E149.58269
G1 X168.589 Y183.46 E149.60117
G1 X168.46 Y183.589 E149.60785
G1 X168.186 Y183.807 E149.62066
G1 X167.869 Y183.957 E149.63349
G1 X167.371 Y184.04 E149.65196
G1 X67.629 Y184.04 E153.30114
G1 X67.281 Y184 E153.31395
G1 X66.951 Y183.883 E153.32676
G1 X66.54 Y183.589 E153.34525
G1 X66.411 Y183.46 E153.35192
G1 X66.193 Y183.186 E153.36473
G1 X66.043 Y182.869 E153.37757
G1 X65.96 Y182.371 E153.39604
G1 X65.96 Y52.629 E158.1428
G1 X66 Y52.281 E158.15561
G1 X66.043 Y52.16 E158.16031
G0 F810 X66.117 Y51.951
G0 X66.411 Y51.54
M204 S5000
M205 X30 Y30
G0 F7200 X66.556 Y52.064
M204 S500
M205 X20 Y20
G1 F6000 E158.18691
G1 F900 X66.722 Y51.851 E158.19679
G1 X66.851 Y51.722 E158.20346
G1 X67.087 Y51.543 E158.2143
G1 X67.362 Y51.433 E158.22514
G1 X67.629 Y51.4 E158.23498
G1 X167.371 Y51.4 E161.88416
G1 X167.664 Y51.44 E161.89497
G1 X167.936 Y51.556 E161.90579
G1 X168.149 Y51.722 E161.91567
G1 X168.278 Y51.851 E161.92235
G1 X168.457 Y52.087 E161.93318
G1 X168.567 Y52.362 E161.94402
G1 X168.6 Y52.629 E161.95386
G1 X168.6 Y182.371 E166.70062
G1 X168.56 Y182.664 E166.71144
G1 X168.444 Y182.936 E166.72226
G1 X168.278 Y183.149 E166.73214
G1 X168.149 Y183.278 E166.73882
G1 X167.913 Y183.457 E166.74965
G1 X167.638 Y183.567 E166.76049
G1 X167.371 Y183.6 E166.77033
G1 X67.629 Y183.6 E170.41951
G1 X67.336 Y183.56 E170.43033
G1 X67.064 Y183.444 E170.44115
G1 X66.851 Y183.278 E170.45103
G1 X66.722 Y183.149 E170.4577
G1 X66.543 Y182.913 E170.46854
G1 X66.433 Y182.638 E170.47937
G1 X66.4 Y182.371 E170.48922
G1 X66.4 Y52.766 E175.23096
G0 F810 X66.4 Y52.629
G0 X66.44 Y52.336
G0 X66.556 Y52.064
M204 S5000
M205 X30 Y30
G0 F7200 X67.033 Y52.162
M204 S500
M205 X20 Y20
G1 F6000 E175.25756
G1 F900 X67.162 Y52.033 E175.26424
G1 X67.35 Y51.902 E175.27262
G1 X67.629 Y51.84 E175.28308
G1 X167.371 Y51.84 E178.93225
G1 X167.596 Y51.88 E178.94061
G1 X167.838 Y52.033 E178.95109
G1 X167.967 Y52.162 E178.95776
G1 X168.098 Y52.35 E178.96615
G1 X168.16 Y52.629 E178.9766
G1 X168.16 Y182.371 E183.72336
G1 X168.12 Y182.596 E183.73172
G1 X167.967 Y182.838 E183.7422
G1 X167.838 Y182.967 E183.74887
G1 X167.65 Y183.098 E183.75726
G1 X167.371 Y183.16 E183.76771
G1 X67.629 Y183.16 E187.41689
G1 X67.404 Y183.12 E187.42525
G1 X67.162 Y182.967 E187.43572
G1 X67.033 Y182.838 E187.4424
G1 X66.902 Y182.65 E187.45078
