;FLAVOR:Marlin
;TIME:2133
;Filament used: 0.951246m
;Layer height: 0.2
;Generated with Cura_SteamEngine 4.0.0
M140 S70
M105
M190 S70
M104 S215
M105
M109 S215
M82 ;absolute extrusion mode
G28 ; home all axes
M117 Purge extruder
G92 E0 ; reset extruder
G1 Z1.0 F3000 ; move z up little to prevent scratching of surface
G1 X0.1 Y20 Z0.3 F5000.0 ; move to start-line position G1 X0.1 Y200.0 Z0.3 F1500.0 E15 ; draw 1st line
G1 X0.4 Y200.0 Z0.3 F5000.0 ; move to side a little
G1 X0.4 Y20 Z0.3 F1500.0 E30 ; draw 2nd line
G92 E0 ; reset extruder
G1 Z1.0 F3000 ; move z up little to prevent scratching of surface
M117 All systems go!
G92 E0
G1 F6000 E-5
;LAYER_COUNT:6
;LAYER:0
M107
M204 S5000
M205 X30 Y30
G0 F7200 X69.558 Y19.488 Z0.2
M204 S500
M205 X20 Y20
;TYPE:SKIRT
G1 F6000 E0
G1 F900 X69.833 Y18.647 E0.02943
G1 X70.183 Y17.834 E0.05887
G1 X70.605 Y17.055 E0.08834
G1 X71.096 Y16.319 E0.11776
G1 X71.651 Y15.629 E0.14722
G1 X72.07 Y15.182 E0.16759
G1 X72.187 Y15.065 E0.1731
G1 X72.841 Y14.468 E0.20255
G1 X73.546 Y13.933 E0.23198
G1 X74.296 Y13.463 E0.26142
G1 X75.086 Y13.063 E0.29087
G1 X75.908 Y12.735 E0.32031
G1 X76.757 Y12.484 E0.34976
G1 X77.625 Y12.309 E0.37921
G1 X78.505 Y12.214 E0.40865
G1 X79.117 Y12.195 E0.42901
G1 X155.883 Y12.195 E2.98226
G1 X156.767 Y12.235 E3.01169
G1 X157.644 Y12.355 E3.04113
G1 X158.507 Y12.553 E3.07058
G1 X159.348 Y12.828 E3.10001
G1 X160.161 Y13.178 E3.12945
G1 X160.94 Y13.6 E3.15892
G1 X161.676 Y14.091 E3.18834
G1 X162.366 Y14.646 E3.2178
G1 X162.813 Y15.065 E3.23817
G1 X162.93 Y15.182 E3.24368
G1 X163.527 Y15.836 E3.27313
G1 X164.062 Y16.541 E3.30256
G1 X164.532 Y17.291 E3.332
G1 X164.932 Y18.081 E3.36145
G1 X165.26 Y18.903 E3.39089
G1 X165.511 Y19.752 E3.42034
G1 X165.686 Y20.62 E3.44979
G1 X165.781 Y21.5 E3.47923
G1 X165.8 Y22.112 E3.49959
G1 X165.8 Y43.878 E4.22353
G1 X165.76 Y44.762 E4.25296
G1 X165.64 Y45.639 E4.2824
G1 X165.442 Y46.502 E4.31185
G1 X165.167 Y47.343 E4.34128
G1 X164.817 Y48.156 E4.37072
G1 X164.395 Y48.935 E4.40019
G1 X163.904 Y49.671 E4.42962
G1 X163.349 Y50.361 E4.45907
G1 X162.93 Y50.808 E4.47945
G1 X162.813 Y50.925 E4.48495
G1 X162.159 Y51.522 E4.5144
G1 X161.454 Y52.057 E4.54384
G1 X160.704 Y52.527 E4.57328
G1 X159.914 Y52.927 E4.60273
G1 X159.092 Y53.255 E4.63216
G1 X158.243 Y53.506 E4.66161
G1 X157.375 Y53.681 E4.69106
G1 X156.495 Y53.776 E4.7205
G1 X155.883 Y53.795 E4.74086
G1 X79.117 Y53.795 E7.29411
G1 X78.233 Y53.755 E7.32354
G1 X77.356 Y53.635 E7.35299
G1 X76.493 Y53.437 E7.38243
G1 X75.652 Y53.162 E7.41186
G1 X74.839 Y52.812 E7.4413
G1 X74.06 Y52.39 E7.47077
G1 X73.324 Y51.899 E7.5002
G1 X72.634 Y51.344 E7.52965
G1 X72.187 Y50.925 E7.55003
G1 X72.07 Y50.808 E7.55553
G1 X71.473 Y50.154 E7.58498
G1 X70.938 Y49.449 E7.61442
G1 X70.468 Y48.699 E7.64386
G1 X70.068 Y47.909 E7.67331
G1 X69.74 Y47.087 E7.70274
G1 X69.489 Y46.238 E7.73219
G1 X69.314 Y45.37 E7.76164
G1 X69.219 Y44.49 E7.79108
G1 X69.2 Y43.878 E7.81145
G1 X69.2 Y22.112 E8.53539
G1 X69.24 Y21.228 E8.56482
G1 X69.36 Y20.351 E8.59426
G1 X69.38 Y20.268 E8.5971
G0 F810 X69.558 Y19.488
M204 S5000
M205 X30 Y30
G0 F7200 X69.958 Y19.543
M204 S500
M205 X20 Y20
G1 F6000 E8.62371
G1 F900 X70.233 Y18.721 E8.65254
G1 X70.583 Y17.928 E8.68137
G1 X71.004 Y17.17 E8.7102
G1 X71.493 Y16.455 E8.73901
G1 X72.046 Y15.787 E8.76786
G1 X72.353 Y15.465 E8.78266
G1 X72.47 Y15.348 E8.78816
G1 X73.111 Y14.764 E8.817
G1 X73.803 Y14.241 E8.84585
G1 X74.54 Y13.785 E8.87468
G1 X75.315 Y13.398 E8.90349
G1 X76.124 Y13.084 E8.93235
G1 X76.957 Y12.846 E8.96116
G1 X77.809 Y12.686 E8.99
G1 X78.672 Y12.606 E9.01882
G1 X79.117 Y12.595 E9.03363
G1 X155.883 Y12.595 E11.58688
G1 X156.749 Y12.635 E11.61571
G1 X157.608 Y12.755 E11.64456
G1 X158.452 Y12.953 E11.67339
G1 X159.274 Y13.228 E11.70222
G1 X160.067 Y13.578 E11.73105
G1 X160.825 Y13.999 E11.75989
G1 X161.54 Y14.488 E11.7887
G1 X162.208 Y15.041 E11.81754
G1 X162.53 Y15.348 E11.83234
G1 X162.647 Y15.465 E11.83784
G1 X163.231 Y16.106 E11.86669
G1 X163.754 Y16.798 E11.89554
G1 X164.21 Y17.535 E11.92436
G1 X164.597 Y18.31 E11.95317
G1 X164.911 Y19.119 E11.98204
G1 X165.149 Y19.952 E12.01085
G1 X165.309 Y20.804 E12.03968
G1 X165.389 Y21.667 E12.06851
G1 X165.4 Y22.112 E12.08332
G1 X165.4 Y43.878 E12.80726
G1 X165.36 Y44.744 E12.83609
G1 X165.24 Y45.603 E12.86494
G1 X165.042 Y46.447 E12.89377
G1 X164.767 Y47.269 E12.9226
G1 X164.417 Y48.062 E12.95143
G1 X163.996 Y48.82 E12.98027
G1 X163.507 Y49.535 E13.00908
G1 X162.954 Y50.203 E13.03792
G1 X162.647 Y50.525 E13.05272
G1 X162.53 Y50.642 E13.05822
G1 X161.889 Y51.226 E13.08707
G1 X161.197 Y51.749 E13.11592
G1 X160.46 Y52.205 E13.14474
G1 X159.685 Y52.592 E13.17355
G1 X158.876 Y52.906 E13.20242
G1 X158.043 Y53.144 E13.23123
G1 X157.191 Y53.304 E13.26006
G1 X156.328 Y53.384 E13.28889
G1 X155.883 Y53.395 E13.30369
G1 X79.117 Y53.395 E15.85694
G1 X78.251 Y53.355 E15.88578
G1 X77.392 Y53.235 E15.91462
G1 X76.548 Y53.037 E15.94346
G1 X75.726 Y52.762 E15.97229
G1 X74.933 Y52.412 E16.00112
G1 X74.175 Y51.991 E16.02996
G1 X73.46 Y51.502 E16.05877
G1 X72.792 Y50.949 E16.08761
G1 X72.47 Y50.642 E16.10241
G1 X72.353 Y50.525 E16.10791
G1 X71.769 Y49.884 E16.13675
G1 X71.246 Y49.192 E16.1656
G1 X70.79 Y48.455 E16.19443
G1 X70.403 Y47.68 E16.22324
G1 X70.089 Y46.871 E16.2521
G1 X69.851 Y46.038 E16.28092
G1 X69.691 Y45.186 E16.30975
G1 X69.611 Y44.323 E16.33858
G1 X69.6 Y43.878 E16.35338
G1 X69.6 Y22.112 E17.07732
G1 X69.64 Y21.246 E17.10615
G1 X69.76 Y20.387 E17.135
G1 X69.776 Y20.322 E17.13723
G0 F810 X69.958 Y19.543
M204 S5000
M205 X30 Y30
G0 F7200 X70.358 Y19.6
M204 S500
M205 X20 Y20
G1 F6000 E17.16384
G1 F900 X70.633 Y18.797 E17.19207
G1 X70.982 Y18.024 E17.22028
G1 X71.402 Y17.288 E17.24846
G1 X71.89 Y16.594 E17.27668
G1 X72.636 Y15.748 E17.31419
G1 X72.753 Y15.631 E17.3197
G1 X73.38 Y15.06 E17.3479
G1 X74.059 Y14.551 E17.37613
G1 X74.782 Y14.108 E17.40433
G1 X75.544 Y13.735 E17.43255
G1 X76.338 Y13.435 E17.46078
G1 X77.156 Y13.211 E17.48899
G1 X77.992 Y13.066 E17.51721
G1 X79.117 Y12.995 E17.5547
G1 X155.883 Y12.995 E20.10795
G1 X156.73 Y13.035 E20.13615
G1 X157.57 Y13.155 E20.16437
G1 X158.395 Y13.353 E20.19259
G1 X159.198 Y13.628 E20.22082
G1 X159.971 Y13.977 E20.24903
G1 X160.707 Y14.397 E20.27722
G1 X161.401 Y14.885 E20.30543
G1 X162.247 Y15.631 E20.34295
G1 X162.364 Y15.748 E20.34845
G1 X162.935 Y16.375 E20.37666
G1 X163.444 Y17.054 E20.40488
G1 X163.887 Y17.777 E20.43308
G1 X164.26 Y18.539 E20.4613
G1 X164.56 Y19.333 E20.48953
G1 X164.784 Y20.151 E20.51774
G1 X164.929 Y20.987 E20.54596
G1 X165 Y22.112 E20.58345
G1 X165 Y43.878 E21.30739
G1 X164.96 Y44.725 E21.3356
G1 X164.84 Y45.565 E21.36382
G1 X164.642 Y46.39 E21.39204
G1 X164.367 Y47.193 E21.42027
G1 X164.018 Y47.966 E21.44848
G1 X163.598 Y48.702 E21.47666
G1 X163.11 Y49.396 E21.50488
G1 X162.364 Y50.242 E21.5424
G1 X162.247 Y50.359 E21.5479
G1 X161.62 Y50.93 E21.57611
G1 X160.941 Y51.439 E21.60433
G1 X160.218 Y51.882 E21.63253
G1 X159.456 Y52.255 E21.66075
G1 X158.662 Y52.555 E21.68898
G1 X157.844 Y52.779 E21.71719
G1 X157.008 Y52.924 E21.74541
G1 X155.883 Y52.995 E21.7829
G1 X79.117 Y52.995 E24.33615
G1 X78.27 Y52.955 E24.36435
G1 X77.43 Y52.835 E24.39257
G1 X76.605 Y52.637 E24.42079
G1 X75.802 Y52.362 E24.44902
G1 X75.029 Y52.013 E24.47723
G1 X74.293 Y51.593 E24.50542
G1 X73.599 Y51.105 E24.53363
G1 X72.753 Y50.359 E24.57115
G1 X72.636 Y50.242 E24.57665
G1 X72.065 Y49.615 E24.60486
G1 X71.556 Y48.936 E24.63308
G1 X71.113 Y48.213 E24.66129
G1 X70.74 Y47.451 E24.6895
G1 X70.44 Y46.657 E24.71773
G1 X70.216 Y45.839 E24.74594
G1 X70.071 Y45.003 E24.77416
G1 X70 Y43.878 E24.81166
G1 X70 Y22.112 E25.5356
G1 X70.04 Y21.265 E25.5638
G1 X70.16 Y20.425 E25.59202
G1 X70.172 Y20.378 E25.59363
G0 F810 X70.358 Y19.6
M204 S5000
M205 X30 Y30
G0 F7200 X70.758 Y19.658
M204 S500
M205 X20 Y20
G1 F6000 E25.62024
G1 F900 X71.032 Y18.876 E25.6478
G1 X71.381 Y18.123 E25.67541
G1 X71.801 Y17.408 E25.70299
G1 X72.287 Y16.737 E25.73054
G1 X72.919 Y16.031 E25.76206
G1 X73.036 Y15.914 E25.76756
G1 X73.65 Y15.356 E25.79516
G1 X74.315 Y14.861 E25.82273
G1 X75.024 Y14.431 E25.85031
G1 X75.771 Y14.072 E25.87787
G1 X76.55 Y13.787 E25.90546
G1 X77.352 Y13.578 E25.93303
G1 X78.171 Y13.447 E25.96062
G1 X79.117 Y13.395 E25.99213
G1 X155.883 Y13.395 E28.54538
G1 X156.711 Y13.435 E28.57295
G1 X157.532 Y13.555 E28.60054
G1 X158.337 Y13.753 E28.62812
G1 X159.119 Y14.027 E28.65568
G1 X159.872 Y14.376 E28.68328
G1 X160.587 Y14.796 E28.71086
G1 X161.258 Y15.282 E28.73842
G1 X161.964 Y15.914 E28.76993
G1 X162.081 Y16.031 E28.77544
G1 X162.639 Y16.645 E28.80303
G1 X163.134 Y17.31 E28.8306
G1 X163.564 Y18.019 E28.85818
G1 X163.923 Y18.766 E28.88575
G1 X164.208 Y19.545 E28.91334
G1 X164.417 Y20.347 E28.9409
G1 X164.548 Y21.166 E28.96849
G1 X164.6 Y22.112 E29
G1 X164.6 Y43.878 E29.72394
G1 X164.56 Y44.706 E29.75151
G1 X164.44 Y45.527 E29.77911
G1 X164.242 Y46.332 E29.80668
G1 X163.968 Y47.114 E29.83424
G1 X163.619 Y47.867 E29.86185
G1 X163.199 Y48.582 E29.88943
G1 X162.713 Y49.253 E29.91698
G1 X162.081 Y49.959 E29.9485
G1 X161.964 Y50.076 E29.954
G1 X161.35 Y50.634 E29.9816
G1 X160.685 Y51.129 E30.00917
G1 X159.976 Y51.559 E30.03675
G1 X159.229 Y51.918 E30.06431
G1 X158.45 Y52.203 E30.0919
G1 X157.648 Y52.412 E30.11947
G1 X156.829 Y52.543 E30.14706
G1 X155.883 Y52.595 E30.17857
G1 X79.117 Y52.595 E32.73181
G1 X78.289 Y52.555 E32.75939
G1 X77.468 Y52.435 E32.78698
G1 X76.663 Y52.237 E32.81456
G1 X75.881 Y51.963 E32.84212
G1 X75.128 Y51.614 E32.86972
G1 X74.413 Y51.194 E32.8973
G1 X73.742 Y50.708 E32.92486
G1 X73.036 Y50.076 E32.95637
G1 X72.919 Y49.959 E32.96188
G1 X72.361 Y49.345 E32.98947
G1 X71.866 Y48.68 E33.01704
G1 X71.436 Y47.971 E33.04462
G1 X71.077 Y47.224 E33.07219
G1 X70.792 Y46.445 E33.09978
G1 X70.583 Y45.643 E33.12734
G1 X70.452 Y44.824 E33.15493
G1 X70.4 Y43.878 E33.18644
G1 X70.4 Y22.112 E33.91038
G1 X70.44 Y21.284 E33.93795
G1 X70.56 Y20.463 E33.96555
G1 X70.567 Y20.435 E33.96651
G0 F810 X70.758 Y19.658
M204 S5000
M205 X30 Y30
G0 F7200 X71.157 Y19.717
M204 S500
M205 X20 Y20
G1 F6000 E33.99312
G1 F900 X71.432 Y18.956 E34.02003
G1 X71.78 Y18.225 E34.04696
G1 X72.199 Y17.531 E34.07392
G1 X72.684 Y16.883 E34.10084
G1 X73.202 Y16.314 E34.12643
G1 X73.319 Y16.197 E34.13194
G1 X73.919 Y15.653 E34.15888
G1 X74.57 Y15.171 E34.18582
G1 X75.265 Y14.756 E34.21274
G1 X75.997 Y14.412 E34.23964
G1 X76.761 Y14.141 E34.2666
G1 X77.547 Y13.947 E34.29353
G1 X78.348 Y13.831 E34.32045
G1 X79.117 Y13.795 E34.34605
G1 X155.883 Y13.795 E36.8993
G1 X156.692 Y13.835 E36.92624
G1 X157.493 Y13.955 E36.95318
G1 X158.278 Y14.152 E36.9801
G1 X159.039 Y14.427 E37.00701
G1 X159.77 Y14.775 E37.03394
G1 X160.464 Y15.194 E37.0609
G1 X161.112 Y15.679 E37.08782
G1 X161.681 Y16.197 E37.11342
G1 X161.798 Y16.314 E37.11892
G1 X162.342 Y16.914 E37.14586
G1 X162.824 Y17.565 E37.1728
G1 X163.239 Y18.26 E37.19972
G1 X163.583 Y18.992 E37.22662
G1 X163.854 Y19.756 E37.25358
G1 X164.048 Y20.542 E37.28051
G1 X164.164 Y21.343 E37.30743
G1 X164.2 Y22.112 E37.33304
G1 X164.2 Y43.878 E38.05698
G1 X164.16 Y44.687 E38.08392
G1 X164.04 Y45.488 E38.11085
G1 X163.843 Y46.273 E38.13777
G1 X163.568 Y47.034 E38.16469
G1 X163.22 Y47.765 E38.19161
G1 X162.801 Y48.459 E38.21858
G1 X162.316 Y49.107 E38.2455
G1 X161.798 Y49.676 E38.27109
G1 X161.681 Y49.793 E38.27659
G1 X161.081 Y50.337 E38.30353
G1 X160.43 Y50.819 E38.33047
G1 X159.735 Y51.234 E38.3574
G1 X159.003 Y51.578 E38.3843
G1 X158.239 Y51.849 E38.41126
G1 X157.453 Y52.043 E38.43819
G1 X156.652 Y52.159 E38.46511
G1 X155.883 Y52.195 E38.49071
G1 X79.117 Y52.195 E41.04396
G1 X78.308 Y52.155 E41.0709
G1 X77.507 Y52.035 E41.09784
G1 X76.722 Y51.838 E41.12476
G1 X75.961 Y51.563 E41.15167
G1 X75.23 Y51.215 E41.1786
G1 X74.536 Y50.796 E41.20556
G1 X73.888 Y50.311 E41.23248
G1 X73.319 Y49.793 E41.25807
G1 X73.202 Y49.676 E41.26358
G1 X72.658 Y49.076 E41.29051
G1 X72.176 Y48.425 E41.31745
G1 X71.761 Y47.73 E41.34438
G1 X71.417 Y46.998 E41.37128
G1 X71.146 Y46.234 E41.39824
G1 X70.952 Y45.448 E41.42517
G1 X70.836 Y44.647 E41.45209
G1 X70.8 Y43.878 E41.47769
G1 X70.8 Y22.112 E42.20163
G1 X70.84 Y21.303 E42.22857
G1 X70.96 Y20.502 E42.25551
G1 X70.963 Y20.493 E42.25583
G0 F810 X71.157 Y19.717
M204 S5000
M205 X30 Y30
G0 F7200 X71.557 Y19.778
M204 S500
M205 X20 Y20
G1 F6000 E42.28244
G1 F900 X71.831 Y19.038 E42.30868
G1 X72.179 Y18.329 E42.33495
G1 X72.597 Y17.658 E42.36124
G1 X73.08 Y17.034 E42.38749
G1 X73.485 Y16.597 E42.40731
G1 X73.602 Y16.48 E42.41281
G1 X74.188 Y15.95 E42.43909
G1 X74.824 Y15.483 E42.46533
G1 X75.504 Y15.082 E42.49159
G1 X76.222 Y14.752 E42.51787
G1 X76.969 Y14.497 E42.54412
G1 X77.738 Y14.318 E42.57038
G1 X78.522 Y14.218 E42.59667
G1 X79.117 Y14.195 E42.61648
G1 X155.883 Y14.195 E45.16972
G1 X156.672 Y14.235 E45.196
G1 X157.452 Y14.354 E45.22224
G1 X158.217 Y14.552 E45.24853
G1 X158.957 Y14.826 E45.27477
G1 X159.666 Y15.174 E45.30104
G1 X160.337 Y15.592 E45.32733
G1 X160.961 Y16.075 E45.35358
G1 X161.398 Y16.48 E45.3734
G1 X161.515 Y16.597 E45.3789
G1 X162.045 Y17.183 E45.40518
G1 X162.512 Y17.819 E45.43142
G1 X162.913 Y18.499 E45.45768
G1 X163.243 Y19.217 E45.48396
G1 X163.498 Y19.964 E45.51021
G1 X163.677 Y20.733 E45.53647
G1 X163.777 Y21.517 E45.56276
G1 X163.8 Y22.112 E45.58257
G1 X163.8 Y43.878 E46.30651
G1 X163.76 Y44.667 E46.33278
G1 X163.641 Y45.447 E46.35903
G1 X163.443 Y46.212 E46.38531
G1 X163.169 Y46.952 E46.41155
G1 X162.821 Y47.661 E46.43782
G1 X162.403 Y48.332 E46.46412
G1 X161.92 Y48.956 E46.49036
G1 X161.515 Y49.393 E46.51018
G1 X161.398 Y49.51 E46.51568
G1 X160.812 Y50.04 E46.54196
G1 X160.176 Y50.507 E46.5682
G1 X159.496 Y50.908 E46.59446
G1 X158.778 Y51.238 E46.62074
G1 X158.031 Y51.493 E46.647
G1 X157.262 Y51.672 E46.67326
G1 X156.478 Y51.772 E46.69954
G1 X155.883 Y51.795 E46.71935
G1 X79.117 Y51.795 E49.2726
G1 X78.328 Y51.755 E49.29887
G1 X77.548 Y51.636 E49.32512
G1 X76.783 Y51.438 E49.3514
G1 X76.043 Y51.164 E49.37764
G1 X75.334 Y50.816 E49.40391
G1 X74.663 Y50.398 E49.43021
G1 X74.039 Y49.915 E49.45645
G1 X73.602 Y49.51 E49.47627
G1 X73.485 Y49.393 E49.48177
G1 X72.955 Y48.807 E49.50805
G1 X72.488 Y48.171 E49.5343
G1 X72.087 Y47.491 E49.56055
G1 X71.757 Y46.773 E49.58683
G1 X71.502 Y46.026 E49.61309
G1 X71.323 Y45.257 E49.63935
G1 X71.223 Y44.473 E49.66564
G1 X71.2 Y43.878 E49.68544
G1 X71.2 Y22.112 E50.40938
G1 X71.24 Y21.323 E50.43566
G1 X71.358 Y20.552 E50.4616
G0 F810 X71.359 Y20.543
G0 X71.557 Y19.778
M204 S5000
M205 X30 Y30
G0 F7200 X71.957 Y19.841
M204 S500
M205 X20 Y20
G1 F6000 E50.48821
G1 F900 X72.231 Y19.122 E50.5138
G1 X72.578 Y18.436 E50.53937
G1 X72.994 Y17.789 E50.56495
G1 X73.475 Y17.189 E50.59053
G1 X73.767 Y16.879 E50.60469
G1 X73.884 Y16.762 E50.6102
G1 X74.456 Y16.248 E50.63577
G1 X75.078 Y15.795 E50.66137
G1 X75.743 Y15.409 E50.68694
G1 X76.445 Y15.094 E50.71253
G1 X77.176 Y14.854 E50.73812
G1 X77.927 Y14.691 E50.76368
G1 X78.692 Y14.607 E50.78928
G1 X79.117 Y14.595 E50.80342
G1 X155.883 Y14.595 E53.35667
G1 X156.651 Y14.635 E53.38225
G1 X157.411 Y14.754 E53.40783
G1 X158.154 Y14.952 E53.43341
G1 X158.873 Y15.226 E53.459
G1 X159.559 Y15.573 E53.48457
G1 X160.206 Y15.989 E53.51015
G1 X160.806 Y16.47 E53.53573
G1 X161.116 Y16.762 E53.54989
G1 X161.233 Y16.879 E53.5554
G1 X161.747 Y17.451 E53.58097
G1 X162.2 Y18.073 E53.60657
G1 X162.586 Y18.738 E53.63214
G1 X162.901 Y19.44 E53.65773
G1 X163.141 Y20.171 E53.68332
G1 X163.304 Y20.922 E53.70888
G1 X163.388 Y21.687 E53.73448
G1 X163.4 Y22.112 E53.74862
G1 X163.4 Y43.878 E54.47256
G1 X163.36 Y44.646 E54.49814
G1 X163.241 Y45.406 E54.52372
G1 X163.043 Y46.149 E54.5493
G1 X162.769 Y46.868 E54.57489
G1 X162.422 Y47.554 E54.60046
G1 X162.006 Y48.201 E54.62604
G1 X161.525 Y48.801 E54.65162
G1 X161.233 Y49.111 E54.66578
G1 X161.116 Y49.228 E54.67129
G1 X160.544 Y49.742 E54.69686
G1 X159.922 Y50.195 E54.72246
G1 X159.257 Y50.581 E54.74803
G1 X158.555 Y50.896 E54.77362
G1 X157.824 Y51.136 E54.79921
G1 X157.073 Y51.299 E54.82477
G1 X156.308 Y51.383 E54.85037
G1 X155.883 Y51.395 E54.86451
G1 X79.117 Y51.395 E57.41776
G1 X78.349 Y51.355 E57.44334
G1 X77.589 Y51.236 E57.46892
G1 X76.846 Y51.038 E57.4945
