;FLAVOR:Marlin
;TIME:793
;Filament used: 0.514693m
;Layer height: 0.2
;Generated with Cura_SteamEngine 3.6.0
M140 S70
M105
M190 S70
M104 S215
M105
M109 S215
M82 ;absolute extrusion mode
G28 ; home all axes
M117 Purge extruder
G92 E0 ; reset extruder
G1 Z1.0 F3000 ; move z up little to prevent scratching of surface
G1 X0.1 Y20 Z0.3 F5000.0 ; move to start-line position G1 X0.1 Y200.0 Z0.3 F1500.0 E15 ; draw 1st line
G1 X0.4 Y200.0 Z0.3 F5000.0 ; move to side a little
G1 X0.4 Y20 Z0.3 F1500.0 E30 ; draw 2nd line
G92 E0 ; reset extruder
G1 Z1.0 F3000 ; move z up little to prevent scratching of surface
M117 All systems go!
G92 E0
G1 F6000 E-5
;LAYER_COUNT:52
;LAYER:0
M107
M204 S5000
M205 X30 Y30
G0 F7200 X92.334 Y103.042 Z0.2
M204 S500
M205 X20 Y20
;TYPE:SKIRT
G1 F6000 E0
G1 F900 X93.039 Y102.507 E0.02944
G1 X93.789 Y102.037 E0.05887
G1 X94.579 Y101.637 E0.08833
G1 X95.401 Y101.309 E0.11776
G1 X96.25 Y101.058 E0.14721
G1 X97.118 Y100.883 E0.17666
G1 X97.998 Y100.788 E0.2061
G1 X98.61 Y100.769 E0.22646
G1 X100.392 Y100.769 E0.28573
G1 X101.276 Y100.809 E0.31516
G1 X102.153 Y100.929 E0.34461
G1 X103.016 Y101.127 E0.37405
G1 X103.857 Y101.402 E0.40348
G1 X104.67 Y101.752 E0.43292
G1 X105.449 Y102.174 E0.46239
G1 X106.185 Y102.665 E0.49182
G1 X106.875 Y103.22 E0.52127
G1 X107.322 Y103.639 E0.54165
G1 X107.439 Y103.756 E0.54715
G1 X108.036 Y104.41 E0.5766
G1 X108.502 Y105.024 E0.60224
G1 X108.589 Y104.893 E0.60747
G1 X109.144 Y104.203 E0.63692
G1 X109.563 Y103.756 E0.6573
G1 X109.68 Y103.639 E0.6628
G1 X110.334 Y103.042 E0.69226
G1 X111.039 Y102.507 E0.72169
G1 X111.789 Y102.037 E0.75113
G1 X112.579 Y101.637 E0.78058
G1 X113.401 Y101.309 E0.81002
G1 X114.25 Y101.058 E0.83946
G1 X115.118 Y100.883 E0.86891
G1 X115.998 Y100.788 E0.89835
G1 X116.61 Y100.769 E0.91872
G1 X118.392 Y100.769 E0.97799
G1 X119.276 Y100.809 E1.00742
G1 X120.153 Y100.929 E1.03686
G1 X121.016 Y101.127 E1.06631
G1 X121.857 Y101.402 E1.09574
G1 X122.67 Y101.752 E1.12518
G1 X123.449 Y102.174 E1.15465
G1 X124.185 Y102.665 E1.18407
G1 X124.875 Y103.22 E1.21353
G1 X125.322 Y103.639 E1.2339
G1 X125.439 Y103.756 E1.23941
G1 X126.036 Y104.41 E1.26886
G1 X126.571 Y105.115 E1.29829
G1 X127.041 Y105.865 E1.32773
G1 X127.441 Y106.655 E1.35718
G1 X127.769 Y107.477 E1.38662
G1 X128.02 Y108.326 E1.41607
G1 X128.195 Y109.194 E1.44552
G1 X128.29 Y110.074 E1.47496
G1 X128.309 Y110.687 E1.49535
G1 X128.308 Y117.453 E1.72039
G1 X128.268 Y118.338 E1.74986
G1 X128.148 Y119.215 E1.7793
G1 X127.95 Y120.078 E1.80875
G1 X127.674 Y120.919 E1.83819
G1 X127.324 Y121.732 E1.86763
G1 X126.902 Y122.51 E1.89706
G1 X126.411 Y123.247 E1.92652
G1 X125.856 Y123.936 E1.95595
G1 X125.438 Y124.382 E1.97628
G1 X125.321 Y124.499 E1.98178
G1 X124.667 Y125.096 E2.01123
G1 X123.962 Y125.631 E2.04067
G1 X123.212 Y126.101 E2.07011
G1 X122.422 Y126.501 E2.09956
G1 X121.6 Y126.829 E2.12899
G1 X120.751 Y127.08 E2.15844
G1 X119.883 Y127.255 E2.18789
G1 X119.003 Y127.35 E2.21733
G1 X118.391 Y127.369 E2.23769
G1 X116.61 Y127.369 E2.29693
G1 X115.726 Y127.329 E2.32636
G1 X114.849 Y127.209 E2.3558
G1 X113.986 Y127.011 E2.38525
G1 X113.145 Y126.736 E2.41468
G1 X112.332 Y126.386 E2.44412
G1 X111.553 Y125.964 E2.47359
G1 X110.817 Y125.473 E2.50302
G1 X110.127 Y124.918 E2.53247
G1 X109.68 Y124.499 E2.55285
G1 X109.563 Y124.382 E2.55835
G1 X108.966 Y123.728 E2.5878
G1 X108.5 Y123.114 E2.61344
G1 X108.411 Y123.247 E2.61876
G1 X107.856 Y123.936 E2.64819
G1 X107.438 Y124.382 E2.66852
G1 X107.321 Y124.499 E2.67402
G1 X106.667 Y125.096 E2.70347
G1 X105.962 Y125.631 E2.73291
G1 X105.212 Y126.101 E2.76235
G1 X104.422 Y126.501 E2.7918
G1 X103.6 Y126.829 E2.82124
G1 X102.751 Y127.08 E2.85068
G1 X101.883 Y127.255 E2.88013
G1 X101.003 Y127.35 E2.90957
G1 X100.391 Y127.369 E2.92994
G1 X98.61 Y127.369 E2.98917
G1 X97.726 Y127.329 E3.0186
G1 X96.849 Y127.209 E3.04805
G1 X95.986 Y127.011 E3.07749
G1 X95.145 Y126.736 E3.10692
G1 X94.332 Y126.386 E3.13636
G1 X93.553 Y125.964 E3.16583
G1 X92.817 Y125.473 E3.19526
G1 X92.127 Y124.918 E3.22471
G1 X91.68 Y124.499 E3.24509
G1 X91.563 Y124.382 E3.25059
G1 X90.966 Y123.728 E3.28004
G1 X90.431 Y123.023 E3.30948
G1 X89.961 Y122.273 E3.33892
G1 X89.561 Y121.483 E3.36837
G1 X89.233 Y120.661 E3.3978
G1 X88.982 Y119.812 E3.42725
G1 X88.807 Y118.944 E3.4567
G1 X88.712 Y118.064 E3.48614
G1 X88.693 Y117.452 E3.50651
G1 X88.693 Y110.686 E3.73154
G1 X88.733 Y109.802 E3.76098
G1 X88.853 Y108.925 E3.79042
G1 X89.051 Y108.062 E3.81987
G1 X89.326 Y107.221 E3.84929
G1 X89.676 Y106.408 E3.87873
G1 X90.098 Y105.629 E3.9082
G1 X90.589 Y104.893 E3.93763
G1 X91.144 Y104.203 E3.96708
G1 X91.563 Y103.756 E3.98746
G1 X91.68 Y103.639 E3.99296
G1 X91.743 Y103.581 E3.99581
G0 F810 X92.334 Y103.042
M204 S5000
M205 X30 Y30
G0 F7200 X92.604 Y103.338
M204 S500
M205 X20 Y20
G1 F6000 E4.02242
G1 F900 X93.296 Y102.815 E4.05127
G1 X94.033 Y102.359 E4.08009
G1 X94.808 Y101.972 E4.10891
G1 X95.617 Y101.658 E4.13777
G1 X96.45 Y101.42 E4.16658
G1 X97.302 Y101.26 E4.19542
G1 X98.165 Y101.18 E4.22424
G1 X98.61 Y101.169 E4.23905
G1 X100.392 Y101.169 E4.29832
G1 X101.258 Y101.209 E4.32715
G1 X102.117 Y101.329 E4.356
G1 X102.961 Y101.527 E4.38483
G1 X103.783 Y101.802 E4.41366
G1 X104.576 Y102.152 E4.44249
G1 X105.334 Y102.573 E4.47133
G1 X106.049 Y103.062 E4.50014
G1 X106.717 Y103.615 E4.52898
G1 X107.039 Y103.922 E4.54378
G1 X107.156 Y104.039 E4.54929
G1 X107.74 Y104.68 E4.57813
G1 X108.263 Y105.372 E4.60698
G1 X108.495 Y105.747 E4.62164
G1 X108.497 Y105.744 E4.62176
G1 X108.986 Y105.029 E4.65057
G1 X109.539 Y104.361 E4.67942
G1 X109.846 Y104.039 E4.69421
G1 X109.963 Y103.922 E4.69972
G1 X110.604 Y103.338 E4.72856
G1 X111.296 Y102.815 E4.75741
G1 X112.033 Y102.359 E4.78623
G1 X112.808 Y101.972 E4.81505
G1 X113.617 Y101.658 E4.84391
G1 X114.45 Y101.42 E4.87272
G1 X115.302 Y101.26 E4.90156
G1 X116.165 Y101.18 E4.93038
G1 X116.61 Y101.169 E4.94519
G1 X118.392 Y101.169 E5.00446
G1 X119.258 Y101.209 E5.03329
G1 X120.117 Y101.329 E5.06214
G1 X120.961 Y101.527 E5.09097
G1 X121.783 Y101.802 E5.1198
G1 X122.576 Y102.152 E5.14863
G1 X123.334 Y102.573 E5.17747
G1 X124.049 Y103.062 E5.20628
G1 X124.717 Y103.615 E5.23513
G1 X125.039 Y103.922 E5.24992
G1 X125.156 Y104.039 E5.25543
G1 X125.74 Y104.68 E5.28427
G1 X126.263 Y105.372 E5.31312
G1 X126.719 Y106.109 E5.34194
G1 X127.106 Y106.884 E5.37075
G1 X127.42 Y107.693 E5.39962
G1 X127.658 Y108.526 E5.42843
G1 X127.818 Y109.378 E5.45726
G1 X127.898 Y110.241 E5.48609
G1 X127.909 Y110.687 E5.50093
G1 X127.908 Y117.453 E5.72597
G1 X127.868 Y118.319 E5.7548
G1 X127.748 Y119.178 E5.78365
G1 X127.55 Y120.022 E5.81248
G1 X127.275 Y120.844 E5.84131
G1 X126.925 Y121.637 E5.87014
G1 X126.503 Y122.395 E5.899
G1 X126.014 Y123.111 E5.92784
G1 X125.461 Y123.778 E5.95665
G1 X125.155 Y124.099 E5.9714
G1 X125.038 Y124.216 E5.97691
G1 X124.397 Y124.8 E6.00575
G1 X123.705 Y125.323 E6.0346
G1 X122.968 Y125.779 E6.06342
G1 X122.193 Y126.166 E6.09224
G1 X121.384 Y126.48 E6.1211
G1 X120.551 Y126.718 E6.14991
G1 X119.699 Y126.878 E6.17875
G1 X118.836 Y126.958 E6.20757
G1 X118.391 Y126.969 E6.22238
G1 X116.61 Y126.969 E6.28161
G1 X115.744 Y126.929 E6.31045
G1 X114.885 Y126.809 E6.3393
G1 X114.041 Y126.611 E6.36813
G1 X113.219 Y126.336 E6.39696
G1 X112.426 Y125.986 E6.42579
G1 X111.668 Y125.565 E6.45463
G1 X110.953 Y125.076 E6.48344
G1 X110.285 Y124.523 E6.51228
G1 X109.963 Y124.216 E6.52708
G1 X109.846 Y124.099 E6.53258
G1 X109.262 Y123.458 E6.56142
G1 X108.739 Y122.766 E6.59027
G1 X108.506 Y122.39 E6.60499
G1 X108.503 Y122.395 E6.60518
G1 X108.014 Y123.111 E6.63402
G1 X107.461 Y123.778 E6.66284
G1 X107.155 Y124.099 E6.67759
G1 X107.038 Y124.216 E6.68309
G1 X106.397 Y124.8 E6.71193
G1 X105.705 Y125.323 E6.74078
G1 X104.968 Y125.779 E6.76961
G1 X104.193 Y126.166 E6.79842
G1 X103.384 Y126.48 E6.82728
G1 X102.551 Y126.718 E6.85609
G1 X101.699 Y126.878 E6.88493
G1 X100.836 Y126.958 E6.91375
G1 X100.391 Y126.969 E6.92856
G1 X98.61 Y126.969 E6.9878
G1 X97.744 Y126.929 E7.01663
G1 X96.885 Y126.809 E7.04548
G1 X96.041 Y126.611 E7.07431
G1 X95.219 Y126.336 E7.10314
G1 X94.426 Y125.986 E7.13197
G1 X93.668 Y125.565 E7.16081
G1 X92.953 Y125.076 E7.18962
G1 X92.285 Y124.523 E7.21846
G1 X91.963 Y124.216 E7.23326
G1 X91.846 Y124.099 E7.23876
G1 X91.262 Y123.458 E7.26761
G1 X90.739 Y122.766 E7.29646
G1 X90.283 Y122.029 E7.32528
G1 X89.896 Y121.254 E7.35409
G1 X89.582 Y120.445 E7.38296
G1 X89.344 Y119.612 E7.41177
G1 X89.184 Y118.76 E7.4406
G1 X89.104 Y117.897 E7.46943
G1 X89.093 Y117.452 E7.48423
G1 X89.093 Y110.686 E7.70927
G1 X89.133 Y109.82 E7.73811
G1 X89.253 Y108.961 E7.76695
G1 X89.451 Y108.117 E7.79579
G1 X89.726 Y107.295 E7.82462
G1 X90.076 Y106.502 E7.85345
G1 X90.497 Y105.744 E7.88229
G1 X90.986 Y105.029 E7.9111
G1 X91.539 Y104.361 E7.93994
G1 X91.846 Y104.039 E7.95474
G1 X91.963 Y103.922 E7.96024
G1 X92.013 Y103.876 E7.9625
G0 F810 X92.604 Y103.338
M204 S5000
M205 X30 Y30
G0 F7200 X92.873 Y103.634
M204 S500
M205 X20 Y20
G1 F6000 E7.98911
G1 F900 X93.552 Y103.125 E8.01733
G1 X94.275 Y102.682 E8.04554
G1 X95.037 Y102.309 E8.07375
G1 X95.831 Y102.009 E8.10198
G1 X96.649 Y101.785 E8.13019
G1 X97.485 Y101.64 E8.15841
G1 X98.61 Y101.569 E8.1959
G1 X100.392 Y101.569 E8.25517
G1 X101.239 Y101.609 E8.28338
G1 X102.079 Y101.729 E8.3116
G1 X102.904 Y101.927 E8.33982
G1 X103.707 Y102.202 E8.36805
G1 X104.48 Y102.551 E8.39626
G1 X105.216 Y102.971 E8.42444
G1 X105.91 Y103.459 E8.45266
G1 X106.756 Y104.205 E8.49018
G1 X106.873 Y104.322 E8.49568
G1 X107.444 Y104.949 E8.52388
G1 X107.953 Y105.628 E8.55211
G1 X108.396 Y106.351 E8.58031
G1 X108.498 Y106.558 E8.58799
G1 X108.895 Y105.862 E8.61464
G1 X109.383 Y105.168 E8.64285
G1 X110.129 Y104.322 E8.68037
G1 X110.246 Y104.205 E8.68587
G1 X110.873 Y103.634 E8.71408
G1 X111.552 Y103.125 E8.7423
G1 X112.275 Y102.682 E8.77051
G1 X113.037 Y102.309 E8.79872
G1 X113.831 Y102.009 E8.82695
G1 X114.649 Y101.785 E8.85516
G1 X115.485 Y101.64 E8.88338
G1 X116.61 Y101.569 E8.92088
G1 X118.392 Y101.569 E8.98015
G1 X119.239 Y101.609 E9.00835
G1 X120.079 Y101.729 E9.03657
G1 X120.904 Y101.927 E9.06479
G1 X121.707 Y102.202 E9.09302
G1 X122.48 Y102.551 E9.12123
G1 X123.216 Y102.971 E9.14941
G1 X123.91 Y103.459 E9.17763
G1 X124.756 Y104.205 E9.21515
G1 X124.873 Y104.322 E9.22065
G1 X125.444 Y104.949 E9.24886
G1 X125.953 Y105.628 E9.27708
G1 X126.396 Y106.351 E9.30528
G1 X126.769 Y107.113 E9.3335
G1 X127.069 Y107.907 E9.36173
G1 X127.293 Y108.725 E9.38994
G1 X127.438 Y109.561 E9.41816
G1 X127.509 Y110.687 E9.45569
G1 X127.508 Y117.453 E9.68072
G1 X127.468 Y118.301 E9.70896
G1 X127.348 Y119.14 E9.73715
G1 X127.15 Y119.965 E9.76537
G1 X126.875 Y120.768 E9.7936
G1 X126.526 Y121.541 E9.82181
G1 X126.105 Y122.277 E9.85001
G1 X125.617 Y122.971 E9.87823
G1 X124.872 Y123.816 E9.91569
G1 X124.755 Y123.933 E9.9212
G1 X124.128 Y124.504 E9.9494
G1 X123.449 Y125.013 E9.97763
G1 X122.726 Y125.456 E10.00583
G1 X121.964 Y125.829 E10.03405
G1 X121.17 Y126.129 E10.06228
G1 X120.352 Y126.353 E10.09049
G1 X119.516 Y126.498 E10.11871
G1 X118.391 Y126.569 E10.1562
G1 X116.61 Y126.569 E10.21544
G1 X115.763 Y126.529 E10.24364
G1 X114.923 Y126.409 E10.27186
G1 X114.098 Y126.211 E10.30008
G1 X113.295 Y125.936 E10.32831
G1 X112.522 Y125.587 E10.35652
G1 X111.786 Y125.167 E10.3847
G1 X111.092 Y124.679 E10.41292
G1 X110.246 Y123.933 E10.45044
G1 X110.129 Y123.816 E10.45594
G1 X109.558 Y123.189 E10.48415
G1 X109.049 Y122.51 E10.51237
G1 X108.606 Y121.787 E10.54057
G1 X108.504 Y121.579 E10.54828
G1 X108.105 Y122.277 E10.57502
G1 X107.617 Y122.971 E10.60324
G1 X106.872 Y123.816 E10.64071
G1 X106.755 Y123.933 E10.64621
G1 X106.128 Y124.504 E10.67441
G1 X105.449 Y125.013 E10.70264
G1 X104.726 Y125.456 E10.73084
G1 X103.964 Y125.829 E10.75906
G1 X103.17 Y126.129 E10.78729
G1 X102.352 Y126.353 E10.8155
G1 X101.516 Y126.498 E10.84372
G1 X100.391 Y126.569 E10.88121
G1 X98.61 Y126.569 E10.94045
G1 X97.763 Y126.529 E10.96865
G1 X96.923 Y126.409 E10.99687
G1 X96.098 Y126.211 E11.02509
G1 X95.295 Y125.936 E11.05332
G1 X94.522 Y125.587 E11.08153
G1 X93.786 Y125.167 E11.10972
G1 X93.092 Y124.679 E11.13793
G1 X92.246 Y123.933 E11.17545
G1 X92.129 Y123.816 E11.18095
G1 X91.558 Y123.189 E11.20916
G1 X91.049 Y122.51 E11.23738
G1 X90.606 Y121.787 E11.26558
G1 X90.233 Y121.025 E11.2938
G1 X89.933 Y120.231 E11.32203
G1 X89.709 Y119.413 E11.35024
G1 X89.564 Y118.577 E11.37846
G1 X89.493 Y117.452 E11.41595
G1 X89.493 Y110.686 E11.64099
G1 X89.533 Y109.839 E11.66919
G1 X89.653 Y108.999 E11.69742
G1 X89.851 Y108.174 E11.72564
G1 X90.126 Y107.371 E11.75387
G1 X90.475 Y106.598 E11.78208
G1 X90.895 Y105.862 E11.81026
G1 X91.383 Y105.168 E11.83848
G1 X92.129 Y104.322 E11.87599
G1 X92.246 Y104.205 E11.8815
G1 X92.282 Y104.172 E11.88312
G0 F810 X92.873 Y103.634
M204 S5000
M205 X30 Y30
G0 F7200 X93.143 Y103.93
M204 S500
M205 X20 Y20
G1 F6000 E11.90973
G1 F900 X93.808 Y103.435 E11.9373
G1 X94.517 Y103.005 E11.96488
G1 X95.264 Y102.646 E11.99245
G1 X96.043 Y102.361 E12.02004
G1 X96.845 Y102.152 E12.0476
G1 X97.664 Y102.021 E12.07519
G1 X98.61 Y101.969 E12.1067
G1 X100.392 Y101.969 E12.16597
G1 X101.22 Y102.009 E12.19354
G1 X102.041 Y102.129 E12.22114
G1 X102.846 Y102.327 E12.24871
G1 X103.628 Y102.601 E12.27627
G1 X104.381 Y102.95 E12.30387
G1 X105.096 Y103.37 E12.33145
G1 X105.767 Y103.856 E12.35901
G1 X106.473 Y104.488 E12.39053
G1 X106.59 Y104.605 E12.39603
G1 X107.148 Y105.219 E12.42362
G1 X107.643 Y105.884 E12.4512
G1 X108.073 Y106.593 E12.47878
G1 X108.432 Y107.34 E12.50634
G1 X108.499 Y107.524 E12.51286
G1 X108.525 Y107.45 E12.51546
G1 X108.874 Y106.697 E12.54307
G1 X109.294 Y105.982 E12.57065
G1 X109.78 Y105.311 E12.59821
G1 X110.412 Y104.605 E12.62972
G1 X110.529 Y104.488 E12.63522
G1 X111.143 Y103.93 E12.66282
G1 X111.808 Y103.435 E12.69039
G1 X112.517 Y103.005 E12.71797
G1 X113.264 Y102.646 E12.74554
G1 X114.043 Y102.361 E12.77313
G1 X114.845 Y102.152 E12.80069
G1 X115.664 Y102.021 E12.82828
G1 X116.61 Y101.969 E12.85979
G1 X118.392 Y101.969 E12.91906
G1 X119.22 Y102.009 E12.94663
G1 X120.041 Y102.129 E12.97423
G1 X120.846 Y102.327 E13.0018
G1 X121.628 Y102.601 E13.02936
G1 X122.381 Y102.95 E13.05696
G1 X123.096 Y103.37 E13.08454
G1 X123.767 Y103.856 E13.1121
G1 X124.473 Y104.488 E13.14362
G1 X124.59 Y104.605 E13.14912
G1 X125.148 Y105.219 E13.17671
G1 X125.643 Y105.884 E13.20429
G1 X126.073 Y106.593 E13.23187
G1 X126.432 Y107.34 E13.25943
G1 X126.717 Y108.119 E13.28702
G1 X126.926 Y108.921 E13.31459
G1 X127.057 Y109.74 E13.34217
G1 X127.109 Y110.687 E13.37372
G1 X127.108 Y117.453 E13.59876
G1 X127.068 Y118.282 E13.62636
G1 X126.948 Y119.102 E13.65393
G1 X126.75 Y119.907 E13.6815
G1 X126.475 Y120.69 E13.7091
G1 X126.126 Y121.442 E13.73667
G1 X125.707 Y122.157 E13.76424
G1 X125.22 Y122.828 E13.79181
G1 X124.589 Y123.533 E13.82328
G1 X124.472 Y123.65 E13.82879
G1 X123.858 Y124.208 E13.85638
G1 X123.193 Y124.703 E13.88395
G1 X122.484 Y125.133 E13.91153
G1 X121.737 Y125.492 E13.9391
G1 X120.958 Y125.777 E13.96669
G1 X120.156 Y125.986 E13.99425
G1 X119.337 Y126.117 E14.02184
G1 X118.391 Y126.169 E14.05335
G1 X116.61 Y126.169 E14.11259
G1 X115.782 Y126.129 E14.14016
G1 X114.961 Y126.009 E14.16776
G1 X114.156 Y125.811 E14.19533
G1 X113.374 Y125.537 E14.22289
G1 X112.621 Y125.188 E14.25049
G1 X111.906 Y124.768 E14.27807
G1 X111.235 Y124.282 E14.30563
G1 X110.529 Y123.65 E14.33714
G1 X110.412 Y123.533 E14.34265
G1 X109.854 Y122.919 E14.37024
G1 X109.359 Y122.254 E14.39782
G1 X108.929 Y121.545 E14.4254
G1 X108.57 Y120.798 E14.45296
G1 X108.502 Y120.613 E14.45952
G1 X108.475 Y120.69 E14.46223
G1 X108.126 Y121.442 E14.4898
G1 X107.707 Y122.157 E14.51737
G1 X107.22 Y122.828 E14.54494
G1 X106.589 Y123.533 E14.57641
G1 X106.472 Y123.65 E14.58192
G1 X105.858 Y124.208 E14.60951
G1 X105.193 Y124.703 E14.63708
G1 X104.484 Y125.133 E14.66466
G1 X103.737 Y125.492 E14.69223
G1 X102.958 Y125.777 E14.71982
G1 X102.156 Y125.986 E14.74738
G1 X101.337 Y126.117 E14.77497
G1 X100.391 Y126.169 E14.80648
G1 X98.61 Y126.169 E14.86572
G1 X97.782 Y126.129 E14.89329
G1 X96.961 Y126.009 E14.92089
G1 X96.156 Y125.811 E14.94846
G1 X95.374 Y125.537 E14.97602
