;FLAVOR:Marlin
;TIME:2293
;Filament used: 0.892197m
;Layer height: 0.2
;Generated with Cura_SteamEngine 3.6.0
M140 S70
M105
M190 S70
M104 S215
M105
M109 S215
M82 ;absolute extrusion mode
G28 ; home all axes
M117 Purge extruder
G92 E0 ; reset extruder
G1 Z1.0 F3000 ; move z up little to prevent scratching of surface
G1 X0.1 Y20 Z0.3 F5000.0 ; move to start-line position G1 X0.1 Y200.0 Z0.3 F1500.0 E15 ; draw 1st line
G1 X0.4 Y200.0 Z0.3 F5000.0 ; move to side a little
G1 X0.4 Y20 Z0.3 F1500.0 E30 ; draw 2nd line
G92 E0 ; reset extruder
G1 Z1.0 F3000 ; move z up little to prevent scratching of surface
M117 All systems go!
G92 E0
G1 F6000 E-5
;LAYER_COUNT:159
;LAYER:0
M107
G0 F2400 X64.592 Y17.089 Z0.2
;TYPE:SKIRT
G1 F6000 E0
G1 F900 X64.944 Y15.88 E0.04188
G1 X65.372 Y14.697 E0.08372
G1 X65.874 Y13.543 E0.12558
G1 X66.448 Y12.424 E0.16741
G1 X67.093 Y11.343 E0.20928
G1 X67.805 Y10.305 E0.25114
G1 X68.581 Y9.315 E0.29298
G1 X69.708 Y8.078 E0.34864
G1 X69.825 Y7.96 E0.35416
G1 X70.739 Y7.095 E0.39602
G1 X71.706 Y6.29 E0.43787
G1 X72.722 Y5.548 E0.47971
G1 X73.784 Y4.872 E0.52158
G1 X74.886 Y4.264 E0.56345
G1 X76.024 Y3.728 E0.60528
G1 X77.195 Y3.266 E0.64715
G1 X78.392 Y2.878 E0.689
G1 X79.611 Y2.568 E0.73084
G1 X80.848 Y2.335 E0.77271
G1 X82.097 Y2.182 E0.81456
G1 X83.885 Y2.101 E0.87409
G1 X145.565 Y2.101 E2.92557
G1 X146.823 Y2.141 E2.96744
G1 X148.075 Y2.261 E3.00927
G1 X149.318 Y2.46 E3.05114
G1 X150.545 Y2.738 E3.09298
G1 X151.753 Y3.093 E3.13486
G1 X152.935 Y3.524 E3.1767
G1 X154.087 Y4.029 E3.21854
G1 X155.206 Y4.607 E3.26043
G1 X156.285 Y5.254 E3.30227
G1 X157.321 Y5.968 E3.34412
G1 X158.309 Y6.747 E3.38597
G1 X159.566 Y7.9 E3.4427
G1 X159.683 Y8.017 E3.44821
G1 X160.544 Y8.935 E3.49007
G1 X161.345 Y9.905 E3.53191
G1 X162.083 Y10.925 E3.57378
G1 X162.754 Y11.989 E3.61562
G1 X163.357 Y13.094 E3.65749
G1 X163.888 Y14.235 E3.69935
G1 X164.346 Y15.407 E3.7412
G1 X164.728 Y16.606 E3.78305
G1 X165.033 Y17.827 E3.82491
G1 X165.26 Y19.064 E3.86674
G1 X165.409 Y20.314 E3.90861
G1 X165.482 Y21.967 E3.96364
G1 X165.483 Y22.352 E3.97645
G1 X165.446 Y23.609 E4.01827
G1 X165.33 Y24.862 E4.06013
G1 X165.134 Y26.106 E4.10201
G1 X164.859 Y27.334 E4.14387
G1 X164.507 Y28.542 E4.18572
G1 X164.079 Y29.725 E4.22756
G1 X163.577 Y30.879 E4.26942
G1 X163.002 Y31.999 E4.31129
G1 X162.358 Y33.079 E4.35311
G1 X161.646 Y34.117 E4.39498
G1 X160.87 Y35.108 E4.43684
G1 X159.743 Y36.344 E4.49247
G1 X159.626 Y36.462 E4.498
G1 X158.712 Y37.327 E4.53986
G1 X157.745 Y38.132 E4.5817
G1 X156.729 Y38.874 E4.62355
G1 X155.667 Y39.55 E4.66542
G1 X154.565 Y40.158 E4.70728
G1 X153.427 Y40.694 E4.74912
G1 X152.256 Y41.156 E4.79099
G1 X151.059 Y41.544 E4.83284
G1 X149.84 Y41.854 E4.87468
G1 X148.603 Y42.087 E4.91654
G1 X147.354 Y42.24 E4.95839
G1 X145.565 Y42.321 E5.01796
G1 X83.885 Y42.319 E7.06944
G1 X82.628 Y42.279 E7.11127
G1 X81.375 Y42.159 E7.15314
G1 X80.132 Y41.96 E7.19501
G1 X78.905 Y41.682 E7.23685
G1 X77.698 Y41.327 E7.2787
G1 X76.515 Y40.896 E7.32057
G1 X75.363 Y40.391 E7.36241
G1 X74.245 Y39.813 E7.40427
G1 X73.166 Y39.166 E7.44611
G1 X72.13 Y38.451 E7.48798
G1 X71.142 Y37.672 E7.52983
G1 X69.885 Y36.52 E7.58654
G1 X69.768 Y36.403 E7.59204
G1 X68.907 Y35.485 E7.6339
G1 X68.106 Y34.515 E7.67574
G1 X67.368 Y33.495 E7.71762
G1 X66.697 Y32.431 E7.75945
G1 X66.094 Y31.326 E7.80132
G1 X65.563 Y30.185 E7.84318
G1 X65.105 Y29.013 E7.88503
G1 X64.723 Y27.814 E7.92689
G1 X64.418 Y26.593 E7.96874
G1 X64.191 Y25.356 E8.01057
G1 X64.042 Y24.106 E8.05244
G1 X63.969 Y22.454 E8.10744
G1 X63.968 Y22.071 E8.12018
G1 X64.005 Y20.813 E8.16204
G1 X64.121 Y19.56 E8.20389
G1 X64.317 Y18.317 E8.24575
G1 X64.418 Y17.869 E8.26102
G0 F810 X64.592 Y17.089
G0 F2400 X64.992 Y17.139
G1 F6000 E8.28763
G1 F900 X65.344 Y15.944 E8.32906
G1 X65.771 Y14.774 E8.37049
G1 X66.273 Y13.634 E8.41192
G1 X66.848 Y12.529 E8.45335
G1 X67.491 Y11.463 E8.49476
G1 X68.202 Y10.44 E8.53619
G1 X68.978 Y9.465 E8.57764
G1 X69.992 Y8.36 E8.62752
G1 X70.109 Y8.242 E8.63305
G1 X71.014 Y7.386 E8.67448
G1 X71.972 Y6.59 E8.71591
G1 X72.979 Y5.857 E8.75733
G1 X74.031 Y5.19 E8.79876
G1 X75.124 Y4.592 E8.8402
G1 X76.253 Y4.065 E8.88164
G1 X77.413 Y3.612 E8.92306
G1 X78.6 Y3.235 E8.96448
G1 X79.809 Y2.934 E9.00592
G1 X81.035 Y2.712 E9.04736
G1 X82.272 Y2.568 E9.08878
G1 X83.885 Y2.501 E9.14248
G1 X145.565 Y2.501 E11.19396
G1 X146.81 Y2.541 E11.23539
G1 X148.05 Y2.661 E11.27683
G1 X149.279 Y2.86 E11.31824
G1 X150.494 Y3.138 E11.35969
G1 X151.688 Y3.493 E11.40112
G1 X152.856 Y3.923 E11.44252
G1 X153.995 Y4.428 E11.48396
G1 X155.099 Y5.005 E11.52539
G1 X156.164 Y5.652 E11.56684
G1 X157.185 Y6.366 E11.60828
G1 X158.158 Y7.143 E11.64969
G1 X159.283 Y8.183 E11.70065
G1 X159.4 Y8.3 E11.70615
G1 X160.252 Y9.209 E11.74759
G1 X161.044 Y10.17 E11.78901
G1 X161.773 Y11.18 E11.83044
G1 X162.435 Y12.235 E11.87186
G1 X163.028 Y13.331 E11.91331
G1 X163.55 Y14.462 E11.95474
G1 X163.998 Y15.624 E11.99616
G1 X164.371 Y16.813 E12.03761
G1 X164.666 Y18.023 E12.07903
G1 X164.883 Y19.249 E12.12044
G1 X165.022 Y20.487 E12.16188
G1 X165.082 Y21.968 E12.21118
G1 X165.083 Y22.353 E12.22398
G1 X165.046 Y23.598 E12.26541
G1 X164.93 Y24.838 E12.30683
G1 X164.734 Y26.068 E12.34826
G1 X164.459 Y27.283 E12.38969
G1 X164.107 Y28.478 E12.43112
G1 X163.679 Y29.648 E12.47256
G1 X163.177 Y30.788 E12.51399
G1 X162.603 Y31.893 E12.55541
G1 X161.959 Y32.959 E12.59683
G1 X161.248 Y33.982 E12.63826
G1 X160.473 Y34.957 E12.67969
G1 X159.459 Y36.062 E12.72957
G1 X159.342 Y36.18 E12.7351
G1 X158.437 Y37.036 E12.77653
G1 X157.479 Y37.832 E12.81796
G1 X156.472 Y38.565 E12.85938
G1 X155.42 Y39.232 E12.90081
G1 X154.327 Y39.83 E12.94225
G1 X153.198 Y40.357 E12.98369
G1 X152.038 Y40.81 E13.02511
G1 X150.851 Y41.187 E13.06653
G1 X149.642 Y41.488 E13.10797
G1 X148.416 Y41.71 E13.14941
G1 X147.179 Y41.854 E13.19083
G1 X145.565 Y41.921 E13.24456
G1 X83.885 Y41.919 E15.29605
G1 X82.64 Y41.879 E15.33748
G1 X81.401 Y41.759 E15.37888
G1 X80.171 Y41.56 E15.42032
G1 X78.957 Y41.282 E15.46174
G1 X77.763 Y40.927 E15.50318
G1 X76.594 Y40.496 E15.54462
G1 X75.455 Y39.991 E15.58605
G1 X74.351 Y39.414 E15.62749
G1 X73.287 Y38.768 E15.66889
G1 X72.266 Y38.054 E15.71033
G1 X71.293 Y37.276 E15.75176
G1 X70.168 Y36.237 E15.8027
G1 X70.051 Y36.12 E15.8082
G1 X69.199 Y35.211 E15.84964
G1 X68.407 Y34.25 E15.89106
G1 X67.678 Y33.24 E15.93248
G1 X67.016 Y32.185 E15.97391
G1 X66.423 Y31.089 E16.01536
G1 X65.901 Y29.958 E16.05679
G1 X65.453 Y28.796 E16.09821
G1 X65.08 Y27.607 E16.13966
G1 X64.785 Y26.397 E16.18108
G1 X64.568 Y25.171 E16.22249
G1 X64.429 Y23.933 E16.26392
G1 X64.369 Y22.453 E16.31319
G1 X64.368 Y22.07 E16.32593
G1 X64.405 Y20.825 E16.36736
G1 X64.521 Y19.584 E16.40881
G1 X64.717 Y18.354 E16.45024
G1 X64.816 Y17.919 E16.46508
G0 F810 X64.992 Y17.139
G0 F2400 X65.392 Y17.19
G1 F6000 E16.49168
G1 F900 X65.744 Y16.009 E16.53267
G1 X66.171 Y14.853 E16.57366
G1 X66.673 Y13.727 E16.61466
G1 X67.247 Y12.636 E16.65567
G1 X67.89 Y11.584 E16.69667
G1 X68.6 Y10.576 E16.73768
G1 X69.374 Y9.617 E16.77867
G1 X70.276 Y8.641 E16.82287
G1 X70.393 Y8.523 E16.8284
G1 X71.289 Y7.677 E16.86939
G1 X72.238 Y6.89 E16.91039
G1 X73.236 Y6.166 E16.9514
G1 X74.278 Y5.509 E16.99237
G1 X75.362 Y4.92 E17.0334
G1 X76.481 Y4.403 E17.0744
G1 X77.631 Y3.96 E17.11539
G1 X78.808 Y3.592 E17.15641
G1 X80.005 Y3.301 E17.19738
G1 X81.22 Y3.089 E17.2384
G1 X82.445 Y2.956 E17.27938
G1 X83.885 Y2.901 E17.32731
G1 X145.565 Y2.901 E19.3788
G1 X146.797 Y2.941 E19.4198
G1 X148.024 Y3.061 E19.4608
G1 X149.24 Y3.26 E19.50178
G1 X150.442 Y3.537 E19.54281
G1 X151.622 Y3.892 E19.58379
G1 X152.777 Y4.323 E19.6248
G1 X153.902 Y4.828 E19.66581
G1 X154.991 Y5.404 E19.70679
G1 X156.041 Y6.05 E19.74779
G1 X157.047 Y6.763 E19.7888
G1 X158.005 Y7.539 E19.82981
G1 X159 Y8.466 E19.87504
G1 X159.117 Y8.583 E19.88054
G1 X159.96 Y9.482 E19.92153
G1 X160.743 Y10.435 E19.96255
G1 X161.462 Y11.436 E20.00355
G1 X162.115 Y12.481 E20.04453
G1 X162.699 Y13.567 E20.08554
G1 X163.211 Y14.688 E20.12653
G1 X163.65 Y15.84 E20.16754
G1 X164.012 Y17.018 E20.20852
G1 X164.298 Y18.218 E20.24955
G1 X164.505 Y19.433 E20.29055
G1 X164.633 Y20.659 E20.33155
G1 X164.682 Y21.969 E20.37515
G1 X164.683 Y22.354 E20.38795
G1 X164.646 Y23.586 E20.42895
G1 X164.53 Y24.813 E20.46994
G1 X164.334 Y26.03 E20.51094
G1 X164.059 Y27.232 E20.55195
G1 X163.707 Y28.413 E20.59294
G1 X163.28 Y29.569 E20.63393
G1 X162.778 Y30.695 E20.67493
G1 X162.204 Y31.787 E20.71596
G1 X161.561 Y32.838 E20.75694
G1 X160.851 Y33.846 E20.79795
G1 X160.077 Y34.805 E20.83894
G1 X159.175 Y35.781 E20.88314
G1 X159.058 Y35.899 E20.88867
G1 X158.162 Y36.745 E20.92965
G1 X157.213 Y37.532 E20.97066
G1 X156.215 Y38.256 E21.01167
G1 X155.173 Y38.913 E21.05264
G1 X154.089 Y39.502 E21.09367
G1 X152.97 Y40.019 E21.13467
G1 X151.82 Y40.462 E21.17566
G1 X150.643 Y40.83 E21.21667
G1 X149.446 Y41.121 E21.25765
G1 X148.231 Y41.333 E21.29867
G1 X147.006 Y41.466 E21.33965
G1 X145.565 Y41.521 E21.38761
G1 X83.885 Y41.519 E23.4391
G1 X82.653 Y41.479 E23.4801
G1 X81.426 Y41.359 E23.5211
G1 X80.21 Y41.16 E23.56208
G1 X79.009 Y40.882 E23.60309
G1 X77.828 Y40.527 E23.6441
G1 X76.673 Y40.097 E23.68509
G1 X75.549 Y39.592 E23.72608
G1 X74.459 Y39.015 E23.7671
G1 X73.409 Y38.369 E23.8081
G1 X72.403 Y37.657 E23.84909
G1 X71.446 Y36.88 E23.89009
G1 X70.451 Y35.954 E23.9353
G1 X70.334 Y35.837 E23.9408
G1 X69.491 Y34.938 E23.9818
G1 X68.708 Y33.985 E24.02282
G1 X67.989 Y32.984 E24.06381
G1 X67.336 Y31.939 E24.1048
G1 X66.752 Y30.853 E24.14581
G1 X66.24 Y29.732 E24.1868
G1 X65.801 Y28.58 E24.2278
G1 X65.439 Y27.402 E24.26879
G1 X65.153 Y26.202 E24.30982
G1 X64.946 Y24.987 E24.35081
G1 X64.818 Y23.761 E24.39181
G1 X64.769 Y22.452 E24.43538
G1 X64.768 Y22.069 E24.44812
G1 X64.805 Y20.836 E24.48915
G1 X64.921 Y19.609 E24.53014
G1 X65.117 Y18.392 E24.57114
G1 X65.214 Y17.969 E24.58557
G0 F810 X65.392 Y17.19
G0 F2400 X65.792 Y17.242
G1 F6000 E24.61218
G1 F900 X66.144 Y16.074 E24.65275
G1 X66.571 Y14.932 E24.6933
G1 X67.073 Y13.82 E24.73388
G1 X67.646 Y12.744 E24.77443
G1 X68.288 Y11.707 E24.815
G1 X68.997 Y10.715 E24.85555
G1 X69.77 Y9.771 E24.89613
G1 X70.56 Y8.923 E24.93468
G1 X70.677 Y8.805 E24.94021
G1 X71.564 Y7.967 E24.98079
G1 X72.503 Y7.19 E25.02133
G1 X73.492 Y6.476 E25.0619
G1 X74.525 Y5.828 E25.10246
G1 X75.599 Y5.249 E25.14304
G1 X76.708 Y4.741 E25.18361
G1 X77.848 Y4.308 E25.22417
G1 X79.014 Y3.95 E25.26474
G1 X80.201 Y3.669 E25.30531
G1 X81.404 Y3.467 E25.34588
G1 X82.617 Y3.344 E25.38643
G1 X83.885 Y3.301 E25.42863
G1 X145.565 Y3.301 E27.48012
G1 X146.784 Y3.341 E27.52068
G1 X147.998 Y3.461 E27.56126
G1 X149.201 Y3.66 E27.60181
G1 X150.389 Y3.937 E27.64238
G1 X151.556 Y4.292 E27.68296
G1 X152.697 Y4.723 E27.72352
G1 X153.807 Y5.227 E27.76407
G1 X154.882 Y5.803 E27.80463
G1 X155.917 Y6.448 E27.84519
G1 X156.908 Y7.16 E27.88578
G1 X157.85 Y7.935 E27.92635
G1 X158.717 Y8.749 E27.96591
G1 X158.834 Y8.866 E27.97141
G1 X159.668 Y9.756 E28.01198
G1 X160.441 Y10.699 E28.05253
G1 X161.152 Y11.691 E28.09313
G1 X161.795 Y12.727 E28.13368
G1 X162.369 Y13.803 E28.17424
G1 X162.872 Y14.914 E28.2148
G1 X163.301 Y16.056 E28.25538
G1 X163.653 Y17.223 E28.29592
G1 X163.929 Y18.412 E28.33652
G1 X164.126 Y19.615 E28.37706
G1 X164.244 Y20.829 E28.41763
G1 X164.282 Y21.97 E28.4556
G1 X164.283 Y22.355 E28.46841
G1 X164.246 Y23.574 E28.50897
G1 X164.129 Y24.788 E28.54954
G1 X163.934 Y25.992 E28.5901
G1 X163.659 Y27.18 E28.63066
G1 X163.307 Y28.348 E28.67123
G1 X162.88 Y29.49 E28.71179
G1 X162.378 Y30.602 E28.75236
G1 X161.805 Y31.679 E28.79294
G1 X161.163 Y32.715 E28.83348
G1 X160.453 Y33.708 E28.87408
G1 X159.681 Y34.651 E28.91461
G1 X158.891 Y35.499 E28.95316
G1 X158.774 Y35.617 E28.95869
G1 X157.887 Y36.455 E28.99927
G1 X156.948 Y37.232 E29.03981
G1 X155.959 Y37.946 E29.08038
G1 X154.926 Y38.594 E29.12094
G1 X153.852 Y39.173 E29.16152
G1 X152.743 Y39.681 E29.20209
G1 X151.603 Y40.114 E29.24265
G1 X150.437 Y40.472 E29.28322
G1 X149.25 Y40.753 E29.32379
G1 X148.047 Y40.955 E29.36436
G1 X146.834 Y41.078 E29.40491
G1 X145.565 Y41.121 E29.44714
G1 X83.885 Y41.119 E31.49863
G1 X82.666 Y41.079 E31.5392
G1 X81.453 Y40.959 E31.57974
G1 X80.249 Y40.76 E31.62033
G1 X79.062 Y40.482 E31.66087
G1 X77.895 Y40.128 E31.70144
G1 X76.754 Y39.697 E31.742
G1 X75.643 Y39.193 E31.78258
G1 X74.568 Y38.617 E31.82314
G1 X73.533 Y37.971 E31.86372
G1 X72.543 Y37.26 E31.90426
G1 X71.601 Y36.485 E31.94483
G1 X70.734 Y35.671 E31.98439
G1 X70.617 Y35.554 E31.98989
G1 X69.783 Y34.664 E32.03046
G1 X69.01 Y33.721 E32.07101
G1 X68.299 Y32.729 E32.11161
G1 X67.656 Y31.693 E32.15216
G1 X67.082 Y30.617 E32.19272
G1 X66.579 Y29.506 E32.23329
G1 X66.15 Y28.364 E32.27386
G1 X65.798 Y27.197 E32.3144
G1 X65.522 Y26.008 E32.355
G1 X65.325 Y24.805 E32.39554
G1 X65.207 Y23.591 E32.43611
G1 X65.169 Y22.451 E32.47405
G1 X65.168 Y22.068 E32.48679
G1 X65.205 Y20.848 E32.52739
G1 X65.321 Y19.634 E32.56795
G1 X65.517 Y18.431 E32.60849
G1 X65.612 Y18.021 E32.62248
G0 F810 X65.792 Y17.242
G0 F2400 X66.192 Y17.294
G1 F6000 E32.64909
G1 F900 X66.544 Y16.14 E32.68922
G1 X66.971 Y15.012 E32.72934
G1 X67.472 Y13.915 E32.76945
G1 X68.045 Y12.853 E32.80958
G1 X68.687 Y11.831 E32.84973
G1 X69.395 Y10.854 E32.88986
G1 X70.166 Y9.927 E32.92996
G1 X70.844 Y9.205 E32.9629
G1 X70.961 Y9.087 E32.96843
G1 X71.838 Y8.258 E33.00857
G1 X72.769 Y7.49 E33.04871
G1 X73.748 Y6.785 E33.08883
G1 X74.772 Y6.147 E33.12896
G1 X75.835 Y5.578 E33.16906
G1 X76.935 Y5.08 E33.20922
G1 X78.064 Y4.657 E33.24932
G1 X79.22 Y4.309 E33.28948
G1 X80.395 Y4.039 E33.32958
G1 X81.586 Y3.847 E33.3697
G1 X82.788 Y3.734 E33.40986
G1 X83.885 Y3.701 E33.44636
G1 X145.565 Y3.701 E35.49784
G1 X146.771 Y3.741 E35.53798
G1 X147.971 Y3.861 E35.57809
G1 X149.161 Y4.06 E35.61822
G1 X150.335 Y4.337 E35.65834
G1 X151.489 Y4.692 E35.69849
G1 X152.616 Y5.122 E35.73861
G1 X153.712 Y5.626 E35.77874
G1 X154.772 Y6.202 E35.81886
G1 X155.792 Y6.846 E35.85898
G1 X156.767 Y7.557 E35.89912
G1 X157.693 Y8.331 E35.93926
G1 X158.434 Y9.032 E35.97319
G1 X158.551 Y9.149 E35.97869
G1 X159.376 Y10.03 E36.01883
G1 X160.14 Y10.963 E36.05894
G1 X160.841 Y11.945 E36.09907
G1 X161.475 Y12.972 E36.13921
G1 X162.039 Y14.038 E36.17933
G1 X162.532 Y15.139 E36.21945
G1 X162.951 Y16.271 E36.2596
G1 X163.294 Y17.428 E36.29973
G1 X163.559 Y18.604 E36.33983
G1 X163.746 Y19.796 E36.37996
G1 X163.853 Y20.998 E36.4201
G1 X163.882 Y21.971 E36.45247
G1 X163.883 Y22.356 E36.46528
G1 X163.846 Y23.562 E36.50541
G1 X163.729 Y24.762 E36.54551
G1 X163.533 Y25.953 E36.58565
G1 X163.259 Y27.128 E36.62578
G1 X162.907 Y28.282 E36.66591
G1 X162.48 Y29.41 E36.70603
G1 X161.979 Y30.508 E36.74617
G1 X161.406 Y31.569 E36.78628
G1 X160.764 Y32.591 E36.82642
G1 X160.056 Y33.568 E36.86655
G1 X159.285 Y34.496 E36.90668
G1 X158.607 Y35.217 E36.93959
G1 X158.49 Y35.335 E36.94512
G1 X157.613 Y36.164 E36.98526
G1 X156.682 Y36.932 E37.0254
G1 X155.703 Y37.637 E37.06553
G1 X154.679 Y38.275 E37.10565
G1 X153.616 Y38.844 E37.14576
G1 X152.516 Y39.342 E37.18592
G1 X151.387 Y39.765 E37.22602
G1 X150.231 Y40.113 E37.26617
G1 X149.056 Y40.383 E37.30627
G1 X147.865 Y40.575 E37.34639
G1 X146.663 Y40.688 E37.38655
G1 X145.565 Y40.721 E37.42308
G1 X83.885 Y40.719 E39.47457
G1 X82.68 Y40.679 E39.51467
G1 X81.479 Y40.559 E39.55481
G1 X80.289 Y40.36 E39.59494
G1 X79.115 Y40.083 E39.63506
G1 X77.962 Y39.728 E39.67519
G1 X76.835 Y39.298 E39.71531
G1 X75.739 Y38.793 E39.75545
G1 X74.678 Y38.218 E39.79558
G1 X73.658 Y37.573 E39.83572
G1 X72.683 Y36.863 E39.87584
G1 X71.758 Y36.089 E39.91595
G1 X71.017 Y35.388 E39.94988
G1 X70.9 Y35.271 E39.95538
G1 X70.075 Y34.39 E39.99553
G1 X69.311 Y33.457 E40.03564
G1 X68.61 Y32.475 E40.07577
G1 X67.976 Y31.448 E40.11591
G1 X67.412 Y30.382 E40.15602
G1 X66.919 Y29.281 E40.19614
G1 X66.5 Y28.149 E40.23629
G1 X66.157 Y26.992 E40.27643
G1 X65.892 Y25.816 E40.31652
G1 X65.705 Y24.624 E40.35665
G1 X65.598 Y23.422 E40.39679
G1 X65.569 Y22.45 E40.42913
G1 X65.568 Y22.067 E40.44187
G1 X65.605 Y20.861 E40.482
G1 X65.722 Y19.66 E40.52214
G1 X65.918 Y18.469 E40.56228
G1 X66.011 Y18.073 E40.57581
G0 F810 X66.192 Y17.294
G0 F2400 X66.592 Y17.347
G1 F6000 E40.60242
