;FLAVOR:Marlin
;TIME:592
;Filament used: 0.259384m
;Layer height: 0.2
;Generated with Cura_SteamEngine 3.6.0
M140 S70
M105
M190 S70
M104 S215
M105
M109 S215
M82 ;absolute extrusion mode
G28 ; home all axes
M117 Purge extruder
G92 E0 ; reset extruder
G1 Z1.0 F3000 ; move z up little to prevent scratching of surface
G1 X0.1 Y20 Z0.3 F5000.0 ; move to start-line position G1 X0.1 Y200.0 Z0.3 F1500.0 E15 ; draw 1st line
G1 X0.4 Y200.0 Z0.3 F5000.0 ; move to side a little
G1 X0.4 Y20 Z0.3 F1500.0 E30 ; draw 2nd line
G92 E0 ; reset extruder
G1 Z1.0 F3000 ; move z up little to prevent scratching of surface
M117 All systems go!
G92 E0
G1 F6000 E-5
;LAYER_COUNT:52
;LAYER:0
M107
M204 S5000
M205 X30 Y30
G0 F7200 X109.806 Y21.41 Z0.2
M204 S500
M205 X20 Y20
;TYPE:SKIRT
G1 F6000 E0
G1 F900 X110.004 Y20.547 E0.02945
G1 X110.279 Y19.706 E0.05888
G1 X110.629 Y18.893 E0.08832
G1 X111.051 Y18.114 E0.11779
G1 X111.542 Y17.378 E0.14721
G1 X112.097 Y16.688 E0.17666
G1 X112.516 Y16.241 E0.19704
G1 X112.633 Y16.124 E0.20255
G1 X113.287 Y15.527 E0.232
G1 X113.992 Y14.992 E0.26143
G1 X114.742 Y14.522 E0.29087
G1 X115.532 Y14.122 E0.32032
G1 X116.354 Y13.794 E0.34976
G1 X117.203 Y13.543 E0.37921
G1 X118.071 Y13.368 E0.40866
G1 X118.951 Y13.273 E0.4381
G1 X119.563 Y13.254 E0.45846
G1 X121.344 Y13.254 E0.5177
G1 X122.228 Y13.294 E0.54713
G1 X123.105 Y13.414 E0.57657
G1 X123.968 Y13.612 E0.60602
G1 X124.809 Y13.887 E0.63545
G1 X125.622 Y14.237 E0.66489
G1 X126.401 Y14.659 E0.69435
G1 X127.137 Y15.15 E0.72378
G1 X127.827 Y15.705 E0.75323
G1 X128.274 Y16.124 E0.77361
G1 X128.391 Y16.241 E0.77911
G1 X128.988 Y16.895 E0.80857
G1 X129.523 Y17.6 E0.838
G1 X129.993 Y18.35 E0.86744
G1 X130.393 Y19.14 E0.89689
G1 X130.721 Y19.962 E0.92633
G1 X130.972 Y20.811 E0.95577
G1 X131.147 Y21.679 E0.98523
G1 X131.242 Y22.559 E1.01466
G1 X131.261 Y23.172 E1.03506
G1 X131.26 Y29.938 E1.2601
G1 X131.22 Y30.823 E1.28957
G1 X131.1 Y31.7 E1.31901
G1 X130.902 Y32.563 E1.34846
G1 X130.626 Y33.404 E1.3779
G1 X130.276 Y34.217 E1.40734
G1 X129.854 Y34.995 E1.43677
G1 X129.363 Y35.732 E1.46623
G1 X128.808 Y36.421 E1.49565
G1 X128.39 Y36.867 E1.51598
G1 X128.273 Y36.984 E1.52149
G1 X127.619 Y37.581 E1.55094
G1 X126.914 Y38.116 E1.58038
G1 X126.164 Y38.586 E1.60981
G1 X125.374 Y38.986 E1.63927
G1 X124.552 Y39.314 E1.6687
G1 X123.703 Y39.565 E1.69815
G1 X122.835 Y39.74 E1.7276
G1 X121.955 Y39.835 E1.75704
G1 X121.343 Y39.854 E1.7774
G1 X119.563 Y39.854 E1.83661
G1 X118.679 Y39.814 E1.86604
G1 X117.802 Y39.694 E1.89548
G1 X116.939 Y39.496 E1.92493
G1 X116.098 Y39.221 E1.95436
G1 X115.285 Y38.871 E1.9838
G1 X114.506 Y38.449 E2.01326
G1 X113.77 Y37.958 E2.04269
G1 X113.08 Y37.403 E2.07214
G1 X112.633 Y36.984 E2.09252
G1 X112.516 Y36.867 E2.09802
G1 X111.919 Y36.213 E2.12748
G1 X111.384 Y35.508 E2.15691
G1 X110.914 Y34.758 E2.18635
G1 X110.514 Y33.968 E2.2158
G1 X110.186 Y33.146 E2.24524
G1 X109.935 Y32.297 E2.27468
G1 X109.76 Y31.429 E2.30414
G1 X109.665 Y30.549 E2.33357
G1 X109.646 Y29.937 E2.35394
G1 X109.646 Y23.171 E2.57898
G1 X109.686 Y22.287 E2.60841
G1 X109.698 Y22.202 E2.61126
G0 F810 X109.806 Y21.41
M204 S5000
M205 X30 Y30
G0 F7200 X110.206 Y21.446
M204 S500
M205 X20 Y20
G1 F6000 E2.63787
G1 F900 X110.404 Y20.602 E2.66671
G1 X110.679 Y19.78 E2.69554
G1 X111.029 Y18.987 E2.72437
G1 X111.45 Y18.229 E2.7532
G1 X111.939 Y17.514 E2.78201
G1 X112.492 Y16.846 E2.81086
G1 X112.799 Y16.524 E2.82566
G1 X112.916 Y16.407 E2.83116
G1 X113.557 Y15.823 E2.86
G1 X114.249 Y15.3 E2.88885
G1 X114.986 Y14.844 E2.91768
G1 X115.761 Y14.457 E2.94649
G1 X116.57 Y14.143 E2.97535
G1 X117.403 Y13.905 E3.00416
G1 X118.255 Y13.745 E3.033
G1 X119.118 Y13.665 E3.06182
G1 X119.563 Y13.654 E3.07663
G1 X121.344 Y13.654 E3.13587
G1 X122.21 Y13.694 E3.1647
G1 X123.069 Y13.814 E3.19355
G1 X123.913 Y14.012 E3.22238
G1 X124.735 Y14.287 E3.25121
G1 X125.528 Y14.637 E3.28004
G1 X126.286 Y15.058 E3.30888
G1 X127.001 Y15.547 E3.33769
G1 X127.669 Y16.1 E3.36653
G1 X127.991 Y16.407 E3.38133
G1 X128.108 Y16.524 E3.38683
G1 X128.692 Y17.165 E3.41568
G1 X129.215 Y17.857 E3.44453
G1 X129.671 Y18.594 E3.47335
G1 X130.058 Y19.369 E3.50216
G1 X130.372 Y20.178 E3.53103
G1 X130.61 Y21.011 E3.55984
G1 X130.77 Y21.863 E3.58867
G1 X130.85 Y22.726 E3.6175
G1 X130.861 Y23.172 E3.63234
G1 X130.86 Y29.938 E3.85738
G1 X130.82 Y30.804 E3.88621
G1 X130.7 Y31.663 E3.91506
G1 X130.502 Y32.507 E3.94389
G1 X130.227 Y33.329 E3.97272
G1 X129.877 Y34.122 E4.00155
G1 X129.455 Y34.88 E4.03041
G1 X128.966 Y35.596 E4.05924
G1 X128.413 Y36.263 E4.08806
G1 X128.107 Y36.584 E4.10281
G1 X127.99 Y36.701 E4.10831
G1 X127.349 Y37.285 E4.13716
G1 X126.657 Y37.808 E4.16601
G1 X125.92 Y38.264 E4.19483
G1 X125.145 Y38.651 E4.22364
G1 X124.336 Y38.965 E4.25251
G1 X123.503 Y39.203 E4.28132
G1 X122.651 Y39.363 E4.31015
G1 X121.788 Y39.443 E4.33898
G1 X121.343 Y39.454 E4.35379
G1 X119.563 Y39.454 E4.41299
G1 X118.697 Y39.414 E4.44182
G1 X117.838 Y39.294 E4.47067
G1 X116.994 Y39.096 E4.4995
G1 X116.172 Y38.821 E4.52833
G1 X115.379 Y38.471 E4.55716
G1 X114.621 Y38.05 E4.586
G1 X113.906 Y37.561 E4.61481
G1 X113.238 Y37.008 E4.64366
G1 X112.916 Y36.701 E4.65845
G1 X112.799 Y36.584 E4.66396
G1 X112.215 Y35.943 E4.6928
G1 X111.692 Y35.251 E4.72165
G1 X111.236 Y34.514 E4.75047
G1 X110.849 Y33.739 E4.77929
G1 X110.535 Y32.93 E4.80815
G1 X110.297 Y32.097 E4.83696
G1 X110.137 Y31.245 E4.8658
G1 X110.057 Y30.382 E4.89462
G1 X110.046 Y29.937 E4.90943
G1 X110.046 Y23.171 E5.13447
G1 X110.086 Y22.305 E5.1633
G1 X110.096 Y22.238 E5.16555
G0 F810 X110.206 Y21.446
M204 S5000
M205 X30 Y30
G0 F7200 X110.606 Y21.484
M204 S500
M205 X20 Y20
G1 F6000 E5.19216
G1 F900 X110.804 Y20.659 E5.22038
G1 X111.079 Y19.856 E5.24861
G1 X111.428 Y19.083 E5.27682
G1 X111.848 Y18.347 E5.305
G1 X112.336 Y17.653 E5.33322
G1 X113.082 Y16.807 E5.37074
G1 X113.199 Y16.69 E5.37624
G1 X113.826 Y16.119 E5.40445
G1 X114.505 Y15.61 E5.43267
G1 X115.228 Y15.167 E5.46087
G1 X115.99 Y14.794 E5.48909
G1 X116.784 Y14.494 E5.51732
G1 X117.602 Y14.27 E5.54553
G1 X118.438 Y14.125 E5.57375
G1 X119.563 Y14.054 E5.61124
G1 X121.344 Y14.054 E5.67048
G1 X122.191 Y14.094 E5.69868
G1 X123.031 Y14.214 E5.7269
G1 X123.856 Y14.412 E5.75512
G1 X124.659 Y14.687 E5.78335
G1 X125.432 Y15.036 E5.81156
G1 X126.168 Y15.456 E5.83975
G1 X126.862 Y15.944 E5.86796
G1 X127.708 Y16.69 E5.90548
G1 X127.825 Y16.807 E5.91098
G1 X128.396 Y17.434 E5.93919
G1 X128.905 Y18.113 E5.96741
G1 X129.348 Y18.836 E5.99562
G1 X129.721 Y19.598 E6.02383
G1 X130.021 Y20.392 E6.05206
G1 X130.245 Y21.21 E6.08027
G1 X130.39 Y22.046 E6.10849
G1 X130.461 Y23.172 E6.14602
G1 X130.46 Y29.938 E6.37106
G1 X130.42 Y30.786 E6.39929
G1 X130.3 Y31.625 E6.42748
G1 X130.102 Y32.45 E6.4557
G1 X129.827 Y33.253 E6.48393
G1 X129.478 Y34.026 E6.51214
G1 X129.057 Y34.762 E6.54034
G1 X128.569 Y35.456 E6.56856
G1 X127.824 Y36.301 E6.60603
G1 X127.707 Y36.418 E6.61153
G1 X127.08 Y36.989 E6.63974
G1 X126.401 Y37.498 E6.66796
G1 X125.678 Y37.941 E6.69616
G1 X124.916 Y38.314 E6.72438
G1 X124.122 Y38.614 E6.75261
G1 X123.304 Y38.838 E6.78082
G1 X122.468 Y38.983 E6.80904
G1 X121.343 Y39.054 E6.84653
G1 X119.563 Y39.054 E6.90574
G1 X118.716 Y39.014 E6.93394
G1 X117.876 Y38.894 E6.96216
G1 X117.051 Y38.696 E6.99038
G1 X116.248 Y38.421 E7.01861
G1 X115.475 Y38.072 E7.04682
G1 X114.739 Y37.652 E7.075
G1 X114.045 Y37.164 E7.10322
G1 X113.199 Y36.418 E7.14074
G1 X113.082 Y36.301 E7.14624
G1 X112.511 Y35.674 E7.17445
G1 X112.002 Y34.995 E7.20267
G1 X111.559 Y34.272 E7.23087
G1 X111.186 Y33.51 E7.25909
G1 X110.886 Y32.716 E7.28732
G1 X110.662 Y31.898 E7.31553
G1 X110.517 Y31.062 E7.34375
G1 X110.446 Y29.937 E7.38124
G1 X110.446 Y23.171 E7.60628
G1 X110.486 Y22.324 E7.63448
G1 X110.493 Y22.276 E7.6361
G0 F810 X110.606 Y21.484
M204 S5000
M205 X30 Y30
G0 F7200 X111.006 Y21.522
M204 S500
M205 X20 Y20
G1 F6000 E7.66271
G1 F900 X111.204 Y20.717 E7.69028
G1 X111.478 Y19.935 E7.71784
G1 X111.827 Y19.182 E7.74544
G1 X112.247 Y18.467 E7.77302
G1 X112.733 Y17.796 E7.80058
G1 X113.365 Y17.09 E7.83209
G1 X113.482 Y16.973 E7.8376
G1 X114.096 Y16.415 E7.86519
G1 X114.761 Y15.92 E7.89277
G1 X115.47 Y15.49 E7.92035
G1 X116.217 Y15.131 E7.94791
G1 X116.996 Y14.846 E7.9755
G1 X117.798 Y14.637 E8.00307
G1 X118.617 Y14.506 E8.03065
G1 X119.563 Y14.454 E8.06216
G1 X121.344 Y14.454 E8.1214
G1 X122.172 Y14.494 E8.14897
G1 X122.993 Y14.614 E8.17657
G1 X123.798 Y14.812 E8.20414
G1 X124.58 Y15.086 E8.2317
G1 X125.333 Y15.435 E8.2593
G1 X126.048 Y15.855 E8.28688
G1 X126.719 Y16.341 E8.31444
G1 X127.425 Y16.973 E8.34596
G1 X127.542 Y17.09 E8.35146
G1 X128.1 Y17.704 E8.37906
G1 X128.595 Y18.369 E8.40663
G1 X129.025 Y19.078 E8.43421
G1 X129.384 Y19.825 E8.46177
G1 X129.669 Y20.604 E8.48936
G1 X129.878 Y21.406 E8.51693
G1 X130.009 Y22.225 E8.54451
G1 X130.061 Y23.172 E8.57606
G1 X130.06 Y29.938 E8.8011
G1 X130.02 Y30.767 E8.8287
G1 X129.9 Y31.587 E8.85627
G1 X129.702 Y32.392 E8.88384
G1 X129.427 Y33.175 E8.91144
G1 X129.078 Y33.927 E8.93901
G1 X128.659 Y34.642 E8.96658
G1 X128.172 Y35.313 E8.99415
G1 X127.541 Y36.018 E9.02562
G1 X127.424 Y36.135 E9.03113
G1 X126.81 Y36.693 E9.05872
G1 X126.145 Y37.188 E9.08629
G1 X125.436 Y37.618 E9.11387
G1 X124.689 Y37.977 E9.14144
G1 X123.91 Y38.262 E9.16903
G1 X123.108 Y38.471 E9.19659
G1 X122.289 Y38.602 E9.22418
G1 X121.343 Y38.654 E9.25569
G1 X119.563 Y38.654 E9.31489
G1 X118.735 Y38.614 E9.34247
G1 X117.914 Y38.494 E9.37006
G1 X117.109 Y38.296 E9.39764
G1 X116.327 Y38.022 E9.42519
G1 X115.574 Y37.673 E9.4528
G1 X114.859 Y37.253 E9.48038
G1 X114.188 Y36.767 E9.50794
G1 X113.482 Y36.135 E9.53945
G1 X113.365 Y36.018 E9.54495
G1 X112.807 Y35.404 E9.57255
G1 X112.312 Y34.739 E9.60012
G1 X111.882 Y34.03 E9.6277
G1 X111.523 Y33.283 E9.65527
G1 X111.238 Y32.504 E9.68286
G1 X111.029 Y31.702 E9.71042
G1 X110.898 Y30.883 E9.73801
G1 X110.846 Y29.937 E9.76952
G1 X110.846 Y23.171 E9.99456
G1 X110.886 Y22.343 E10.02213
G1 X110.891 Y22.314 E10.02311
G0 F810 X111.006 Y21.522
M204 S5000
M205 X30 Y30
G0 F7200 X111.406 Y21.561
M204 S500
M205 X20 Y20
G1 F6000 E10.04972
G1 F900 X111.603 Y20.776 E10.07664
G1 X111.878 Y20.015 E10.10355
G1 X112.226 Y19.284 E10.13048
G1 X112.645 Y18.59 E10.15744
G1 X113.13 Y17.942 E10.18436
G1 X113.648 Y17.373 E10.20995
G1 X113.765 Y17.256 E10.21546
G1 X114.365 Y16.712 E10.24239
G1 X115.016 Y16.23 E10.26933
G1 X115.711 Y15.815 E10.29626
G1 X116.443 Y15.471 E10.32316
G1 X117.207 Y15.2 E10.35012
G1 X117.993 Y15.006 E10.37705
G1 X118.794 Y14.89 E10.40397
G1 X119.563 Y14.854 E10.42957
G1 X121.344 Y14.854 E10.48881
G1 X122.153 Y14.894 E10.51575
G1 X122.954 Y15.014 E10.54269
G1 X123.739 Y15.211 E10.56961
G1 X124.5 Y15.486 E10.59652
G1 X125.231 Y15.834 E10.62345
G1 X125.925 Y16.253 E10.65041
G1 X126.573 Y16.738 E10.67733
G1 X127.142 Y17.256 E10.70292
G1 X127.259 Y17.373 E10.70843
G1 X127.803 Y17.973 E10.73536
G1 X128.285 Y18.624 E10.76231
G1 X128.7 Y19.319 E10.78923
G1 X129.044 Y20.051 E10.81613
G1 X129.315 Y20.815 E10.84309
G1 X129.509 Y21.601 E10.87002
G1 X129.625 Y22.402 E10.89694
G1 X129.661 Y23.172 E10.92258
G1 X129.66 Y29.938 E11.14761
G1 X129.62 Y30.747 E11.17455
G1 X129.5 Y31.548 E11.20149
G1 X129.302 Y32.333 E11.22842
G1 X129.028 Y33.095 E11.25535
G1 X128.679 Y33.825 E11.28227
G1 X128.261 Y34.519 E11.30921
G1 X127.776 Y35.167 E11.33613
G1 X127.258 Y35.735 E11.3617
G1 X127.141 Y35.852 E11.3672
G1 X126.541 Y36.396 E11.39414
G1 X125.89 Y36.878 E11.42108
G1 X125.195 Y37.293 E11.44801
G1 X124.463 Y37.637 E11.47491
G1 X123.699 Y37.908 E11.50187
G1 X122.913 Y38.102 E11.5288
G1 X122.112 Y38.218 E11.55571
G1 X121.343 Y38.254 E11.58132
G1 X119.563 Y38.254 E11.64052
G1 X118.754 Y38.214 E11.66746
G1 X117.953 Y38.094 E11.6944
G1 X117.168 Y37.897 E11.72132
G1 X116.407 Y37.622 E11.74823
G1 X115.676 Y37.274 E11.77516
G1 X114.982 Y36.855 E11.80212
G1 X114.334 Y36.37 E11.82904
G1 X113.765 Y35.852 E11.85464
G1 X113.648 Y35.735 E11.86014
G1 X113.104 Y35.135 E11.88708
G1 X112.622 Y34.484 E11.91402
G1 X112.207 Y33.789 E11.94094
G1 X111.863 Y33.057 E11.96784
G1 X111.592 Y32.293 E11.99481
G1 X111.398 Y31.507 E12.02173
G1 X111.282 Y30.706 E12.04865
G1 X111.246 Y29.937 E12.07426
G1 X111.246 Y23.171 E12.29929
G1 X111.286 Y22.362 E12.32624
G1 X111.288 Y22.353 E12.32654
G0 F810 X111.406 Y21.561
M204 S5000
M205 X30 Y30
G0 F7200 X111.805 Y21.602
M204 S500
M205 X20 Y20
G1 F6000 E12.35315
G1 F900 X112.003 Y20.837 E12.37943
G1 X112.277 Y20.097 E12.40568
G1 X112.625 Y19.388 E12.43195
G1 X113.043 Y18.717 E12.45824
G1 X113.526 Y18.093 E12.48449
G1 X113.931 Y17.656 E12.5043
G1 X114.048 Y17.539 E12.50981
G1 X114.634 Y17.009 E12.53609
G1 X115.27 Y16.542 E12.56233
G1 X115.95 Y16.141 E12.58859
G1 X116.668 Y15.811 E12.61487
G1 X117.415 Y15.556 E12.64112
G1 X118.184 Y15.377 E12.66738
G1 X118.968 Y15.277 E12.69367
G1 X119.563 Y15.254 E12.71347
G1 X121.344 Y15.254 E12.77271
G1 X122.133 Y15.294 E12.79899
G1 X122.913 Y15.413 E12.82523
G1 X123.678 Y15.611 E12.85151
G1 X124.418 Y15.885 E12.87776
G1 X125.127 Y16.233 E12.90403
G1 X125.798 Y16.651 E12.93032
G1 X126.422 Y17.134 E12.95656
G1 X126.859 Y17.539 E12.97638
G1 X126.976 Y17.656 E12.98188
G1 X127.506 Y18.242 E13.00816
G1 X127.973 Y18.878 E13.03441
G1 X128.374 Y19.558 E13.06066
G1 X128.704 Y20.276 E13.08695
G1 X128.959 Y21.023 E13.1132
G1 X129.138 Y21.792 E13.13946
G1 X129.238 Y22.576 E13.16575
G1 X129.261 Y23.172 E13.18559
G1 X129.26 Y29.938 E13.41062
G1 X129.22 Y30.727 E13.4369
G1 X129.1 Y31.507 E13.46315
G1 X128.902 Y32.272 E13.48943
G1 X128.628 Y33.012 E13.51568
G1 X128.28 Y33.721 E13.54194
G1 X127.863 Y34.392 E13.56822
G1 X127.38 Y35.016 E13.59447
G1 X126.975 Y35.452 E13.61426
G1 X126.858 Y35.569 E13.61976
G1 X126.272 Y36.099 E13.64604
G1 X125.636 Y36.566 E13.67229
G1 X124.956 Y36.967 E13.69854
G1 X124.238 Y37.297 E13.72482
G1 X123.491 Y37.552 E13.75108
G1 X122.722 Y37.731 E13.77734
G1 X121.938 Y37.831 E13.80363
G1 X121.343 Y37.854 E13.82343
G1 X119.563 Y37.854 E13.88263
G1 X118.774 Y37.814 E13.90891
G1 X117.994 Y37.695 E13.93515
G1 X117.229 Y37.497 E13.96143
G1 X116.489 Y37.223 E13.98768
G1 X115.78 Y36.875 E14.01395
G1 X115.109 Y36.457 E14.04024
G1 X114.485 Y35.974 E14.06649
G1 X114.048 Y35.569 E14.0863
G1 X113.931 Y35.452 E14.09181
G1 X113.401 Y34.866 E14.11809
G1 X112.934 Y34.23 E14.14433
G1 X112.533 Y33.55 E14.17059
G1 X112.203 Y32.832 E14.19687
G1 X111.948 Y32.085 E14.22312
G1 X111.769 Y31.316 E14.24938
G1 X111.669 Y30.532 E14.27567
G1 X111.646 Y29.937 E14.29548
G1 X111.646 Y23.171 E14.52051
G1 X111.686 Y22.392 E14.54646
G0 F810 X111.686 Y22.382
G0 X111.805 Y21.602
M204 S5000
M205 X30 Y30
G0 F7200 X112.205 Y21.643
M204 S500
M205 X20 Y20
G1 F6000 E14.57307
G1 F900 X112.403 Y20.9 E14.59864
G1 X112.677 Y20.181 E14.62423
G1 X113.024 Y19.495 E14.6498
G1 X113.44 Y18.848 E14.67539
G1 X113.921 Y18.248 E14.70096
G1 X114.213 Y17.938 E14.71513
G1 X114.33 Y17.821 E14.72063
G1 X114.902 Y17.307 E14.74621
G1 X115.524 Y16.854 E14.7718
G1 X116.189 Y16.468 E14.79737
G1 X116.891 Y16.153 E14.82297
G1 X117.622 Y15.913 E14.84856
G1 X118.373 Y15.75 E14.87412
G1 X119.138 Y15.666 E14.89971
G1 X119.563 Y15.654 E14.91385
G1 X121.344 Y15.654 E14.97309
G1 X122.112 Y15.694 E14.99867
G1 X122.872 Y15.813 E15.02425
G1 X123.615 Y16.011 E15.04983
G1 X124.334 Y16.285 E15.07542
G1 X125.02 Y16.632 E15.10099
G1 X125.667 Y17.048 E15.12657
G1 X126.267 Y17.529 E15.15215
G1 X126.577 Y17.821 E15.16631
G1 X126.694 Y17.938 E15.17182
G1 X127.208 Y18.51 E15.1974
G1 X127.661 Y19.132 E15.22299
G1 X128.047 Y19.797 E15.24856
G1 X128.362 Y20.499 E15.27415
G1 X128.602 Y21.23 E15.29974
G1 X128.765 Y21.981 E15.3253
G1 X128.849 Y22.746 E15.3509
G1 X128.861 Y23.172 E15.36508
G1 X128.86 Y29.938 E15.59011
G1 X128.82 Y30.706 E15.61569
G1 X128.7 Y31.466 E15.64128
G1 X128.502 Y32.209 E15.66686
G1 X128.229 Y32.928 E15.69244
G1 X127.882 Y33.614 E15.71801
G1 X127.465 Y34.261 E15.74361
G1 X126.984 Y34.861 E15.76919
G1 X126.693 Y35.17 E15.7833
G1 X126.576 Y35.287 E15.78881
G1 X126.004 Y35.801 E15.81438
G1 X125.382 Y36.254 E15.83998
G1 X124.717 Y36.64 E15.86555
G1 X124.015 Y36.955 E15.89114
G1 X123.284 Y37.195 E15.91673
G1 X122.533 Y37.358 E15.94229
G1 X121.768 Y37.442 E15.96789
