;FLAVOR:Marlin
;TIME:2378
;Filament used: 1.10937m
;Layer height: 0.2
;Generated with Cura_SteamEngine 3.6.0
M140 S70
M105
M190 S70
M104 S215
M105
M109 S215
M82 ;absolute extrusion mode
G28 ; home all axes
M117 Purge extruder
G92 E0 ; reset extruder
G1 Z1.0 F3000 ; move z up little to prevent scratching of surface
G1 X0.1 Y20 Z0.3 F5000.0 ; move to start-line position G1 X0.1 Y200.0 Z0.3 F1500.0 E15 ; draw 1st line
G1 X0.4 Y200.0 Z0.3 F5000.0 ; move to side a little
G1 X0.4 Y20 Z0.3 F1500.0 E30 ; draw 2nd line
G92 E0 ; reset extruder
G1 Z1.0 F3000 ; move z up little to prevent scratching of surface
M117 All systems go!
G92 E0
G1 F6000 E-5
;LAYER_COUNT:198
;LAYER:0
M107
M204 S5000
M205 X30 Y30
G0 F7200 X94.053 Y19.093 Z0.2
M204 S500
M205 X20 Y20
;TYPE:SKIRT
G1 F6000 E0
G1 F900 X94.359 Y17.907 E0.04074
G1 X94.788 Y16.589 E0.08684
G1 X94.799 Y16.528 E0.0889
G1 X95.029 Y15.695 E0.11764
G1 X95.679 Y13.696 E0.18756
G1 X95.991 Y12.867 E0.21702
G1 X96.376 Y12.07 E0.24646
G1 X96.831 Y11.311 E0.27589
G1 X97.353 Y10.596 E0.30533
G1 X97.937 Y9.931 E0.33477
G1 X98.579 Y9.321 E0.36422
G1 X99.234 Y8.801 E0.39204
G1 X100.937 Y7.562 E0.46209
G1 X101.675 Y7.074 E0.49151
G1 X102.455 Y6.655 E0.52096
G1 X103.269 Y6.308 E0.55039
G1 X104.111 Y6.036 E0.57982
G1 X104.975 Y5.84 E0.60929
G1 X105.852 Y5.724 E0.63871
G1 X106.702 Y5.687 E0.66701
G1 X108.806 Y5.687 E0.73699
G1 X109.69 Y5.727 E0.76642
G1 X110.567 Y5.847 E0.79586
G1 X111.43 Y6.045 E0.82531
G1 X112.271 Y6.32 E0.85474
G1 X113.084 Y6.67 E0.88418
G1 X113.863 Y7.092 E0.91365
G1 X114.571 Y7.562 E0.94191
G1 X116.274 Y8.801 E1.01196
G1 X116.966 Y9.354 E1.04142
G1 X117.605 Y9.967 E1.07088
G1 X117.805 Y10.197 E1.08101
G1 X118.543 Y9.897 E1.10751
G1 X119.389 Y9.638 E1.13694
G1 X120.255 Y9.456 E1.16637
G1 X121.135 Y9.354 E1.19583
G1 X121.83 Y9.329 E1.21896
G1 X122.692 Y9.329 E1.24763
G1 X123.576 Y9.369 E1.27707
G1 X123.626 Y9.376 E1.27875
G1 X123.884 Y9.348 E1.28738
G1 X124.496 Y9.329 E1.30774
G1 X125.554 Y9.329 E1.34293
G1 X126.438 Y9.369 E1.37236
G1 X127.315 Y9.489 E1.4018
G1 X128.178 Y9.687 E1.43125
G1 X129.019 Y9.962 E1.46068
G1 X129.309 Y10.087 E1.47119
G1 X129.431 Y9.948 E1.47734
G1 X130.073 Y9.338 E1.50679
G1 X130.727 Y8.818 E1.53458
G1 X132.439 Y7.572 E1.60501
G1 X133.178 Y7.084 E1.63446
G1 X133.957 Y6.665 E1.66388
G1 X134.771 Y6.318 E1.69331
G1 X135.614 Y6.045 E1.72279
G1 X136.477 Y5.85 E1.75221
G1 X137.355 Y5.733 E1.78167
G1 X138.206 Y5.696 E1.81
G1 X140.32 Y5.696 E1.88032
G1 X141.204 Y5.736 E1.90975
G1 X142.081 Y5.856 E1.93919
G1 X142.944 Y6.054 E1.96864
G1 X143.785 Y6.329 E1.99807
G1 X144.598 Y6.679 E2.02751
G1 X145.377 Y7.101 E2.05697
G1 X146.087 Y7.572 E2.08531
G1 X147.799 Y8.818 E2.15574
G1 X148.49 Y9.371 E2.18518
G1 X149.129 Y9.984 E2.21463
G1 X149.71 Y10.652 E2.24407
G1 X150.228 Y11.37 E2.27352
G1 X150.68 Y12.131 E2.30296
G1 X151.06 Y12.93 E2.33239
G1 X151.352 Y13.713 E2.36018
G1 X152.005 Y15.722 E2.43044
G1 X152.24 Y16.575 E2.45987
G1 X152.398 Y17.446 E2.48931
G1 X152.476 Y18.328 E2.51876
G1 X152.474 Y19.213 E2.5482
G1 X152.392 Y20.095 E2.57766
G1 X152.232 Y20.965 E2.60708
G1 X152.005 Y21.782 E2.63528
G1 X151.352 Y23.79 E2.70551
G1 X151.04 Y24.618 E2.73494
G1 X150.655 Y25.415 E2.76438
G1 X150.2 Y26.175 E2.79384
G1 X149.678 Y26.889 E2.82326
G1 X149.093 Y27.554 E2.85272
G1 X148.451 Y28.164 E2.88217
G1 X148.324 Y28.264 E2.88755
G1 X147.972 Y28.851 E2.91031
G1 X147.449 Y29.566 E2.93978
G1 X146.864 Y30.23 E2.96921
G1 X146.222 Y30.84 E2.99867
G1 X145.576 Y31.353 E3.0261
G1 X143.987 Y32.51 E3.09148
G1 X143.248 Y32.999 E3.12095
G1 X142.469 Y33.418 E3.15037
G1 X141.655 Y33.766 E3.17982
G1 X140.812 Y34.038 E3.20928
G1 X140.775 Y34.046 E3.21054
G1 X140.214 Y34.491 E3.23435
G1 X138.389 Y35.819 E3.30942
G1 X137.651 Y36.307 E3.33885
G1 X136.871 Y36.726 E3.3683
G1 X136.057 Y37.074 E3.39774
G1 X135.215 Y37.346 E3.42717
G1 X134.351 Y37.541 E3.45663
G1 X133.474 Y37.658 E3.48606
G1 X132.565 Y37.695 E3.51632
G1 X132.395 Y37.694 E3.52197
G1 X131.511 Y37.649 E3.55141
G1 X130.635 Y37.524 E3.58084
G1 X129.773 Y37.321 E3.6103
G1 X128.934 Y37.04 E3.63973
G1 X128.123 Y36.685 E3.66917
G1 X127.347 Y36.259 E3.69861
G1 X126.613 Y35.764 E3.72806
G1 X125.927 Y35.205 E3.75749
G1 X125.294 Y34.586 E3.78694
G1 X124.719 Y33.913 E3.81638
G1 X124.208 Y33.19 E3.84583
G1 X124.149 Y33.089 E3.84972
G1 X123.693 Y33.842 E3.879
G1 X123.169 Y34.555 E3.90843
G1 X122.582 Y35.218 E3.93788
G1 X121.938 Y35.825 E3.96731
G1 X121.241 Y36.371 E3.99676
G1 X120.498 Y36.853 E4.02622
G1 X119.715 Y37.265 E4.05565
G1 X118.898 Y37.605 E4.08508
G1 X118.053 Y37.87 E4.11453
G1 X117.188 Y38.057 E4.14397
G1 X116.309 Y38.166 E4.17343
G1 X115.546 Y38.196 E4.19883
G1 X113.866 Y38.196 E4.2547
G1 X112.982 Y38.156 E4.28414
G1 X112.105 Y38.036 E4.31358
G1 X111.242 Y37.838 E4.34303
G1 X110.435 Y37.574 E4.37127
G1 X109.143 Y37.575 E4.41424
G1 X108.259 Y37.536 E4.44367
G1 X107.381 Y37.417 E4.47314
G1 X106.518 Y37.219 E4.50259
G1 X105.677 Y36.945 E4.53201
G1 X104.864 Y36.595 E4.56145
G1 X104.085 Y36.174 E4.5909
G1 X103.827 Y36.003 E4.60119
G1 X103.177 Y35.723 E4.62473
G1 X102.398 Y35.301 E4.6542
G1 X101.688 Y34.83 E4.68254
G1 X99.969 Y33.579 E4.75325
G1 X99.278 Y33.026 E4.78269
G1 X98.639 Y32.413 E4.81214
G1 X98.058 Y31.745 E4.84158
G1 X97.958 Y31.607 E4.84725
G1 X97.804 Y31.484 E4.85381
G1 X97.166 Y30.871 E4.88323
G1 X96.585 Y30.203 E4.91268
G1 X96.067 Y29.485 E4.94213
G1 X95.615 Y28.723 E4.97159
G1 X95.235 Y27.924 E5.00102
G1 X94.943 Y27.144 E5.02872
G1 X94.383 Y25.422 E5.08895
G1 X94.148 Y24.568 E5.11841
G1 X93.99 Y23.697 E5.14785
G1 X93.912 Y22.816 E5.17727
G1 X93.914 Y21.93 E5.20674
G1 X93.923 Y21.832 E5.21001
G1 X93.911 Y21.738 E5.21316
G1 X93.878 Y20.853 E5.24262
G1 X93.926 Y19.969 E5.27206
G1 X93.939 Y19.884 E5.27492
G0 F810 X94.053 Y19.093
M204 S5000
M205 X30 Y30
G0 F7200 X94.46 Y19.099
M204 S500
M205 X20 Y20
G1 F6000 E5.30153
G1 F900 X94.739 Y18.031 E5.33824
G1 X95.184 Y16.664 E5.38606
G1 X95.213 Y16.513 E5.39117
G1 X95.41 Y15.818 E5.4152
G1 X96.06 Y13.819 E5.48511
G1 X96.366 Y13.008 E5.51394
G1 X96.745 Y12.228 E5.54279
G1 X97.194 Y11.487 E5.5716
G1 X97.71 Y10.79 E5.60045
G1 X98.288 Y10.144 E5.62928
G1 X98.923 Y9.554 E5.65811
G1 X99.469 Y9.125 E5.6812
G1 X101.172 Y7.886 E5.75125
G1 X101.896 Y7.409 E5.78009
G1 X102.66 Y7 E5.80891
G1 X103.459 Y6.664 E5.83774
G1 X104.286 Y6.403 E5.86658
G1 X105.133 Y6.219 E5.89541
G1 X105.994 Y6.114 E5.92426
G1 X106.702 Y6.087 E5.94783
G1 X108.806 Y6.087 E6.0178
G1 X109.672 Y6.127 E6.04664
G1 X110.531 Y6.247 E6.07549
G1 X111.375 Y6.445 E6.10432
G1 X112.197 Y6.72 E6.13315
G1 X112.99 Y7.07 E6.16198
G1 X113.748 Y7.491 E6.19082
G1 X114.336 Y7.886 E6.21438
G1 X116.039 Y9.125 E6.28442
G1 X116.716 Y9.667 E6.31327
G1 X117.34 Y10.269 E6.34211
G1 X117.705 Y10.692 E6.36069
G1 X117.956 Y10.565 E6.37005
G1 X118.761 Y10.244 E6.39887
G1 X119.593 Y9.999 E6.42772
G1 X120.443 Y9.832 E6.45653
G1 X121.306 Y9.744 E6.48538
G1 X121.83 Y9.729 E6.50282
G1 X122.692 Y9.729 E6.53149
G1 X123.558 Y9.769 E6.56032
G1 X123.63 Y9.779 E6.56274
G1 X124.051 Y9.74 E6.5768
G1 X124.496 Y9.729 E6.59161
G1 X125.554 Y9.729 E6.6268
G1 X126.42 Y9.769 E6.65563
G1 X127.279 Y9.889 E6.68448
G1 X128.123 Y10.087 E6.71331
G1 X128.945 Y10.362 E6.74214
G1 X129.416 Y10.57 E6.75927
G1 X129.782 Y10.161 E6.77752
G1 X130.417 Y9.571 E6.80635
G1 X130.963 Y9.142 E6.82945
G1 X132.675 Y7.896 E6.89987
G1 X133.398 Y7.419 E6.92868
G1 X134.163 Y7.01 E6.95753
G1 X134.962 Y6.674 E6.98636
G1 X135.789 Y6.412 E7.01521
G1 X136.636 Y6.228 E7.04404
G1 X137.496 Y6.123 E7.07286
G1 X138.206 Y6.096 E7.09649
G1 X140.32 Y6.096 E7.1668
G1 X141.186 Y6.136 E7.19564
G1 X142.045 Y6.256 E7.22449
G1 X142.889 Y6.454 E7.25332
G1 X143.711 Y6.729 E7.28215
G1 X144.504 Y7.079 E7.31098
G1 X145.262 Y7.5 E7.33982
G1 X145.851 Y7.896 E7.36342
G1 X147.563 Y9.142 E7.43385
G1 X148.24 Y9.684 E7.46269
G1 X148.864 Y10.286 E7.49153
G1 X149.43 Y10.943 E7.52037
G1 X149.933 Y11.649 E7.54921
G1 X150.368 Y12.398 E7.57801
G1 X150.733 Y13.185 E7.60687
G1 X150.972 Y13.836 E7.62993
G1 X151.625 Y15.845 E7.70019
G1 X151.854 Y16.681 E7.72902
G1 X152.006 Y17.535 E7.75787
G1 X152.078 Y18.399 E7.78671
G1 X152.071 Y19.266 E7.81555
G1 X151.984 Y20.128 E7.84436
G1 X151.817 Y20.979 E7.87321
G1 X151.624 Y21.658 E7.89669
G1 X150.971 Y23.666 E7.96692
G1 X150.665 Y24.477 E7.99575
G1 X150.286 Y25.257 E8.02459
G1 X149.837 Y25.998 E8.05341
G1 X149.321 Y26.695 E8.08225
G1 X148.743 Y27.341 E8.11108
G1 X148.108 Y27.931 E8.13991
G1 X148.017 Y28.001 E8.14373
G1 X147.609 Y28.675 E8.16993
G1 X147.092 Y29.371 E8.19877
G1 X146.514 Y30.017 E8.2276
G1 X145.879 Y30.607 E8.25643
G1 X145.34 Y31.03 E8.27922
G1 X143.751 Y32.187 E8.3446
G1 X143.027 Y32.664 E8.37343
G1 X142.263 Y33.073 E8.40226
G1 X141.464 Y33.41 E8.4311
G1 X140.637 Y33.671 E8.45994
G1 X140.584 Y33.682 E8.46174
G1 X140.516 Y33.746 E8.46485
G1 X139.979 Y34.168 E8.48756
G1 X138.154 Y35.496 E8.56263
G1 X137.43 Y35.973 E8.59147
G1 X136.665 Y36.381 E8.62031
G1 X135.866 Y36.718 E8.64915
G1 X135.04 Y36.979 E8.67796
G1 X134.192 Y37.163 E8.70682
G1 X133.332 Y37.268 E8.73564
G1 X132.568 Y37.295 E8.76106
G1 X132.398 Y37.294 E8.76672
G1 X131.532 Y37.249 E8.79556
G1 X130.674 Y37.124 E8.8244
G1 X129.831 Y36.921 E8.85324
G1 X129.011 Y36.641 E8.88206
G1 X128.219 Y36.287 E8.91091
G1 X127.464 Y35.861 E8.93974
G1 X126.751 Y35.367 E8.96859
G1 X126.087 Y34.81 E8.99742
G1 X125.477 Y34.194 E9.02625
G1 X124.926 Y33.525 E9.05508
G1 X124.439 Y32.808 E9.08391
G1 X124.122 Y32.232 E9.10578
G1 X124.07 Y32.359 E9.11034
G1 X123.669 Y33.127 E9.13916
G1 X123.198 Y33.855 E9.168
G1 X122.663 Y34.537 E9.19683
G1 X122.067 Y35.167 E9.22567
G1 X121.415 Y35.739 E9.25452
G1 X120.714 Y36.248 E9.28333
G1 X119.968 Y36.691 E9.31219
G1 X119.185 Y37.063 E9.34102
G1 X118.371 Y37.361 E9.36985
G1 X117.533 Y37.584 E9.39869
G1 X116.678 Y37.728 E9.42753
G1 X115.546 Y37.796 E9.46525
G1 X113.866 Y37.796 E9.52113
G1 X113 Y37.756 E9.54996
G1 X112.141 Y37.636 E9.57881
G1 X111.297 Y37.438 E9.60764
G1 X110.508 Y37.174 E9.63532
G1 X109.143 Y37.175 E9.68072
G1 X108.276 Y37.136 E9.70958
G1 X107.418 Y37.017 E9.73839
G1 X106.574 Y36.819 E9.76723
G1 X105.751 Y36.545 E9.79608
G1 X104.958 Y36.196 E9.82489
G1 X104.2 Y35.775 E9.85373
G1 X104.017 Y35.652 E9.86106
G1 X103.271 Y35.323 E9.88818
G1 X102.513 Y34.902 E9.91702
G1 X101.924 Y34.506 E9.94063
G1 X100.205 Y33.255 E10.01134
G1 X99.528 Y32.713 E10.04018
G1 X98.904 Y32.112 E10.069
G1 X98.338 Y31.455 E10.09784
G1 X98.245 Y31.324 E10.10318
G1 X98.054 Y31.171 E10.11132
G1 X97.431 Y30.569 E10.14014
G1 X96.865 Y29.912 E10.16898
G1 X96.362 Y29.206 E10.19781
G1 X95.927 Y28.456 E10.22665
G1 X95.562 Y27.67 E10.25547
G1 X95.324 Y27.02 E10.2785
G1 X94.764 Y25.298 E10.33872
G1 X94.534 Y24.462 E10.36756
G1 X94.382 Y23.609 E10.39638
G1 X94.31 Y22.745 E10.42522
G1 X94.317 Y21.878 E10.45405
G1 X94.324 Y21.812 E10.45626
G1 X94.308 Y21.688 E10.46042
G1 X94.279 Y20.821 E10.48927
G1 X94.33 Y19.956 E10.51809
G1 X94.34 Y19.89 E10.52031
G0 F810 X94.46 Y19.099
M204 S5000
M205 X30 Y30
G0 F7200 X94.867 Y19.105
M204 S500
M205 X20 Y20
G1 F6000 E10.54692
G1 F900 X95.119 Y18.155 E10.57961
G1 X95.579 Y16.741 E10.62907
G1 X95.628 Y16.501 E10.63721
G1 X95.79 Y15.942 E10.65657
G1 X96.44 Y13.943 E10.72648
G1 X96.74 Y13.15 E10.75468
G1 X97.114 Y12.388 E10.78292
G1 X97.557 Y11.665 E10.81112
G1 X98.067 Y10.987 E10.83934
G1 X98.638 Y10.359 E10.86757
G1 X99.265 Y9.789 E10.89575
G1 X99.704 Y9.448 E10.91424
G1 X101.407 Y8.209 E10.98429
G1 X102.116 Y7.743 E11.0125
G1 X102.865 Y7.346 E11.0407
G1 X103.649 Y7.021 E11.06893
G1 X104.46 Y6.771 E11.09715
G1 X105.29 Y6.598 E11.12535
G1 X106.133 Y6.505 E11.15356
G1 X106.702 Y6.487 E11.1725
G1 X108.806 Y6.487 E11.24248
G1 X109.653 Y6.527 E11.27068
G1 X110.493 Y6.647 E11.2989
G1 X111.318 Y6.845 E11.32712
G1 X112.121 Y7.12 E11.35535
G1 X112.894 Y7.469 E11.38356
G1 X113.63 Y7.889 E11.41174
G1 X114.101 Y8.209 E11.43068
G1 X115.804 Y9.448 E11.50073
G1 X116.465 Y9.979 E11.52893
G1 X117.074 Y10.57 E11.55715
G1 X117.605 Y11.191 E11.58433
G1 X118.187 Y10.899 E11.60599
G1 X118.978 Y10.593 E11.6342
G1 X119.795 Y10.362 E11.66244
G1 X120.629 Y10.209 E11.69064
G1 X121.83 Y10.129 E11.73067
G1 X122.692 Y10.129 E11.75934
G1 X123.539 Y10.169 E11.78754
G1 X123.638 Y10.183 E11.79087
G1 X124.496 Y10.129 E11.81946
G1 X125.554 Y10.129 E11.85465
G1 X126.401 Y10.169 E11.88286
G1 X127.241 Y10.289 E11.91108
G1 X128.066 Y10.487 E11.9393
G1 X128.869 Y10.762 E11.96753
G1 X129.521 Y11.057 E11.99133
G1 X129.561 Y11.004 E11.99354
G1 X130.132 Y10.376 E12.02177
G1 X130.759 Y9.806 E12.04995
G1 X131.198 Y9.465 E12.06844
G1 X132.91 Y8.219 E12.13887
G1 X133.619 Y7.753 E12.16708
G1 X134.368 Y7.355 E12.19529
G1 X135.151 Y7.03 E12.22349
G1 X135.962 Y6.78 E12.25172
G1 X136.793 Y6.608 E12.27994
G1 X137.636 Y6.514 E12.30816
G1 X138.206 Y6.496 E12.32712
G1 X140.32 Y6.496 E12.39743
G1 X141.167 Y6.536 E12.42564
G1 X142.007 Y6.656 E12.45386
G1 X142.832 Y6.854 E12.48208
G1 X143.635 Y7.129 E12.51031
G1 X144.408 Y7.478 E12.53852
G1 X145.144 Y7.898 E12.5667
G1 X145.616 Y8.219 E12.58569
G1 X147.328 Y9.465 E12.65611
G1 X147.99 Y9.996 E12.68434
G1 X148.598 Y10.587 E12.71254
G1 X149.149 Y11.233 E12.74078
G1 X149.636 Y11.927 E12.76898
G1 X150.055 Y12.664 E12.79718
G1 X150.404 Y13.438 E12.82542
G1 X150.591 Y13.96 E12.84386
G1 X151.244 Y15.969 E12.91412
G1 X151.468 Y16.787 E12.94233
G1 X151.614 Y17.623 E12.97055
G1 X151.681 Y18.468 E12.99875
G1 X151.667 Y19.317 E13.02699
G1 X151.574 Y20.16 E13.0552
G1 X151.402 Y20.99 E13.08339
G1 X151.244 Y21.534 E13.10223
G1 X150.591 Y23.542 E13.17246
G1 X150.291 Y24.336 E13.20069
G1 X149.917 Y25.097 E13.22889
G1 X149.474 Y25.821 E13.25712
G1 X148.964 Y26.499 E13.28534
G1 X148.393 Y27.126 E13.31355
G1 X147.765 Y27.697 E13.34178
G1 X147.705 Y27.743 E13.34429
G1 X147.69 Y27.774 E13.34544
G1 X147.246 Y28.497 E13.37366
G1 X146.736 Y29.175 E13.40188
G1 X146.164 Y29.802 E13.4301
G1 X145.536 Y30.372 E13.45831
G1 X145.105 Y30.707 E13.47647
G1 X143.516 Y31.864 E13.54184
G1 X142.807 Y32.33 E13.57006
G1 X142.058 Y32.728 E13.59827
G1 X141.274 Y33.053 E13.6265
G1 X140.464 Y33.303 E13.6547
G1 X140.385 Y33.319 E13.65738
G1 X140.174 Y33.511 E13.66687
G1 X139.743 Y33.844 E13.68498
G1 X137.918 Y35.172 E13.76005
G1 X137.21 Y35.638 E13.78824
G1 X136.46 Y36.036 E13.81648
G1 X135.677 Y36.361 E13.84468
G1 X134.866 Y36.611 E13.87291
G1 X134.036 Y36.783 E13.9011
G1 X133.192 Y36.877 E13.92934
G1 X132.57 Y36.895 E13.95004
G1 X132.4 Y36.894 E13.95569
G1 X131.553 Y36.849 E13.9839
G1 X130.714 Y36.724 E14.01212
G1 X129.89 Y36.521 E14.04034
G1 X129.089 Y36.242 E14.06855
G1 X128.318 Y35.888 E14.09677
G1 X127.584 Y35.463 E14.12498
G1 X126.893 Y34.971 E14.1532
G1 X126.251 Y34.416 E14.18142
G1 X125.665 Y33.803 E14.20963
G1 X125.139 Y33.138 E14.23783
G1 X124.677 Y32.426 E14.26606
G1 X124.285 Y31.674 E14.29426
G1 X124.09 Y31.193 E14.31153
G1 X123.939 Y31.644 E14.32734
G1 X123.596 Y32.42 E14.35556
G1 X123.182 Y33.16 E14.38377
G1 X122.699 Y33.858 E14.412
G1 X122.153 Y34.507 E14.44021
G1 X121.548 Y35.102 E14.46843
G1 X120.89 Y35.637 E14.49664
G1 X120.185 Y36.108 E14.52484
G1 X119.438 Y36.511 E14.55307
G1 X118.657 Y36.841 E14.58127
G1 X117.848 Y37.097 E14.60949
G1 X117.018 Y37.275 E14.63772
G1 X116.176 Y37.374 E14.66592
G1 X115.546 Y37.396 E14.68689
G1 X113.866 Y37.396 E14.74276
G1 X113.019 Y37.356 E14.77097
G1 X112.179 Y37.236 E14.79919
G1 X111.354 Y37.038 E14.82741
G1 X110.583 Y36.774 E14.85451
G1 X109.142 Y36.775 E14.90244
G1 X108.295 Y36.736 E14.93064
G1 X107.455 Y36.617 E14.95886
G1 X106.63 Y36.419 E14.98708
G1 X105.827 Y36.145 E15.0153
G1 X105.054 Y35.796 E15.04351
G1 X104.317 Y35.377 E15.0717
G1 X104.188 Y35.29 E15.07688
G1 X104.14 Y35.273 E15.07857
G1 X103.367 Y34.924 E15.10678
G1 X102.631 Y34.504 E15.13497
G1 X102.159 Y34.183 E15.15395
G1 X100.44 Y32.932 E15.22466
G1 X99.779 Y32.401 E15.25286
G1 X99.17 Y31.81 E15.28109
G1 X98.62 Y31.165 E15.30928
G1 X98.534 Y31.043 E15.31425
G1 X98.305 Y30.859 E15.32402
G1 X97.696 Y30.268 E15.35224
G1 X97.146 Y29.622 E15.38046
G1 X96.659 Y28.927 E15.40869
G1 X96.24 Y28.19 E15.43688
G1 X95.891 Y27.417 E15.46509
G1 X95.704 Y26.896 E15.4835
G1 X95.144 Y25.174 E15.54373
G1 X94.92 Y24.356 E15.57194
