;FLAVOR:Marlin
;TIME:592
;Filament used: 0.259389m
;Layer height: 0.2
;Generated with Cura_SteamEngine 3.6.0
M140 S70
M105
M190 S70
M104 S215
M105
M109 S215
M82 ;absolute extrusion mode
G28 ; home all axes
M117 Purge extruder
G92 E0 ; reset extruder
G1 Z1.0 F3000 ; move z up little to prevent scratching of surface
G1 X0.1 Y20 Z0.3 F5000.0 ; move to start-line position G1 X0.1 Y200.0 Z0.3 F1500.0 E15 ; draw 1st line
G1 X0.4 Y200.0 Z0.3 F5000.0 ; move to side a little
G1 X0.4 Y20 Z0.3 F1500.0 E30 ; draw 2nd line
G92 E0 ; reset extruder
G1 Z1.0 F3000 ; move z up little to prevent scratching of surface
M117 All systems go!
G92 E0
G1 F6000 E-5
;LAYER_COUNT:52
;LAYER:0
M107
M204 S5000
M205 X30 Y30
G0 F7200 X103.378 Y29.511 Z0.2
M204 S500
M205 X20 Y20
;TYPE:SKIRT
G1 F6000 E0
G1 F900 X103.653 Y28.67 E0.02943
G1 X104.003 Y27.857 E0.05887
G1 X104.425 Y27.078 E0.08834
G1 X104.916 Y26.342 E0.11776
G1 X105.471 Y25.652 E0.14722
G1 X105.89 Y25.205 E0.16759
G1 X106.007 Y25.088 E0.1731
G1 X106.661 Y24.491 E0.20255
G1 X107.366 Y23.956 E0.23198
G1 X108.116 Y23.486 E0.26142
G1 X108.906 Y23.086 E0.29087
G1 X109.728 Y22.758 E0.32031
G1 X110.577 Y22.507 E0.34976
G1 X111.445 Y22.332 E0.37921
G1 X112.325 Y22.237 E0.40865
G1 X112.937 Y22.218 E0.42901
G1 X114.718 Y22.218 E0.48825
G1 X115.602 Y22.258 E0.51768
G1 X116.479 Y22.378 E0.54712
G1 X117.342 Y22.576 E0.57657
G1 X118.183 Y22.851 E0.606
G1 X118.996 Y23.201 E0.63544
G1 X119.775 Y23.623 E0.66491
G1 X120.511 Y24.114 E0.69433
G1 X121.201 Y24.669 E0.72378
G1 X121.648 Y25.088 E0.74416
G1 X121.765 Y25.205 E0.74967
G1 X122.362 Y25.859 E0.77912
G1 X122.897 Y26.564 E0.80855
G1 X123.367 Y27.314 E0.83799
G1 X123.767 Y28.104 E0.86744
G1 X124.095 Y28.926 E0.89688
G1 X124.346 Y29.775 E0.92633
G1 X124.521 Y30.643 E0.95578
G1 X124.616 Y31.523 E0.98522
G1 X124.635 Y32.136 E1.00561
G1 X124.634 Y38.902 E1.23065
G1 X124.594 Y39.787 E1.26012
G1 X124.474 Y40.664 E1.28956
G1 X124.276 Y41.527 E1.31901
G1 X124 Y42.368 E1.34845
G1 X123.65 Y43.181 E1.37789
G1 X123.228 Y43.959 E1.40732
G1 X122.737 Y44.696 E1.43678
G1 X122.182 Y45.385 E1.4662
G1 X121.764 Y45.831 E1.48654
G1 X121.647 Y45.948 E1.49204
G1 X120.993 Y46.545 E1.52149
G1 X120.288 Y47.08 E1.55093
G1 X119.538 Y47.55 E1.58037
G1 X118.748 Y47.95 E1.60982
G1 X117.926 Y48.278 E1.63925
G1 X117.077 Y48.529 E1.6687
G1 X116.209 Y48.704 E1.69815
G1 X115.329 Y48.799 E1.72759
G1 X114.717 Y48.818 E1.74795
G1 X112.937 Y48.818 E1.80716
G1 X112.053 Y48.778 E1.83659
G1 X111.176 Y48.658 E1.86603
G1 X110.313 Y48.46 E1.89548
G1 X109.472 Y48.185 E1.92491
G1 X108.659 Y47.835 E1.95435
G1 X107.88 Y47.413 E1.98382
G1 X107.144 Y46.922 E2.01324
G1 X106.454 Y46.367 E2.04269
G1 X106.007 Y45.948 E2.06307
G1 X105.89 Y45.831 E2.06857
G1 X105.293 Y45.177 E2.09803
G1 X104.758 Y44.472 E2.12746
G1 X104.288 Y43.722 E2.1569
G1 X103.888 Y42.932 E2.18635
G1 X103.56 Y42.11 E2.21579
G1 X103.309 Y41.261 E2.24524
G1 X103.134 Y40.393 E2.27469
G1 X103.039 Y39.513 E2.30412
G1 X103.02 Y38.901 E2.32449
G1 X103.02 Y32.135 E2.54953
G1 X103.06 Y31.251 E2.57896
G1 X103.18 Y30.374 E2.6084
G1 X103.2 Y30.291 E2.61124
G0 F810 X103.378 Y29.511
M204 S5000
M205 X30 Y30
G0 F7200 X103.778 Y29.566
M204 S500
M205 X20 Y20
G1 F6000 E2.63785
G1 F900 X104.053 Y28.744 E2.66668
G1 X104.403 Y27.951 E2.69551
G1 X104.824 Y27.193 E2.72435
G1 X105.313 Y26.478 E2.75316
G1 X105.866 Y25.81 E2.782
G1 X106.173 Y25.488 E2.7968
G1 X106.29 Y25.371 E2.8023
G1 X106.931 Y24.787 E2.83114
G1 X107.623 Y24.264 E2.85999
G1 X108.36 Y23.808 E2.88882
G1 X109.135 Y23.421 E2.91763
G1 X109.944 Y23.107 E2.94649
G1 X110.777 Y22.869 E2.97531
G1 X111.629 Y22.709 E3.00414
G1 X112.492 Y22.629 E3.03297
G1 X112.937 Y22.618 E3.04777
G1 X114.718 Y22.618 E3.10701
G1 X115.584 Y22.658 E3.13584
G1 X116.443 Y22.778 E3.16469
G1 X117.287 Y22.976 E3.19352
G1 X118.109 Y23.251 E3.22235
G1 X118.902 Y23.601 E3.25118
G1 X119.66 Y24.022 E3.28002
G1 X120.375 Y24.511 E3.30883
G1 X121.043 Y25.064 E3.33768
G1 X121.365 Y25.371 E3.35247
G1 X121.482 Y25.488 E3.35798
G1 X122.066 Y26.129 E3.38682
G1 X122.589 Y26.821 E3.41567
G1 X123.045 Y27.558 E3.44449
G1 X123.432 Y28.333 E3.4733
G1 X123.746 Y29.142 E3.50217
G1 X123.984 Y29.975 E3.53098
G1 X124.144 Y30.827 E3.55982
G1 X124.224 Y31.69 E3.58864
G1 X124.235 Y32.136 E3.60348
G1 X124.234 Y38.902 E3.82852
G1 X124.194 Y39.768 E3.85735
G1 X124.074 Y40.627 E3.8862
G1 X123.876 Y41.471 E3.91503
G1 X123.601 Y42.293 E3.94386
G1 X123.251 Y43.086 E3.97269
G1 X122.829 Y43.844 E4.00155
G1 X122.34 Y44.56 E4.03039
G1 X121.787 Y45.227 E4.0592
G1 X121.481 Y45.548 E4.07395
G1 X121.364 Y45.665 E4.07946
G1 X120.723 Y46.249 E4.1083
G1 X120.031 Y46.772 E4.13715
G1 X119.294 Y47.228 E4.16597
G1 X118.519 Y47.615 E4.19479
G1 X117.71 Y47.929 E4.22365
G1 X116.877 Y48.167 E4.25246
G1 X116.025 Y48.327 E4.2813
G1 X115.162 Y48.407 E4.31012
G1 X114.717 Y48.418 E4.32493
G1 X112.937 Y48.418 E4.38413
G1 X112.071 Y48.378 E4.41297
G1 X111.212 Y48.258 E4.44181
G1 X110.368 Y48.06 E4.47065
G1 X109.546 Y47.785 E4.49948
G1 X108.753 Y47.435 E4.52831
G1 X107.995 Y47.014 E4.55714
G1 X107.28 Y46.525 E4.58596
G1 X106.612 Y45.972 E4.6148
G1 X106.29 Y45.665 E4.6296
G1 X106.173 Y45.548 E4.6351
G1 X105.589 Y44.907 E4.66394
G1 X105.066 Y44.215 E4.69279
G1 X104.61 Y43.478 E4.72162
G1 X104.223 Y42.703 E4.75043
G1 X103.909 Y41.894 E4.77929
G1 X103.671 Y41.061 E4.80811
G1 X103.511 Y40.209 E4.83694
G1 X103.431 Y39.346 E4.86576
G1 X103.42 Y38.901 E4.88057
G1 X103.42 Y32.135 E5.10561
G1 X103.46 Y31.269 E5.13444
G1 X103.58 Y30.41 E5.16329
G1 X103.596 Y30.345 E5.16552
G0 F810 X103.778 Y29.566
M204 S5000
M205 X30 Y30
G0 F7200 X104.178 Y29.623
M204 S500
M205 X20 Y20
G1 F6000 E5.19212
G1 F900 X104.453 Y28.82 E5.22036
G1 X104.802 Y28.047 E5.24856
G1 X105.222 Y27.311 E5.27675
G1 X105.71 Y26.617 E5.30497
G1 X106.456 Y25.771 E5.34248
G1 X106.573 Y25.654 E5.34799
G1 X107.2 Y25.083 E5.37619
G1 X107.879 Y24.574 E5.40442
G1 X108.602 Y24.131 E5.43262
G1 X109.364 Y23.758 E5.46084
G1 X110.158 Y23.458 E5.48907
G1 X110.976 Y23.234 E5.51727
G1 X111.812 Y23.089 E5.5455
G1 X112.937 Y23.018 E5.58299
G1 X114.718 Y23.018 E5.64222
G1 X115.565 Y23.058 E5.67043
G1 X116.405 Y23.178 E5.69865
G1 X117.23 Y23.376 E5.72687
G1 X118.033 Y23.651 E5.7551
G1 X118.806 Y24 E5.78331
G1 X119.542 Y24.42 E5.81149
G1 X120.236 Y24.908 E5.83971
G1 X121.082 Y25.654 E5.87722
G1 X121.199 Y25.771 E5.88273
G1 X121.77 Y26.398 E5.91093
G1 X122.279 Y27.077 E5.93916
G1 X122.722 Y27.8 E5.96736
G1 X123.095 Y28.562 E5.99558
G1 X123.395 Y29.356 E6.02381
G1 X123.619 Y30.174 E6.05202
G1 X123.764 Y31.01 E6.08024
G1 X123.835 Y32.136 E6.11776
G1 X123.834 Y38.902 E6.3428
G1 X123.794 Y39.75 E6.37104
G1 X123.674 Y40.589 E6.39923
G1 X123.476 Y41.414 E6.42745
G1 X123.201 Y42.217 E6.45568
G1 X122.852 Y42.99 E6.48389
G1 X122.431 Y43.726 E6.51209
G1 X121.943 Y44.42 E6.5403
G1 X121.198 Y45.265 E6.57777
G1 X121.081 Y45.382 E6.58328
G1 X120.454 Y45.953 E6.61148
G1 X119.775 Y46.462 E6.63971
G1 X119.052 Y46.905 E6.66791
G1 X118.29 Y47.278 E6.69613
G1 X117.496 Y47.578 E6.72436
G1 X116.678 Y47.802 E6.75257
G1 X115.842 Y47.947 E6.78079
G1 X114.717 Y48.018 E6.81828
G1 X112.937 Y48.018 E6.87748
G1 X112.09 Y47.978 E6.90568
G1 X111.25 Y47.858 E6.93391
G1 X110.425 Y47.66 E6.96212
G1 X109.622 Y47.385 E6.99036
G1 X108.849 Y47.036 E7.01856
G1 X108.113 Y46.616 E7.04675
G1 X107.419 Y46.128 E7.07497
G1 X106.573 Y45.382 E7.11248
G1 X106.456 Y45.265 E7.11799
G1 X105.885 Y44.638 E7.14619
G1 X105.376 Y43.959 E7.17442
G1 X104.933 Y43.236 E7.20262
G1 X104.56 Y42.474 E7.23084
G1 X104.26 Y41.68 E7.25907
G1 X104.036 Y40.862 E7.28728
G1 X103.891 Y40.026 E7.3155
G1 X103.82 Y38.901 E7.35299
G1 X103.82 Y32.135 E7.57803
G1 X103.86 Y31.288 E7.60623
G1 X103.98 Y30.448 E7.63445
G1 X103.992 Y30.401 E7.63606
G0 F810 X104.178 Y29.623
M204 S5000
M205 X30 Y30
G0 F7200 X104.578 Y29.681
M204 S500
M205 X20 Y20
G1 F6000 E7.66267
G1 F900 X104.852 Y28.899 E7.69023
G1 X105.201 Y28.146 E7.71784
G1 X105.621 Y27.431 E7.74542
G1 X106.107 Y26.76 E7.77297
G1 X106.739 Y26.054 E7.80449
G1 X106.856 Y25.937 E7.80999
G1 X107.47 Y25.379 E7.83759
G1 X108.135 Y24.884 E7.86516
G1 X108.844 Y24.454 E7.89274
G1 X109.591 Y24.095 E7.92031
G1 X110.37 Y23.81 E7.94789
G1 X111.172 Y23.601 E7.97546
G1 X111.991 Y23.47 E8.00305
G1 X112.937 Y23.418 E8.03456
G1 X114.718 Y23.418 E8.09379
G1 X115.546 Y23.458 E8.12137
G1 X116.367 Y23.578 E8.14896
G1 X117.172 Y23.776 E8.17653
G1 X117.954 Y24.05 E8.20409
G1 X118.707 Y24.399 E8.2317
G1 X119.422 Y24.819 E8.25928
G1 X120.093 Y25.305 E8.28684
G1 X120.799 Y25.937 E8.31835
G1 X120.916 Y26.054 E8.32385
G1 X121.474 Y26.668 E8.35145
G1 X121.969 Y27.333 E8.37902
G1 X122.399 Y28.042 E8.4066
G1 X122.758 Y28.789 E8.43417
G1 X123.043 Y29.568 E8.46176
G1 X123.252 Y30.37 E8.48932
G1 X123.383 Y31.189 E8.51691
G1 X123.435 Y32.136 E8.54845
G1 X123.434 Y38.902 E8.77349
G1 X123.394 Y39.731 E8.8011
G1 X123.274 Y40.551 E8.82866
G1 X123.076 Y41.356 E8.85623
G1 X122.801 Y42.139 E8.88383
G1 X122.452 Y42.891 E8.91141
G1 X122.033 Y43.606 E8.93897
G1 X121.546 Y44.277 E8.96655
G1 X120.915 Y44.982 E8.99802
G1 X120.798 Y45.099 E9.00352
G1 X120.184 Y45.657 E9.03112
G1 X119.519 Y46.152 E9.05869
G1 X118.81 Y46.582 E9.08627
G1 X118.063 Y46.941 E9.11383
G1 X117.284 Y47.226 E9.14142
G1 X116.482 Y47.435 E9.16899
G1 X115.663 Y47.566 E9.19657
G1 X114.717 Y47.618 E9.22809
G1 X112.937 Y47.618 E9.28729
G1 X112.109 Y47.578 E9.31486
G1 X111.288 Y47.458 E9.34246
G1 X110.483 Y47.26 E9.37003
G1 X109.701 Y46.986 E9.39759
G1 X108.948 Y46.637 E9.42519
G1 X108.233 Y46.217 E9.45277
G1 X107.562 Y45.731 E9.48033
G1 X106.856 Y45.099 E9.51185
G1 X106.739 Y44.982 E9.51735
G1 X106.181 Y44.368 E9.54494
G1 X105.686 Y43.703 E9.57252
G1 X105.256 Y42.994 E9.6001
G1 X104.897 Y42.247 E9.62766
G1 X104.612 Y41.468 E9.65525
G1 X104.403 Y40.666 E9.68282
G1 X104.272 Y39.847 E9.7104
G1 X104.22 Y38.901 E9.74192
G1 X104.22 Y32.135 E9.96695
G1 X104.26 Y31.307 E9.99452
G1 X104.38 Y30.486 E10.02212
G1 X104.387 Y30.458 E10.02308
G0 F810 X104.578 Y29.681
M204 S5000
M205 X30 Y30
G0 F7200 X104.977 Y29.74
M204 S500
M205 X20 Y20
G1 F6000 E10.04969
G1 F900 X105.252 Y28.979 E10.0766
G1 X105.6 Y28.248 E10.10353
G1 X106.019 Y27.554 E10.13049
G1 X106.504 Y26.906 E10.15741
G1 X107.022 Y26.337 E10.18301
G1 X107.139 Y26.22 E10.18851
G1 X107.739 Y25.676 E10.21545
G1 X108.39 Y25.194 E10.24239
G1 X109.085 Y24.779 E10.26931
G1 X109.817 Y24.435 E10.29621
G1 X110.581 Y24.164 E10.32317
G1 X111.367 Y23.97 E10.3501
G1 X112.168 Y23.854 E10.37702
G1 X112.937 Y23.818 E10.40263
G1 X114.718 Y23.818 E10.46186
G1 X115.527 Y23.858 E10.4888
G1 X116.328 Y23.978 E10.51574
G1 X117.113 Y24.175 E10.54266
G1 X117.874 Y24.45 E10.56957
G1 X118.605 Y24.798 E10.5965
G1 X119.299 Y25.217 E10.62346
G1 X119.947 Y25.702 E10.65038
G1 X120.516 Y26.22 E10.67598
G1 X120.633 Y26.337 E10.68148
G1 X121.177 Y26.937 E10.70842
G1 X121.659 Y27.588 E10.73536
G1 X122.074 Y28.283 E10.76228
G1 X122.418 Y29.015 E10.78918
G1 X122.689 Y29.779 E10.81615
G1 X122.883 Y30.565 E10.84307
G1 X122.999 Y31.366 E10.86999
G1 X123.035 Y32.136 E10.89563
G1 X123.034 Y38.902 E11.12067
G1 X122.994 Y39.711 E11.14761
G1 X122.874 Y40.512 E11.17455
G1 X122.676 Y41.297 E11.20147
G1 X122.402 Y42.059 E11.22841
G1 X122.053 Y42.789 E11.25532
G1 X121.635 Y43.483 E11.28226
G1 X121.15 Y44.131 E11.30919
G1 X120.632 Y44.699 E11.33475
G1 X120.515 Y44.816 E11.34026
G1 X119.915 Y45.36 E11.36719
G1 X119.264 Y45.842 E11.39414
G1 X118.569 Y46.257 E11.42106
G1 X117.837 Y46.601 E11.44796
G1 X117.073 Y46.872 E11.47492
G1 X116.287 Y47.066 E11.50185
G1 X115.486 Y47.182 E11.52877
G1 X114.717 Y47.218 E11.55437
G1 X112.937 Y47.218 E11.61358
G1 X112.128 Y47.178 E11.64052
G1 X111.327 Y47.058 E11.66746
G1 X110.542 Y46.861 E11.69437
G1 X109.781 Y46.586 E11.72129
G1 X109.05 Y46.238 E11.74821
G1 X108.356 Y45.819 E11.77518
G1 X107.708 Y45.334 E11.8021
G1 X107.139 Y44.816 E11.82769
G1 X107.022 Y44.699 E11.83319
G1 X106.478 Y44.099 E11.86013
G1 X105.996 Y43.448 E11.88707
G1 X105.581 Y42.753 E11.914
G1 X105.237 Y42.021 E11.9409
G1 X104.966 Y41.257 E11.96786
G1 X104.772 Y40.471 E11.99479
G1 X104.656 Y39.67 E12.02171
G1 X104.62 Y38.901 E12.04731
G1 X104.62 Y32.135 E12.27235
G1 X104.66 Y31.326 E12.29929
G1 X104.78 Y30.525 E12.32623
G1 X104.783 Y30.516 E12.32654
G0 F810 X104.977 Y29.74
M204 S5000
M205 X30 Y30
G0 F7200 X105.377 Y29.801
M204 S500
M205 X20 Y20
G1 F6000 E12.35315
G1 F900 X105.651 Y29.061 E12.3794
G1 X105.999 Y28.352 E12.40567
G1 X106.417 Y27.681 E12.43196
G1 X106.9 Y27.057 E12.4582
G1 X107.305 Y26.62 E12.47802
G1 X107.422 Y26.503 E12.48352
G1 X108.008 Y25.973 E12.5098
G1 X108.644 Y25.506 E12.53605
G1 X109.324 Y25.105 E12.5623
G1 X110.042 Y24.775 E12.58859
G1 X110.789 Y24.52 E12.61484
G1 X111.558 Y24.341 E12.6411
G1 X112.342 Y24.241 E12.66739
G1 X112.937 Y24.218 E12.68719
G1 X114.718 Y24.218 E12.74643
G1 X115.507 Y24.258 E12.7727
G1 X116.287 Y24.377 E12.79895
G1 X117.052 Y24.575 E12.82523
G1 X117.792 Y24.849 E12.85148
G1 X118.501 Y25.197 E12.87774
G1 X119.172 Y25.615 E12.90404
G1 X119.796 Y26.098 E12.93028
G1 X120.233 Y26.503 E12.9501
G1 X120.35 Y26.62 E12.9556
G1 X120.88 Y27.206 E12.98188
G1 X121.347 Y27.842 E13.00813
G1 X121.748 Y28.522 E13.03438
G1 X122.078 Y29.24 E13.06067
G1 X122.333 Y29.987 E13.08692
G1 X122.512 Y30.756 E13.11318
G1 X122.612 Y31.54 E13.13947
G1 X122.635 Y32.136 E13.1593
G1 X122.634 Y38.902 E13.38434
G1 X122.594 Y39.691 E13.41062
G1 X122.474 Y40.471 E13.43687
G1 X122.276 Y41.236 E13.46315
G1 X122.002 Y41.976 E13.48939
G1 X121.654 Y42.685 E13.51566
G1 X121.237 Y43.356 E13.54194
G1 X120.754 Y43.98 E13.56819
G1 X120.349 Y44.416 E13.58798
G1 X120.232 Y44.533 E13.59348
G1 X119.646 Y45.063 E13.61976
G1 X119.01 Y45.53 E13.646
G1 X118.33 Y45.931 E13.67226
G1 X117.612 Y46.261 E13.69854
G1 X116.865 Y46.516 E13.7248
G1 X116.096 Y46.695 E13.75106
G1 X115.312 Y46.795 E13.77734
G1 X114.717 Y46.818 E13.79715
G1 X112.937 Y46.818 E13.85635
G1 X112.148 Y46.778 E13.88263
G1 X111.368 Y46.659 E13.90887
G1 X110.603 Y46.461 E13.93515
G1 X109.863 Y46.187 E13.9614
G1 X109.154 Y45.839 E13.98767
G1 X108.483 Y45.421 E14.01396
G1 X107.859 Y44.938 E14.04021
G1 X107.422 Y44.533 E14.06002
G1 X107.305 Y44.416 E14.06553
G1 X106.775 Y43.83 E14.09181
G1 X106.308 Y43.194 E14.11805
G1 X105.907 Y42.514 E14.14431
G1 X105.577 Y41.796 E14.17059
G1 X105.322 Y41.049 E14.19684
G1 X105.143 Y40.28 E14.2231
G1 X105.043 Y39.496 E14.24939
G1 X105.02 Y38.901 E14.26919
G1 X105.02 Y32.135 E14.49423
G1 X105.06 Y31.346 E14.52051
G1 X105.178 Y30.575 E14.54645
G0 F810 X105.179 Y30.566
G0 X105.377 Y29.801
M204 S5000
M205 X30 Y30
G0 F7200 X105.777 Y29.864
M204 S500
M205 X20 Y20
G1 F6000 E14.57306
G1 F900 X106.051 Y29.145 E14.59865
G1 X106.398 Y28.459 E14.62422
G1 X106.814 Y27.812 E14.6498
G1 X107.295 Y27.212 E14.67538
G1 X107.587 Y26.902 E14.68954
G1 X107.704 Y26.785 E14.69505
G1 X108.276 Y26.271 E14.72063
G1 X108.898 Y25.818 E14.74622
G1 X109.563 Y25.432 E14.77179
G1 X110.265 Y25.117 E14.79738
G1 X110.996 Y24.877 E14.82297
G1 X111.747 Y24.714 E14.84853
G1 X112.512 Y24.63 E14.87413
G1 X112.937 Y24.618 E14.88827
G1 X114.718 Y24.618 E14.94751
G1 X115.486 Y24.658 E14.97309
G1 X116.246 Y24.777 E14.99867
G1 X116.989 Y24.975 E15.02425
G1 X117.708 Y25.249 E15.04984
G1 X118.394 Y25.596 E15.07541
G1 X119.041 Y26.012 E15.10099
G1 X119.641 Y26.493 E15.12657
G1 X119.951 Y26.785 E15.14073
G1 X120.068 Y26.902 E15.14624
G1 X120.582 Y27.474 E15.17181
G1 X121.035 Y28.096 E15.19741
G1 X121.421 Y28.761 E15.22298
G1 X121.736 Y29.463 E15.24857
G1 X121.976 Y30.194 E15.27416
G1 X122.139 Y30.945 E15.29972
G1 X122.223 Y31.71 E15.32532
G1 X122.235 Y32.136 E15.33949
G1 X122.234 Y38.902 E15.56453
G1 X122.194 Y39.67 E15.59011
G1 X122.074 Y40.43 E15.6157
G1 X121.876 Y41.173 E15.64128
G1 X121.603 Y41.892 E15.66686
G1 X121.256 Y42.578 E15.69243
G1 X120.839 Y43.225 E15.71803
G1 X120.358 Y43.825 E15.7436
G1 X120.067 Y44.134 E15.75772
G1 X119.95 Y44.251 E15.76322
G1 X119.378 Y44.765 E15.7888
G1 X118.756 Y45.218 E15.81439
G1 X118.091 Y45.604 E15.83997
G1 X117.389 Y45.919 E15.86556
G1 X116.658 Y46.159 E15.89115
G1 X115.907 Y46.322 E15.91671
G1 X115.142 Y46.406 E15.94231
G1 X114.717 Y46.418 E15.95645
G1 X112.937 Y46.418 E16.01565
