;FLAVOR:Marlin
;TIME:460
;Filament used: 0.182217m
;Layer height: 0.2
;Generated with Cura_SteamEngine 3.6.0
M140 S70
M105
M190 S70
M104 S215
M105
M109 S215
M82 ;absolute extrusion mode
G28 ; home all axes
M117 Purge extruder
G92 E0 ; reset extruder
G1 Z1.0 F3000 ; move z up little to prevent scratching of surface
G1 X0.1 Y20 Z0.3 F5000.0 ; move to start-line position G1 X0.1 Y200.0 Z0.3 F1500.0 E15 ; draw 1st line
G1 X0.4 Y200.0 Z0.3 F5000.0 ; move to side a little
G1 X0.4 Y20 Z0.3 F1500.0 E30 ; draw 2nd line
G92 E0 ; reset extruder
G1 Z1.0 F3000 ; move z up little to prevent scratching of surface
M117 All systems go!
G92 E0
G1 F6000 E-5
;LAYER_COUNT:52
;LAYER:0
M107
M204 S5000
M205 X30 Y30
G0 F7200 X95.266 Y25.44 Z0.2
M204 S500
M205 X20 Y20
;TYPE:SKIRT
G1 F6000 E0
G1 F900 X95.541 Y24.599 E0.02943
G1 X95.891 Y23.786 E0.05887
G1 X96.313 Y23.007 E0.08834
G1 X96.804 Y22.271 E0.11776
G1 X97.359 Y21.581 E0.14722
G1 X97.778 Y21.134 E0.16759
G1 X97.895 Y21.017 E0.1731
G1 X98.549 Y20.42 E0.20255
G1 X99.254 Y19.885 E0.23198
G1 X100.004 Y19.415 E0.26142
G1 X100.794 Y19.015 E0.29087
G1 X101.616 Y18.687 E0.32031
G1 X102.465 Y18.436 E0.34976
G1 X103.333 Y18.261 E0.37921
G1 X104.213 Y18.166 E0.40865
G1 X104.825 Y18.147 E0.42901
G1 X106.614 Y18.147 E0.48851
G1 X107.498 Y18.187 E0.51795
G1 X108.375 Y18.307 E0.54739
G1 X109.238 Y18.505 E0.57684
G1 X110.079 Y18.78 E0.60626
G1 X110.892 Y19.13 E0.6357
G1 X111.671 Y19.552 E0.66517
G1 X112.407 Y20.043 E0.6946
G1 X113.097 Y20.598 E0.72405
G1 X113.544 Y21.017 E0.74443
G1 X113.661 Y21.134 E0.74993
G1 X114.258 Y21.788 E0.77938
G1 X114.793 Y22.493 E0.80882
G1 X115.263 Y23.243 E0.83826
G1 X115.663 Y24.033 E0.86771
G1 X115.991 Y24.855 E0.89715
G1 X116.242 Y25.704 E0.92659
G1 X116.417 Y26.572 E0.95604
G1 X116.512 Y27.452 E0.98548
G1 X116.531 Y28.064 E1.00585
G1 X116.531 Y30.03 E1.07124
G1 X116.491 Y30.914 E1.10067
G1 X116.371 Y31.791 E1.13011
G1 X116.173 Y32.654 E1.15956
G1 X115.898 Y33.495 E1.18899
G1 X115.548 Y34.308 E1.21843
G1 X115.126 Y35.087 E1.24789
G1 X114.635 Y35.823 E1.27732
G1 X114.08 Y36.513 E1.30677
G1 X113.661 Y36.96 E1.32715
G1 X113.544 Y37.077 E1.33265
G1 X112.89 Y37.674 E1.36211
G1 X112.185 Y38.209 E1.39154
G1 X111.435 Y38.679 E1.42098
G1 X110.645 Y39.079 E1.45043
G1 X109.823 Y39.407 E1.47987
G1 X108.974 Y39.658 E1.50931
G1 X108.106 Y39.833 E1.53876
G1 X107.226 Y39.928 E1.5682
G1 X106.614 Y39.947 E1.58857
G1 X104.825 Y39.947 E1.64807
G1 X103.941 Y39.907 E1.6775
G1 X103.064 Y39.787 E1.70694
G1 X102.201 Y39.589 E1.73639
G1 X101.36 Y39.314 E1.76582
G1 X100.547 Y38.964 E1.79526
G1 X99.768 Y38.542 E1.82473
G1 X99.032 Y38.051 E1.85416
G1 X98.342 Y37.496 E1.88361
G1 X97.895 Y37.077 E1.90399
G1 X97.778 Y36.96 E1.90949
G1 X97.181 Y36.306 E1.93894
G1 X96.646 Y35.601 E1.96838
G1 X96.176 Y34.851 E1.99782
G1 X95.776 Y34.061 E2.02727
G1 X95.448 Y33.239 E2.0567
G1 X95.197 Y32.39 E2.08615
G1 X95.022 Y31.522 E2.1156
G1 X94.927 Y30.642 E2.14504
G1 X94.908 Y30.03 E2.1654
G1 X94.908 Y28.064 E2.23079
G1 X94.948 Y27.18 E2.26023
G1 X95.068 Y26.303 E2.28967
G1 X95.088 Y26.22 E2.29251
G0 F810 X95.266 Y25.44
M204 S5000
M205 X30 Y30
G0 F7200 X95.666 Y25.495
M204 S500
M205 X20 Y20
G1 F6000 E2.31911
G1 F900 X95.941 Y24.673 E2.34794
G1 X96.291 Y23.88 E2.37677
G1 X96.712 Y23.122 E2.40561
G1 X97.201 Y22.407 E2.43442
G1 X97.754 Y21.739 E2.46327
G1 X98.061 Y21.417 E2.47806
G1 X98.178 Y21.3 E2.48357
G1 X98.819 Y20.716 E2.51241
G1 X99.511 Y20.193 E2.54126
G1 X100.248 Y19.737 E2.57008
G1 X101.023 Y19.35 E2.5989
G1 X101.832 Y19.036 E2.62776
G1 X102.665 Y18.798 E2.65657
G1 X103.517 Y18.638 E2.68541
G1 X104.38 Y18.558 E2.71423
G1 X104.825 Y18.547 E2.72904
G1 X106.614 Y18.547 E2.78854
G1 X107.48 Y18.587 E2.81737
G1 X108.339 Y18.707 E2.84622
G1 X109.183 Y18.905 E2.87506
G1 X110.005 Y19.18 E2.90388
G1 X110.798 Y19.53 E2.93271
G1 X111.556 Y19.951 E2.96155
G1 X112.271 Y20.44 E2.99036
G1 X112.939 Y20.993 E3.01921
G1 X113.261 Y21.3 E3.034
G1 X113.378 Y21.417 E3.03951
G1 X113.962 Y22.058 E3.06835
G1 X114.485 Y22.75 E3.0972
G1 X114.941 Y23.487 E3.12602
G1 X115.328 Y24.262 E3.15484
G1 X115.642 Y25.071 E3.1837
G1 X115.88 Y25.904 E3.21251
G1 X116.04 Y26.756 E3.24135
G1 X116.12 Y27.619 E3.27017
G1 X116.131 Y28.064 E3.28498
G1 X116.131 Y30.03 E3.35037
G1 X116.091 Y30.896 E3.3792
G1 X115.971 Y31.755 E3.40805
G1 X115.773 Y32.599 E3.43688
G1 X115.498 Y33.421 E3.46571
G1 X115.148 Y34.214 E3.49454
G1 X114.727 Y34.972 E3.52338
G1 X114.238 Y35.687 E3.55219
G1 X113.685 Y36.355 E3.58104
G1 X113.378 Y36.677 E3.59583
G1 X113.261 Y36.794 E3.60134
G1 X112.62 Y37.378 E3.63018
G1 X111.928 Y37.901 E3.65903
G1 X111.191 Y38.357 E3.68785
G1 X110.416 Y38.744 E3.71666
G1 X109.607 Y39.058 E3.74553
G1 X108.774 Y39.296 E3.77434
G1 X107.922 Y39.456 E3.80318
G1 X107.059 Y39.536 E3.832
G1 X106.614 Y39.547 E3.84681
G1 X104.825 Y39.547 E3.90631
G1 X103.959 Y39.507 E3.93514
G1 X103.1 Y39.387 E3.96399
G1 X102.256 Y39.189 E3.99282
G1 X101.434 Y38.914 E4.02165
G1 X100.641 Y38.564 E4.05048
G1 X99.883 Y38.143 E4.07932
G1 X99.168 Y37.654 E4.10813
G1 X98.5 Y37.101 E4.13698
G1 X98.178 Y36.794 E4.15177
G1 X98.061 Y36.677 E4.15728
G1 X97.477 Y36.036 E4.18612
G1 X96.954 Y35.344 E4.21497
G1 X96.498 Y34.607 E4.24379
G1 X96.111 Y33.832 E4.27261
G1 X95.797 Y33.023 E4.30147
G1 X95.559 Y32.19 E4.33028
G1 X95.399 Y31.338 E4.35912
G1 X95.319 Y30.475 E4.38794
G1 X95.308 Y30.03 E4.40275
G1 X95.308 Y28.064 E4.46814
G1 X95.348 Y27.198 E4.49697
G1 X95.468 Y26.339 E4.52582
G1 X95.484 Y26.274 E4.52805
G0 F810 X95.666 Y25.495
M204 S5000
M205 X30 Y30
G0 F7200 X96.066 Y25.552
M204 S500
M205 X20 Y20
G1 F6000 E4.55465
G1 F900 X96.341 Y24.749 E4.58288
G1 X96.69 Y23.976 E4.61109
G1 X97.11 Y23.24 E4.63928
G1 X97.598 Y22.546 E4.6675
G1 X98.344 Y21.7 E4.70501
G1 X98.461 Y21.583 E4.71051
G1 X99.088 Y21.012 E4.73872
G1 X99.767 Y20.503 E4.76695
G1 X100.49 Y20.06 E4.79515
G1 X101.252 Y19.687 E4.82337
G1 X102.046 Y19.387 E4.8516
G1 X102.864 Y19.163 E4.8798
G1 X103.7 Y19.018 E4.90802
G1 X104.825 Y18.947 E4.94552
G1 X106.614 Y18.947 E5.00502
G1 X107.461 Y18.987 E5.03322
G1 X108.301 Y19.107 E5.06144
G1 X109.126 Y19.305 E5.08966
G1 X109.929 Y19.58 E5.11789
G1 X110.702 Y19.929 E5.1461
G1 X111.438 Y20.349 E5.17429
G1 X112.132 Y20.837 E5.20251
G1 X112.978 Y21.583 E5.24002
G1 X113.095 Y21.7 E5.24552
G1 X113.666 Y22.327 E5.27373
G1 X114.175 Y23.006 E5.30195
G1 X114.618 Y23.729 E5.33016
G1 X114.991 Y24.491 E5.35837
G1 X115.291 Y25.285 E5.3866
G1 X115.515 Y26.103 E5.41481
G1 X115.66 Y26.939 E5.44303
G1 X115.731 Y28.064 E5.48053
G1 X115.731 Y30.03 E5.54592
G1 X115.691 Y30.877 E5.57412
G1 X115.571 Y31.717 E5.60234
G1 X115.373 Y32.542 E5.63056
G1 X115.098 Y33.345 E5.65879
G1 X114.749 Y34.118 E5.687
G1 X114.329 Y34.854 E5.71518
G1 X113.841 Y35.548 E5.7434
G1 X113.095 Y36.394 E5.78092
G1 X112.978 Y36.511 E5.78642
G1 X112.351 Y37.082 E5.81463
G1 X111.672 Y37.591 E5.84285
G1 X110.949 Y38.034 E5.87105
G1 X110.187 Y38.407 E5.89927
G1 X109.393 Y38.707 E5.9275
G1 X108.575 Y38.931 E5.95571
G1 X107.739 Y39.076 E5.98393
G1 X106.614 Y39.147 E6.02142
G1 X104.825 Y39.147 E6.08092
G1 X103.978 Y39.107 E6.10913
G1 X103.138 Y38.987 E6.13735
G1 X102.313 Y38.789 E6.16557
G1 X101.51 Y38.514 E6.1938
G1 X100.737 Y38.165 E6.22201
G1 X100.001 Y37.745 E6.25019
G1 X99.307 Y37.257 E6.27841
G1 X98.461 Y36.511 E6.31593
G1 X98.344 Y36.394 E6.32143
G1 X97.773 Y35.767 E6.34964
G1 X97.264 Y35.088 E6.37786
G1 X96.821 Y34.365 E6.40606
G1 X96.448 Y33.603 E6.43428
G1 X96.148 Y32.809 E6.46251
G1 X95.924 Y31.991 E6.49072
G1 X95.779 Y31.155 E6.51894
G1 X95.708 Y30.03 E6.55643
G1 X95.708 Y28.064 E6.62182
G1 X95.748 Y27.217 E6.65002
G1 X95.868 Y26.377 E6.67825
G1 X95.88 Y26.33 E6.67986
G0 F810 X96.066 Y25.552
M204 S5000
M205 X30 Y30
G0 F7200 X96.466 Y25.61
M204 S500
M205 X20 Y20
G1 F6000 E6.70647
G1 F900 X96.74 Y24.828 E6.73403
G1 X97.089 Y24.075 E6.76163
G1 X97.509 Y23.36 E6.78921
G1 X97.995 Y22.689 E6.81677
G1 X98.627 Y21.983 E6.84828
G1 X98.744 Y21.866 E6.85379
G1 X99.358 Y21.308 E6.88138
G1 X100.023 Y20.813 E6.90895
G1 X100.732 Y20.383 E6.93653
G1 X101.479 Y20.024 E6.9641
G1 X102.258 Y19.739 E6.99169
G1 X103.06 Y19.53 E7.01925
G1 X103.879 Y19.399 E7.04684
G1 X104.825 Y19.347 E7.07835
G1 X106.614 Y19.347 E7.13785
G1 X107.442 Y19.387 E7.16543
G1 X108.263 Y19.507 E7.19302
G1 X109.068 Y19.705 E7.2206
G1 X109.85 Y19.979 E7.24816
G1 X110.603 Y20.328 E7.27576
G1 X111.318 Y20.748 E7.30334
G1 X111.989 Y21.234 E7.3309
G1 X112.695 Y21.866 E7.36241
G1 X112.812 Y21.983 E7.36792
G1 X113.37 Y22.597 E7.39551
G1 X113.865 Y23.262 E7.42308
G1 X114.295 Y23.971 E7.45066
G1 X114.654 Y24.718 E7.47823
G1 X114.939 Y25.497 E7.50582
G1 X115.148 Y26.299 E7.53338
G1 X115.279 Y27.118 E7.56097
G1 X115.331 Y28.064 E7.59248
G1 X115.331 Y30.03 E7.65787
G1 X115.291 Y30.858 E7.68544
G1 X115.171 Y31.679 E7.71304
G1 X114.973 Y32.484 E7.74061
G1 X114.699 Y33.266 E7.76817
G1 X114.35 Y34.019 E7.79578
G1 X113.93 Y34.734 E7.82336
G1 X113.444 Y35.405 E7.85091
G1 X112.812 Y36.111 E7.88243
G1 X112.695 Y36.228 E7.88793
G1 X112.081 Y36.786 E7.91553
G1 X111.416 Y37.281 E7.9431
G1 X110.707 Y37.711 E7.97068
G1 X109.96 Y38.07 E7.99824
G1 X109.181 Y38.355 E8.02583
G1 X108.379 Y38.564 E8.0534
G1 X107.56 Y38.695 E8.08099
G1 X106.614 Y38.747 E8.1125
G1 X104.825 Y38.747 E8.172
G1 X103.997 Y38.707 E8.19957
G1 X103.176 Y38.587 E8.22717
G1 X102.371 Y38.389 E8.25474
G1 X101.589 Y38.115 E8.2823
G1 X100.836 Y37.766 E8.3099
G1 X100.121 Y37.346 E8.33748
G1 X99.45 Y36.86 E8.36504
G1 X98.744 Y36.228 E8.39656
G1 X98.627 Y36.111 E8.40206
G1 X98.069 Y35.497 E8.42965
G1 X97.574 Y34.832 E8.45723
G1 X97.144 Y34.123 E8.48481
G1 X96.785 Y33.376 E8.51237
G1 X96.5 Y32.597 E8.53996
G1 X96.291 Y31.795 E8.56753
G1 X96.16 Y30.976 E8.59511
G1 X96.108 Y30.03 E8.62663
G1 X96.108 Y28.064 E8.69201
G1 X96.148 Y27.236 E8.71959
G1 X96.268 Y26.415 E8.74718
G1 X96.275 Y26.387 E8.74814
G0 F810 X96.466 Y25.61
M204 S5000
M205 X30 Y30
G0 F7200 X96.865 Y25.669
M204 S500
M205 X20 Y20
G1 F6000 E8.77475
G1 F900 X97.14 Y24.908 E8.80166
G1 X97.488 Y24.177 E8.82859
G1 X97.907 Y23.483 E8.85555
G1 X98.392 Y22.835 E8.88248
G1 X98.91 Y22.266 E8.90807
G1 X99.027 Y22.149 E8.91357
G1 X99.627 Y21.605 E8.94051
G1 X100.278 Y21.123 E8.96745
G1 X100.973 Y20.708 E8.99437
G1 X101.705 Y20.364 E9.02127
G1 X102.469 Y20.093 E9.04824
G1 X103.255 Y19.899 E9.07516
G1 X104.056 Y19.783 E9.10208
G1 X104.825 Y19.747 E9.12769
G1 X106.614 Y19.747 E9.18719
G1 X107.423 Y19.787 E9.21413
G1 X108.224 Y19.907 E9.24107
G1 X109.009 Y20.104 E9.26799
G1 X109.77 Y20.379 E9.2949
G1 X110.501 Y20.727 E9.32183
G1 X111.195 Y21.146 E9.34879
G1 X111.843 Y21.631 E9.37571
G1 X112.412 Y22.149 E9.4013
G1 X112.529 Y22.266 E9.40681
G1 X113.073 Y22.866 E9.43375
G1 X113.555 Y23.517 E9.46069
G1 X113.97 Y24.212 E9.48761
G1 X114.314 Y24.944 E9.51451
G1 X114.585 Y25.708 E9.54147
G1 X114.779 Y26.494 E9.5684
G1 X114.895 Y27.295 E9.59532
G1 X114.931 Y28.064 E9.62092
G1 X114.931 Y30.03 E9.68631
G1 X114.891 Y30.839 E9.71325
G1 X114.771 Y31.64 E9.74019
G1 X114.574 Y32.425 E9.76711
G1 X114.299 Y33.186 E9.79402
G1 X113.951 Y33.917 E9.82095
G1 X113.532 Y34.611 E9.84792
G1 X113.047 Y35.259 E9.87484
G1 X112.529 Y35.828 E9.90043
G1 X112.412 Y35.945 E9.90593
G1 X111.812 Y36.489 E9.93287
G1 X111.161 Y36.971 E9.95981
G1 X110.466 Y37.386 E9.98673
G1 X109.734 Y37.73 E10.01363
G1 X108.97 Y38.001 E10.0406
G1 X108.184 Y38.195 E10.06752
G1 X107.383 Y38.311 E10.09444
G1 X106.614 Y38.347 E10.12005
G1 X104.825 Y38.347 E10.17955
G1 X104.016 Y38.307 E10.20649
G1 X103.215 Y38.187 E10.23343
G1 X102.43 Y37.99 E10.26035
G1 X101.669 Y37.715 E10.28726
G1 X100.938 Y37.367 E10.31419
G1 X100.244 Y36.948 E10.34115
G1 X99.596 Y36.463 E10.36807
G1 X99.027 Y35.945 E10.39367
G1 X98.91 Y35.828 E10.39917
G1 X98.366 Y35.228 E10.42611
G1 X97.884 Y34.577 E10.45305
G1 X97.469 Y33.882 E10.47997
G1 X97.125 Y33.15 E10.50687
G1 X96.854 Y32.386 E10.53383
G1 X96.66 Y31.6 E10.56076
G1 X96.544 Y30.799 E10.58768
G1 X96.508 Y30.03 E10.61328
G1 X96.508 Y28.064 E10.67867
G1 X96.548 Y27.255 E10.70561
G1 X96.668 Y26.454 E10.73255
G1 X96.671 Y26.445 E10.73287
G0 F810 X96.865 Y25.669
M204 S5000
M205 X30 Y30
G0 F7200 X97.265 Y25.73
M204 S500
M205 X20 Y20
G1 F6000 E10.75948
G1 F900 X97.539 Y24.99 E10.78572
G1 X97.887 Y24.281 E10.81199
G1 X98.305 Y23.61 E10.83828
G1 X98.788 Y22.986 E10.86453
G1 X99.193 Y22.549 E10.88435
G1 X99.31 Y22.432 E10.88985
G1 X99.896 Y21.902 E10.91613
G1 X100.532 Y21.435 E10.94237
G1 X101.212 Y21.034 E10.96863
G1 X101.93 Y20.704 E10.99491
G1 X102.677 Y20.449 E11.02117
G1 X103.446 Y20.27 E11.04743
G1 X104.23 Y20.17 E11.07371
G1 X104.825 Y20.147 E11.09352
G1 X106.614 Y20.147 E11.15302
G1 X107.403 Y20.187 E11.1793
G1 X108.183 Y20.306 E11.20554
G1 X108.948 Y20.504 E11.23182
G1 X109.688 Y20.778 E11.25807
G1 X110.397 Y21.126 E11.28434
G1 X111.068 Y21.544 E11.31063
G1 X111.692 Y22.027 E11.33688
G1 X112.129 Y22.432 E11.35669
G1 X112.246 Y22.549 E11.3622
G1 X112.776 Y23.135 E11.38848
G1 X113.243 Y23.771 E11.41472
G1 X113.644 Y24.451 E11.44098
G1 X113.974 Y25.169 E11.46726
G1 X114.229 Y25.916 E11.49351
G1 X114.408 Y26.685 E11.51977
G1 X114.508 Y27.469 E11.54606
G1 X114.531 Y28.064 E11.56586
G1 X114.531 Y30.03 E11.63125
G1 X114.491 Y30.819 E11.65753
G1 X114.372 Y31.599 E11.68377
G1 X114.174 Y32.364 E11.71005
G1 X113.9 Y33.104 E11.7363
G1 X113.552 Y33.813 E11.76257
G1 X113.134 Y34.484 E11.78886
G1 X112.651 Y35.108 E11.81511
G1 X112.246 Y35.545 E11.83492
G1 X112.129 Y35.662 E11.84043
G1 X111.543 Y36.192 E11.86671
G1 X110.907 Y36.659 E11.89295
G1 X110.227 Y37.06 E11.91921
G1 X109.509 Y37.39 E11.94549
G1 X108.762 Y37.645 E11.97174
G1 X107.993 Y37.824 E11.998
G1 X107.209 Y37.924 E12.02429
G1 X106.614 Y37.947 E12.0441
G1 X104.825 Y37.947 E12.1036
G1 X104.036 Y37.907 E12.12987
G1 X103.256 Y37.788 E12.15612
G1 X102.491 Y37.59 E12.1824
G1 X101.751 Y37.316 E12.20864
G1 X101.042 Y36.968 E12.23491
G1 X100.371 Y36.55 E12.26121
G1 X99.747 Y36.067 E12.28745
G1 X99.31 Y35.662 E12.30727
G1 X99.193 Y35.545 E12.31277
G1 X98.663 Y34.959 E12.33905
G1 X98.196 Y34.323 E12.3653
G1 X97.795 Y33.643 E12.39155
G1 X97.465 Y32.925 E12.41784
G1 X97.21 Y32.178 E12.44409
G1 X97.031 Y31.409 E12.47035
G1 X96.931 Y30.625 E12.49664
G1 X96.908 Y30.03 E12.51644
G1 X96.908 Y28.064 E12.58183
G1 X96.948 Y27.275 E12.60811
G1 X97.066 Y26.504 E12.63405
G0 F810 X97.067 Y26.495
G0 X97.265 Y25.73
M204 S5000
M205 X30 Y30
G0 F7200 X97.665 Y25.793
M204 S500
M205 X20 Y20
G1 F6000 E12.66066
G1 F900 X97.939 Y25.074 E12.68625
G1 X98.286 Y24.388 E12.71182
G1 X98.702 Y23.741 E12.7374
G1 X99.183 Y23.141 E12.76298
G1 X99.475 Y22.831 E12.77714
G1 X99.592 Y22.714 E12.78265
G1 X100.164 Y22.2 E12.80822
G1 X100.786 Y21.747 E12.83382
G1 X101.451 Y21.361 E12.85939
G1 X102.153 Y21.046 E12.88498
G1 X102.884 Y20.806 E12.91057
G1 X103.635 Y20.643 E12.93613
G1 X104.4 Y20.559 E12.96173
G1 X104.825 Y20.547 E12.97587
G1 X106.614 Y20.547 E13.03537
G1 X107.382 Y20.587 E13.06095
G1 X108.142 Y20.706 E13.08654
G1 X108.885 Y20.904 E13.11211
G1 X109.604 Y21.178 E13.1377
G1 X110.29 Y21.525 E13.16327
G1 X110.937 Y21.941 E13.18886
G1 X111.537 Y22.422 E13.21443
G1 X111.847 Y22.714 E13.2286
G1 X111.964 Y22.831 E13.2341
G1 X112.478 Y23.403 E13.25968
G1 X112.931 Y24.025 E13.28527
G1 X113.317 Y24.69 E13.31084
G1 X113.632 Y25.392 E13.33644
G1 X113.872 Y26.123 E13.36203
G1 X114.035 Y26.874 E13.38759
G1 X114.119 Y27.639 E13.41318
G1 X114.131 Y28.064 E13.42732
G1 X114.131 Y30.03 E13.49271
G1 X114.091 Y30.798 E13.51829
G1 X113.972 Y31.558 E13.54388
G1 X113.774 Y32.301 E13.56945
G1 X113.5 Y33.02 E13.59504
G1 X113.153 Y33.706 E13.62061
G1 X112.737 Y34.353 E13.6462
G1 X112.256 Y34.953 E13.67177
G1 X111.964 Y35.263 E13.68594
G1 X111.847 Y35.38 E13.69144
G1 X111.275 Y35.894 E13.71702
G1 X110.653 Y36.347 E13.74261
G1 X109.988 Y36.733 E13.76819
G1 X109.286 Y37.048 E13.79378
G1 X108.555 Y37.288 E13.81937
G1 X107.804 Y37.451 E13.84493
G1 X107.039 Y37.535 E13.87052
G1 X106.614 Y37.547 E13.88467
G1 X104.825 Y37.547 E13.94417
G1 X104.057 Y37.507 E13.96975
G1 X103.297 Y37.388 E13.99533
G1 X102.554 Y37.19 E14.02091
G1 X101.835 Y36.916 E14.0465
G1 X101.149 Y36.569 E14.07207
G1 X100.502 Y36.153 E14.09765
G1 X99.902 Y35.672 E14.12323
