;FLAVOR:Marlin
;TIME:2243
;Filament used: 1.10814m
;Layer height: 0.2
;Generated with Cura_SteamEngine 3.6.0
M140 S70
M105
M190 S70
M104 S215
M105
M109 S215
M82 ;absolute extrusion mode
G28 ; home all axes
M117 Purge extruder
G92 E0 ; reset extruder
G1 Z1.0 F3000 ; move z up little to prevent scratching of surface
G1 X0.1 Y20 Z0.3 F5000.0 ; move to start-line position G1 X0.1 Y200.0 Z0.3 F1500.0 E15 ; draw 1st line
G1 X0.4 Y200.0 Z0.3 F5000.0 ; move to side a little
G1 X0.4 Y20 Z0.3 F1500.0 E30 ; draw 2nd line
G92 E0 ; reset extruder
G1 Z1.0 F3000 ; move z up little to prevent scratching of surface
M117 All systems go!
G92 E0
G1 F6000 E-5
;LAYER_COUNT:198
;LAYER:0
M107
G0 F2400 X98.487 Y43.788 Z0.2
;TYPE:SKIRT
G1 F6000 E0
G1 F900 X99.05 Y42.662 E0.04187
G1 X99.683 Y41.574 E0.08374
G1 X100.384 Y40.529 E0.12559
G1 X101.15 Y39.531 E0.16743
G1 X102.35 Y38.194 E0.22719
G1 X102.467 Y38.075 E0.23274
G1 X103.377 Y37.207 E0.27457
G1 X104.341 Y36.397 E0.31644
G1 X105.354 Y35.651 E0.35829
G1 X106.413 Y34.97 E0.40016
G1 X107.512 Y34.358 E0.442
G1 X108.649 Y33.818 E0.48387
G1 X109.817 Y33.35 E0.52572
G1 X111.013 Y32.958 E0.56758
G1 X112.231 Y32.642 E0.60943
G1 X113.467 Y32.404 E0.6513
G1 X114.715 Y32.246 E0.69314
G1 X116.586 Y32.157 E0.75544
G1 X117.448 Y32.157 E0.78411
G1 X118.483 Y32.19 E0.81855
G1 X119.252 Y32.157 E0.84415
G1 X120.31 Y32.157 E0.87934
G1 X121.568 Y32.197 E0.9212
G1 X122.82 Y32.317 E0.96303
G1 X124.063 Y32.516 E1.0049
G1 X125.29 Y32.794 E1.04675
G1 X126.498 Y33.149 E1.08862
G1 X127.68 Y33.58 E1.13047
G1 X128.832 Y34.085 E1.1723
G1 X129.951 Y34.663 E1.21419
G1 X131.03 Y35.31 E1.25604
G1 X132.066 Y36.024 E1.29789
G1 X133.054 Y36.803 E1.33973
G1 X134.37 Y38.016 E1.39926
G1 X134.487 Y38.134 E1.40479
G1 X135.344 Y39.055 E1.44663
G1 X136.141 Y40.029 E1.48849
G1 X136.875 Y41.052 E1.53037
G1 X137.542 Y42.119 E1.57222
G1 X138.14 Y43.226 E1.61407
G1 X138.666 Y44.369 E1.65592
G1 X139.119 Y45.543 E1.69777
G1 X139.496 Y46.744 E1.73964
G1 X139.796 Y47.966 E1.78149
G1 X140.018 Y49.205 E1.82335
G1 X140.161 Y50.455 E1.8652
G1 X140.227 Y52.153 E1.92172
G1 X140.224 Y52.919 E1.94719
G1 X140.179 Y54.176 E1.98903
G1 X140.054 Y55.428 E2.03088
G1 X139.85 Y56.67 E2.07274
G1 X139.568 Y57.896 E2.11458
G1 X139.208 Y59.102 E2.15644
G1 X138.772 Y60.283 E2.19831
G1 X138.262 Y61.433 E2.24016
G1 X137.681 Y62.549 E2.282
G1 X137.029 Y63.626 E2.32388
G1 X136.31 Y64.659 E2.36574
G1 X135.528 Y65.644 E2.40757
G1 X134.364 Y66.902 E2.46457
G1 X134.247 Y67.018 E2.47005
G1 X133.326 Y67.875 E2.5119
G1 X132.352 Y68.672 E2.55375
G1 X131.33 Y69.405 E2.59559
G1 X130.263 Y70.072 E2.63744
G1 X129.155 Y70.67 E2.67931
G1 X128.012 Y71.196 E2.72116
G1 X126.838 Y71.649 E2.76302
G1 X125.637 Y72.026 E2.80488
G1 X124.415 Y72.326 E2.84673
G1 X123.177 Y72.548 E2.88857
G1 X121.926 Y72.691 E2.93045
G1 X120.307 Y72.757 E2.98434
G1 X119.252 Y72.757 E3.01943
G1 X118.216 Y72.724 E3.0539
G1 X117.447 Y72.757 E3.0795
G1 X116.596 Y72.757 E3.10781
G1 X115.338 Y72.717 E3.14967
G1 X114.086 Y72.597 E3.1915
G1 X112.843 Y72.398 E3.23337
G1 X111.616 Y72.12 E3.27522
G1 X110.408 Y71.765 E3.31709
G1 X109.226 Y71.334 E3.35894
G1 X108.074 Y70.829 E3.40078
G1 X106.955 Y70.251 E3.44267
G1 X105.876 Y69.604 E3.48451
G1 X104.84 Y68.89 E3.52636
G1 X103.852 Y68.111 E3.56821
G1 X102.716 Y67.078 E3.61927
G1 X102.599 Y66.963 E3.62473
G1 X101.731 Y66.053 E3.66656
G1 X100.921 Y65.089 E3.70844
G1 X100.175 Y64.076 E3.75028
G1 X99.494 Y63.018 E3.79213
G1 X98.882 Y61.918 E3.834
G1 X98.341 Y60.782 E3.87585
G1 X97.873 Y59.614 E3.9177
G1 X97.48 Y58.418 E3.95957
G1 X97.165 Y57.2 E4.00141
G1 X96.927 Y55.964 E4.04328
G1 X96.768 Y54.716 E4.08512
G1 X96.681 Y53.1 E4.13895
G1 X96.671 Y52.334 E4.16443
G1 X96.694 Y51.076 E4.20627
G1 X96.798 Y49.822 E4.24813
G1 X96.981 Y48.577 E4.28998
G1 X97.242 Y47.346 E4.33183
G1 X97.582 Y46.134 E4.3737
G1 X97.997 Y44.947 E4.41552
G1 X98.176 Y44.525 E4.43077
G0 F810 X98.487 Y43.788
G0 F2400 X98.888 Y43.875
G1 F6000 E4.45738
G1 F900 X99.45 Y42.763 E4.49882
G1 X100.083 Y41.69 E4.54025
G1 X100.783 Y40.66 E4.58167
G1 X101.548 Y39.677 E4.6231
G1 X102.635 Y38.475 E4.677
G1 X102.752 Y38.356 E4.68255
G1 X103.654 Y37.496 E4.72401
G1 X104.608 Y36.696 E4.76542
G1 X105.612 Y35.959 E4.80684
G1 X106.662 Y35.288 E4.84829
G1 X107.752 Y34.685 E4.88972
G1 X108.879 Y34.154 E4.93115
G1 X110.037 Y33.696 E4.97257
G1 X111.222 Y33.313 E5.01399
G1 X112.43 Y33.007 E5.05544
G1 X113.655 Y32.78 E5.09688
G1 X114.891 Y32.631 E5.13828
G1 X116.586 Y32.557 E5.19471
G1 X117.448 Y32.557 E5.22338
G1 X118.439 Y32.589 E5.25636
G1 X119.252 Y32.557 E5.28342
G1 X120.31 Y32.557 E5.31861
G1 X121.555 Y32.597 E5.36004
G1 X122.795 Y32.717 E5.40148
G1 X124.024 Y32.916 E5.44289
G1 X125.239 Y33.194 E5.48434
G1 X126.433 Y33.549 E5.52577
G1 X127.601 Y33.979 E5.56717
G1 X128.74 Y34.484 E5.60861
G1 X129.844 Y35.061 E5.65004
G1 X130.909 Y35.708 E5.69149
G1 X131.93 Y36.422 E5.73293
G1 X132.903 Y37.199 E5.77434
G1 X134.086 Y38.298 E5.82805
G1 X134.203 Y38.416 E5.83357
G1 X135.051 Y39.328 E5.87499
G1 X135.839 Y40.293 E5.91643
G1 X136.564 Y41.306 E5.95786
G1 X137.221 Y42.364 E5.99929
G1 X137.81 Y43.462 E6.04073
G1 X138.327 Y44.595 E6.08215
G1 X138.77 Y45.759 E6.12357
G1 X139.138 Y46.949 E6.165
G1 X139.428 Y48.161 E6.20645
G1 X139.64 Y49.388 E6.24787
G1 X139.773 Y50.626 E6.28928
G1 X139.827 Y52.151 E6.34003
G1 X139.824 Y52.917 E6.36551
G1 X139.779 Y54.162 E6.40695
G1 X139.654 Y55.401 E6.44836
G1 X139.45 Y56.63 E6.4898
G1 X139.168 Y57.843 E6.53122
G1 X138.808 Y59.036 E6.57267
G1 X138.373 Y60.203 E6.61409
G1 X137.863 Y61.34 E6.65554
G1 X137.282 Y62.441 E6.69694
G1 X136.631 Y63.503 E6.73837
G1 X135.914 Y64.521 E6.77979
G1 X135.132 Y65.491 E6.82123
G1 X134.083 Y66.618 E6.87244
G1 X133.966 Y66.734 E6.87792
G1 X133.054 Y67.582 E6.91934
G1 X132.089 Y68.37 E6.96077
G1 X131.075 Y69.094 E7.00222
G1 X130.018 Y69.752 E7.04363
G1 X128.92 Y70.34 E7.08505
G1 X127.786 Y70.857 E7.1265
G1 X126.622 Y71.3 E7.16793
G1 X125.432 Y71.668 E7.20936
G1 X124.221 Y71.958 E7.25077
G1 X122.993 Y72.17 E7.29222
G1 X121.755 Y72.303 E7.33363
G1 X120.307 Y72.357 E7.38183
G1 X119.252 Y72.357 E7.41692
G1 X118.26 Y72.325 E7.44993
G1 X117.447 Y72.357 E7.47699
G1 X116.596 Y72.357 E7.5053
G1 X115.351 Y72.317 E7.54673
G1 X114.111 Y72.197 E7.58816
G1 X112.882 Y71.998 E7.62957
G1 X111.667 Y71.72 E7.67103
G1 X110.473 Y71.365 E7.71246
G1 X109.305 Y70.935 E7.75385
G1 X108.166 Y70.43 E7.79529
G1 X107.062 Y69.853 E7.83672
G1 X105.997 Y69.206 E7.87817
G1 X104.976 Y68.492 E7.91961
G1 X104.003 Y67.715 E7.96102
G1 X102.997 Y66.793 E8.00641
G1 X102.88 Y66.678 E8.01187
G1 X102.02 Y65.776 E8.05332
G1 X101.22 Y64.822 E8.09473
G1 X100.482 Y63.818 E8.13617
G1 X99.811 Y62.769 E8.17759
G1 X99.208 Y61.679 E8.21902
G1 X98.677 Y60.552 E8.26046
G1 X98.219 Y59.394 E8.30188
G1 X97.836 Y58.208 E8.34333
G1 X97.53 Y57.001 E8.38474
G1 X97.302 Y55.776 E8.42619
G1 X97.153 Y54.539 E8.46763
G1 X97.081 Y53.095 E8.51571
G1 X97.071 Y52.329 E8.54119
G1 X97.094 Y51.084 E8.58261
G1 X97.198 Y49.843 E8.62403
G1 X97.381 Y48.61 E8.66549
G1 X97.643 Y47.393 E8.70689
G1 X97.982 Y46.194 E8.74834
G1 X98.398 Y45.02 E8.78976
G1 X98.574 Y44.61 E8.8046
G0 F810 X98.888 Y43.875
G0 F2400 X99.288 Y43.963
G1 F6000 E8.83121
G1 F900 X99.851 Y42.866 E8.87222
G1 X100.483 Y41.808 E8.91321
G1 X101.182 Y40.792 E8.95423
G1 X101.946 Y39.825 E8.99522
G1 X102.921 Y38.755 E9.04337
G1 X103.038 Y38.636 E9.04892
G1 X103.93 Y37.786 E9.0899
G1 X104.875 Y36.995 E9.13089
G1 X105.87 Y36.267 E9.17189
G1 X106.91 Y35.605 E9.21289
G1 X107.991 Y35.012 E9.2539
G1 X109.108 Y34.49 E9.29491
G1 X110.256 Y34.042 E9.3359
G1 X111.431 Y33.67 E9.37689
G1 X112.628 Y33.374 E9.4179
G1 X113.841 Y33.156 E9.45889
G1 X115.066 Y33.018 E9.4999
G1 X116.586 Y32.957 E9.55049
G1 X117.448 Y32.957 E9.57916
G1 X118.397 Y32.988 E9.61074
G1 X119.252 Y32.957 E9.6392
G1 X120.31 Y32.957 E9.67439
G1 X121.542 Y32.997 E9.71539
G1 X122.769 Y33.117 E9.75639
G1 X123.985 Y33.316 E9.79737
G1 X125.187 Y33.593 E9.8384
G1 X126.367 Y33.948 E9.87938
G1 X127.522 Y34.379 E9.92039
G1 X128.647 Y34.884 E9.9614
G1 X129.736 Y35.46 E10.00238
G1 X130.786 Y36.106 E10.04338
G1 X131.792 Y36.819 E10.08439
G1 X132.75 Y37.595 E10.1254
G1 X133.802 Y38.579 E10.17331
G1 X133.919 Y38.697 E10.17883
G1 X134.758 Y39.6 E10.21983
G1 X135.537 Y40.556 E10.26085
G1 X136.252 Y41.56 E10.30184
G1 X136.901 Y42.608 E10.34284
G1 X137.48 Y43.696 E10.38383
G1 X137.987 Y44.82 E10.42484
G1 X138.421 Y45.974 E10.46585
G1 X138.779 Y47.154 E10.50687
G1 X139.059 Y48.354 E10.54785
G1 X139.261 Y49.57 E10.58885
G1 X139.384 Y50.797 E10.62986
G1 X139.427 Y52.149 E10.67485
G1 X139.424 Y52.915 E10.70033
G1 X139.379 Y54.147 E10.74133
G1 X139.254 Y55.374 E10.78236
G1 X139.051 Y56.589 E10.82333
G1 X138.768 Y57.789 E10.86433
G1 X138.409 Y58.969 E10.90536
G1 X137.974 Y60.122 E10.94634
G1 X137.465 Y61.245 E10.98735
G1 X136.884 Y62.332 E11.02835
G1 X136.234 Y63.379 E11.06934
G1 X135.517 Y64.382 E11.11034
G1 X134.737 Y65.337 E11.15135
G1 X133.801 Y66.334 E11.19684
G1 X133.684 Y66.45 E11.20232
G1 X132.781 Y67.289 E11.24331
G1 X131.826 Y68.067 E11.28428
G1 X130.821 Y68.782 E11.32531
G1 X129.773 Y69.431 E11.36631
G1 X128.685 Y70.01 E11.4073
G1 X127.561 Y70.518 E11.44832
G1 X126.407 Y70.951 E11.48932
G1 X125.228 Y71.309 E11.5303
G1 X124.027 Y71.589 E11.57132
G1 X122.811 Y71.791 E11.61232
G1 X121.585 Y71.914 E11.6533
G1 X120.307 Y71.957 E11.69583
G1 X119.252 Y71.957 E11.73092
G1 X118.302 Y71.926 E11.76253
G1 X117.447 Y71.957 E11.79099
G1 X116.596 Y71.957 E11.81929
G1 X115.364 Y71.917 E11.86029
G1 X114.137 Y71.797 E11.90129
G1 X112.921 Y71.598 E11.94228
G1 X111.719 Y71.321 E11.9833
G1 X110.539 Y70.966 E12.02429
G1 X109.384 Y70.535 E12.06529
G1 X108.259 Y70.03 E12.10631
G1 X107.17 Y69.454 E12.14728
G1 X106.12 Y68.808 E12.18828
G1 X105.114 Y68.095 E12.2293
G1 X104.156 Y67.319 E12.2703
G1 X103.277 Y66.507 E12.3101
G1 X103.16 Y66.392 E12.31556
G1 X102.31 Y65.5 E12.35654
G1 X101.519 Y64.555 E12.39753
G1 X100.791 Y63.56 E12.43853
G1 X100.129 Y62.52 E12.47954
G1 X99.535 Y61.439 E12.52056
G1 X99.014 Y60.323 E12.56153
G1 X98.565 Y59.174 E12.60256
G1 X98.192 Y57.999 E12.64356
G1 X97.896 Y56.803 E12.68454
G1 X97.679 Y55.589 E12.72556
G1 X97.54 Y54.364 E12.76656
G1 X97.481 Y53.09 E12.80898
G1 X97.471 Y52.324 E12.83446
G1 X97.495 Y51.092 E12.87544
G1 X97.598 Y49.863 E12.91646
G1 X97.782 Y48.644 E12.95747
G1 X98.043 Y47.44 E12.99844
G1 X98.383 Y46.255 E13.03945
G1 X98.798 Y45.094 E13.08045
G1 X98.97 Y44.697 E13.09484
G0 F810 X99.288 Y43.963
G0 F2400 X99.689 Y44.052
G1 F6000 E13.12145
G1 F900 X100.251 Y42.969 E13.16203
G1 X100.882 Y41.926 E13.20258
G1 X101.581 Y40.926 E13.24316
G1 X102.344 Y39.975 E13.28371
G1 X103.206 Y39.036 E13.32611
G1 X103.323 Y38.917 E13.33166
G1 X104.206 Y38.076 E13.37221
G1 X105.142 Y37.294 E13.41278
G1 X106.128 Y36.576 E13.45335
G1 X107.159 Y35.923 E13.49394
G1 X108.23 Y35.34 E13.5345
G1 X109.337 Y34.828 E13.57506
G1 X110.475 Y34.39 E13.61562
G1 X111.639 Y34.027 E13.65617
G1 X112.825 Y33.741 E13.69675
G1 X114.027 Y33.534 E13.73732
G1 X115.24 Y33.406 E13.77789
G1 X116.586 Y33.357 E13.82268
G1 X117.448 Y33.357 E13.85135
G1 X118.338 Y33.386 E13.88097
G1 X119.252 Y33.357 E13.91139
G1 X120.31 Y33.357 E13.94658
G1 X121.529 Y33.397 E13.98714
G1 X122.743 Y33.517 E14.02772
G1 X123.946 Y33.716 E14.06827
G1 X125.134 Y33.993 E14.10885
G1 X126.301 Y34.348 E14.14942
G1 X127.442 Y34.779 E14.18998
G1 X128.552 Y35.283 E14.23053
G1 X129.627 Y35.859 E14.27109
G1 X130.662 Y36.504 E14.31165
G1 X131.653 Y37.216 E14.35224
G1 X132.595 Y37.991 E14.39281
G1 X133.518 Y38.861 E14.435
G1 X133.635 Y38.979 E14.44053
G1 X134.465 Y39.873 E14.4811
G1 X135.234 Y40.819 E14.52165
G1 X135.94 Y41.814 E14.56223
G1 X136.58 Y42.852 E14.60279
G1 X137.149 Y43.931 E14.64336
G1 X137.647 Y45.044 E14.68391
G1 X138.071 Y46.188 E14.72449
G1 X138.419 Y47.357 E14.76506
G1 X138.689 Y48.546 E14.80561
G1 X138.881 Y49.751 E14.8462
G1 X138.994 Y50.965 E14.88675
G1 X139.027 Y52.148 E14.92611
G1 X139.024 Y52.914 E14.95159
G1 X138.979 Y54.133 E14.99216
G1 X138.855 Y55.346 E15.03271
G1 X138.651 Y56.549 E15.0733
G1 X138.369 Y57.735 E15.11384
G1 X138.009 Y58.901 E15.15443
G1 X137.574 Y60.04 E15.19498
G1 X137.066 Y61.149 E15.23556
G1 X136.485 Y62.221 E15.27611
G1 X135.836 Y63.254 E15.31669
G1 X135.12 Y64.242 E15.35727
G1 X134.342 Y65.18 E15.3978
G1 X133.52 Y66.05 E15.43761
G1 X133.403 Y66.166 E15.44309
G1 X132.509 Y66.995 E15.48364
G1 X131.563 Y67.765 E15.52421
G1 X130.568 Y68.471 E15.56479
G1 X129.529 Y69.11 E15.60536
G1 X128.451 Y69.68 E15.64592
G1 X127.337 Y70.177 E15.68649
G1 X126.193 Y70.601 E15.72707
G1 X125.024 Y70.949 E15.76764
G1 X123.835 Y71.219 E15.80819
G1 X122.631 Y71.411 E15.84874
G1 X121.416 Y71.524 E15.88932
G1 X120.307 Y71.557 E15.92623
G1 X119.252 Y71.557 E15.96132
G1 X118.361 Y71.528 E15.99097
G1 X117.447 Y71.557 E16.02138
G1 X116.596 Y71.557 E16.04969
G1 X115.377 Y71.517 E16.09025
G1 X114.163 Y71.397 E16.13083
G1 X112.96 Y71.198 E16.17138
G1 X111.772 Y70.921 E16.21196
G1 X110.605 Y70.566 E16.25253
G1 X109.464 Y70.135 E16.29309
G1 X108.354 Y69.631 E16.33364
G1 X107.279 Y69.055 E16.3742
G1 X106.244 Y68.41 E16.41476
G1 X105.253 Y67.698 E16.45535
G1 X104.311 Y66.923 E16.49592
G1 X103.558 Y66.222 E16.53014
G1 X103.441 Y66.107 E16.5356
G1 X102.599 Y65.224 E16.57618
G1 X101.818 Y64.288 E16.61672
G1 X101.099 Y63.302 E16.65731
G1 X100.447 Y62.272 E16.69785
G1 X99.863 Y61.201 E16.73843
G1 X99.351 Y60.094 E16.77899
G1 X98.912 Y58.956 E16.81956
G1 X98.55 Y57.791 E16.86014
G1 X98.264 Y56.606 E16.90068
G1 X98.056 Y55.404 E16.94126
G1 X97.928 Y54.191 E16.98183
G1 X97.881 Y53.085 E17.01864
G1 X97.871 Y52.319 E17.04412
G1 X97.895 Y51.099 E17.08471
G1 X97.999 Y49.884 E17.12527
G1 X98.182 Y48.678 E17.16584
G1 X98.444 Y47.487 E17.2064
G1 X98.783 Y46.316 E17.24695
G1 X99.199 Y45.169 E17.28753
G1 X99.368 Y44.785 E17.30148
G0 F810 X99.689 Y44.052
G0 F2400 X100.089 Y44.142
G1 F6000 E17.32809
G1 F900 X100.651 Y43.074 E17.36823
G1 X101.282 Y42.046 E17.40835
G1 X101.98 Y41.062 E17.44847
G1 X102.741 Y40.126 E17.4886
G1 X103.491 Y39.316 E17.52531
G1 X103.608 Y39.197 E17.53086
G1 X104.482 Y38.365 E17.571
G1 X105.409 Y37.593 E17.61112
G1 X106.385 Y36.884 E17.65124
G1 X107.406 Y36.242 E17.69136
G1 X108.468 Y35.668 E17.73151
G1 X109.565 Y35.166 E17.77163
G1 X110.693 Y34.738 E17.81176
G1 X111.846 Y34.385 E17.85187
G1 X113.021 Y34.11 E17.892
G1 X114.211 Y33.913 E17.93212
G1 X115.412 Y33.795 E17.97226
G1 X116.586 Y33.757 E18.01133
G1 X117.448 Y33.757 E18.04
G1 X118.281 Y33.785 E18.06772
G1 X119.252 Y33.757 E18.10003
G1 X120.31 Y33.757 E18.13522
G1 X121.516 Y33.797 E18.17535
G1 X122.716 Y33.917 E18.21546
G1 X123.906 Y34.116 E18.25559
G1 X125.08 Y34.393 E18.29571
G1 X126.234 Y34.748 E18.33587
G1 X127.361 Y35.178 E18.37599
G1 X128.457 Y35.682 E18.41611
G1 X129.517 Y36.258 E18.45624
G1 X130.537 Y36.902 E18.49636
G1 X131.512 Y37.613 E18.53649
G1 X132.438 Y38.387 E18.57663
G1 X133.234 Y39.143 E18.61315
G1 X133.351 Y39.261 E18.61867
G1 X134.172 Y40.145 E18.6588
G1 X134.932 Y41.082 E18.69893
G1 X135.628 Y42.067 E18.73904
G1 X136.258 Y43.096 E18.77917
G1 X136.818 Y44.165 E18.81931
G1 X137.306 Y45.268 E18.85943
G1 X137.72 Y46.401 E18.89955
G1 X138.058 Y47.559 E18.93967
G1 X138.318 Y48.738 E18.97982
G1 X138.5 Y49.93 E19.01993
G1 X138.603 Y51.132 E19.06006
G1 X138.627 Y52.146 E19.09379
G1 X138.624 Y52.912 E19.11927
G1 X138.579 Y54.118 E19.15941
G1 X138.455 Y55.318 E19.19953
G1 X138.251 Y56.507 E19.23966
G1 X137.969 Y57.68 E19.27978
G1 X137.61 Y58.832 E19.31992
G1 X137.175 Y59.957 E19.36003
G1 X136.667 Y61.052 E19.40018
G1 X136.087 Y62.11 E19.44031
G1 X135.439 Y63.127 E19.48042
G1 X134.724 Y64.099 E19.52055
G1 X133.947 Y65.022 E19.56068
G1 X133.238 Y65.765 E19.59484
G1 X133.121 Y65.881 E19.60032
G1 X132.237 Y66.702 E19.64045
G1 X131.3 Y67.462 E19.68057
G1 X130.314 Y68.159 E19.72073
G1 X129.285 Y68.788 E19.76085
G1 X128.217 Y69.348 E19.80096
G1 X127.113 Y69.836 E19.8411
G1 X125.98 Y70.25 E19.88122
G1 X124.822 Y70.588 E19.92134
G1 X123.644 Y70.848 E19.96147
G1 X122.451 Y71.03 E20.00161
G1 X121.249 Y71.133 E20.04173
G1 X120.307 Y71.157 E20.07307
G1 X119.252 Y71.157 E20.10816
G1 X118.419 Y71.129 E20.13588
