;FLAVOR:Marlin
;TIME:2068
;Filament used: 0.781236m
;Layer height: 0.2
;Generated with Cura_SteamEngine 3.6.0
M140 S70
M105
M190 S70
M104 S215
M105
M109 S215
M82 ;absolute extrusion mode
G28 ; home all axes
M117 Purge extruder
G92 E0 ; reset extruder
G1 Z1.0 F3000 ; move z up little to prevent scratching of surface
G1 X0.1 Y20 Z0.3 F5000.0 ; move to start-line position G1 X0.1 Y200.0 Z0.3 F1500.0 E15 ; draw 1st line
G1 X0.4 Y200.0 Z0.3 F5000.0 ; move to side a little
G1 X0.4 Y20 Z0.3 F1500.0 E30 ; draw 2nd line
G92 E0 ; reset extruder
G1 Z1.0 F3000 ; move z up little to prevent scratching of surface
M117 All systems go!
G92 E0
G1 F6000 E-5
;LAYER_COUNT:159
;LAYER:0
M107
M204 S5000
M205 X30 Y30
G0 F7200 X84.864 Y32.524 Z0.2
M204 S500
M205 X20 Y20
;TYPE:SKIRT
G1 F6000 E0
G1 F900 X85.212 Y31.71 E0.02944
G1 X85.632 Y30.93 E0.05891
G1 X86.121 Y30.192 E0.08835
G1 X86.674 Y29.501 E0.11779
G1 X87.081 Y29.065 E0.13763
G1 X87.198 Y28.947 E0.14316
G1 X87.849 Y28.347 E0.1726
G1 X88.551 Y27.808 E0.20204
G1 X89.3 Y27.335 E0.2315
G1 X90.088 Y26.932 E0.26094
G1 X90.909 Y26.601 E0.29038
G1 X91.756 Y26.346 E0.3198
G1 X92.623 Y26.168 E0.34924
G1 X93.503 Y26.069 E0.37869
G1 X94.157 Y26.047 E0.40046
G1 X155.837 Y26.047 E2.45194
G1 X156.721 Y26.087 E2.48138
G1 X157.598 Y26.207 E2.51082
G1 X158.461 Y26.405 E2.54027
G1 X159.302 Y26.68 E2.56969
G1 X160.115 Y27.03 E2.59913
G1 X160.894 Y27.452 E2.6286
G1 X161.63 Y27.943 E2.65803
G1 X162.32 Y28.498 E2.68748
G1 X162.767 Y28.917 E2.70786
G1 X162.884 Y29.034 E2.71336
G1 X163.481 Y29.688 E2.74281
G1 X164.016 Y30.393 E2.77225
G1 X164.486 Y31.143 E2.80169
G1 X164.886 Y31.933 E2.83114
G1 X165.214 Y32.755 E2.86058
G1 X165.465 Y33.604 E2.89002
G1 X165.64 Y34.472 E2.91947
G1 X165.735 Y35.352 E2.94891
G1 X165.754 Y35.939 E2.96845
G1 X165.755 Y36.324 E2.98125
G1 X165.717 Y37.208 E3.01068
G1 X165.6 Y38.085 E3.04011
G1 X165.404 Y38.949 E3.06957
G1 X165.131 Y39.791 E3.09901
G1 X164.783 Y40.605 E3.12846
G1 X164.363 Y41.384 E3.15789
G1 X163.874 Y42.122 E3.18734
G1 X163.321 Y42.813 E3.21678
G1 X162.914 Y43.249 E3.23661
G1 X162.797 Y43.367 E3.24214
G1 X162.146 Y43.967 E3.27159
G1 X161.444 Y44.506 E3.30102
G1 X160.695 Y44.979 E3.33049
G1 X159.907 Y45.382 E3.35992
G1 X159.086 Y45.713 E3.38937
G1 X158.239 Y45.968 E3.41879
G1 X157.372 Y46.146 E3.44823
G1 X156.492 Y46.245 E3.47768
G1 X155.838 Y46.267 E3.49944
G1 X94.158 Y46.265 E5.55093
G1 X93.273 Y46.225 E5.58039
G1 X92.396 Y46.105 E5.60983
G1 X91.534 Y45.907 E5.63925
G1 X90.692 Y45.632 E5.66871
G1 X89.879 Y45.282 E5.69815
G1 X89.101 Y44.86 E5.72759
G1 X88.364 Y44.369 E5.75704
G1 X87.675 Y43.814 E5.78647
G1 X87.228 Y43.395 E5.80685
G1 X87.111 Y43.278 E5.81235
G1 X86.514 Y42.624 E5.8418
G1 X85.979 Y41.919 E5.87124
G1 X85.509 Y41.169 E5.90068
G1 X85.109 Y40.379 E5.93013
G1 X84.781 Y39.557 E5.95957
G1 X84.53 Y38.708 E5.98901
G1 X84.355 Y37.84 E6.01846
G1 X84.26 Y36.96 E6.0479
G1 X84.241 Y36.374 E6.0674
G1 X84.24 Y35.991 E6.08014
G1 X84.278 Y35.106 E6.1096
G1 X84.395 Y34.229 E6.13903
G1 X84.591 Y33.366 E6.16847
G1 X84.618 Y33.285 E6.17131
G0 F810 X84.864 Y32.524
M204 S5000
M205 X30 Y30
G0 F7200 X85.264 Y32.597
M204 S500
M205 X20 Y20
G1 F6000 E6.19791
G1 F900 X85.612 Y31.803 E6.22675
G1 X86.031 Y31.044 E6.25558
G1 X86.518 Y30.327 E6.28441
G1 X87.365 Y29.347 E6.32749
G1 X87.482 Y29.229 E6.33302
G1 X88.12 Y28.642 E6.36185
G1 X88.81 Y28.116 E6.39071
G1 X89.545 Y27.656 E6.41955
G1 X90.319 Y27.266 E6.44838
G1 X91.126 Y26.949 E6.47722
G1 X91.958 Y26.708 E6.50603
G1 X92.81 Y26.544 E6.53488
G1 X93.673 Y26.459 E6.56373
G1 X94.157 Y26.447 E6.57983
G1 X155.837 Y26.447 E8.63131
G1 X156.703 Y26.487 E8.66015
G1 X157.562 Y26.607 E8.689
G1 X158.406 Y26.805 E8.71783
G1 X159.228 Y27.08 E8.74666
G1 X160.021 Y27.43 E8.77549
G1 X160.779 Y27.851 E8.80433
G1 X161.494 Y28.34 E8.83314
G1 X162.162 Y28.893 E8.86198
G1 X162.484 Y29.2 E8.87678
G1 X162.601 Y29.317 E8.88228
G1 X163.185 Y29.958 E8.91112
G1 X163.708 Y30.65 E8.93997
G1 X164.164 Y31.387 E8.9688
G1 X164.551 Y32.162 E8.99761
G1 X164.865 Y32.971 E9.02647
G1 X165.103 Y33.804 E9.05529
G1 X165.263 Y34.656 E9.08412
G1 X165.354 Y35.94 E9.12693
G1 X165.355 Y36.325 E9.13974
G1 X165.317 Y37.191 E9.16857
G1 X165.2 Y38.05 E9.1974
G1 X165.004 Y38.894 E9.22622
G1 X164.731 Y39.717 E9.25506
G1 X164.383 Y40.511 E9.2839
G1 X163.964 Y41.27 E9.31273
G1 X163.477 Y41.987 E9.34156
G1 X162.63 Y42.967 E9.38464
G1 X162.513 Y43.085 E9.39017
G1 X161.875 Y43.672 E9.419
G1 X161.185 Y44.198 E9.44786
G1 X160.45 Y44.658 E9.4767
G1 X159.676 Y45.048 E9.50553
G1 X158.869 Y45.365 E9.53436
G1 X158.037 Y45.606 E9.56317
G1 X157.185 Y45.77 E9.59203
G1 X156.322 Y45.855 E9.62087
G1 X155.838 Y45.867 E9.63698
G1 X94.158 Y45.865 E11.68846
G1 X93.292 Y45.825 E11.7173
G1 X92.433 Y45.705 E11.74614
G1 X91.589 Y45.507 E11.77498
G1 X90.767 Y45.232 E11.80381
G1 X89.974 Y44.882 E11.83264
G1 X89.216 Y44.461 E11.86148
G1 X88.5 Y43.972 E11.89031
G1 X87.833 Y43.418 E11.91915
G1 X87.511 Y43.112 E11.93393
G1 X87.394 Y42.995 E11.93943
G1 X86.81 Y42.354 E11.96827
G1 X86.287 Y41.662 E11.99712
G1 X85.831 Y40.925 E12.02595
G1 X85.444 Y40.15 E12.05476
G1 X85.13 Y39.341 E12.08362
G1 X84.892 Y38.508 E12.11244
G1 X84.732 Y37.656 E12.14127
G1 X84.641 Y36.373 E12.18405
G1 X84.64 Y35.99 E12.19679
G1 X84.678 Y35.123 E12.22565
G1 X84.795 Y34.264 E12.25449
G1 X84.991 Y33.42 E12.28331
G1 X85.013 Y33.356 E12.28556
G0 F810 X85.264 Y32.597
M204 S5000
M205 X30 Y30
G0 F7200 X85.664 Y32.672
M204 S500
M205 X20 Y20
G1 F6000 E12.31216
G1 F900 X86.011 Y31.898 E12.34038
G1 X86.43 Y31.161 E12.36857
G1 X86.916 Y30.465 E12.39681
G1 X87.649 Y29.628 E12.43381
G1 X87.766 Y29.51 E12.43934
G1 X88.391 Y28.937 E12.46754
G1 X89.067 Y28.424 E12.49577
G1 X89.789 Y27.978 E12.52399
G1 X90.549 Y27.602 E12.55219
G1 X91.341 Y27.299 E12.5804
G1 X92.159 Y27.072 E12.60863
G1 X92.994 Y26.923 E12.63684
G1 X94.157 Y26.847 E12.67561
G1 X155.837 Y26.847 E14.72709
G1 X156.684 Y26.887 E14.7553
G1 X157.524 Y27.007 E14.78352
G1 X158.349 Y27.205 E14.81174
G1 X159.152 Y27.48 E14.83997
G1 X159.925 Y27.829 E14.86818
G1 X160.661 Y28.249 E14.89636
G1 X161.355 Y28.737 E14.92458
G1 X162.201 Y29.483 E14.9621
G1 X162.318 Y29.6 E14.9676
G1 X162.889 Y30.227 E14.9958
G1 X163.398 Y30.906 E15.02403
G1 X163.841 Y31.629 E15.05223
G1 X164.214 Y32.391 E15.08045
G1 X164.514 Y33.185 E15.10868
G1 X164.738 Y34.003 E15.13689
G1 X164.883 Y34.839 E15.16511
G1 X164.954 Y35.941 E15.20184
G1 X164.955 Y36.326 E15.21464
G1 X164.917 Y37.173 E15.24284
G1 X164.8 Y38.013 E15.27105
G1 X164.604 Y38.839 E15.29929
G1 X164.331 Y39.642 E15.3275
G1 X163.984 Y40.416 E15.35571
G1 X163.565 Y41.154 E15.38393
G1 X163.079 Y41.849 E15.41214
G1 X162.346 Y42.686 E15.44915
G1 X162.229 Y42.804 E15.45467
G1 X161.604 Y43.377 E15.48287
G1 X160.928 Y43.89 E15.5111
G1 X160.206 Y44.336 E15.53932
G1 X159.446 Y44.712 E15.56753
G1 X158.654 Y45.015 E15.59573
G1 X157.836 Y45.242 E15.62397
G1 X157.001 Y45.391 E15.65218
G1 X155.838 Y45.467 E15.69094
G1 X94.158 Y45.465 E17.74243
G1 X93.31 Y45.425 E17.77066
G1 X92.471 Y45.305 E17.79885
G1 X91.646 Y45.107 E17.82707
G1 X90.843 Y44.832 E17.8553
G1 X90.07 Y44.483 E17.88351
G1 X89.333 Y44.063 E17.91172
G1 X88.64 Y43.575 E17.93991
G1 X87.794 Y42.829 E17.97743
G1 X87.677 Y42.712 E17.98293
G1 X87.106 Y42.085 E18.01114
G1 X86.597 Y41.406 E18.03936
G1 X86.154 Y40.683 E18.06757
G1 X85.781 Y39.921 E18.09578
G1 X85.481 Y39.127 E18.12401
G1 X85.257 Y38.309 E18.15222
G1 X85.112 Y37.473 E18.18044
G1 X85.041 Y36.371 E18.21717
G1 X85.04 Y35.988 E18.22991
G1 X85.078 Y35.141 E18.25811
G1 X85.195 Y34.301 E18.28632
G1 X85.391 Y33.476 E18.31452
G1 X85.407 Y33.429 E18.31617
G0 F810 X85.664 Y32.672
M204 S5000
M205 X30 Y30
G0 F7200 X86.064 Y32.749
M204 S500
M205 X20 Y20
G1 F6000 E18.34278
G1 F900 X86.411 Y31.996 E18.37036
G1 X86.828 Y31.28 E18.39792
G1 X87.313 Y30.607 E18.42551
G1 X87.933 Y29.91 E18.45653
G1 X88.05 Y29.792 E18.46206
G1 X88.662 Y29.232 E18.48965
G1 X89.324 Y28.733 E18.51722
G1 X90.032 Y28.301 E18.54481
G1 X90.778 Y27.939 E18.57239
G1 X91.555 Y27.65 E18.59996
G1 X92.357 Y27.438 E18.62755
G1 X93.175 Y27.303 E18.65513
G1 X94.157 Y27.247 E18.68784
G1 X155.837 Y27.247 E20.73933
G1 X156.665 Y27.287 E20.7669
G1 X157.486 Y27.407 E20.79449
G1 X158.291 Y27.605 E20.82207
G1 X159.073 Y27.879 E20.84963
G1 X159.826 Y28.228 E20.87723
G1 X160.541 Y28.648 E20.90481
G1 X161.212 Y29.134 E20.93237
G1 X161.918 Y29.766 E20.96388
G1 X162.035 Y29.883 E20.96939
G1 X162.593 Y30.497 E20.99698
G1 X163.088 Y31.162 E21.02455
G1 X163.518 Y31.871 E21.05213
G1 X163.877 Y32.618 E21.0797
G1 X164.162 Y33.397 E21.10729
G1 X164.371 Y34.199 E21.13485
G1 X164.502 Y35.018 E21.16244
G1 X164.554 Y35.942 E21.19322
G1 X164.555 Y36.327 E21.20603
G1 X164.517 Y37.155 E21.2336
G1 X164.4 Y37.976 E21.26118
G1 X164.204 Y38.782 E21.28877
G1 X163.931 Y39.565 E21.31635
G1 X163.584 Y40.318 E21.34392
G1 X163.167 Y41.034 E21.37148
G1 X162.682 Y41.707 E21.39907
G1 X162.062 Y42.404 E21.4301
G1 X161.945 Y42.522 E21.43563
G1 X161.333 Y43.082 E21.46322
G1 X160.671 Y43.581 E21.49079
G1 X159.963 Y44.013 E21.51838
G1 X159.217 Y44.375 E21.54595
G1 X158.44 Y44.664 E21.57353
G1 X157.638 Y44.876 E21.60112
G1 X156.82 Y45.011 E21.62869
G1 X155.838 Y45.067 E21.66141
G1 X94.158 Y45.065 E23.71289
G1 X93.329 Y45.025 E23.7405
G1 X92.509 Y44.905 E23.76806
G1 X91.704 Y44.707 E23.79563
G1 X90.921 Y44.433 E23.82322
G1 X90.169 Y44.084 E23.8508
G1 X89.454 Y43.664 E23.87838
G1 X88.782 Y43.178 E23.90596
G1 X88.077 Y42.546 E23.93745
G1 X87.96 Y42.429 E23.94296
G1 X87.402 Y41.815 E23.97055
G1 X86.907 Y41.15 E23.99812
G1 X86.477 Y40.441 E24.0257
G1 X86.118 Y39.694 E24.05327
G1 X85.833 Y38.915 E24.08086
G1 X85.624 Y38.113 E24.10842
G1 X85.493 Y37.294 E24.13601
G1 X85.441 Y36.37 E24.16679
G1 X85.44 Y35.987 E24.17953
G1 X85.478 Y35.159 E24.2071
G1 X85.595 Y34.338 E24.23468
G1 X85.791 Y33.533 E24.26224
G1 X85.801 Y33.504 E24.26326
G0 F810 X86.064 Y32.749
M204 S5000
M205 X30 Y30
G0 F7200 X86.464 Y32.828
M204 S500
M205 X20 Y20
G1 F6000 E24.28987
G1 F900 X86.81 Y32.096 E24.3168
G1 X87.227 Y31.402 E24.34372
G1 X87.71 Y30.753 E24.37063
G1 X88.217 Y30.191 E24.39581
G1 X88.334 Y30.073 E24.40133
G1 X88.932 Y29.527 E24.42827
G1 X89.581 Y29.043 E24.45519
G1 X90.274 Y28.625 E24.48211
G1 X91.005 Y28.277 E24.50904
G1 X91.767 Y28.003 E24.53597
G1 X92.552 Y27.806 E24.56289
G1 X93.353 Y27.686 E24.58983
G1 X94.157 Y27.647 E24.6166
G1 X155.837 Y27.647 E26.66809
G1 X156.646 Y27.687 E26.69503
G1 X157.447 Y27.807 E26.72197
G1 X158.232 Y28.004 E26.74889
G1 X158.993 Y28.279 E26.7758
G1 X159.724 Y28.627 E26.80273
G1 X160.418 Y29.046 E26.82969
G1 X161.066 Y29.531 E26.85661
G1 X161.635 Y30.049 E26.8822
G1 X161.752 Y30.166 E26.88771
G1 X162.296 Y30.766 E26.91464
G1 X162.778 Y31.417 E26.94158
G1 X163.193 Y32.112 E26.96851
G1 X163.537 Y32.844 E26.99541
G1 X163.808 Y33.608 E27.02237
G1 X164.002 Y34.394 E27.0493
G1 X164.118 Y35.195 E27.07622
G1 X164.154 Y35.943 E27.10112
G1 X164.155 Y36.328 E27.11393
G1 X164.117 Y37.137 E27.14087
G1 X164 Y37.938 E27.16779
G1 X163.804 Y38.723 E27.1947
G1 X163.531 Y39.486 E27.22165
G1 X163.185 Y40.218 E27.24858
G1 X162.768 Y40.912 E27.27551
G1 X162.285 Y41.562 E27.30245
G1 X161.778 Y42.123 E27.3276
G1 X161.661 Y42.241 E27.33312
G1 X161.063 Y42.787 E27.36006
G1 X160.414 Y43.271 E27.38698
G1 X159.721 Y43.689 E27.4139
G1 X158.99 Y44.037 E27.44083
G1 X158.228 Y44.311 E27.46776
G1 X157.443 Y44.508 E27.49468
G1 X156.642 Y44.628 E27.52162
G1 X155.838 Y44.667 E27.54839
G1 X94.158 Y44.665 E29.59988
G1 X93.349 Y44.625 E29.62682
G1 X92.548 Y44.505 E29.65376
G1 X91.763 Y44.307 E29.68068
G1 X91.001 Y44.033 E29.70762
G1 X90.27 Y43.685 E29.73454
G1 X89.577 Y43.266 E29.76148
G1 X88.929 Y42.781 E29.7884
G1 X88.36 Y42.263 E29.81399
G1 X88.243 Y42.146 E29.8195
G1 X87.699 Y41.546 E29.84643
G1 X87.217 Y40.895 E29.87337
G1 X86.802 Y40.2 E29.9003
G1 X86.458 Y39.468 E29.9272
G1 X86.187 Y38.704 E29.95416
G1 X85.993 Y37.918 E29.98109
G1 X85.877 Y37.117 E30.00801
G1 X85.841 Y36.369 E30.03291
G1 X85.84 Y35.986 E30.04565
G1 X85.878 Y35.178 E30.07256
G1 X85.995 Y34.376 E30.09951
G1 X86.191 Y33.591 E30.12642
G1 X86.195 Y33.581 E30.12678
G0 F810 X86.464 Y32.828
M204 S5000
M205 X30 Y30
G0 F7200 X86.863 Y32.909
M204 S500
M205 X20 Y20
G1 F6000 E30.15339
G1 F900 X87.209 Y32.199 E30.17966
G1 X87.625 Y31.528 E30.20592
G1 X88.106 Y30.902 E30.23218
G1 X88.501 Y30.473 E30.25157
G1 X88.618 Y30.355 E30.2571
G1 X89.202 Y29.823 E30.28337
G1 X89.836 Y29.353 E30.30962
G1 X90.515 Y28.949 E30.3359
G1 X91.231 Y28.617 E30.36215
G1 X91.977 Y28.358 E30.38842
G1 X92.746 Y28.176 E30.4147
G1 X93.529 Y28.072 E30.44097
G1 X94.157 Y28.047 E30.46187
G1 X155.837 Y28.047 E32.51336
G1 X156.626 Y28.087 E32.53964
G1 X157.406 Y28.206 E32.56588
G1 X158.171 Y28.404 E32.59216
G1 X158.911 Y28.678 E32.61841
G1 X159.62 Y29.026 E32.64468
G1 X160.291 Y29.444 E32.67097
G1 X160.915 Y29.927 E32.69721
G1 X161.352 Y30.332 E32.71703
G1 X161.469 Y30.449 E32.72254
G1 X161.999 Y31.035 E32.74881
G1 X162.466 Y31.671 E32.77506
G1 X162.867 Y32.351 E32.80131
G1 X163.197 Y33.069 E32.8276
G1 X163.452 Y33.816 E32.85385
G1 X163.631 Y34.585 E32.88011
G1 X163.731 Y35.369 E32.9064
G1 X163.754 Y35.944 E32.92554
G1 X163.755 Y36.329 E32.93834
G1 X163.717 Y37.118 E32.96462
G1 X163.6 Y37.898 E32.99085
G1 X163.404 Y38.663 E33.01711
G1 X163.132 Y39.405 E33.0434
G1 X162.786 Y40.115 E33.06967
G1 X162.37 Y40.786 E33.09593
G1 X161.889 Y41.412 E33.12219
G1 X161.494 Y41.841 E33.14158
G1 X161.377 Y41.959 E33.14711
G1 X160.793 Y42.491 E33.17338
G1 X160.159 Y42.961 E33.19963
G1 X159.48 Y43.365 E33.22591
G1 X158.764 Y43.697 E33.25216
G1 X158.018 Y43.956 E33.27843
G1 X157.249 Y44.138 E33.30471
G1 X156.466 Y44.242 E33.33098
G1 X155.838 Y44.267 E33.35188
G1 X94.158 Y44.265 E35.40337
G1 X93.369 Y44.225 E35.42965
G1 X92.588 Y44.105 E35.45593
G1 X91.824 Y43.908 E35.48217
G1 X91.083 Y43.633 E35.50846
G1 X90.374 Y43.286 E35.53471
G1 X89.704 Y42.868 E35.56098
G1 X89.079 Y42.385 E35.58725
G1 X88.643 Y41.98 E35.60704
G1 X88.526 Y41.863 E35.61254
G1 X87.996 Y41.277 E35.63882
G1 X87.529 Y40.641 E35.66507
G1 X87.128 Y39.961 E35.69132
G1 X86.798 Y39.243 E35.71761
G1 X86.543 Y38.496 E35.74386
G1 X86.364 Y37.727 E35.77012
G1 X86.264 Y36.943 E35.79641
G1 X86.241 Y36.368 E35.81555
G1 X86.24 Y35.985 E35.82829
G1 X86.278 Y35.197 E35.85453
G1 X86.395 Y34.416 E35.88079
G1 X86.589 Y33.66 E35.90675
G0 F810 X86.591 Y33.651
G0 X86.863 Y32.909
M204 S5000
M205 X30 Y30
G0 F7200 X86.991 Y33.712
M204 S500
M205 X20 Y20
G1 F6000 E35.93336
G1 F900 X87.263 Y32.993 E35.95893
G1 X87.608 Y32.305 E35.98453
G1 X88.023 Y31.657 E36.01012
G1 X88.503 Y31.056 E36.0357
G1 X88.785 Y30.755 E36.04942
G1 X88.902 Y30.637 E36.05495
G1 X89.471 Y30.119 E36.08054
G1 X90.091 Y29.664 E36.10612
G1 X90.755 Y29.275 E36.13171
G1 X91.455 Y28.958 E36.15727
G1 X92.185 Y28.715 E36.18286
G1 X92.936 Y28.548 E36.20845
G1 X93.7 Y28.461 E36.23403
G1 X94.157 Y28.447 E36.24923
G1 X155.837 Y28.447 E38.30072
G1 X156.605 Y28.487 E38.3263
G1 X157.365 Y28.606 E38.35188
G1 X158.108 Y28.804 E38.37746
G1 X158.827 Y29.078 E38.40305
G1 X159.513 Y29.425 E38.42862
G1 X160.16 Y29.841 E38.4542
G1 X160.76 Y30.322 E38.47978
G1 X161.07 Y30.614 E38.49394
G1 X161.187 Y30.731 E38.49945
G1 X161.701 Y31.303 E38.52502
G1 X162.154 Y31.925 E38.55062
G1 X162.54 Y32.59 E38.57619
G1 X162.855 Y33.292 E38.60178
G1 X163.095 Y34.023 E38.62737
G1 X163.258 Y34.774 E38.65293
G1 X163.342 Y35.539 E38.67853
G1 X163.354 Y35.945 E38.69204
G1 X163.355 Y36.33 E38.70484
G1 X163.317 Y37.098 E38.73042
G1 X163.199 Y37.858 E38.756
G1 X163.004 Y38.602 E38.78158
G1 X162.732 Y39.321 E38.80715
G1 X162.387 Y40.009 E38.83275
G1 X161.972 Y40.657 E38.85834
G1 X161.492 Y41.258 E38.88392
G1 X161.21 Y41.559 E38.89764
G1 X161.093 Y41.677 E38.90317
G1 X160.524 Y42.195 E38.92876
G1 X159.904 Y42.65 E38.95434
G1 X159.24 Y43.039 E38.97993
G1 X158.54 Y43.356 E39.00549
G1 X157.81 Y43.599 E39.03108
G1 X157.059 Y43.766 E39.05667
G1 X156.295 Y43.853 E39.08225
G1 X155.838 Y43.867 E39.09745
G1 X94.158 Y43.865 E41.14894
G1 X93.39 Y43.825 E41.17452
G1 X92.63 Y43.705 E41.20011
G1 X91.887 Y43.508 E41.22567
G1 X91.168 Y43.234 E41.25127
G1 X90.481 Y42.887 E41.27686
G1 X89.835 Y42.471 E41.30242
