;FLAVOR:Marlin
;TIME:547
;Filament used: 0.229482m
;Layer height: 0.2
;Generated with Cura_SteamEngine 3.6.0
M140 S70
M105
M190 S70
M104 S215
M105
M109 S215
M82 ;absolute extrusion mode
G28 ; home all axes
M117 Purge extruder
G92 E0 ; reset extruder
G1 Z1.0 F3000 ; move z up little to prevent scratching of surface
G1 X0.1 Y20 Z0.3 F5000.0 ; move to start-line position G1 X0.1 Y200.0 Z0.3 F1500.0 E15 ; draw 1st line
G1 X0.4 Y200.0 Z0.3 F5000.0 ; move to side a little
G1 X0.4 Y20 Z0.3 F1500.0 E30 ; draw 2nd line
G92 E0 ; reset extruder
G1 Z1.0 F3000 ; move z up little to prevent scratching of surface
M117 All systems go!
G92 E0
G1 F6000 E-5
;LAYER_COUNT:52
;LAYER:0
M107
M204 S5000
M205 X30 Y30
G0 F7200 X109.561 Y104.156 Z0.2
M204 S500
M205 X20 Y20
;TYPE:SKIRT
G1 F6000 E0
G1 F900 X109.678 Y104.039 E0.0055
G1 X110.332 Y103.442 E0.03496
G1 X111.037 Y102.907 E0.06439
G1 X111.787 Y102.437 E0.09383
G1 X112.577 Y102.037 E0.12328
G1 X113.399 Y101.709 E0.15272
G1 X114.248 Y101.458 E0.18216
G1 X115.116 Y101.283 E0.21161
G1 X115.996 Y101.188 E0.24105
G1 X116.608 Y101.169 E0.26142
G1 X118.389 Y101.169 E0.32065
G1 X119.273 Y101.209 E0.35009
G1 X120.15 Y101.329 E0.37953
G1 X121.013 Y101.527 E0.40898
G1 X121.854 Y101.802 E0.43841
G1 X122.667 Y102.152 E0.46785
G1 X123.446 Y102.574 E0.49731
G1 X124.182 Y103.065 E0.52674
G1 X124.872 Y103.62 E0.55619
G1 X125.319 Y104.039 E0.57657
G1 X125.436 Y104.156 E0.58207
G1 X126.033 Y104.81 E0.61152
G1 X126.568 Y105.515 E0.64096
G1 X127.038 Y106.265 E0.6704
G1 X127.438 Y107.055 E0.69985
G1 X127.766 Y107.877 E0.72929
G1 X128.017 Y108.726 E0.75873
G1 X128.192 Y109.594 E0.78818
G1 X128.287 Y110.474 E0.81762
G1 X128.306 Y111.086 E0.83799
G1 X128.306 Y115.102 E0.97156
G1 X128.266 Y115.986 E1.00099
G1 X128.146 Y116.863 E1.03043
G1 X127.948 Y117.726 E1.05988
G1 X127.673 Y118.567 E1.08931
G1 X127.323 Y119.38 E1.11875
G1 X126.901 Y120.159 E1.14822
G1 X126.41 Y120.895 E1.17765
G1 X125.855 Y121.585 E1.2071
G1 X125.436 Y122.032 E1.22748
G1 X125.319 Y122.149 E1.23298
G1 X124.665 Y122.746 E1.26243
G1 X123.96 Y123.281 E1.29187
G1 X123.21 Y123.751 E1.3213
G1 X122.42 Y124.151 E1.35076
G1 X121.598 Y124.479 E1.38019
G1 X120.749 Y124.73 E1.40964
G1 X119.881 Y124.905 E1.43909
G1 X119.001 Y125 E1.46853
G1 X118.389 Y125.019 E1.48889
G1 X116.608 Y125.019 E1.54813
G1 X115.724 Y124.979 E1.57756
G1 X114.847 Y124.859 E1.607
G1 X113.984 Y124.661 E1.63645
G1 X113.143 Y124.386 E1.66588
G1 X112.33 Y124.036 E1.69532
G1 X111.551 Y123.614 E1.72479
G1 X110.815 Y123.123 E1.75421
G1 X110.125 Y122.568 E1.78367
G1 X109.678 Y122.149 E1.80404
G1 X109.561 Y122.032 E1.80955
G1 X108.964 Y121.378 E1.839
G1 X108.429 Y120.673 E1.86844
G1 X107.959 Y119.923 E1.89787
G1 X107.559 Y119.133 E1.92733
G1 X107.231 Y118.311 E1.95676
G1 X106.98 Y117.462 E1.98621
G1 X106.805 Y116.594 E2.01566
G1 X106.71 Y115.714 E2.0451
G1 X106.691 Y115.102 E2.06546
G1 X106.691 Y111.086 E2.19904
G1 X106.731 Y110.202 E2.22847
G1 X106.851 Y109.325 E2.25791
G1 X107.049 Y108.462 E2.28736
G1 X107.324 Y107.621 E2.31679
G1 X107.674 Y106.808 E2.34623
G1 X108.096 Y106.029 E2.37569
G1 X108.587 Y105.293 E2.40512
G1 X109.025 Y104.749 E2.42835
G0 F810 X109.142 Y104.603
G0 X109.561 Y104.156
M204 S5000
M205 X30 Y30
G0 F7200 X109.844 Y104.439
M204 S500
M205 X20 Y20
G1 F6000 E2.45496
G1 F900 X109.961 Y104.322 E2.46046
G1 X110.602 Y103.738 E2.4893
G1 X111.294 Y103.215 E2.51815
G1 X112.031 Y102.759 E2.54698
G1 X112.806 Y102.372 E2.57579
G1 X113.615 Y102.058 E2.60465
G1 X114.448 Y101.82 E2.63347
G1 X115.3 Y101.66 E2.6623
G1 X116.163 Y101.58 E2.69113
G1 X116.608 Y101.569 E2.70593
G1 X118.389 Y101.569 E2.76517
G1 X119.255 Y101.609 E2.794
G1 X120.114 Y101.729 E2.82285
G1 X120.958 Y101.927 E2.85168
G1 X121.78 Y102.202 E2.88051
G1 X122.573 Y102.552 E2.90934
G1 X123.331 Y102.973 E2.93818
G1 X124.046 Y103.462 E2.96699
G1 X124.714 Y104.015 E2.99584
G1 X125.036 Y104.322 E3.01063
G1 X125.153 Y104.439 E3.01614
G1 X125.737 Y105.08 E3.04498
G1 X126.26 Y105.772 E3.07383
G1 X126.716 Y106.509 E3.10265
G1 X127.103 Y107.284 E3.13146
G1 X127.417 Y108.093 E3.16033
G1 X127.655 Y108.926 E3.18914
G1 X127.815 Y109.778 E3.21798
G1 X127.895 Y110.641 E3.2468
G1 X127.906 Y111.086 E3.26161
G1 X127.906 Y115.102 E3.39518
G1 X127.866 Y115.968 E3.42401
G1 X127.746 Y116.827 E3.45286
G1 X127.548 Y117.671 E3.4817
G1 X127.273 Y118.493 E3.51052
G1 X126.923 Y119.286 E3.53935
G1 X126.502 Y120.044 E3.56819
G1 X126.013 Y120.759 E3.597
G1 X125.46 Y121.427 E3.62585
G1 X125.153 Y121.749 E3.64064
G1 X125.036 Y121.866 E3.64615
G1 X124.395 Y122.45 E3.67499
G1 X123.703 Y122.973 E3.70384
G1 X122.966 Y123.429 E3.73266
G1 X122.191 Y123.816 E3.76148
G1 X121.382 Y124.13 E3.79034
G1 X120.549 Y124.368 E3.81915
G1 X119.697 Y124.528 E3.84799
G1 X118.834 Y124.608 E3.87681
G1 X118.389 Y124.619 E3.89162
G1 X116.608 Y124.619 E3.95085
G1 X115.742 Y124.579 E3.97969
G1 X114.883 Y124.459 E4.00854
G1 X114.039 Y124.261 E4.03737
G1 X113.217 Y123.986 E4.0662
G1 X112.424 Y123.636 E4.09503
G1 X111.666 Y123.215 E4.12387
G1 X110.951 Y122.726 E4.15268
G1 X110.283 Y122.173 E4.18152
G1 X109.961 Y121.866 E4.19632
G1 X109.844 Y121.749 E4.20182
G1 X109.26 Y121.108 E4.23066
G1 X108.737 Y120.416 E4.25951
G1 X108.281 Y119.679 E4.28834
G1 X107.894 Y118.904 E4.31715
G1 X107.58 Y118.095 E4.34601
G1 X107.342 Y117.262 E4.37483
G1 X107.182 Y116.41 E4.40366
G1 X107.102 Y115.547 E4.43249
G1 X107.091 Y115.102 E4.44729
G1 X107.091 Y111.086 E4.58087
G1 X107.131 Y110.22 E4.6097
G1 X107.251 Y109.361 E4.63855
G1 X107.449 Y108.517 E4.66738
G1 X107.724 Y107.695 E4.69621
G1 X108.074 Y106.902 E4.72504
G1 X108.495 Y106.144 E4.75388
G1 X108.984 Y105.429 E4.78269
G1 X109.31 Y105.035 E4.7997
G0 F810 X109.537 Y104.761
G0 X109.844 Y104.439
M204 S5000
M205 X30 Y30
G0 F7200 X110.127 Y104.722
M204 S500
M205 X20 Y20
G1 F6000 E4.82631
G1 F900 X110.244 Y104.605 E4.83181
G1 X110.871 Y104.034 E4.86002
G1 X111.55 Y103.525 E4.88824
G1 X112.273 Y103.082 E4.91644
G1 X113.035 Y102.709 E4.94466
G1 X113.829 Y102.409 E4.97289
G1 X114.647 Y102.185 E5.0011
G1 X115.483 Y102.04 E5.02932
G1 X116.608 Y101.969 E5.06681
G1 X118.389 Y101.969 E5.12605
G1 X119.236 Y102.009 E5.15425
G1 X120.076 Y102.129 E5.18247
G1 X120.901 Y102.327 E5.21069
G1 X121.704 Y102.602 E5.23892
G1 X122.477 Y102.951 E5.26713
G1 X123.213 Y103.371 E5.29532
G1 X123.907 Y103.859 E5.32354
G1 X124.753 Y104.605 E5.36105
G1 X124.87 Y104.722 E5.36655
G1 X125.441 Y105.349 E5.39476
G1 X125.95 Y106.028 E5.42298
G1 X126.393 Y106.751 E5.45119
G1 X126.766 Y107.513 E5.4794
G1 X127.066 Y108.307 E5.50763
G1 X127.29 Y109.125 E5.53584
G1 X127.435 Y109.961 E5.56406
G1 X127.506 Y111.086 E5.60156
G1 X127.506 Y115.102 E5.73513
G1 X127.466 Y115.949 E5.76333
G1 X127.346 Y116.789 E5.79155
G1 X127.148 Y117.614 E5.81977
G1 X126.873 Y118.417 E5.848
G1 X126.524 Y119.19 E5.87621
G1 X126.104 Y119.926 E5.9044
G1 X125.616 Y120.62 E5.93261
G1 X124.87 Y121.466 E5.97013
G1 X124.753 Y121.583 E5.97563
G1 X124.126 Y122.154 E6.00384
G1 X123.447 Y122.663 E6.03206
G1 X122.724 Y123.106 E6.06027
G1 X121.962 Y123.479 E6.08848
G1 X121.168 Y123.779 E6.11671
G1 X120.35 Y124.003 E6.14492
G1 X119.514 Y124.148 E6.17314
G1 X118.389 Y124.219 E6.21064
G1 X116.608 Y124.219 E6.26987
G1 X115.761 Y124.179 E6.29807
G1 X114.921 Y124.059 E6.3263
G1 X114.096 Y123.861 E6.35452
G1 X113.293 Y123.586 E6.38275
G1 X112.52 Y123.237 E6.41095
G1 X111.784 Y122.817 E6.43914
G1 X111.09 Y122.329 E6.46736
G1 X110.244 Y121.583 E6.50487
G1 X110.127 Y121.466 E6.51038
G1 X109.556 Y120.839 E6.53858
G1 X109.047 Y120.16 E6.56681
G1 X108.604 Y119.437 E6.59501
G1 X108.231 Y118.675 E6.62323
G1 X107.931 Y117.881 E6.65146
G1 X107.707 Y117.063 E6.67967
G1 X107.562 Y116.227 E6.70789
G1 X107.491 Y115.102 E6.74538
G1 X107.491 Y111.086 E6.87895
G1 X107.531 Y110.239 E6.90715
G1 X107.651 Y109.399 E6.93538
G1 X107.849 Y108.574 E6.96359
G1 X108.124 Y107.771 E6.99183
G1 X108.473 Y106.998 E7.02003
G1 X108.893 Y106.262 E7.04822
G1 X109.381 Y105.568 E7.07644
G1 X109.598 Y105.322 E7.08735
G0 F810 X110.127 Y104.722
M204 S5000
M205 X30 Y30
G0 F7200 X110.41 Y105.005
M204 S500
M205 X20 Y20
G1 F6000 E7.11396
G1 F900 X110.527 Y104.888 E7.11946
G1 X111.141 Y104.33 E7.14705
G1 X111.806 Y103.835 E7.17463
G1 X112.515 Y103.405 E7.20221
G1 X113.262 Y103.046 E7.22977
G1 X114.041 Y102.761 E7.25736
G1 X114.843 Y102.552 E7.28493
G1 X115.662 Y102.421 E7.31251
G1 X116.608 Y102.369 E7.34402
G1 X118.389 Y102.369 E7.40326
G1 X119.217 Y102.409 E7.43083
G1 X120.038 Y102.529 E7.45843
G1 X120.843 Y102.727 E7.486
G1 X121.625 Y103.001 E7.51356
G1 X122.378 Y103.35 E7.54117
G1 X123.093 Y103.77 E7.56875
G1 X123.764 Y104.256 E7.5963
G1 X124.47 Y104.888 E7.62782
G1 X124.587 Y105.005 E7.63332
G1 X125.145 Y105.619 E7.66092
G1 X125.64 Y106.284 E7.68849
G1 X126.07 Y106.993 E7.71607
G1 X126.429 Y107.74 E7.74363
G1 X126.714 Y108.519 E7.77122
G1 X126.923 Y109.321 E7.79879
G1 X127.054 Y110.14 E7.82638
G1 X127.106 Y111.086 E7.85789
G1 X127.106 Y115.102 E7.99146
G1 X127.066 Y115.93 E8.01903
G1 X126.946 Y116.751 E8.04663
G1 X126.748 Y117.556 E8.0742
G1 X126.474 Y118.338 E8.10176
G1 X126.125 Y119.091 E8.12936
G1 X125.705 Y119.806 E8.15694
G1 X125.219 Y120.477 E8.1845
G1 X124.587 Y121.183 E8.21602
G1 X124.47 Y121.3 E8.22152
G1 X123.856 Y121.858 E8.24912
G1 X123.191 Y122.353 E8.27669
G1 X122.482 Y122.783 E8.30427
G1 X121.735 Y123.142 E8.33183
G1 X120.956 Y123.427 E8.35942
G1 X120.154 Y123.636 E8.38699
G1 X119.335 Y123.767 E8.41457
G1 X118.389 Y123.819 E8.44609
G1 X116.608 Y123.819 E8.50532
G1 X115.78 Y123.779 E8.53289
G1 X114.959 Y123.659 E8.56049
G1 X114.154 Y123.461 E8.58806
G1 X113.372 Y123.187 E8.61562
G1 X112.619 Y122.838 E8.64323
G1 X111.904 Y122.418 E8.67081
G1 X111.233 Y121.932 E8.69836
G1 X110.527 Y121.3 E8.72988
G1 X110.41 Y121.183 E8.73538
G1 X109.852 Y120.569 E8.76298
G1 X109.357 Y119.904 E8.79055
G1 X108.927 Y119.195 E8.81813
G1 X108.568 Y118.448 E8.8457
G1 X108.283 Y117.669 E8.87328
G1 X108.074 Y116.867 E8.90085
G1 X107.943 Y116.048 E8.92844
G1 X107.891 Y115.102 E8.95995
G1 X107.891 Y111.086 E9.09352
G1 X107.931 Y110.258 E9.12109
G1 X108.051 Y109.437 E9.14869
G1 X108.249 Y108.632 E9.17626
G1 X108.523 Y107.85 E9.20382
G1 X108.872 Y107.097 E9.23143
G1 X109.292 Y106.382 E9.25901
G1 X109.778 Y105.711 E9.28656
G1 X109.877 Y105.601 E9.29148
G0 F810 X110.41 Y105.005
M204 S5000
M205 X30 Y30
G0 F7200 X110.693 Y105.288
M204 S500
M205 X20 Y20
G1 F6000 E9.31809
G1 F900 X110.81 Y105.171 E9.3236
G1 X111.41 Y104.627 E9.35053
G1 X112.061 Y104.145 E9.37747
G1 X112.756 Y103.73 E9.4044
G1 X113.488 Y103.386 E9.4313
G1 X114.252 Y103.115 E9.45826
G1 X115.038 Y102.921 E9.48519
G1 X115.839 Y102.805 E9.51211
G1 X116.608 Y102.769 E9.53771
G1 X118.389 Y102.769 E9.59695
G1 X119.198 Y102.809 E9.62389
G1 X119.999 Y102.929 E9.65083
G1 X120.784 Y103.126 E9.67775
G1 X121.545 Y103.401 E9.70466
G1 X122.276 Y103.749 E9.73159
G1 X122.97 Y104.168 E9.75855
G1 X123.618 Y104.653 E9.78547
G1 X124.187 Y105.171 E9.81106
G1 X124.304 Y105.288 E9.81657
G1 X124.848 Y105.888 E9.8435
G1 X125.33 Y106.539 E9.87045
G1 X125.745 Y107.234 E9.89737
G1 X126.089 Y107.966 E9.92427
G1 X126.36 Y108.73 E9.95123
G1 X126.554 Y109.516 E9.97816
G1 X126.67 Y110.317 E10.00508
G1 X126.706 Y111.086 E10.03068
G1 X126.706 Y115.102 E10.16426
G1 X126.666 Y115.911 E10.1912
G1 X126.546 Y116.712 E10.21813
G1 X126.349 Y117.497 E10.24505
G1 X126.074 Y118.258 E10.27197
G1 X125.726 Y118.989 E10.29889
G1 X125.307 Y119.683 E10.32586
G1 X124.822 Y120.331 E10.35278
G1 X124.304 Y120.9 E10.37837
G1 X124.187 Y121.017 E10.38387
G1 X123.587 Y121.561 E10.41081
G1 X122.936 Y122.043 E10.43775
G1 X122.241 Y122.458 E10.46468
G1 X121.509 Y122.802 E10.49158
G1 X120.745 Y123.073 E10.51854
G1 X119.959 Y123.267 E10.54547
G1 X119.158 Y123.383 E10.57238
G1 X118.389 Y123.419 E10.59799
G1 X116.608 Y123.419 E10.65723
G1 X115.799 Y123.379 E10.68417
G1 X114.998 Y123.259 E10.7111
G1 X114.213 Y123.062 E10.73802
G1 X113.452 Y122.787 E10.76494
G1 X112.721 Y122.439 E10.79186
G1 X112.027 Y122.02 E10.81883
G1 X111.379 Y121.535 E10.84575
G1 X110.81 Y121.017 E10.87134
G1 X110.693 Y120.9 E10.87684
G1 X110.149 Y120.3 E10.90378
G1 X109.667 Y119.649 E10.93072
G1 X109.252 Y118.954 E10.95765
G1 X108.908 Y118.222 E10.98455
G1 X108.637 Y117.458 E11.01151
G1 X108.443 Y116.672 E11.03844
G1 X108.327 Y115.871 E11.06536
G1 X108.291 Y115.102 E11.09096
G1 X108.291 Y111.086 E11.22453
G1 X108.331 Y110.277 E11.25147
G1 X108.451 Y109.476 E11.27841
G1 X108.648 Y108.691 E11.30533
G1 X108.923 Y107.93 E11.33224
G1 X109.271 Y107.199 E11.35917
G1 X109.69 Y106.505 E11.38613
G1 X110.157 Y105.881 E11.41206
G0 F810 X110.175 Y105.857
G0 X110.693 Y105.288
M204 S5000
M205 X30 Y30
G0 F7200 X110.976 Y105.571
M204 S500
M205 X20 Y20
G1 F6000 E11.43867
G1 F900 X111.093 Y105.454 E11.44417
G1 X111.679 Y104.924 E11.47045
G1 X112.315 Y104.457 E11.49669
G1 X112.995 Y104.056 E11.52295
G1 X113.713 Y103.726 E11.54923
G1 X114.46 Y103.471 E11.57548
G1 X115.229 Y103.292 E11.60174
G1 X116.013 Y103.192 E11.62803
G1 X116.608 Y103.169 E11.64784
G1 X118.389 Y103.169 E11.70707
G1 X119.178 Y103.209 E11.73335
G1 X119.958 Y103.328 E11.75959
G1 X120.723 Y103.526 E11.78587
G1 X121.463 Y103.8 E11.81212
G1 X122.172 Y104.148 E11.83839
G1 X122.843 Y104.566 E11.86468
G1 X123.467 Y105.049 E11.89093
G1 X123.904 Y105.454 E11.91074
G1 X124.021 Y105.571 E11.91625
G1 X124.551 Y106.157 E11.94253
G1 X125.018 Y106.793 E11.96877
G1 X125.419 Y107.473 E11.99503
G1 X125.749 Y108.191 E12.02131
G1 X126.004 Y108.938 E12.04756
G1 X126.183 Y109.707 E12.07382
G1 X126.283 Y110.491 E12.10011
G1 X126.306 Y111.086 E12.11992
G1 X126.306 Y115.102 E12.25349
G1 X126.266 Y115.891 E12.27976
G1 X126.147 Y116.671 E12.30601
G1 X125.949 Y117.436 E12.33229
G1 X125.675 Y118.176 E12.35854
G1 X125.327 Y118.885 E12.3848
G1 X124.909 Y119.556 E12.4111
G1 X124.426 Y120.18 E12.43734
G1 X124.021 Y120.617 E12.45716
G1 X123.904 Y120.734 E12.46266
G1 X123.318 Y121.264 E12.48894
G1 X122.682 Y121.731 E12.51519
G1 X122.002 Y122.132 E12.54144
G1 X121.284 Y122.462 E12.56773
G1 X120.537 Y122.717 E12.59398
G1 X119.768 Y122.896 E12.62024
G1 X118.984 Y122.996 E12.64653
G1 X118.389 Y123.019 E12.66633
G1 X116.608 Y123.019 E12.72557
G1 X115.819 Y122.979 E12.75184
G1 X115.039 Y122.86 E12.77809
G1 X114.274 Y122.662 E12.80437
G1 X113.534 Y122.388 E12.83061
G1 X112.825 Y122.04 E12.85688
G1 X112.154 Y121.622 E12.88318
G1 X111.53 Y121.139 E12.90942
G1 X111.093 Y120.734 E12.92924
G1 X110.976 Y120.617 E12.93474
G1 X110.446 Y120.031 E12.96102
G1 X109.979 Y119.395 E12.98727
G1 X109.578 Y118.715 E13.01352
G1 X109.248 Y117.997 E13.0398
G1 X108.993 Y117.25 E13.06606
G1 X108.814 Y116.481 E13.09232
G1 X108.714 Y115.697 E13.11861
G1 X108.691 Y115.102 E13.13841
G1 X108.691 Y111.086 E13.27198
G1 X108.731 Y110.297 E13.29826
G1 X108.85 Y109.517 E13.3245
G1 X109.048 Y108.752 E13.35078
G1 X109.322 Y108.012 E13.37703
G1 X109.67 Y107.303 E13.4033
G1 X110.088 Y106.632 E13.42959
G1 X110.446 Y106.17 E13.44903
G0 F810 X110.571 Y106.008
G0 X110.976 Y105.571
M204 S5000
M205 X30 Y30
G0 F7200 X111.258 Y105.853
M204 S500
M205 X20 Y20
G1 F6000 E13.47564
G1 F900 X111.375 Y105.736 E13.48114
G1 X111.947 Y105.222 E13.50672
G1 X112.569 Y104.769 E13.53231
G1 X113.234 Y104.383 E13.55789
G1 X113.936 Y104.068 E13.58348
G1 X114.667 Y103.828 E13.60907
G1 X115.418 Y103.665 E13.63463
G1 X116.183 Y103.581 E13.66023
G1 X116.608 Y103.569 E13.67437
G1 X118.389 Y103.569 E13.7336
G1 X119.157 Y103.609 E13.75918
G1 X119.917 Y103.728 E13.78477
G1 X120.66 Y103.926 E13.81034
G1 X121.379 Y104.2 E13.83593
G1 X122.065 Y104.547 E13.8615
G1 X122.712 Y104.963 E13.88709
G1 X123.312 Y105.444 E13.91266
G1 X123.622 Y105.736 E13.92683
G1 X123.739 Y105.853 E13.93233
G1 X124.253 Y106.425 E13.95791
G1 X124.706 Y107.047 E13.9835
G1 X125.092 Y107.712 E14.00908
G1 X125.407 Y108.414 E14.03467
G1 X125.647 Y109.145 E14.06026
G1 X125.81 Y109.896 E14.08582
G1 X125.894 Y110.661 E14.11141
G1 X125.906 Y111.086 E14.12556
G1 X125.906 Y115.102 E14.25913
G1 X125.866 Y115.87 E14.28471
G1 X125.747 Y116.63 E14.31029
G1 X125.549 Y117.373 E14.33587
G1 X125.275 Y118.092 E14.36146
G1 X124.928 Y118.778 E14.38703
G1 X124.512 Y119.425 E14.41261
G1 X124.031 Y120.025 E14.43819
