;FLAVOR:Marlin
;TIME:547
;Filament used: 0.229489m
;Layer height: 0.2
;Generated with Cura_SteamEngine 3.6.0
M140 S70
M105
M190 S70
M104 S215
M105
M109 S215
M82 ;absolute extrusion mode
G28 ; home all axes
M117 Purge extruder
G92 E0 ; reset extruder
G1 Z1.0 F3000 ; move z up little to prevent scratching of surface
G1 X0.1 Y20 Z0.3 F5000.0 ; move to start-line position G1 X0.1 Y200.0 Z0.3 F1500.0 E15 ; draw 1st line
G1 X0.4 Y200.0 Z0.3 F5000.0 ; move to side a little
G1 X0.4 Y20 Z0.3 F1500.0 E30 ; draw 2nd line
G92 E0 ; reset extruder
G1 Z1.0 F3000 ; move z up little to prevent scratching of surface
M117 All systems go!
G92 E0
G1 F6000 E-5
;LAYER_COUNT:52
;LAYER:0
M107
M204 S5000
M205 X30 Y30
G0 F7200 X113.597 Y27.402 Z0.2
M204 S500
M205 X20 Y20
;TYPE:SKIRT
G1 F6000 E0
G1 F900 X113.872 Y26.561 E0.02943
G1 X114.222 Y25.748 E0.05887
G1 X114.644 Y24.969 E0.08834
G1 X115.135 Y24.233 E0.11776
G1 X115.69 Y23.543 E0.14722
G1 X116.109 Y23.096 E0.16759
G1 X116.226 Y22.979 E0.1731
G1 X116.88 Y22.382 E0.20255
G1 X117.585 Y21.847 E0.23198
G1 X118.335 Y21.377 E0.26142
G1 X119.125 Y20.977 E0.29087
G1 X119.947 Y20.649 E0.32031
G1 X120.796 Y20.398 E0.34976
G1 X121.664 Y20.223 E0.37921
G1 X122.544 Y20.128 E0.40865
G1 X123.156 Y20.109 E0.42901
G1 X124.938 Y20.109 E0.48828
G1 X125.822 Y20.149 E0.51771
G1 X126.699 Y20.269 E0.54715
G1 X127.562 Y20.467 E0.5766
G1 X128.403 Y20.742 E0.60603
G1 X129.216 Y21.092 E0.63547
G1 X129.995 Y21.514 E0.66494
G1 X130.731 Y22.005 E0.69437
G1 X131.421 Y22.56 E0.72382
G1 X131.868 Y22.979 E0.7442
G1 X131.985 Y23.096 E0.7497
G1 X132.582 Y23.75 E0.77915
G1 X133.117 Y24.455 E0.80859
G1 X133.587 Y25.205 E0.83803
G1 X133.987 Y25.995 E0.86748
G1 X134.315 Y26.817 E0.89691
G1 X134.566 Y27.666 E0.92636
G1 X134.741 Y28.534 E0.95581
G1 X134.836 Y29.414 E0.98525
G1 X134.855 Y30.026 E1.00561
G1 X134.855 Y34.042 E1.13919
G1 X134.815 Y34.926 E1.16862
G1 X134.695 Y35.803 E1.19806
G1 X134.497 Y36.666 E1.22751
G1 X134.222 Y37.507 E1.25694
G1 X133.872 Y38.32 E1.28638
G1 X133.45 Y39.099 E1.31584
G1 X132.959 Y39.835 E1.34527
G1 X132.404 Y40.525 E1.37472
G1 X131.985 Y40.972 E1.3951
G1 X131.868 Y41.089 E1.4006
G1 X131.214 Y41.686 E1.43006
G1 X130.509 Y42.221 E1.45949
G1 X129.759 Y42.691 E1.48893
G1 X128.969 Y43.091 E1.51838
G1 X128.147 Y43.419 E1.54782
G1 X127.298 Y43.67 E1.57726
G1 X126.43 Y43.845 E1.60672
G1 X125.55 Y43.94 E1.63615
G1 X124.938 Y43.959 E1.65652
G1 X123.156 Y43.959 E1.71579
G1 X122.272 Y43.919 E1.74522
G1 X121.395 Y43.799 E1.77466
G1 X120.532 Y43.601 E1.80411
G1 X119.691 Y43.326 E1.83354
G1 X118.878 Y42.976 E1.86298
G1 X118.099 Y42.554 E1.89245
G1 X117.363 Y42.063 E1.92187
G1 X116.673 Y41.508 E1.95133
G1 X116.226 Y41.089 E1.9717
G1 X116.109 Y40.972 E1.97721
G1 X115.512 Y40.318 E2.00666
G1 X114.977 Y39.613 E2.03609
G1 X114.507 Y38.863 E2.06553
G1 X114.107 Y38.073 E2.09499
G1 X113.779 Y37.251 E2.12442
G1 X113.528 Y36.402 E2.15387
G1 X113.353 Y35.534 E2.18332
G1 X113.258 Y34.654 E2.21276
G1 X113.239 Y34.042 E2.23312
G1 X113.239 Y30.026 E2.36669
G1 X113.279 Y29.142 E2.39613
G1 X113.399 Y28.265 E2.42557
G1 X113.419 Y28.182 E2.42841
G0 F810 X113.597 Y27.402
M204 S5000
M205 X30 Y30
G0 F7200 X113.997 Y27.457
M204 S500
M205 X20 Y20
G1 F6000 E2.45502
G1 F900 X114.272 Y26.635 E2.48384
G1 X114.622 Y25.842 E2.51267
G1 X115.043 Y25.084 E2.54151
G1 X115.532 Y24.369 E2.57032
G1 X116.085 Y23.701 E2.59917
G1 X116.392 Y23.379 E2.61396
G1 X116.509 Y23.262 E2.61947
G1 X117.15 Y22.678 E2.64831
G1 X117.842 Y22.155 E2.67716
G1 X118.579 Y21.699 E2.70598
G1 X119.354 Y21.312 E2.7348
G1 X120.163 Y20.998 E2.76366
G1 X120.996 Y20.76 E2.79247
G1 X121.848 Y20.6 E2.82131
G1 X122.711 Y20.52 E2.85013
G1 X123.156 Y20.509 E2.86494
G1 X124.938 Y20.509 E2.92421
G1 X125.804 Y20.549 E2.95304
G1 X126.663 Y20.669 E2.98189
G1 X127.507 Y20.867 E3.01072
G1 X128.329 Y21.142 E3.03955
G1 X129.122 Y21.492 E3.06838
G1 X129.88 Y21.913 E3.09722
G1 X130.595 Y22.402 E3.12603
G1 X131.263 Y22.955 E3.15488
G1 X131.585 Y23.262 E3.16967
G1 X131.702 Y23.379 E3.17518
G1 X132.286 Y24.02 E3.20402
G1 X132.809 Y24.712 E3.23287
G1 X133.265 Y25.449 E3.26169
G1 X133.652 Y26.224 E3.2905
G1 X133.966 Y27.033 E3.31937
G1 X134.204 Y27.866 E3.34818
G1 X134.364 Y28.718 E3.37701
G1 X134.444 Y29.581 E3.40584
G1 X134.455 Y30.026 E3.42065
G1 X134.455 Y34.042 E3.55422
G1 X134.415 Y34.908 E3.58305
G1 X134.295 Y35.767 E3.6119
G1 X134.097 Y36.611 E3.64074
G1 X133.822 Y37.433 E3.66956
G1 X133.472 Y38.226 E3.69839
G1 X133.051 Y38.984 E3.72723
G1 X132.562 Y39.699 E3.75604
G1 X132.009 Y40.367 E3.78489
G1 X131.702 Y40.689 E3.79968
G1 X131.585 Y40.806 E3.80519
G1 X130.944 Y41.39 E3.83403
G1 X130.252 Y41.913 E3.86288
G1 X129.515 Y42.369 E3.8917
G1 X128.74 Y42.756 E3.92052
G1 X127.931 Y43.07 E3.94938
G1 X127.098 Y43.308 E3.97819
G1 X126.246 Y43.468 E4.00703
G1 X125.383 Y43.548 E4.03585
G1 X124.938 Y43.559 E4.05066
G1 X123.156 Y43.559 E4.10993
G1 X122.29 Y43.519 E4.13876
G1 X121.431 Y43.399 E4.16761
G1 X120.587 Y43.201 E4.19644
G1 X119.765 Y42.926 E4.22527
G1 X118.972 Y42.576 E4.2541
G1 X118.214 Y42.155 E4.28294
G1 X117.499 Y41.666 E4.31175
G1 X116.831 Y41.113 E4.3406
G1 X116.509 Y40.806 E4.35539
G1 X116.392 Y40.689 E4.3609
G1 X115.808 Y40.048 E4.38974
G1 X115.285 Y39.356 E4.41859
G1 X114.829 Y38.619 E4.44741
G1 X114.442 Y37.844 E4.47622
G1 X114.128 Y37.035 E4.50509
G1 X113.89 Y36.202 E4.5339
G1 X113.73 Y35.35 E4.56273
G1 X113.65 Y34.487 E4.59156
G1 X113.639 Y34.042 E4.60637
G1 X113.639 Y30.026 E4.73994
G1 X113.679 Y29.16 E4.76877
G1 X113.799 Y28.301 E4.79762
G1 X113.815 Y28.236 E4.79985
G0 F810 X113.997 Y27.457
M204 S5000
M205 X30 Y30
G0 F7200 X114.397 Y27.514
M204 S500
M205 X20 Y20
G1 F6000 E4.82646
G1 F900 X114.672 Y26.711 E4.85469
G1 X115.021 Y25.938 E4.8829
G1 X115.441 Y25.202 E4.91108
G1 X115.929 Y24.508 E4.9393
G1 X116.675 Y23.662 E4.97681
G1 X116.792 Y23.545 E4.98232
G1 X117.419 Y22.974 E5.01052
G1 X118.098 Y22.465 E5.03875
G1 X118.821 Y22.022 E5.06695
G1 X119.583 Y21.649 E5.09517
G1 X120.377 Y21.349 E5.1234
G1 X121.195 Y21.125 E5.15161
G1 X122.031 Y20.98 E5.17983
G1 X123.156 Y20.909 E5.21732
G1 X124.938 Y20.909 E5.27659
G1 X125.785 Y20.949 E5.30479
G1 X126.625 Y21.069 E5.33301
G1 X127.45 Y21.267 E5.36123
G1 X128.253 Y21.542 E5.38946
G1 X129.026 Y21.891 E5.41767
G1 X129.762 Y22.311 E5.44586
G1 X130.456 Y22.799 E5.47407
G1 X131.302 Y23.545 E5.51159
G1 X131.419 Y23.662 E5.51709
G1 X131.99 Y24.289 E5.5453
G1 X132.499 Y24.968 E5.57352
G1 X132.942 Y25.691 E5.60173
G1 X133.315 Y26.453 E5.62994
G1 X133.615 Y27.247 E5.65817
G1 X133.839 Y28.065 E5.68638
G1 X133.984 Y28.901 E5.7146
G1 X134.055 Y30.026 E5.7521
G1 X134.055 Y34.042 E5.88567
G1 X134.015 Y34.889 E5.91387
G1 X133.895 Y35.729 E5.94209
G1 X133.697 Y36.554 E5.97031
G1 X133.422 Y37.357 E5.99854
G1 X133.073 Y38.13 E6.02675
G1 X132.653 Y38.866 E6.05494
G1 X132.165 Y39.56 E6.08315
G1 X131.419 Y40.406 E6.12067
G1 X131.302 Y40.523 E6.12617
G1 X130.675 Y41.094 E6.15438
G1 X129.996 Y41.603 E6.1826
G1 X129.273 Y42.046 E6.2108
G1 X128.511 Y42.419 E6.23902
G1 X127.717 Y42.719 E6.26725
G1 X126.899 Y42.943 E6.29546
G1 X126.063 Y43.088 E6.32368
G1 X124.938 Y43.159 E6.36117
G1 X123.156 Y43.159 E6.42044
G1 X122.309 Y43.119 E6.44865
G1 X121.469 Y42.999 E6.47687
G1 X120.644 Y42.801 E6.50509
G1 X119.841 Y42.526 E6.53332
G1 X119.068 Y42.177 E6.56153
G1 X118.332 Y41.757 E6.58971
G1 X117.638 Y41.269 E6.61793
G1 X116.792 Y40.523 E6.65545
G1 X116.675 Y40.406 E6.66095
G1 X116.104 Y39.779 E6.68915
G1 X115.595 Y39.1 E6.71738
G1 X115.152 Y38.377 E6.74558
G1 X114.779 Y37.615 E6.7738
G1 X114.479 Y36.821 E6.80203
G1 X114.255 Y36.003 E6.83024
G1 X114.11 Y35.167 E6.85846
G1 X114.039 Y34.042 E6.89595
G1 X114.039 Y30.026 E7.02952
G1 X114.079 Y29.179 E7.05773
G1 X114.199 Y28.339 E7.08595
G1 X114.211 Y28.292 E7.08756
G0 F810 X114.397 Y27.514
M204 S5000
M205 X30 Y30
G0 F7200 X114.797 Y27.572
M204 S500
M205 X20 Y20
G1 F6000 E7.11417
G1 F900 X115.071 Y26.79 E7.14173
G1 X115.42 Y26.037 E7.16933
G1 X115.84 Y25.322 E7.19691
G1 X116.326 Y24.651 E7.22447
G1 X116.958 Y23.945 E7.25599
G1 X117.075 Y23.828 E7.26149
G1 X117.689 Y23.27 E7.28908
G1 X118.354 Y22.775 E7.31666
G1 X119.063 Y22.345 E7.34424
G1 X119.81 Y21.986 E7.3718
G1 X120.589 Y21.701 E7.39939
G1 X121.391 Y21.492 E7.42696
G1 X122.21 Y21.361 E7.45454
G1 X123.156 Y21.309 E7.48606
G1 X124.938 Y21.309 E7.54532
G1 X125.766 Y21.349 E7.5729
G1 X126.587 Y21.469 E7.60049
G1 X127.392 Y21.667 E7.62807
G1 X128.174 Y21.941 E7.65563
G1 X128.927 Y22.29 E7.68323
G1 X129.642 Y22.71 E7.71081
G1 X130.313 Y23.196 E7.73837
G1 X131.019 Y23.828 E7.76988
G1 X131.136 Y23.945 E7.77539
G1 X131.694 Y24.559 E7.80298
G1 X132.189 Y25.224 E7.83055
G1 X132.619 Y25.933 E7.85813
G1 X132.978 Y26.68 E7.8857
G1 X133.263 Y27.459 E7.91329
G1 X133.472 Y28.261 E7.94085
G1 X133.603 Y29.08 E7.96844
G1 X133.655 Y30.026 E7.99995
G1 X133.655 Y34.042 E8.13352
G1 X133.615 Y34.87 E8.1611
G1 X133.495 Y35.691 E8.18869
G1 X133.297 Y36.496 E8.21626
G1 X133.023 Y37.278 E8.24382
G1 X132.674 Y38.031 E8.27143
G1 X132.254 Y38.746 E8.29901
G1 X131.768 Y39.417 E8.32657
G1 X131.136 Y40.123 E8.35808
G1 X131.019 Y40.24 E8.36358
G1 X130.405 Y40.798 E8.39118
G1 X129.74 Y41.293 E8.41875
G1 X129.031 Y41.723 E8.44633
G1 X128.284 Y42.082 E8.4739
G1 X127.505 Y42.367 E8.50149
G1 X126.703 Y42.576 E8.52905
G1 X125.884 Y42.707 E8.55664
G1 X124.938 Y42.759 E8.58815
G1 X123.156 Y42.759 E8.64742
G1 X122.328 Y42.719 E8.67499
G1 X121.507 Y42.599 E8.70259
G1 X120.702 Y42.401 E8.73016
G1 X119.92 Y42.127 E8.75772
G1 X119.167 Y41.778 E8.78532
G1 X118.452 Y41.358 E8.8129
G1 X117.781 Y40.872 E8.84046
G1 X117.075 Y40.24 E8.87198
G1 X116.958 Y40.123 E8.87748
G1 X116.4 Y39.509 E8.90508
G1 X115.905 Y38.844 E8.93265
G1 X115.475 Y38.135 E8.96023
G1 X115.116 Y37.388 E8.98779
G1 X114.831 Y36.609 E9.01538
G1 X114.622 Y35.807 E9.04295
G1 X114.491 Y34.988 E9.07053
G1 X114.439 Y34.042 E9.10205
G1 X114.439 Y30.026 E9.23562
G1 X114.479 Y29.198 E9.26319
G1 X114.599 Y28.377 E9.29079
G1 X114.606 Y28.349 E9.29175
G0 F810 X114.797 Y27.572
M204 S5000
M205 X30 Y30
G0 F7200 X115.196 Y27.631
M204 S500
M205 X20 Y20
G1 F6000 E9.31835
G1 F900 X115.471 Y26.87 E9.34527
G1 X115.819 Y26.139 E9.3722
G1 X116.238 Y25.445 E9.39916
G1 X116.723 Y24.797 E9.42608
G1 X117.241 Y24.228 E9.45167
G1 X117.358 Y24.111 E9.45718
G1 X117.958 Y23.567 E9.48411
G1 X118.609 Y23.085 E9.51105
G1 X119.304 Y22.67 E9.53798
G1 X120.036 Y22.326 E9.56488
G1 X120.8 Y22.055 E9.59184
G1 X121.586 Y21.861 E9.61877
G1 X122.387 Y21.745 E9.64569
G1 X123.156 Y21.709 E9.67129
G1 X124.938 Y21.709 E9.73056
G1 X125.747 Y21.749 E9.7575
G1 X126.548 Y21.869 E9.78444
G1 X127.333 Y22.066 E9.81136
G1 X128.094 Y22.341 E9.83827
G1 X128.825 Y22.689 E9.8652
G1 X129.519 Y23.108 E9.89216
G1 X130.167 Y23.593 E9.91908
G1 X130.736 Y24.111 E9.94468
G1 X130.853 Y24.228 E9.95018
G1 X131.397 Y24.828 E9.97712
G1 X131.879 Y25.479 E10.00406
G1 X132.294 Y26.174 E10.03098
G1 X132.638 Y26.906 E10.05788
G1 X132.909 Y27.67 E10.08484
G1 X133.103 Y28.456 E10.11177
G1 X133.219 Y29.257 E10.13869
G1 X133.255 Y30.026 E10.1643
G1 X133.255 Y34.042 E10.29787
G1 X133.215 Y34.851 E10.32481
G1 X133.095 Y35.652 E10.35175
G1 X132.898 Y36.437 E10.37867
G1 X132.623 Y37.198 E10.40558
G1 X132.275 Y37.929 E10.43251
G1 X131.856 Y38.623 E10.45947
G1 X131.371 Y39.271 E10.48639
G1 X130.853 Y39.84 E10.51198
G1 X130.736 Y39.957 E10.51749
G1 X130.136 Y40.501 E10.54442
G1 X129.485 Y40.983 E10.57136
G1 X128.79 Y41.398 E10.59829
G1 X128.058 Y41.742 E10.62519
G1 X127.294 Y42.013 E10.65215
G1 X126.508 Y42.207 E10.67908
G1 X125.707 Y42.323 E10.706
G1 X124.938 Y42.359 E10.7316
G1 X123.156 Y42.359 E10.79087
G1 X122.347 Y42.319 E10.81781
G1 X121.546 Y42.199 E10.84475
G1 X120.761 Y42.002 E10.87167
G1 X120 Y41.727 E10.89858
G1 X119.269 Y41.379 E10.92551
G1 X118.575 Y40.96 E10.95247
G1 X117.927 Y40.475 E10.97939
G1 X117.358 Y39.957 E11.00499
G1 X117.241 Y39.84 E11.01049
G1 X116.697 Y39.24 E11.03743
G1 X116.215 Y38.589 E11.06437
G1 X115.8 Y37.894 E11.09129
G1 X115.456 Y37.162 E11.11819
G1 X115.185 Y36.398 E11.14515
G1 X114.991 Y35.612 E11.17208
G1 X114.875 Y34.811 E11.199
G1 X114.839 Y34.042 E11.22461
G1 X114.839 Y30.026 E11.35818
G1 X114.879 Y29.217 E11.38512
G1 X114.999 Y28.416 E11.41206
G1 X115.002 Y28.407 E11.41237
G0 F810 X115.196 Y27.631
M204 S5000
M205 X30 Y30
G0 F7200 X115.596 Y27.692
M204 S500
M205 X20 Y20
G1 F6000 E11.43898
G1 F900 X115.87 Y26.952 E11.46523
G1 X116.218 Y26.243 E11.4915
G1 X116.636 Y25.572 E11.51779
G1 X117.119 Y24.948 E11.54403
G1 X117.524 Y24.511 E11.56385
G1 X117.641 Y24.394 E11.56935
G1 X118.227 Y23.864 E11.59563
G1 X118.863 Y23.397 E11.62188
G1 X119.543 Y22.996 E11.64813
G1 X120.261 Y22.666 E11.67442
G1 X121.008 Y22.411 E11.70067
G1 X121.777 Y22.232 E11.72693
G1 X122.561 Y22.132 E11.75322
G1 X123.156 Y22.109 E11.77302
G1 X124.938 Y22.109 E11.83229
G1 X125.727 Y22.149 E11.85857
G1 X126.507 Y22.268 E11.88481
G1 X127.272 Y22.466 E11.91109
G1 X128.012 Y22.74 E11.93734
G1 X128.721 Y23.088 E11.96361
G1 X129.392 Y23.506 E11.9899
G1 X130.016 Y23.989 E12.01615
G1 X130.453 Y24.394 E12.03596
G1 X130.57 Y24.511 E12.04147
G1 X131.1 Y25.097 E12.06775
G1 X131.567 Y25.733 E12.09399
G1 X131.968 Y26.413 E12.12025
G1 X132.298 Y27.131 E12.14653
G1 X132.553 Y27.878 E12.17278
G1 X132.732 Y28.647 E12.19904
G1 X132.832 Y29.431 E12.22533
G1 X132.855 Y30.026 E12.24514
G1 X132.855 Y34.042 E12.37871
G1 X132.815 Y34.831 E12.40498
G1 X132.696 Y35.611 E12.43123
G1 X132.498 Y36.376 E12.45751
G1 X132.224 Y37.116 E12.48375
G1 X131.876 Y37.825 E12.51002
G1 X131.458 Y38.496 E12.53632
G1 X130.975 Y39.12 E12.56256
G1 X130.57 Y39.557 E12.58238
G1 X130.453 Y39.674 E12.58788
G1 X129.867 Y40.204 E12.61416
G1 X129.231 Y40.671 E12.64041
G1 X128.551 Y41.072 E12.66666
G1 X127.833 Y41.402 E12.69294
G1 X127.086 Y41.657 E12.7192
G1 X126.317 Y41.836 E12.74546
G1 X125.533 Y41.936 E12.77175
G1 X124.938 Y41.959 E12.79155
G1 X123.156 Y41.959 E12.85082
G1 X122.367 Y41.919 E12.8771
G1 X121.587 Y41.8 E12.90334
G1 X120.822 Y41.602 E12.92962
G1 X120.082 Y41.328 E12.95587
G1 X119.373 Y40.98 E12.98214
G1 X118.702 Y40.562 E13.00843
G1 X118.078 Y40.079 E13.03467
G1 X117.641 Y39.674 E13.05449
G1 X117.524 Y39.557 E13.06
G1 X116.994 Y38.971 E13.08627
G1 X116.527 Y38.335 E13.11252
G1 X116.126 Y37.655 E13.13877
G1 X115.796 Y36.937 E13.16506
G1 X115.541 Y36.19 E13.19131
G1 X115.362 Y35.421 E13.21757
G1 X115.262 Y34.637 E13.24386
G1 X115.239 Y34.042 E13.26366
G1 X115.239 Y30.026 E13.39724
G1 X115.279 Y29.237 E13.42351
G1 X115.397 Y28.466 E13.44945
G0 F810 X115.398 Y28.457
G0 X115.596 Y27.692
M204 S5000
M205 X30 Y30
G0 F7200 X115.996 Y27.755
M204 S500
M205 X20 Y20
G1 F6000 E13.47606
G1 F900 X116.27 Y27.036 E13.50165
G1 X116.617 Y26.35 E13.52722
G1 X117.033 Y25.703 E13.55281
G1 X117.514 Y25.103 E13.57838
G1 X117.806 Y24.793 E13.59255
G1 X117.923 Y24.676 E13.59805
G1 X118.495 Y24.162 E13.62363
G1 X119.117 Y23.709 E13.64922
G1 X119.782 Y23.323 E13.6748
G1 X120.484 Y23.008 E13.70039
G1 X121.215 Y22.768 E13.72598
G1 X121.966 Y22.605 E13.75154
G1 X122.731 Y22.521 E13.77713
G1 X123.156 Y22.509 E13.79128
G1 X124.938 Y22.509 E13.85054
G1 X125.706 Y22.549 E13.87612
G1 X126.466 Y22.668 E13.90171
G1 X127.209 Y22.866 E13.92728
G1 X127.928 Y23.14 E13.95288
G1 X128.614 Y23.487 E13.97844
G1 X129.261 Y23.903 E14.00403
G1 X129.861 Y24.384 E14.02961
G1 X130.171 Y24.676 E14.04377
G1 X130.288 Y24.793 E14.04927
G1 X130.802 Y25.365 E14.07485
G1 X131.255 Y25.987 E14.10044
G1 X131.641 Y26.652 E14.12602
G1 X131.956 Y27.354 E14.15161
G1 X132.196 Y28.085 E14.1772
G1 X132.359 Y28.836 E14.20276
G1 X132.443 Y29.601 E14.22836
G1 X132.455 Y30.026 E14.2425
G1 X132.455 Y34.042 E14.37607
G1 X132.415 Y34.81 E14.40165
G1 X132.296 Y35.57 E14.42723
G1 X132.098 Y36.313 E14.45281
G1 X131.824 Y37.032 E14.4784
G1 X131.477 Y37.718 E14.50397
G1 X131.061 Y38.365 E14.52955
G1 X130.58 Y38.965 E14.55513
G1 X130.288 Y39.275 E14.56929
G1 X130.171 Y39.392 E14.5748
G1 X129.599 Y39.906 E14.60038
G1 X128.977 Y40.359 E14.62597
G1 X128.312 Y40.745 E14.65154
G1 X127.61 Y41.06 E14.67713
G1 X126.879 Y41.3 E14.70272
G1 X126.128 Y41.463 E14.72828
G1 X125.363 Y41.547 E14.75388
G1 X124.938 Y41.559 E14.76802
