;FLAVOR:Marlin
;TIME:4358
;Filament used: 6.10332m
;Layer height: 0.25
;Generated with Cura_SteamEngine 3.6.0
M140 S70
M105
M190 S70
M104 S215
M105
M109 S215
M82 ;absolute extrusion mode
; Ender 3 Custom Start G-code
G28 ; Home all axes
G92 E0 ; Reset Extruder
G1 Z2.0 F3000 ; Move Z Axis up little to prevent scratching of Heat Bed
G1 X0.1 Y20 Z0.3 F5000.0 ; Move to start position
G1 X0.1 Y200.0 Z0.3 F1500.0 E15 ; Draw the first line
G1 X0.4 Y200.0 Z0.3 F5000.0 ; Move to side a little
G1 X0.4 Y20 Z0.3 F1500.0 E30 ; Draw the second line
G92 E0 ; Reset Extruder
G1 Z2.0 F3000 ; Move Z Axis up little to prevent scratching of Heat Bed
; End of custom start GCode
G92 E0
G1 F6000 E-5
;LAYER_COUNT:172
;LAYER:0
M107
M204 S5000
M205 X30 Y30
G0 F7200 X17.495 Y84.355 Z0.25
M204 S500
M205 X20 Y20
;TYPE:SKIRT
G1 F6000 E0
G1 F900 X18.366 Y84.209 E0.0459
G1 X19.546 Y84.137 E0.10733
G1 X74.546 Y84.137 E2.96563
G1 X75.428 Y84.177 E3.01151
G1 X76.303 Y84.297 E3.05741
G1 X77.163 Y84.495 E3.10327
G1 X78.002 Y84.77 E3.14916
G1 X78.813 Y85.12 E3.19506
G1 X79.588 Y85.542 E3.24092
G1 X80.323 Y86.033 E3.28686
G1 X81.01 Y86.587 E3.33272
G1 X81.643 Y87.202 E3.37859
G1 X82.219 Y87.871 E3.42446
G1 X82.732 Y88.59 E3.47037
G1 X83.177 Y89.353 E3.51627
G1 X83.552 Y90.152 E3.56214
G1 X83.853 Y90.982 E3.60802
G1 X84.078 Y91.836 E3.65392
G1 X84.224 Y92.707 E3.69981
G1 X84.296 Y93.887 E3.76125
G1 X84.296 Y140.543 E6.18592
G1 X84.256 Y141.425 E6.2318
G1 X84.136 Y142.3 E6.2777
G1 X83.938 Y143.16 E6.32356
G1 X83.663 Y143.999 E6.36945
G1 X83.313 Y144.81 E6.41535
G1 X82.891 Y145.585 E6.46121
G1 X82.4 Y146.32 E6.50715
G1 X81.846 Y147.007 E6.55301
G1 X81.231 Y147.64 E6.59888
G1 X80.562 Y148.216 E6.64475
G1 X79.843 Y148.729 E6.69066
G1 X79.08 Y149.174 E6.73656
G1 X78.281 Y149.549 E6.78243
G1 X77.451 Y149.85 E6.82831
G1 X76.597 Y150.075 E6.87421
G1 X75.726 Y150.221 E6.9201
G1 X74.546 Y150.293 E6.98154
G1 X19.546 Y150.293 E9.83983
G1 X18.664 Y150.253 E9.88572
G1 X17.789 Y150.133 E9.93162
G1 X16.929 Y149.935 E9.97748
G1 X16.09 Y149.66 E10.02336
G1 X15.279 Y149.31 E10.06927
G1 X14.504 Y148.888 E10.11513
G1 X13.769 Y148.397 E10.16106
G1 X13.082 Y147.843 E10.20693
G1 X12.449 Y147.228 E10.25279
G1 X11.873 Y146.559 E10.29867
G1 X11.36 Y145.84 E10.34457
G1 X10.915 Y145.077 E10.39048
G1 X10.54 Y144.278 E10.43635
G1 X10.239 Y143.448 E10.48223
G1 X10.014 Y142.594 E10.52813
G1 X9.868 Y141.723 E10.57402
G1 X9.796 Y140.543 E10.63546
G1 X9.796 Y93.887 E13.06012
G1 X9.836 Y93.005 E13.10601
G1 X9.956 Y92.13 E13.15191
G1 X10.154 Y91.27 E13.19777
G1 X10.429 Y90.431 E13.24365
G1 X10.779 Y89.62 E13.28956
G1 X11.201 Y88.845 E13.33542
G1 X11.692 Y88.11 E13.38135
G1 X12.246 Y87.423 E13.42722
G1 X12.861 Y86.79 E13.47308
G1 X13.53 Y86.214 E13.51896
G1 X14.249 Y85.701 E13.56486
G1 X15.012 Y85.256 E13.61077
G1 X15.811 Y84.881 E13.65664
G1 X16.641 Y84.58 E13.70252
G1 X17 Y84.485 E13.72182
G0 F810 X17.495 Y84.355
M204 S5000
M205 X30 Y30
G0 F7200 X17.929 Y84.779
M204 S500
M205 X20 Y20
G1 F6000 E13.74843
G1 F900 X18.782 Y84.669 E13.79312
G1 X19.546 Y84.637 E13.83286
G1 X74.546 Y84.637 E16.69115
G1 X75.405 Y84.677 E16.73584
G1 X76.257 Y84.797 E16.78056
G1 X77.094 Y84.995 E16.82526
G1 X77.908 Y85.27 E16.86991
G1 X78.694 Y85.619 E16.9146
G1 X79.444 Y86.04 E16.9593
G1 X80.152 Y86.529 E17.00402
G1 X80.811 Y87.081 E17.04869
G1 X81.416 Y87.693 E17.09341
G1 X81.961 Y88.358 E17.1381
G1 X82.443 Y89.07 E17.18278
G1 X82.856 Y89.824 E17.22746
G1 X83.197 Y90.614 E17.27217
G1 X83.464 Y91.431 E17.31684
G1 X83.654 Y92.27 E17.36155
G1 X83.764 Y93.123 E17.40625
G1 X83.796 Y93.887 E17.44598
G1 X83.796 Y140.543 E19.87065
G1 X83.756 Y141.402 E19.91534
G1 X83.636 Y142.254 E19.96005
G1 X83.438 Y143.091 E20.00475
G1 X83.163 Y143.905 E20.0494
G1 X82.814 Y144.691 E20.0941
G1 X82.393 Y145.441 E20.13879
G1 X81.904 Y146.149 E20.18351
G1 X81.352 Y146.808 E20.22819
G1 X80.74 Y147.413 E20.27291
G1 X80.075 Y147.958 E20.31759
G1 X79.363 Y148.44 E20.36227
G1 X78.609 Y148.853 E20.40695
G1 X77.819 Y149.194 E20.45167
G1 X77.002 Y149.461 E20.49634
G1 X76.163 Y149.651 E20.54104
G1 X75.31 Y149.761 E20.58574
G1 X74.546 Y149.793 E20.62548
G1 X19.546 Y149.793 E23.48377
G1 X18.687 Y149.753 E23.52846
G1 X17.835 Y149.633 E23.57318
G1 X16.998 Y149.435 E23.61787
G1 X16.184 Y149.16 E23.66253
G1 X15.398 Y148.811 E23.70722
G1 X14.648 Y148.39 E23.75192
G1 X13.94 Y147.901 E23.79663
G1 X13.281 Y147.349 E23.84131
G1 X12.676 Y146.737 E23.88603
G1 X12.131 Y146.072 E23.93071
G1 X11.649 Y145.36 E23.9754
G1 X11.236 Y144.606 E24.02007
G1 X10.895 Y143.816 E24.06479
G1 X10.628 Y142.999 E24.10946
G1 X10.438 Y142.16 E24.15417
G1 X10.328 Y141.307 E24.19886
G1 X10.296 Y140.543 E24.2386
G1 X10.296 Y93.887 E26.66327
G1 X10.336 Y93.028 E26.70796
G1 X10.456 Y92.176 E26.75267
G1 X10.654 Y91.339 E26.79737
G1 X10.929 Y90.525 E26.84202
G1 X11.278 Y89.739 E26.88671
G1 X11.699 Y88.989 E26.93141
G1 X12.188 Y88.281 E26.97613
G1 X12.74 Y87.622 E27.0208
G1 X13.352 Y87.017 E27.06553
G1 X14.017 Y86.472 E27.11021
G1 X14.729 Y85.99 E27.15489
G1 X15.483 Y85.577 E27.19957
G1 X16.273 Y85.236 E27.24429
G1 X17.09 Y84.969 E27.28895
G1 X17.43 Y84.892 E27.30707
G0 F810 X17.929 Y84.779
M204 S5000
M205 X30 Y30
G0 F7200 X17.534 Y85.371
M204 S500
M205 X20 Y20
G1 F6000 E27.33368
G1 F900 X18.356 Y85.218 E27.37713
G1 X19.546 Y85.137 E27.43912
G1 X74.546 Y85.137 E30.29741
G1 X75.381 Y85.177 E30.34085
G1 X76.209 Y85.297 E30.38433
G1 X77.022 Y85.495 E30.42782
G1 X77.812 Y85.769 E30.47127
G1 X78.572 Y86.118 E30.51474
G1 X79.295 Y86.538 E30.55819
G1 X79.975 Y87.025 E30.60166
G1 X80.606 Y87.575 E30.64516
G1 X81.181 Y88.182 E30.68861
G1 X81.695 Y88.842 E30.73208
G1 X82.144 Y89.548 E30.77556
G1 X82.524 Y90.293 E30.81903
G1 X82.831 Y91.071 E30.86249
G1 X83.062 Y91.875 E30.90597
G1 X83.215 Y92.697 E30.94942
G1 X83.296 Y93.887 E31.01141
G1 X83.296 Y140.543 E33.43607
G1 X83.256 Y141.378 E33.47951
G1 X83.136 Y142.206 E33.52299
G1 X82.938 Y143.019 E33.56648
G1 X82.664 Y143.809 E33.60993
G1 X82.315 Y144.569 E33.65339
G1 X81.895 Y145.292 E33.69685
G1 X81.408 Y145.972 E33.74032
G1 X80.858 Y146.603 E33.78382
G1 X80.251 Y147.178 E33.82727
G1 X79.591 Y147.692 E33.87074
G1 X78.885 Y148.141 E33.91422
G1 X78.14 Y148.521 E33.95769
G1 X77.362 Y148.828 E34.00115
G1 X76.558 Y149.059 E34.04462
G1 X75.736 Y149.212 E34.08808
G1 X74.546 Y149.293 E34.15006
G1 X19.546 Y149.293 E37.00836
G1 X18.711 Y149.253 E37.0518
G1 X17.883 Y149.133 E37.09528
G1 X17.07 Y148.935 E37.13877
G1 X16.28 Y148.661 E37.18222
G1 X15.52 Y148.312 E37.22568
G1 X14.797 Y147.892 E37.26914
G1 X14.117 Y147.405 E37.3126
G1 X13.486 Y146.855 E37.3561
G1 X12.911 Y146.248 E37.39955
G1 X12.397 Y145.588 E37.44303
G1 X11.948 Y144.882 E37.48651
G1 X11.568 Y144.137 E37.52997
G1 X11.261 Y143.359 E37.57344
G1 X11.03 Y142.555 E37.61691
G1 X10.877 Y141.733 E37.66036
G1 X10.796 Y140.543 E37.72235
G1 X10.796 Y93.887 E40.14701
G1 X10.836 Y93.052 E40.19046
G1 X10.956 Y92.224 E40.23394
G1 X11.154 Y91.411 E40.27742
G1 X11.428 Y90.621 E40.32088
G1 X11.777 Y89.861 E40.36434
G1 X12.197 Y89.138 E40.40779
G1 X12.684 Y88.458 E40.45126
G1 X13.234 Y87.827 E40.49476
G1 X13.841 Y87.252 E40.53821
G1 X14.501 Y86.738 E40.58169
G1 X15.207 Y86.289 E40.62517
G1 X15.952 Y85.909 E40.66863
G1 X16.73 Y85.602 E40.7121
G1 X17.042 Y85.512 E40.72897
G0 F810 X17.534 Y85.371
M204 S5000
M205 X30 Y30
G0 F7200 X17.971 Y85.789
M204 S500
M205 X20 Y20
G1 F6000 E40.75558
G1 F900 X18.775 Y85.673 E40.7978
G1 X19.546 Y85.637 E40.83791
G1 X74.546 Y85.637 E43.6962
G1 X75.357 Y85.677 E43.7384
G1 X76.16 Y85.797 E43.78059
G1 X76.948 Y85.994 E43.8228
G1 X77.713 Y86.269 E43.86505
G1 X78.446 Y86.617 E43.90722
G1 X79.142 Y87.036 E43.94944
G1 X79.793 Y87.521 E43.99163
G1 X80.394 Y88.068 E44.03386
G1 X80.938 Y88.671 E44.07607
G1 X81.42 Y89.325 E44.11829
G1 X81.835 Y90.023 E44.16049
G1 X82.18 Y90.758 E44.20268
G1 X82.45 Y91.524 E44.24489
G1 X82.644 Y92.312 E44.28707
G1 X82.76 Y93.116 E44.32928
G1 X82.796 Y93.887 E44.36939
G1 X82.796 Y140.543 E46.79406
G1 X82.756 Y141.354 E46.83626
G1 X82.636 Y142.157 E46.87845
G1 X82.439 Y142.945 E46.92066
G1 X82.164 Y143.71 E46.96291
G1 X81.816 Y144.443 E47.00508
G1 X81.397 Y145.139 E47.0473
G1 X80.912 Y145.79 E47.08949
G1 X80.365 Y146.391 E47.13172
G1 X79.762 Y146.935 E47.17392
G1 X79.108 Y147.417 E47.21615
G1 X78.41 Y147.832 E47.25835
G1 X77.675 Y148.177 E47.30054
G1 X76.909 Y148.447 E47.34275
G1 X76.121 Y148.641 E47.38493
G1 X75.317 Y148.757 E47.42714
G1 X74.546 Y148.793 E47.46725
G1 X19.546 Y148.793 E50.32555
G1 X18.735 Y148.753 E50.36774
G1 X17.932 Y148.633 E50.40994
G1 X17.144 Y148.436 E50.45215
G1 X16.379 Y148.161 E50.4944
G1 X15.646 Y147.813 E50.53657
G1 X14.95 Y147.394 E50.57878
G1 X14.299 Y146.909 E50.62097
G1 X13.698 Y146.362 E50.66321
G1 X13.154 Y145.759 E50.70541
G1 X12.672 Y145.105 E50.74763
G1 X12.257 Y144.407 E50.78983
G1 X11.912 Y143.672 E50.83203
G1 X11.642 Y142.906 E50.87424
G1 X11.448 Y142.118 E50.91641
G1 X11.332 Y141.314 E50.95863
G1 X11.296 Y140.543 E50.99874
G1 X11.296 Y93.887 E53.4234
G1 X11.336 Y93.076 E53.4656
G1 X11.456 Y92.273 E53.5078
G1 X11.653 Y91.485 E53.55001
G1 X11.928 Y90.72 E53.59226
G1 X12.276 Y89.987 E53.63442
G1 X12.695 Y89.291 E53.67664
G1 X13.18 Y88.64 E53.71883
G1 X13.727 Y88.039 E53.76106
G1 X14.33 Y87.495 E53.80327
G1 X14.984 Y87.013 E53.84549
G1 X15.682 Y86.598 E53.88769
G1 X16.417 Y86.253 E53.92989
G1 X17.183 Y85.983 E53.9721
G1 X17.474 Y85.911 E53.98768
G0 F810 X17.971 Y85.789
M204 S5000
M205 X30 Y30
G0 F7200 X17.63 Y86.378
M204 S500
M205 X20 Y20
G1 F6000 E54.01428
G1 F900 X18.401 Y86.222 E54.05516
G1 X19.546 Y86.137 E54.11483
G1 X74.546 Y86.137 E56.97313
G1 X75.332 Y86.177 E57.01403
G1 X76.11 Y86.296 E57.05493
G1 X76.872 Y86.494 E57.09584
G1 X77.61 Y86.768 E57.13675
G1 X78.316 Y87.116 E57.17766
G1 X78.984 Y87.533 E57.21858
G1 X79.605 Y88.016 E57.25947
G1 X80.175 Y88.56 E57.30042
G1 X80.686 Y89.158 E57.34129
G1 X81.134 Y89.805 E57.38219
G1 X81.514 Y90.495 E57.42313
G1 X81.822 Y91.219 E57.46402
G1 X82.055 Y91.971 E57.50493
G1 X82.211 Y92.742 E57.54581
G1 X82.296 Y93.887 E57.60548
G1 X82.296 Y140.543 E60.03014
G1 X82.256 Y141.329 E60.07104
G1 X82.137 Y142.107 E60.11195
G1 X81.939 Y142.869 E60.15286
G1 X81.665 Y143.607 E60.19377
G1 X81.317 Y144.313 E60.23468
G1 X80.9 Y144.981 E60.2756
G1 X80.417 Y145.602 E60.31649
G1 X79.873 Y146.172 E60.35744
G1 X79.275 Y146.683 E60.39831
G1 X78.628 Y147.131 E60.43921
G1 X77.938 Y147.511 E60.48015
G1 X77.214 Y147.819 E60.52104
G1 X76.462 Y148.052 E60.56195
G1 X75.691 Y148.208 E60.60283
G1 X74.546 Y148.293 E60.6625
G1 X19.546 Y148.293 E63.52079
G1 X18.76 Y148.253 E63.56169
G1 X17.982 Y148.134 E63.60259
G1 X17.22 Y147.936 E63.64351
G1 X16.482 Y147.662 E63.68442
G1 X15.776 Y147.314 E63.72533
G1 X15.108 Y146.897 E63.76625
G1 X14.487 Y146.414 E63.80714
G1 X13.917 Y145.87 E63.84808
G1 X13.406 Y145.272 E63.88896
G1 X12.958 Y144.625 E63.92986
G1 X12.578 Y143.935 E63.9708
G1 X12.27 Y143.211 E64.01168
G1 X12.037 Y142.459 E64.0526
G1 X11.881 Y141.688 E64.09348
G1 X11.796 Y140.543 E64.15315
G1 X11.796 Y93.887 E66.57781
G1 X11.836 Y93.101 E66.61871
G1 X11.955 Y92.323 E66.65961
G1 X12.153 Y91.561 E66.70053
G1 X12.427 Y90.823 E66.74144
G1 X12.775 Y90.117 E66.78234
G1 X13.192 Y89.449 E66.82327
G1 X13.675 Y88.828 E66.86415
G1 X14.219 Y88.258 E66.9051
G1 X14.817 Y87.747 E66.94598
G1 X15.464 Y87.299 E66.98688
G1 X16.154 Y86.919 E67.02781
G1 X16.878 Y86.611 E67.0687
G1 X17.141 Y86.529 E67.08302
G0 F810 X17.63 Y86.378
M204 S5000
M205 X30 Y30
G0 F7200 X18.07 Y86.789
M204 S500
M205 X20 Y20
G1 F6000 E67.10963
G1 F900 X18.822 Y86.673 E67.14917
G1 X19.546 Y86.637 E67.18684
G1 X74.546 Y86.637 E70.04514
G1 X75.306 Y86.677 E70.08469
G1 X76.058 Y86.796 E70.12425
G1 X76.793 Y86.994 E70.16381
G1 X77.504 Y87.268 E70.20341
G1 X78.182 Y87.614 E70.24297
G1 X78.819 Y88.03 E70.28251
G1 X79.41 Y88.511 E70.32211
G1 X79.947 Y89.05 E70.36165
G1 X80.424 Y89.643 E70.4012
G1 X80.837 Y90.283 E70.44078
G1 X81.18 Y90.963 E70.48036
G1 X81.45 Y91.675 E70.51994
G1 X81.644 Y92.411 E70.55949
G1 X81.76 Y93.163 E70.59903
G1 X81.796 Y93.887 E70.63671
G1 X81.796 Y140.543 E73.06137
G1 X81.756 Y141.303 E73.10092
G1 X81.637 Y142.055 E73.14049
G1 X81.439 Y142.79 E73.18005
G1 X81.165 Y143.501 E73.21965
G1 X80.819 Y144.179 E73.2592
G1 X80.403 Y144.816 E73.29874
G1 X79.922 Y145.407 E73.33834
G1 X79.383 Y145.944 E73.37788
G1 X78.79 Y146.421 E73.41743
G1 X78.15 Y146.834 E73.45702
G1 X77.47 Y147.177 E73.4966
G1 X76.758 Y147.447 E73.53617
G1 X76.022 Y147.641 E73.57573
G1 X75.27 Y147.757 E73.61527
G1 X74.546 Y147.793 E73.65294
G1 X19.546 Y147.793 E76.51123
G1 X18.786 Y147.753 E76.55079
G1 X18.034 Y147.634 E76.59035
G1 X17.299 Y147.436 E76.62991
G1 X16.588 Y147.162 E76.66951
G1 X15.91 Y146.816 E76.70907
G1 X15.273 Y146.4 E76.74861
G1 X14.682 Y145.919 E76.78821
G1 X14.145 Y145.38 E76.82775
G1 X13.668 Y144.787 E76.8673
G1 X13.255 Y144.147 E76.90688
G1 X12.912 Y143.467 E76.94646
G1 X12.642 Y142.755 E76.98603
G1 X12.448 Y142.019 E77.02559
G1 X12.332 Y141.267 E77.06513
G1 X12.296 Y140.543 E77.1028
G1 X12.296 Y93.887 E79.52747
G1 X12.336 Y93.127 E79.56702
G1 X12.455 Y92.375 E79.60659
G1 X12.653 Y91.64 E79.64615
G1 X12.927 Y90.929 E79.68574
G1 X13.273 Y90.251 E79.7253
G1 X13.689 Y89.614 E79.76484
G1 X14.17 Y89.023 E79.80444
G1 X14.709 Y88.486 E79.84398
G1 X15.302 Y88.009 E79.88353
G1 X15.942 Y87.596 E79.92312
G1 X16.622 Y87.253 E79.9627
G1 X17.334 Y86.983 E80.00227
G1 X17.575 Y86.919 E80.01523
G0 F810 X18.07 Y86.789
M204 S5000
M205 X30 Y30
G0 F7200 X17.783 Y87.371
M204 S500
M205 X20 Y20
G1 F6000 E80.04184
G1 F900 X18.502 Y87.218 E80.08004
G1 X19.546 Y87.137 E80.13446
G1 X74.546 Y87.137 E82.99275
G1 X75.279 Y87.177 E83.0309
G1 X76.004 Y87.296 E83.06908
G1 X76.712 Y87.494 E83.10729
G1 X77.394 Y87.767 E83.14546
G1 X78.042 Y88.113 E83.18364
G1 X78.649 Y88.527 E83.22182
G1 X79.207 Y89.004 E83.25997
G1 X79.71 Y89.54 E83.29817
G1 X80.152 Y90.127 E83.33636
G1 X80.527 Y90.758 E83.37451
G1 X80.832 Y91.426 E83.41267
G1 X81.062 Y92.124 E83.45086
G1 X81.215 Y92.843 E83.48906
G1 X81.296 Y93.887 E83.54348
G1 X81.296 Y140.543 E85.96815
G1 X81.256 Y141.276 E86.0063
G1 X81.137 Y142.001 E86.04448
G1 X80.939 Y142.709 E86.08268
G1 X80.666 Y143.391 E86.12086
G1 X80.32 Y144.039 E86.15904
G1 X79.906 Y144.646 E86.19722
G1 X79.429 Y145.204 E86.23537
G1 X78.893 Y145.707 E86.27357
G1 X78.306 Y146.149 E86.31176
G1 X77.675 Y146.524 E86.3499
G1 X77.007 Y146.829 E86.38807
G1 X76.309 Y147.059 E86.42626
G1 X75.59 Y147.212 E86.46446
G1 X74.546 Y147.293 E86.51888
G1 X19.546 Y147.293 E89.37717
G1 X18.813 Y147.253 E89.41532
G1 X18.088 Y147.134 E89.4535
G1 X17.38 Y146.936 E89.49171
G1 X16.698 Y146.663 E89.52989
G1 X16.05 Y146.317 E89.56806
G1 X15.443 Y145.903 E89.60625
G1 X14.885 Y145.426 E89.6444
G1 X14.382 Y144.89 E89.6826
G1 X13.94 Y144.303 E89.72078
G1 X13.565 Y143.672 E89.75893
G1 X13.26 Y143.004 E89.79709
G1 X13.03 Y142.306 E89.83529
G1 X12.877 Y141.587 E89.87349
G1 X12.796 Y140.543 E89.92791
G1 X12.796 Y93.887 E92.35257
G1 X12.836 Y93.154 E92.39072
G1 X12.955 Y92.429 E92.4289
G1 X13.153 Y91.721 E92.46711
G1 X13.426 Y91.039 E92.50529
G1 X13.772 Y90.391 E92.54346
G1 X14.186 Y89.784 E92.58164
G1 X14.663 Y89.226 E92.61979
G1 X15.199 Y88.723 E92.65799
G1 X15.786 Y88.281 E92.69618
G1 X16.417 Y87.906 E92.73433
G1 X17.085 Y87.601 E92.77249
G1 X17.297 Y87.531 E92.78409
G0 F810 X17.783 Y87.371
M204 S5000
M205 X30 Y30
G0 F7200 X18.225 Y87.778
M204 S500
M205 X20 Y20
G1 F6000 E92.8107
G1 F900 X18.923 Y87.668 E92.84742
G1 X19.546 Y87.637 E92.87984
G1 X74.546 Y87.637 E95.73813
G1 X75.252 Y87.677 E95.77488
G1 X75.948 Y87.796 E95.81158
G1 X76.627 Y87.994 E95.84833
G1 X77.279 Y88.266 E95.88505
G1 X77.896 Y88.611 E95.92178
G1 X78.471 Y89.023 E95.95855
G1 X78.995 Y89.497 E95.99527
G1 X79.462 Y90.028 E96.03202
G1 X79.866 Y90.607 E96.06871
G1 X80.203 Y91.229 E96.10547
G1 X80.467 Y91.885 E96.14222
G1 X80.655 Y92.566 E96.17893
G1 X80.765 Y93.264 E96.21566
G1 X80.796 Y93.887 E96.24807
G1 X80.796 Y140.543 E98.67274
G1 X80.756 Y141.249 E98.70949
G1 X80.637 Y141.945 E98.74618
G1 X80.439 Y142.624 E98.78294
G1 X80.167 Y143.276 E98.81965
G1 X79.822 Y143.893 E98.85639
G1 X79.41 Y144.468 E98.89315
