;FLAVOR:Marlin
;TIME:334
;Filament used: 0.118529m
;Layer height: 0.16
;Generated with Cura_SteamEngine 3.6.0
M140 S70
M105
M190 S70
M104 S215
M105
M109 S215
M82 ;absolute extrusion mode
G28 ; home all axes
M117 Purge extruder
G92 E0 ; reset extruder
G1 Z1.0 F3000 ; move z up little to prevent scratching of surface
G1 X0.1 Y20 Z0.3 F5000.0 ; move to start-line position G1 X0.1 Y200.0 Z0.3 F1500.0 E15 ; draw 1st line
G1 X0.4 Y200.0 Z0.3 F5000.0 ; move to side a little
G1 X0.4 Y20 Z0.3 F1500.0 E30 ; draw 2nd line
G92 E0 ; reset extruder
G1 Z1.0 F3000 ; move z up little to prevent scratching of surface
M117 All systems go!
G92 E0
G1 F6000 E-5
;LAYER_COUNT:3
;LAYER:0
M107
M204 S5000
M205 X30 Y30
G0 F7200 X102.149 Y9.953 Z0.16
M204 S500
M205 X20 Y20
;TYPE:SKIRT
G1 F6000 E0
G1 F900 X102.269 Y9.076 E0.02355
G1 X102.467 Y8.213 E0.04711
G1 X102.742 Y7.372 E0.07066
G1 X103.092 Y6.559 E0.09421
G1 X103.514 Y5.78 E0.11778
G1 X104.005 Y5.044 E0.14132
G1 X104.56 Y4.354 E0.16488
G1 X104.979 Y3.907 E0.18119
G1 X105.096 Y3.79 E0.18559
G1 X105.75 Y3.193 E0.20915
G1 X106.455 Y2.658 E0.2327
G1 X107.205 Y2.188 E0.25625
G1 X107.995 Y1.788 E0.27981
G1 X108.817 Y1.46 E0.30336
G1 X109.666 Y1.209 E0.32692
G1 X110.534 Y1.034 E0.35048
G1 X111.414 Y0.939 E0.37403
G1 X112.026 Y0.92 E0.39032
G1 X126.492 Y0.92 E0.77523
G1 X127.376 Y0.96 E0.79878
G1 X128.253 Y1.08 E0.82233
G1 X129.116 Y1.278 E0.84589
G1 X129.957 Y1.553 E0.86943
G1 X130.77 Y1.903 E0.89299
G1 X131.549 Y2.325 E0.91656
G1 X132.285 Y2.816 E0.9401
G1 X132.975 Y3.371 E0.96366
G1 X133.422 Y3.79 E0.97997
G1 X133.539 Y3.907 E0.98437
G1 X134.136 Y4.561 E1.00793
G1 X134.671 Y5.266 E1.03148
G1 X135.141 Y6.016 E1.05503
G1 X135.541 Y6.806 E1.07859
G1 X135.869 Y7.628 E1.10214
G1 X136.12 Y8.477 E1.1257
G1 X136.295 Y9.345 E1.14926
G1 X136.39 Y10.225 E1.17281
G1 X136.409 Y10.837 E1.1891
G1 X136.409 Y30.303 E1.70705
G1 X136.369 Y31.187 E1.7306
G1 X136.249 Y32.064 E1.75415
G1 X136.051 Y32.927 E1.77771
G1 X135.776 Y33.768 E1.80125
G1 X135.426 Y34.581 E1.82481
G1 X135.004 Y35.36 E1.84838
G1 X134.513 Y36.096 E1.87192
G1 X133.958 Y36.786 E1.89548
G1 X133.539 Y37.233 E1.91179
G1 X133.422 Y37.35 E1.91619
G1 X132.768 Y37.947 E1.93975
G1 X132.063 Y38.482 E1.9633
G1 X131.313 Y38.952 E1.98685
G1 X130.523 Y39.352 E2.01041
G1 X129.701 Y39.68 E2.03396
G1 X128.852 Y39.931 E2.05752
G1 X127.984 Y40.106 E2.08108
G1 X127.104 Y40.201 E2.10463
G1 X126.492 Y40.22 E2.12092
G1 X112.026 Y40.22 E2.50583
G1 X111.142 Y40.18 E2.52938
G1 X110.265 Y40.06 E2.55293
G1 X109.402 Y39.862 E2.57649
G1 X108.561 Y39.587 E2.60003
G1 X107.748 Y39.237 E2.62359
G1 X106.969 Y38.815 E2.64716
G1 X106.233 Y38.324 E2.6707
G1 X105.543 Y37.769 E2.69426
G1 X105.096 Y37.35 E2.71056
G1 X104.979 Y37.233 E2.71497
G1 X104.382 Y36.579 E2.73853
G1 X103.847 Y35.874 E2.76208
G1 X103.377 Y35.124 E2.78563
G1 X102.977 Y34.334 E2.80919
G1 X102.649 Y33.512 E2.83274
G1 X102.398 Y32.663 E2.8563
G1 X102.223 Y31.795 E2.87986
G1 X102.128 Y30.915 E2.90341
G1 X102.109 Y30.303 E2.9197
G1 X102.109 Y10.953 E3.43457
G0 F810 X102.109 Y10.837
G0 X102.149 Y9.953
M204 S5000
M205 X30 Y30
G0 F7200 X102.549 Y9.971
M204 S500
M205 X20 Y20
G1 F6000 E3.46117
G1 F900 X102.669 Y9.112 E3.48425
G1 X102.867 Y8.268 E3.50732
G1 X103.142 Y7.446 E3.53038
G1 X103.492 Y6.653 E3.55345
G1 X103.913 Y5.895 E3.57652
G1 X104.402 Y5.18 E3.59957
G1 X104.955 Y4.512 E3.62264
G1 X105.262 Y4.19 E3.63448
G1 X105.379 Y4.073 E3.63888
G1 X106.02 Y3.489 E3.66195
G1 X106.712 Y2.966 E3.68503
G1 X107.449 Y2.51 E3.7081
G1 X108.224 Y2.123 E3.73114
G1 X109.033 Y1.809 E3.75423
G1 X109.866 Y1.571 E3.77729
G1 X110.718 Y1.411 E3.80035
G1 X111.581 Y1.331 E3.82341
G1 X112.026 Y1.32 E3.83526
G1 X126.492 Y1.32 E4.22017
G1 X127.358 Y1.36 E4.24324
G1 X128.217 Y1.48 E4.26632
G1 X129.061 Y1.678 E4.28938
G1 X129.883 Y1.953 E4.31245
G1 X130.676 Y2.303 E4.33551
G1 X131.434 Y2.724 E4.35858
G1 X132.149 Y3.213 E4.38163
G1 X132.817 Y3.766 E4.40471
G1 X133.139 Y4.073 E4.41654
G1 X133.256 Y4.19 E4.42095
G1 X133.84 Y4.831 E4.44402
G1 X134.363 Y5.523 E4.4671
G1 X134.819 Y6.26 E4.49016
G1 X135.206 Y7.035 E4.51321
G1 X135.52 Y7.844 E4.5363
G1 X135.758 Y8.677 E4.55935
G1 X135.918 Y9.529 E4.58242
G1 X135.998 Y10.392 E4.60548
G1 X136.009 Y10.837 E4.61732
G1 X136.009 Y30.303 E5.13528
G1 X135.969 Y31.169 E5.15834
G1 X135.849 Y32.028 E5.18142
G1 X135.651 Y32.872 E5.20449
G1 X135.376 Y33.694 E5.22755
G1 X135.026 Y34.487 E5.25062
G1 X134.605 Y35.245 E5.27369
G1 X134.116 Y35.96 E5.29674
G1 X133.563 Y36.628 E5.31981
G1 X133.256 Y36.95 E5.33165
G1 X133.139 Y37.067 E5.33605
G1 X132.498 Y37.651 E5.35912
G1 X131.806 Y38.174 E5.3822
G1 X131.069 Y38.63 E5.40526
G1 X130.294 Y39.017 E5.42831
G1 X129.485 Y39.331 E5.4514
G1 X128.652 Y39.569 E5.47445
G1 X127.8 Y39.729 E5.49752
G1 X126.937 Y39.809 E5.52058
G1 X126.492 Y39.82 E5.53243
G1 X112.026 Y39.82 E5.91734
G1 X111.16 Y39.78 E5.94041
G1 X110.301 Y39.66 E5.96349
G1 X109.457 Y39.462 E5.98655
G1 X108.635 Y39.187 E6.00962
G1 X107.842 Y38.837 E6.03268
G1 X107.084 Y38.416 E6.05575
G1 X106.369 Y37.927 E6.0788
G1 X105.701 Y37.374 E6.10187
G1 X105.379 Y37.067 E6.11371
G1 X105.262 Y36.95 E6.11811
G1 X104.678 Y36.309 E6.14119
G1 X104.155 Y35.617 E6.16427
G1 X103.699 Y34.88 E6.18733
G1 X103.312 Y34.105 E6.21038
G1 X102.998 Y33.296 E6.23347
G1 X102.76 Y32.463 E6.25652
G1 X102.6 Y31.611 E6.27959
G1 X102.52 Y30.748 E6.30265
G1 X102.509 Y30.303 E6.31449
G1 X102.509 Y10.971 E6.82888
G0 F810 X102.509 Y10.837
G0 X102.549 Y9.971
M204 S5000
M205 X30 Y30
G0 F7200 X102.949 Y9.99
M204 S500
M205 X20 Y20
G1 F6000 E6.85549
G1 F900 X103.069 Y9.15 E6.87806
G1 X103.267 Y8.325 E6.90064
G1 X103.542 Y7.522 E6.92322
G1 X103.891 Y6.749 E6.94579
G1 X104.311 Y6.013 E6.96834
G1 X104.799 Y5.319 E6.99091
G1 X105.545 Y4.473 E7.02093
G1 X105.662 Y4.356 E7.02533
G1 X106.289 Y3.785 E7.04789
G1 X106.968 Y3.276 E7.07047
G1 X107.691 Y2.833 E7.09303
G1 X108.453 Y2.46 E7.11561
G1 X109.247 Y2.16 E7.13819
G1 X110.065 Y1.936 E7.16076
G1 X110.901 Y1.791 E7.18334
G1 X112.026 Y1.72 E7.21333
G1 X126.492 Y1.72 E7.59824
G1 X127.339 Y1.76 E7.6208
G1 X128.179 Y1.88 E7.64338
G1 X129.004 Y2.078 E7.66596
G1 X129.807 Y2.353 E7.68854
G1 X130.58 Y2.702 E7.71111
G1 X131.316 Y3.122 E7.73366
G1 X132.01 Y3.61 E7.75623
G1 X132.856 Y4.356 E7.78624
G1 X132.973 Y4.473 E7.79065
G1 X133.544 Y5.1 E7.81321
G1 X134.053 Y5.779 E7.83579
G1 X134.496 Y6.502 E7.85835
G1 X134.869 Y7.264 E7.88093
G1 X135.169 Y8.058 E7.90351
G1 X135.393 Y8.876 E7.92608
G1 X135.538 Y9.712 E7.94865
G1 X135.609 Y10.837 E7.97865
G1 X135.609 Y30.303 E8.4966
G1 X135.569 Y31.15 E8.51916
G1 X135.449 Y31.99 E8.54174
G1 X135.251 Y32.815 E8.56432
G1 X134.976 Y33.618 E8.5869
G1 X134.627 Y34.391 E8.60947
G1 X134.207 Y35.127 E8.63202
G1 X133.719 Y35.821 E8.65459
G1 X132.973 Y36.667 E8.6846
G1 X132.856 Y36.784 E8.68901
G1 X132.229 Y37.355 E8.71157
G1 X131.55 Y37.864 E8.73415
G1 X130.827 Y38.307 E8.75671
G1 X130.065 Y38.68 E8.77929
G1 X129.271 Y38.98 E8.80187
G1 X128.453 Y39.204 E8.82444
G1 X127.617 Y39.349 E8.84701
G1 X126.492 Y39.42 E8.87701
G1 X112.026 Y39.42 E9.26192
G1 X111.179 Y39.38 E9.28448
G1 X110.339 Y39.26 E9.30706
G1 X109.514 Y39.062 E9.32963
G1 X108.711 Y38.787 E9.35222
G1 X107.938 Y38.438 E9.37479
G1 X107.202 Y38.018 E9.39733
G1 X106.508 Y37.53 E9.41991
G1 X105.662 Y36.784 E9.44992
G1 X105.545 Y36.667 E9.45432
G1 X104.974 Y36.04 E9.47689
G1 X104.465 Y35.361 E9.49947
G1 X104.022 Y34.638 E9.52203
G1 X103.649 Y33.876 E9.5446
G1 X103.349 Y33.082 E9.56719
G1 X103.125 Y32.264 E9.58975
G1 X102.98 Y31.428 E9.61233
G1 X102.909 Y30.303 E9.64233
G1 X102.909 Y10.99 E10.15621
G0 F810 X102.909 Y10.837
G0 X102.949 Y9.99
M204 S5000
M205 X30 Y30
G0 F7200 X103.349 Y10.009
M204 S500
M205 X20 Y20
G1 F6000 E10.18282
G1 F900 X103.469 Y9.188 E10.20489
G1 X103.667 Y8.383 E10.22695
G1 X103.941 Y7.601 E10.249
G1 X104.29 Y6.848 E10.27108
G1 X104.71 Y6.133 E10.29315
G1 X105.196 Y5.462 E10.31519
G1 X105.828 Y4.756 E10.3404
G1 X105.945 Y4.639 E10.34481
G1 X106.559 Y4.081 E10.36688
G1 X107.224 Y3.586 E10.38894
G1 X107.933 Y3.156 E10.411
G1 X108.68 Y2.797 E10.43306
G1 X109.459 Y2.512 E10.45513
G1 X110.261 Y2.303 E10.47718
G1 X111.08 Y2.172 E10.49925
G1 X112.026 Y2.12 E10.52446
G1 X126.492 Y2.12 E10.90937
G1 X127.32 Y2.16 E10.93143
G1 X128.141 Y2.28 E10.95351
G1 X128.946 Y2.478 E10.97556
G1 X129.728 Y2.752 E10.99761
G1 X130.481 Y3.101 E11.0197
G1 X131.196 Y3.521 E11.04176
G1 X131.867 Y4.007 E11.06381
G1 X132.573 Y4.639 E11.08902
G1 X132.69 Y4.756 E11.09342
G1 X133.248 Y5.37 E11.1155
G1 X133.743 Y6.035 E11.13755
G1 X134.173 Y6.744 E11.15962
G1 X134.532 Y7.491 E11.18167
G1 X134.817 Y8.27 E11.20374
G1 X135.026 Y9.072 E11.22579
G1 X135.157 Y9.891 E11.24786
G1 X135.209 Y10.837 E11.27307
G1 X135.209 Y30.303 E11.79103
G1 X135.169 Y31.131 E11.81308
G1 X135.049 Y31.952 E11.83516
G1 X134.851 Y32.757 E11.85722
G1 X134.577 Y33.539 E11.87927
G1 X134.228 Y34.292 E11.90135
G1 X133.808 Y35.007 E11.92341
G1 X133.322 Y35.678 E11.94546
G1 X132.69 Y36.384 E11.97067
G1 X132.573 Y36.501 E11.97507
G1 X131.959 Y37.059 E11.99715
G1 X131.294 Y37.554 E12.01921
G1 X130.585 Y37.984 E12.04127
G1 X129.838 Y38.343 E12.06333
G1 X129.059 Y38.628 E12.0854
G1 X128.257 Y38.837 E12.10745
G1 X127.438 Y38.968 E12.12952
G1 X126.492 Y39.02 E12.15473
G1 X112.026 Y39.02 E12.53964
G1 X111.198 Y38.98 E12.5617
G1 X110.377 Y38.86 E12.58377
G1 X109.572 Y38.662 E12.60583
G1 X108.79 Y38.388 E12.62788
G1 X108.037 Y38.039 E12.64996
G1 X107.322 Y37.619 E12.67203
G1 X106.651 Y37.133 E12.69407
G1 X105.945 Y36.501 E12.71929
G1 X105.828 Y36.384 E12.72369
G1 X105.27 Y35.77 E12.74576
G1 X104.775 Y35.105 E12.76782
G1 X104.345 Y34.396 E12.78989
G1 X103.986 Y33.649 E12.81194
G1 X103.701 Y32.87 E12.83401
G1 X103.492 Y32.068 E12.85606
G1 X103.361 Y31.249 E12.87813
G1 X103.309 Y30.303 E12.90334
G1 X103.309 Y11.009 E13.41672
G0 F810 X103.309 Y10.837
G0 X103.349 Y10.009
M204 S5000
M205 X30 Y30
G0 F7200 X103.749 Y10.028
M204 S500
M205 X20 Y20
G1 F6000 E13.44333
G1 F900 X103.869 Y9.227 E13.46488
G1 X104.066 Y8.442 E13.48641
G1 X104.341 Y7.681 E13.50794
G1 X104.689 Y6.95 E13.52948
G1 X105.108 Y6.256 E13.55106
G1 X105.593 Y5.608 E13.57259
G1 X106.111 Y5.039 E13.59307
G1 X106.228 Y4.922 E13.59747
G1 X106.828 Y4.378 E13.61902
G1 X107.479 Y3.896 E13.64057
G1 X108.174 Y3.481 E13.66211
G1 X108.906 Y3.137 E13.68363
G1 X109.67 Y2.866 E13.7052
G1 X110.456 Y2.672 E13.72674
G1 X111.257 Y2.556 E13.74828
G1 X112.026 Y2.52 E13.76876
G1 X126.492 Y2.52 E14.15367
G1 X127.301 Y2.56 E14.17523
G1 X128.102 Y2.68 E14.19678
G1 X128.887 Y2.877 E14.21831
G1 X129.648 Y3.152 E14.23984
G1 X130.379 Y3.5 E14.26138
G1 X131.073 Y3.919 E14.28296
G1 X131.721 Y4.404 E14.30449
G1 X132.29 Y4.922 E14.32497
G1 X132.407 Y5.039 E14.32937
G1 X132.951 Y5.639 E14.35092
G1 X133.433 Y6.29 E14.37247
G1 X133.848 Y6.985 E14.39401
G1 X134.192 Y7.717 E14.41553
G1 X134.463 Y8.481 E14.4371
G1 X134.657 Y9.267 E14.45864
G1 X134.773 Y10.068 E14.48018
G1 X134.809 Y10.837 E14.50066
G1 X134.809 Y30.303 E15.01862
G1 X134.769 Y31.112 E15.04017
G1 X134.649 Y31.913 E15.06172
G1 X134.452 Y32.698 E15.08325
G1 X134.177 Y33.459 E15.10478
G1 X133.829 Y34.19 E15.12633
G1 X133.41 Y34.884 E15.1479
G1 X132.925 Y35.532 E15.16943
G1 X132.407 Y36.101 E15.18991
G1 X132.29 Y36.218 E15.19431
G1 X131.69 Y36.762 E15.21586
G1 X131.039 Y37.244 E15.23741
G1 X130.344 Y37.659 E15.25895
G1 X129.612 Y38.003 E15.28047
G1 X128.848 Y38.274 E15.30204
G1 X128.062 Y38.468 E15.32358
G1 X127.261 Y38.584 E15.34512
G1 X126.492 Y38.62 E15.3656
G1 X112.026 Y38.62 E15.75052
G1 X111.217 Y38.58 E15.77207
G1 X110.416 Y38.46 E15.79362
G1 X109.631 Y38.263 E15.81515
G1 X108.87 Y37.988 E15.83668
G1 X108.139 Y37.64 E15.85823
G1 X107.445 Y37.221 E15.8798
G1 X106.797 Y36.736 E15.90133
G1 X106.228 Y36.218 E15.92181
G1 X106.111 Y36.101 E15.92621
G1 X105.567 Y35.501 E15.94776
G1 X105.085 Y34.85 E15.96931
G1 X104.67 Y34.155 E15.99085
G1 X104.326 Y33.423 E16.01237
G1 X104.055 Y32.659 E16.03394
G1 X103.861 Y31.873 E16.05548
G1 X103.745 Y31.072 E16.07702
G1 X103.709 Y30.303 E16.0975
G1 X103.709 Y11.028 E16.61037
G0 F810 X103.709 Y10.837
G0 X103.749 Y10.028
M204 S5000
M205 X30 Y30
G0 F7200 X104.149 Y10.048
M204 S500
M205 X20 Y20
G1 F6000 E16.63698
G1 F900 X104.268 Y9.268 E16.65798
G1 X104.466 Y8.503 E16.679
G1 X104.74 Y7.763 E16.7
G1 X105.088 Y7.054 E16.72101
G1 X105.506 Y6.383 E16.74205
G1 X105.989 Y5.759 E16.76305
G1 X106.394 Y5.322 E16.7789
G1 X106.511 Y5.205 E16.7833
G1 X107.097 Y4.675 E16.80433
G1 X107.733 Y4.208 E16.82532
G1 X108.413 Y3.807 E16.84633
G1 X109.131 Y3.477 E16.86735
G1 X109.878 Y3.222 E16.88835
G1 X110.647 Y3.043 E16.90936
G1 X111.431 Y2.943 E16.93039
G1 X112.026 Y2.92 E16.94624
G1 X126.492 Y2.92 E17.33115
G1 X127.281 Y2.96 E17.35217
G1 X128.061 Y3.079 E17.37316
G1 X128.826 Y3.277 E17.39419
G1 X129.566 Y3.551 E17.41519
G1 X130.275 Y3.899 E17.4362
G1 X130.946 Y4.317 E17.45724
G1 X131.57 Y4.8 E17.47823
G1 X132.007 Y5.205 E17.49409
G1 X132.124 Y5.322 E17.49849
G1 X132.654 Y5.908 E17.51951
G1 X133.121 Y6.544 E17.54051
G1 X133.522 Y7.224 E17.56151
G1 X133.852 Y7.942 E17.58254
G1 X134.107 Y8.689 E17.60354
G1 X134.286 Y9.458 E17.62455
G1 X134.386 Y10.242 E17.64558
G1 X134.409 Y10.837 E17.66142
G1 X134.409 Y30.303 E18.17938
G1 X134.369 Y31.092 E18.2004
G1 X134.25 Y31.872 E18.22139
G1 X134.052 Y32.637 E18.24242
G1 X133.778 Y33.377 E18.26341
G1 X133.43 Y34.086 E18.28443
G1 X133.012 Y34.757 E18.30546
G1 X132.529 Y35.381 E18.32646
G1 X132.124 Y35.818 E18.34231
G1 X132.007 Y35.935 E18.34672
G1 X131.421 Y36.465 E18.36774
G1 X130.785 Y36.932 E18.38874
G1 X130.105 Y37.333 E18.40974
G1 X129.387 Y37.663 E18.43077
G1 X128.64 Y37.918 E18.45177
G1 X127.871 Y38.097 E18.47278
G1 X127.087 Y38.197 E18.49381
G1 X126.492 Y38.22 E18.50965
G1 X112.026 Y38.22 E18.89456
G1 X111.237 Y38.18 E18.91558
G1 X110.457 Y38.061 E18.93658
G1 X109.692 Y37.863 E18.9576
G1 X108.952 Y37.589 E18.9786
G1 X108.243 Y37.241 E18.99962
G1 X107.572 Y36.823 E19.02065
G1 X106.948 Y36.34 E19.04165
G1 X106.511 Y35.935 E19.0575
G1 X106.394 Y35.818 E19.0619
G1 X105.864 Y35.232 E19.08293
G1 X105.397 Y34.596 E19.10392
G1 X104.996 Y33.916 E19.12493
G1 X104.666 Y33.198 E19.14595
G1 X104.411 Y32.451 E19.16696
G1 X104.232 Y31.682 E19.18796
G1 X104.132 Y30.898 E19.20899
G1 X104.109 Y30.303 E19.22484
G1 X104.109 Y11.047 E19.7372
G0 F810 X104.109 Y10.837
G0 X104.149 Y10.048
M204 S5000
M205 X30 Y30
G0 F7200 X104.549 Y10.069
M204 S500
M205 X20 Y20
G1 F6000 E19.76381
G1 F900 X104.668 Y9.309 E19.78428
G1 X104.866 Y8.566 E19.80474
G1 X105.14 Y7.847 E19.82521
G1 X105.487 Y7.161 E19.84567
G1 X105.903 Y6.514 E19.86614
G1 X106.384 Y5.914 E19.8866
G1 X106.676 Y5.604 E19.89793
G1 X106.793 Y5.487 E19.90233
G1 X107.365 Y4.973 E19.92279
G1 X107.987 Y4.52 E19.94327
G1 X108.652 Y4.134 E19.96373
G1 X109.354 Y3.819 E19.9842
G1 X110.085 Y3.579 E20.00467
G1 X110.836 Y3.416 E20.02512
G1 X111.601 Y3.332 E20.0456
G1 X112.026 Y3.32 E20.05691
G1 X126.492 Y3.32 E20.44182
G1 X127.26 Y3.36 E20.46229
G1 X128.02 Y3.479 E20.48275
G1 X128.763 Y3.677 E20.50321
G1 X129.482 Y3.951 E20.52369
G1 X130.168 Y4.298 E20.54414
G1 X130.815 Y4.714 E20.56461
G1 X131.415 Y5.195 E20.58507
G1 X131.725 Y5.487 E20.5964
G1 X131.842 Y5.604 E20.60081
G1 X132.356 Y6.176 E20.62127
G1 X132.809 Y6.798 E20.64174
G1 X133.195 Y7.463 E20.6622
G1 X133.51 Y8.165 E20.68267
G1 X133.75 Y8.896 E20.70315
G1 X133.913 Y9.647 E20.72359
G1 X133.997 Y10.412 E20.74407
G1 X134.009 Y10.837 E20.75539
G1 X134.009 Y30.303 E21.27334
G1 X133.969 Y31.071 E21.2938
G1 X133.85 Y31.831 E21.31427
G1 X133.652 Y32.574 E21.33473
G1 X133.378 Y33.293 E21.3552
G1 X133.031 Y33.979 E21.37566
G1 X132.615 Y34.626 E21.39613
G1 X132.134 Y35.226 E21.41659
G1 X131.842 Y35.536 E21.42792
G1 X131.725 Y35.653 E21.43232
G1 X131.153 Y36.167 E21.45278
G1 X130.531 Y36.62 E21.47326
G1 X129.866 Y37.006 E21.49372
G1 X129.164 Y37.321 E21.51419
G1 X128.433 Y37.561 E21.53466
G1 X127.682 Y37.724 E21.55511
G1 X126.917 Y37.808 E21.57559
G1 X126.492 Y37.82 E21.5869
G1 X112.026 Y37.82 E21.97181
G1 X111.258 Y37.78 E21.99228
G1 X110.498 Y37.661 E22.01274
G1 X109.755 Y37.463 E22.0332
G1 X109.036 Y37.189 E22.05368
G1 X108.35 Y36.842 E22.07413
G1 X107.703 Y36.426 E22.0946
