;FLAVOR:Marlin
;TIME:4604
;Filament used: 3.48574m
;Layer height: 0.16
;Generated with Cura_SteamEngine 3.6.0
M140 S70
M105
M190 S70
M104 S215
M105
M109 S215
M82 ;absolute extrusion mode
G28 ; home all axes
M117 Purge extruder
G92 E0 ; reset extruder
G1 Z1.0 F3000 ; move z up little to prevent scratching of surface
G1 X0.1 Y20 Z0.3 F5000.0 ; move to start-line position G1 X0.1 Y200.0 Z0.3 F1500.0 E15 ; draw 1st line
G1 X0.4 Y200.0 Z0.3 F5000.0 ; move to side a little
G1 X0.4 Y20 Z0.3 F1500.0 E30 ; draw 2nd line
G92 E0 ; reset extruder
G1 Z1.0 F3000 ; move z up little to prevent scratching of surface
M117 All systems go!
G92 E0
G1 F6000 E-5
;LAYER_COUNT:45
;LAYER:0
M107
M204 S5000
M205 X30 Y30
G0 F7200 X79.518 Y104.357 Z0.2
M204 S500
M205 X20 Y20
;TYPE:SKIRT
G1 F6000 E0
G1 F900 X79.829 Y104.142 E0.01383
G1 X80.373 Y103.814 E0.03707
G1 X80.955 Y103.557 E0.06035
G1 X81.564 Y103.374 E0.08362
G1 X82.192 Y103.27 E0.1069
G1 X82.7 Y103.244 E0.12551
G1 X100.154 Y103.225 E0.76409
G1 X100.789 Y103.264 E0.78737
G1 X101.414 Y103.383 E0.81064
G1 X102.019 Y103.579 E0.83391
G1 X102.519 Y103.808 E0.85403
G1 X102.965 Y104.043 E0.87247
G1 X103.508 Y104.375 E0.89576
G1 X104.005 Y104.771 E0.91901
G1 X104.448 Y105.227 E0.94227
G1 X104.5 Y105.296 E0.94543
G1 X104.559 Y105.219 E0.94898
G1 X105.003 Y104.764 E0.97224
G1 X105.518 Y104.357 E0.99625
G1 X105.829 Y104.142 E1.01009
G1 X106.373 Y103.814 E1.03333
G1 X106.955 Y103.557 E1.0566
G1 X107.564 Y103.374 E1.07987
G1 X108.192 Y103.27 E1.10316
G1 X108.7 Y103.244 E1.12177
G1 X126.154 Y103.225 E1.76034
G1 X126.789 Y103.264 E1.78362
G1 X127.414 Y103.383 E1.8069
G1 X128.019 Y103.579 E1.83016
G1 X128.519 Y103.808 E1.85028
G1 X128.965 Y104.043 E1.86873
G1 X129.508 Y104.375 E1.89201
G1 X130.005 Y104.771 E1.91526
G1 X130.448 Y105.227 E1.93852
G1 X130.5 Y105.296 E1.94168
G1 X130.559 Y105.219 E1.94523
G1 X131.003 Y104.764 E1.96849
G1 X131.518 Y104.357 E1.99251
G1 X131.829 Y104.142 E2.00634
G1 X132.373 Y103.814 E2.02958
G1 X132.955 Y103.557 E2.05286
G1 X133.564 Y103.374 E2.07612
G1 X134.192 Y103.27 E2.09941
G1 X134.7 Y103.244 E2.11802
G1 X152.154 Y103.225 E2.7566
G1 X152.789 Y103.264 E2.77987
G1 X153.414 Y103.383 E2.80315
G1 X154.019 Y103.579 E2.82642
G1 X154.519 Y103.808 E2.84654
G1 X154.965 Y104.043 E2.86498
G1 X155.508 Y104.375 E2.88827
G1 X156.005 Y104.771 E2.91152
G1 X156.448 Y105.227 E2.93478
G1 X156.831 Y105.735 E2.95805
G1 X157.147 Y106.287 E2.98132
G1 X157.383 Y106.851 E3.00369
G1 X157.492 Y107.163 E3.01578
G1 X157.663 Y107.775 E3.03903
G1 X157.757 Y108.405 E3.06233
G1 X157.775 Y108.837 E3.07815
G1 X157.757 Y126.301 E3.71709
G1 X157.716 Y126.936 E3.74038
G1 X157.596 Y127.56 E3.76362
G1 X157.399 Y128.165 E3.7869
G1 X157.128 Y128.74 E3.81016
G1 X156.857 Y129.177 E3.82897
G1 X156.643 Y129.486 E3.84272
G1 X156.249 Y129.985 E3.86598
G1 X155.795 Y130.431 E3.88927
G1 X155.289 Y130.816 E3.91253
G1 X154.739 Y131.134 E3.93577
G1 X154.146 Y131.384 E3.95932
G1 X153.83 Y131.494 E3.97156
G1 X153.218 Y131.665 E3.99481
G1 X152.589 Y131.757 E4.01807
G1 X152.153 Y131.775 E4.03403
G1 X134.615 Y131.725 E4.67568
G1 X133.98 Y131.683 E4.69896
G1 X133.356 Y131.562 E4.72222
G1 X132.752 Y131.364 E4.74548
G1 X132.177 Y131.091 E4.76876
G1 X131.464 Y130.613 E4.80017
G1 X131.217 Y130.415 E4.81175
G1 X130.747 Y129.987 E4.83501
G1 X130.488 Y129.683 E4.84962
G1 X130.249 Y129.985 E4.86371
G1 X129.795 Y130.431 E4.88699
G1 X129.289 Y130.816 E4.91026
G1 X128.739 Y131.134 E4.9335
G1 X128.146 Y131.384 E4.95704
G1 X127.83 Y131.494 E4.96929
G1 X127.791 Y131.505 E4.97077
G1 X128.019 Y131.579 E4.97954
G1 X128.519 Y131.808 E4.99966
G1 X128.965 Y132.043 E5.0181
G1 X129.508 Y132.375 E5.04139
G1 X130.005 Y132.771 E5.06464
G1 X130.448 Y133.227 E5.0879
G1 X130.831 Y133.735 E5.11117
G1 X131.147 Y134.287 E5.13444
G1 X131.383 Y134.851 E5.15681
G1 X131.492 Y135.163 E5.1689
G1 X131.663 Y135.775 E5.19215
G1 X131.757 Y136.405 E5.21546
G1 X131.775 Y136.837 E5.23128
G1 X131.757 Y154.301 E5.87022
G1 X131.716 Y154.936 E5.8935
G1 X131.596 Y155.56 E5.91674
G1 X131.399 Y156.165 E5.94002
G1 X131.128 Y156.74 E5.96328
G1 X130.857 Y157.177 E5.98209
G1 X130.643 Y157.486 E5.99584
G1 X130.249 Y157.985 E6.01911
G1 X129.795 Y158.431 E6.04239
G1 X129.289 Y158.816 E6.06565
G1 X128.739 Y159.134 E6.0889
G1 X128.146 Y159.384 E6.11244
G1 X127.83 Y159.494 E6.12468
G1 X127.218 Y159.665 E6.14793
G1 X126.589 Y159.757 E6.17119
G1 X126.153 Y159.775 E6.18715
G1 X108.615 Y159.725 E6.8288
G1 X107.98 Y159.683 E6.85209
G1 X107.356 Y159.562 E6.87534
G1 X106.752 Y159.364 E6.8986
G1 X106.177 Y159.091 E6.92188
G1 X105.464 Y158.613 E6.95329
G1 X105.217 Y158.415 E6.96487
G1 X104.747 Y157.987 E6.98813
G1 X104.334 Y157.503 E7.01141
G1 X103.985 Y156.972 E7.03465
G1 X103.706 Y156.4 E7.05794
G1 X103.587 Y156.082 E7.07036
G1 X103.491 Y155.797 E7.08136
G1 X103.326 Y155.183 E7.10462
G1 X103.24 Y154.553 E7.12789
G1 X103.226 Y154.182 E7.14147
G1 X103.226 Y136.834 E7.77617
G1 X103.266 Y136.199 E7.79945
G1 X103.385 Y135.575 E7.82269
G1 X103.504 Y135.179 E7.83781
G1 X103.613 Y134.864 E7.85001
G1 X103.858 Y134.278 E7.87325
G1 X104.175 Y133.726 E7.89654
G1 X104.559 Y133.219 E7.91981
G1 X105.003 Y132.764 E7.94306
G1 X105.518 Y132.357 E7.96708
G1 X105.829 Y132.142 E7.98091
G1 X106.373 Y131.814 E8.00415
G1 X106.955 Y131.557 E8.02743
G1 X107.156 Y131.497 E8.0351
G1 X106.752 Y131.364 E8.05067
G1 X106.177 Y131.091 E8.07395
G1 X105.464 Y130.613 E8.10536
G1 X105.217 Y130.415 E8.11694
G1 X104.747 Y129.987 E8.1402
G1 X104.488 Y129.683 E8.15481
G1 X104.249 Y129.985 E8.1689
G1 X103.795 Y130.431 E8.19218
G1 X103.289 Y130.816 E8.21545
G1 X102.739 Y131.134 E8.23869
G1 X102.146 Y131.384 E8.26223
G1 X101.83 Y131.494 E8.27448
G1 X101.218 Y131.665 E8.29772
G1 X100.589 Y131.757 E8.32098
G1 X100.153 Y131.775 E8.33695
G1 X82.615 Y131.725 E8.9786
G1 X81.98 Y131.683 E9.00188
G1 X81.356 Y131.562 E9.02514
G1 X80.752 Y131.364 E9.04839
G1 X80.177 Y131.091 E9.07168
G1 X79.464 Y130.613 E9.10308
G1 X79.217 Y130.415 E9.11467
G1 X78.747 Y129.987 E9.13792
G1 X78.334 Y129.503 E9.1612
G1 X77.985 Y128.972 E9.18445
G1 X77.706 Y128.4 E9.20773
G1 X77.587 Y128.082 E9.22016
G1 X77.491 Y127.797 E9.23116
G1 X77.326 Y127.183 E9.25442
G1 X77.24 Y126.553 E9.27768
G1 X77.226 Y126.182 E9.29126
G1 X77.226 Y108.834 E9.92596
G1 X77.266 Y108.199 E9.94924
G1 X77.385 Y107.575 E9.97248
G1 X77.504 Y107.179 E9.98761
G1 X77.613 Y106.864 E9.9998
G1 X77.858 Y106.278 E10.02304
G1 X78.175 Y105.726 E10.04633
G1 X78.559 Y105.219 E10.0696
G1 X78.954 Y104.814 E10.0903
G0 F810 X79.003 Y104.764
G0 X79.518 Y104.357
M204 S5000
M205 X30 Y30
G0 F7200 X79.768 Y104.719
M204 S500
M205 X20 Y20
G1 F6000 E10.1169
G1 F900 X80.079 Y104.504 E10.13073
G1 X80.6 Y104.192 E10.15295
G1 X81.158 Y103.951 E10.17518
G1 X81.743 Y103.786 E10.19742
G1 X82.344 Y103.698 E10.21964
G1 X82.701 Y103.684 E10.23272
G1 X100.155 Y103.665 E10.87129
G1 X100.761 Y103.704 E10.89351
G1 X101.357 Y103.823 E10.91574
G1 X101.932 Y104.019 E10.93797
G1 X102.314 Y104.198 E10.9534
G1 X102.76 Y104.433 E10.97185
G1 X103.277 Y104.751 E10.99405
G1 X103.749 Y105.134 E11.01629
G1 X104.166 Y105.576 E11.03852
G1 X104.503 Y106.042 E11.05957
G1 X104.572 Y105.924 E11.06457
G1 X104.946 Y105.445 E11.0868
G1 X105.379 Y105.019 E11.10902
G1 X105.768 Y104.719 E11.127
G1 X106.079 Y104.504 E11.14083
G1 X106.6 Y104.192 E11.16305
G1 X107.158 Y103.951 E11.18528
G1 X107.743 Y103.786 E11.20752
G1 X108.344 Y103.698 E11.22975
G1 X108.701 Y103.684 E11.24282
G1 X126.155 Y103.665 E11.88139
G1 X126.761 Y103.704 E11.90361
G1 X127.357 Y103.823 E11.92584
G1 X127.932 Y104.019 E11.94807
G1 X128.314 Y104.198 E11.9635
G1 X128.76 Y104.433 E11.98195
G1 X129.277 Y104.751 E12.00415
G1 X129.749 Y105.134 E12.02639
G1 X130.166 Y105.576 E12.04863
G1 X130.503 Y106.042 E12.06967
G1 X130.572 Y105.924 E12.07467
G1 X130.946 Y105.445 E12.0969
G1 X131.379 Y105.019 E12.11912
G1 X131.768 Y104.719 E12.1371
G1 X132.079 Y104.504 E12.15093
G1 X132.6 Y104.192 E12.17315
G1 X133.158 Y103.951 E12.19538
G1 X133.743 Y103.786 E12.21762
G1 X134.344 Y103.698 E12.23985
G1 X134.701 Y103.684 E12.25292
G1 X152.155 Y103.665 E12.89149
G1 X152.761 Y103.704 E12.91371
G1 X153.357 Y103.823 E12.93594
G1 X153.932 Y104.019 E12.95817
G1 X154.314 Y104.198 E12.9736
G1 X154.76 Y104.433 E12.99205
G1 X155.277 Y104.751 E13.01426
G1 X155.749 Y105.134 E13.03649
G1 X156.166 Y105.576 E13.05873
G1 X156.522 Y106.068 E13.08094
G1 X156.81 Y106.603 E13.10317
G1 X156.967 Y106.996 E13.11866
G1 X157.076 Y107.308 E13.13075
G1 X157.239 Y107.894 E13.153
G1 X157.323 Y108.496 E13.17524
G1 X157.335 Y108.837 E13.18772
G1 X157.317 Y126.301 E13.82666
G1 X157.276 Y126.907 E13.84889
G1 X157.157 Y127.503 E13.87112
G1 X156.96 Y128.078 E13.89336
G1 X156.689 Y128.622 E13.9156
G1 X156.495 Y128.926 E13.92879
G1 X156.281 Y129.235 E13.94254
G1 X155.903 Y129.711 E13.96478
G1 X155.466 Y130.133 E13.98701
G1 X154.977 Y130.494 E14.00924
G1 X154.445 Y130.788 E14.03148
G1 X154.002 Y130.968 E14.04898
G1 X153.686 Y131.078 E14.06122
G1 X153.1 Y131.24 E14.08346
G1 X152.498 Y131.323 E14.10569
G1 X152.154 Y131.335 E14.11829
G1 X134.616 Y131.285 E14.75994
G1 X134.01 Y131.243 E14.78216
G1 X133.414 Y131.122 E14.80441
G1 X132.84 Y130.924 E14.82663
G1 X132.296 Y130.653 E14.84886
G1 X131.739 Y130.27 E14.87359
G1 X131.492 Y130.072 E14.88518
G1 X131.044 Y129.661 E14.90742
G1 X130.654 Y129.196 E14.92962
G1 X130.488 Y128.935 E14.94094
G1 X130.281 Y129.235 E14.95428
G1 X129.903 Y129.711 E14.97651
G1 X129.466 Y130.133 E14.99874
G1 X128.977 Y130.494 E15.02098
G1 X128.445 Y130.788 E15.04322
G1 X128.002 Y130.968 E15.06071
G1 X127.686 Y131.078 E15.07295
G1 X127.1 Y131.24 E15.0952
G1 X126.498 Y131.323 E15.11743
G1 X126.154 Y131.335 E15.13002
G1 X108.616 Y131.285 E15.77167
G1 X108.01 Y131.243 E15.7939
G1 X107.414 Y131.122 E15.81615
G1 X106.84 Y130.924 E15.83836
G1 X106.296 Y130.653 E15.8606
G1 X105.739 Y130.27 E15.88533
G1 X105.492 Y130.072 E15.89691
G1 X105.044 Y129.661 E15.91915
G1 X104.654 Y129.196 E15.94136
G1 X104.488 Y128.935 E15.95267
G1 X104.281 Y129.235 E15.96601
G1 X103.903 Y129.711 E15.98825
G1 X103.466 Y130.133 E16.01047
G1 X102.977 Y130.494 E16.03271
G1 X102.445 Y130.788 E16.05495
G1 X102.002 Y130.968 E16.07244
G1 X101.686 Y131.078 E16.08469
G1 X101.1 Y131.24 E16.10693
G1 X100.498 Y131.323 E16.12916
G1 X100.154 Y131.335 E16.14176
G1 X82.616 Y131.285 E16.78341
G1 X82.01 Y131.243 E16.80563
G1 X81.414 Y131.122 E16.82788
G1 X80.84 Y130.924 E16.8501
G1 X80.296 Y130.653 E16.87233
G1 X79.739 Y130.27 E16.89706
G1 X79.492 Y130.072 E16.90864
G1 X79.044 Y129.661 E16.93089
G1 X78.654 Y129.196 E16.95309
G1 X78.328 Y128.683 E16.97533
G1 X78.004 Y127.942 E17.00492
G1 X77.908 Y127.657 E17.01592
G1 X77.752 Y127.069 E17.03818
G1 X77.666 Y126.182 E17.07078
G1 X77.666 Y108.834 E17.70548
G1 X77.706 Y108.228 E17.7277
G1 X77.825 Y107.632 E17.74993
G1 X77.92 Y107.323 E17.76176
G1 X78.029 Y107.008 E17.77396
G1 X78.265 Y106.448 E17.79619
G1 X78.572 Y105.924 E17.81841
G1 X78.946 Y105.445 E17.84064
G1 X79.211 Y105.184 E17.85425
G0 F810 X79.379 Y105.019
G0 X79.768 Y104.719
M204 S5000
M205 X30 Y30
G0 F7200 X80.018 Y105.081
M204 S500
M205 X20 Y20
G1 F6000 E17.88085
G1 F900 X80.329 Y104.866 E17.89468
G1 X80.826 Y104.571 E17.91583
G1 X81.359 Y104.347 E17.93698
G1 X81.918 Y104.199 E17.95814
G1 X82.701 Y104.124 E17.98691
G1 X100.155 Y104.105 E18.62549
G1 X100.732 Y104.144 E18.64665
G1 X101.298 Y104.263 E18.66781
G1 X101.842 Y104.458 E18.68895
G1 X102.109 Y104.587 E18.6998
G1 X102.555 Y104.822 E18.71824
G1 X103.046 Y105.126 E18.73937
G1 X103.491 Y105.495 E18.76052
G1 X103.88 Y105.922 E18.78165
G1 X104.208 Y106.398 E18.8028
G1 X104.499 Y107.026 E18.82813
G1 X104.671 Y106.62 E18.84426
G1 X104.969 Y106.125 E18.8654
G1 X105.332 Y105.675 E18.88655
G1 X105.753 Y105.28 E18.90767
G1 X106.018 Y105.081 E18.9198
G1 X106.329 Y104.866 E18.93363
G1 X106.826 Y104.571 E18.95477
G1 X107.359 Y104.347 E18.97593
G1 X107.918 Y104.199 E18.99708
G1 X108.701 Y104.124 E19.02586
G1 X126.155 Y104.105 E19.66443
G1 X126.732 Y104.144 E19.68559
G1 X127.298 Y104.263 E19.70675
G1 X127.842 Y104.458 E19.7279
G1 X128.109 Y104.587 E19.73875
G1 X128.555 Y104.822 E19.75719
G1 X129.046 Y105.126 E19.77832
G1 X129.491 Y105.495 E19.79947
G1 X129.88 Y105.922 E19.8206
G1 X130.208 Y106.398 E19.84175
G1 X130.499 Y107.026 E19.86707
G1 X130.671 Y106.62 E19.8832
G1 X130.969 Y106.125 E19.90434
G1 X131.332 Y105.675 E19.9255
G1 X131.753 Y105.28 E19.94662
G1 X132.018 Y105.081 E19.95874
G1 X132.329 Y104.866 E19.97257
G1 X132.826 Y104.571 E19.99372
G1 X133.359 Y104.347 E20.01487
G1 X133.918 Y104.199 E20.03603
G1 X134.701 Y104.124 E20.06481
G1 X152.155 Y104.105 E20.70338
G1 X152.732 Y104.144 E20.72454
G1 X153.298 Y104.263 E20.7457
G1 X153.842 Y104.458 E20.76684
G1 X154.109 Y104.587 E20.77769
G1 X154.555 Y104.822 E20.79614
G1 X155.046 Y105.126 E20.81726
G1 X155.491 Y105.495 E20.83841
G1 X155.88 Y105.922 E20.85955
G1 X156.208 Y106.398 E20.8807
G1 X156.552 Y107.141 E20.91065
G1 X156.661 Y107.453 E20.92274
G1 X156.814 Y108.011 E20.94391
G1 X156.895 Y108.836 E20.97424
G1 X156.877 Y126.3 E21.61318
G1 X156.836 Y126.877 E21.63435
G1 X156.717 Y127.442 E21.65547
G1 X156.52 Y127.986 E21.67664
G1 X156.133 Y128.676 E21.70558
G1 X155.919 Y128.985 E21.71933
G1 X155.558 Y129.436 E21.74047
G1 X155.138 Y129.833 E21.76161
G1 X154.668 Y130.169 E21.78275
G1 X154.155 Y130.436 E21.80391
G1 X153.857 Y130.553 E21.81562
G1 X153.541 Y130.663 E21.82786
G1 X152.984 Y130.814 E21.84898
G1 X152.155 Y130.895 E21.87945
G1 X134.617 Y130.845 E22.5211
G1 X134.041 Y130.803 E22.54223
G1 X133.475 Y130.683 E22.5634
G1 X132.932 Y130.485 E22.58455
G1 X132.422 Y130.215 E22.60566
G1 X132.015 Y129.926 E22.62392
G1 X131.768 Y129.728 E22.6355
G1 X131.343 Y129.337 E22.65663
G1 X130.976 Y128.89 E22.67779
G1 X130.674 Y128.397 E22.69894
G1 X130.508 Y128.007 E22.71445
G1 X130.133 Y128.676 E22.74251
G1 X129.919 Y128.985 E22.75626
G1 X129.558 Y129.436 E22.7774
G1 X129.138 Y129.833 E22.79854
G1 X128.668 Y130.169 E22.81968
G1 X128.155 Y130.436 E22.84084
G1 X127.857 Y130.553 E22.85255
G1 X127.541 Y130.663 E22.86479
G1 X126.984 Y130.814 E22.88591
G1 X126.155 Y130.895 E22.91638
G1 X108.617 Y130.845 E23.55803
G1 X108.041 Y130.803 E23.57916
G1 X107.475 Y130.683 E23.60033
G1 X106.932 Y130.485 E23.62147
G1 X106.422 Y130.215 E23.64259
G1 X106.015 Y129.926 E23.66085
G1 X105.768 Y129.728 E23.67243
G1 X105.343 Y129.337 E23.69356
G1 X104.976 Y128.89 E23.71472
G1 X104.674 Y128.397 E23.73587
G1 X104.508 Y128.007 E23.75138
G1 X104.133 Y128.676 E23.77944
G1 X103.919 Y128.985 E23.79319
G1 X103.558 Y129.436 E23.81433
G1 X103.138 Y129.833 E23.83547
G1 X102.668 Y130.169 E23.85661
G1 X102.155 Y130.436 E23.87777
G1 X101.857 Y130.553 E23.88948
G1 X101.541 Y130.663 E23.90172
G1 X100.984 Y130.814 E23.92283
G1 X100.155 Y130.895 E23.95331
G1 X82.617 Y130.845 E24.59496
G1 X82.041 Y130.803 E24.61609
G1 X81.475 Y130.683 E24.63726
G1 X80.932 Y130.485 E24.6584
G1 X80.422 Y130.215 E24.67952
G1 X80.015 Y129.926 E24.69778
G1 X79.768 Y129.728 E24.70936
G1 X79.343 Y129.337 E24.73049
G1 X78.976 Y128.89 E24.75165
G1 X78.674 Y128.397 E24.7728
G1 X78.421 Y127.801 E24.79649
G1 X78.325 Y127.516 E24.80749
G1 X78.179 Y126.957 E24.82863
G1 X78.106 Y126.182 E24.85711
G1 X78.106 Y108.834 E25.49181
G1 X78.146 Y108.257 E25.51297
G1 X78.336 Y107.467 E25.54269
G1 X78.445 Y107.152 E25.55489
G1 X78.671 Y106.62 E25.57604
G1 X78.969 Y106.125 E25.59718
G1 X79.332 Y105.675 E25.61833
G1 X79.465 Y105.551 E25.62498
G0 F810 X79.753 Y105.28
G0 X80.018 Y105.081
M204 S5000
M205 X30 Y30
G0 F7200 X80.268 Y105.443
M204 S500
M205 X20 Y20
G1 F6000 E25.65158
G1 F900 X80.579 Y105.228 E25.66541
G1 X81.05 Y104.95 E25.68542
G1 X81.557 Y104.745 E25.70543
G1 X82.088 Y104.615 E25.72543
G1 X82.702 Y104.564 E25.74797
G1 X100.156 Y104.545 E26.38655
G1 X100.701 Y104.584 E26.40654
G1 X101.235 Y104.703 E26.42655
G1 X101.903 Y104.976 E26.45295
G1 X102.349 Y105.211 E26.4714
G1 X102.813 Y105.501 E26.49142
G1 X103.23 Y105.855 E26.51143
G1 X103.59 Y106.266 E26.53142
G1 X103.887 Y106.725 E26.55142
G1 X104.137 Y107.287 E26.57393
G1 X104.246 Y107.599 E26.58602
G1 X104.388 Y108.126 E26.60599
G1 X104.455 Y108.836 E26.63208
G1 X104.437 Y126.3 E27.27102
