;FLAVOR:Marlin
;TIME:1163
;Filament used: 0.87436m
;Layer height: 0.16
;Generated with Cura_SteamEngine 3.6.0
M140 S70
M105
M190 S70
M104 S215
M105
M109 S215
M82 ;absolute extrusion mode
G28 ; home all axes
M117 Purge extruder
G92 E0 ; reset extruder
G1 Z1.0 F3000 ; move z up little to prevent scratching of surface
G1 X0.1 Y20 Z0.3 F5000.0 ; move to start-line position G1 X0.1 Y200.0 Z0.3 F1500.0 E15 ; draw 1st line
G1 X0.4 Y200.0 Z0.3 F5000.0 ; move to side a little
G1 X0.4 Y20 Z0.3 F1500.0 E30 ; draw 2nd line
G92 E0 ; reset extruder
G1 Z1.0 F3000 ; move z up little to prevent scratching of surface
M117 All systems go!
G92 E0
G1 F6000 E-5
;LAYER_COUNT:45
;LAYER:0
M107
M204 S5000
M205 X30 Y30
G0 F7200 X105.003 Y104.764 Z0.2
M204 S500
M205 X20 Y20
;TYPE:SKIRT
G1 F6000 E0
G1 F900 X105.518 Y104.357 E0.02402
G1 X105.829 Y104.142 E0.03785
G1 X106.373 Y103.814 E0.06109
G1 X106.955 Y103.557 E0.08437
G1 X107.564 Y103.374 E0.10763
G1 X108.192 Y103.27 E0.13092
G1 X108.7 Y103.244 E0.14953
G1 X126.154 Y103.225 E0.7881
G1 X126.789 Y103.264 E0.81138
G1 X127.414 Y103.383 E0.83466
G1 X128.019 Y103.579 E0.85793
G1 X128.519 Y103.808 E0.87805
G1 X128.965 Y104.043 E0.89649
G1 X129.508 Y104.375 E0.91977
G1 X130.005 Y104.771 E0.94302
G1 X130.448 Y105.227 E0.96628
G1 X130.831 Y105.735 E0.98956
G1 X131.147 Y106.287 E1.01283
G1 X131.383 Y106.851 E1.0352
G1 X131.492 Y107.163 E1.04729
G1 X131.663 Y107.775 E1.07054
G1 X131.757 Y108.405 E1.09384
G1 X131.775 Y108.837 E1.10966
G1 X131.757 Y126.301 E1.7486
G1 X131.716 Y126.936 E1.77188
G1 X131.596 Y127.56 E1.79513
G1 X131.399 Y128.165 E1.81841
G1 X131.128 Y128.74 E1.84167
G1 X130.857 Y129.177 E1.86048
G1 X130.643 Y129.486 E1.87423
G1 X130.249 Y129.985 E1.89749
G1 X129.795 Y130.431 E1.92078
G1 X129.289 Y130.816 E1.94404
G1 X128.739 Y131.134 E1.96728
G1 X128.146 Y131.384 E1.99083
G1 X127.83 Y131.494 E2.00307
G1 X127.218 Y131.665 E2.02632
G1 X126.589 Y131.757 E2.04957
G1 X126.153 Y131.775 E2.06554
G1 X108.615 Y131.725 E2.70719
G1 X107.98 Y131.683 E2.73047
G1 X107.356 Y131.562 E2.75373
G1 X106.752 Y131.364 E2.77698
G1 X106.177 Y131.091 E2.80027
G1 X105.464 Y130.613 E2.83168
G1 X105.217 Y130.415 E2.84326
G1 X104.747 Y129.987 E2.86652
G1 X104.334 Y129.503 E2.88979
G1 X103.985 Y128.972 E2.91304
G1 X103.706 Y128.4 E2.93633
G1 X103.587 Y128.082 E2.94875
G1 X103.491 Y127.797 E2.95975
G1 X103.326 Y127.183 E2.98301
G1 X103.24 Y126.553 E3.00627
G1 X103.226 Y126.182 E3.01986
G1 X103.226 Y108.834 E3.65455
G1 X103.266 Y108.199 E3.67783
G1 X103.385 Y107.575 E3.70107
G1 X103.504 Y107.179 E3.7162
G1 X103.613 Y106.864 E3.7284
G1 X103.858 Y106.278 E3.75163
G1 X104.175 Y105.726 E3.77492
G1 X104.504 Y105.292 E3.79485
G0 F810 X104.559 Y105.219
G0 X105.003 Y104.764
M204 S5000
M205 X30 Y30
G0 F7200 X105.379 Y105.019
M204 S500
M205 X20 Y20
G1 F6000 E3.82145
G1 F900 X105.768 Y104.719 E3.83942
G1 X106.079 Y104.504 E3.85325
G1 X106.6 Y104.192 E3.87547
G1 X107.158 Y103.951 E3.89771
G1 X107.743 Y103.786 E3.91995
G1 X108.344 Y103.698 E3.94217
G1 X108.701 Y103.684 E3.95524
G1 X126.155 Y103.665 E4.59381
G1 X126.761 Y103.704 E4.61603
G1 X127.357 Y103.823 E4.63827
G1 X127.932 Y104.019 E4.66049
G1 X128.314 Y104.198 E4.67593
G1 X128.76 Y104.433 E4.69437
G1 X129.277 Y104.751 E4.71658
G1 X129.749 Y105.134 E4.73882
G1 X130.166 Y105.576 E4.76105
G1 X130.522 Y106.068 E4.78327
G1 X130.81 Y106.603 E4.8055
G1 X130.967 Y106.996 E4.82098
G1 X131.076 Y107.308 E4.83307
G1 X131.239 Y107.894 E4.85532
G1 X131.323 Y108.496 E4.87756
G1 X131.335 Y108.837 E4.89005
G1 X131.317 Y126.301 E5.52899
G1 X131.276 Y126.907 E5.55121
G1 X131.157 Y127.503 E5.57344
G1 X130.96 Y128.078 E5.59568
G1 X130.689 Y128.622 E5.61792
G1 X130.495 Y128.926 E5.63111
G1 X130.281 Y129.235 E5.64486
G1 X129.903 Y129.711 E5.6671
G1 X129.466 Y130.133 E5.68933
G1 X128.977 Y130.494 E5.71157
G1 X128.445 Y130.788 E5.7338
G1 X128.002 Y130.968 E5.7513
G1 X127.686 Y131.078 E5.76354
G1 X127.1 Y131.24 E5.78578
G1 X126.498 Y131.323 E5.80802
G1 X126.154 Y131.335 E5.82061
G1 X108.616 Y131.285 E6.46226
G1 X108.01 Y131.243 E6.48449
G1 X107.414 Y131.122 E6.50674
G1 X106.84 Y130.924 E6.52895
G1 X106.296 Y130.653 E6.55119
G1 X105.739 Y130.27 E6.57592
G1 X105.492 Y130.072 E6.5875
G1 X105.044 Y129.661 E6.60974
G1 X104.654 Y129.196 E6.63195
G1 X104.328 Y128.683 E6.65418
G1 X104.004 Y127.942 E6.68377
G1 X103.908 Y127.657 E6.69478
G1 X103.752 Y127.069 E6.71703
G1 X103.666 Y126.182 E6.74964
G1 X103.666 Y108.834 E7.38433
G1 X103.706 Y108.228 E7.40655
G1 X103.825 Y107.632 E7.42879
G1 X103.92 Y107.323 E7.44062
G1 X104.029 Y107.008 E7.45281
G1 X104.265 Y106.448 E7.47504
G1 X104.572 Y105.924 E7.49726
G1 X104.873 Y105.539 E7.51514
G0 F810 X104.946 Y105.445
G0 X105.379 Y105.019
M204 S5000
M205 X30 Y30
G0 F7200 X105.753 Y105.28
M204 S500
M205 X20 Y20
G1 F6000 E7.54174
G1 F900 X106.018 Y105.081 E7.55387
G1 X106.329 Y104.866 E7.5677
G1 X106.826 Y104.571 E7.58884
G1 X107.359 Y104.347 E7.61
G1 X107.918 Y104.199 E7.63115
G1 X108.701 Y104.124 E7.65993
G1 X126.155 Y104.105 E8.2985
G1 X126.732 Y104.144 E8.31966
G1 X127.298 Y104.263 E8.34082
G1 X127.842 Y104.458 E8.36197
G1 X128.109 Y104.587 E8.37282
G1 X128.555 Y104.822 E8.39126
G1 X129.046 Y105.126 E8.41239
G1 X129.491 Y105.495 E8.43354
G1 X129.88 Y105.922 E8.45467
G1 X130.208 Y106.398 E8.47582
G1 X130.552 Y107.141 E8.50578
G1 X130.661 Y107.453 E8.51787
G1 X130.814 Y108.011 E8.53904
G1 X130.895 Y108.836 E8.56936
G1 X130.877 Y126.3 E9.20831
G1 X130.836 Y126.877 E9.22947
G1 X130.717 Y127.442 E9.25059
G1 X130.52 Y127.986 E9.27176
G1 X130.133 Y128.676 E9.3007
G1 X129.919 Y128.985 E9.31446
G1 X129.558 Y129.436 E9.33559
G1 X129.138 Y129.833 E9.35674
G1 X128.668 Y130.169 E9.37787
G1 X128.155 Y130.436 E9.39903
G1 X127.857 Y130.553 E9.41075
G1 X127.541 Y130.663 E9.42299
G1 X126.984 Y130.814 E9.4441
G1 X126.155 Y130.895 E9.47458
G1 X108.617 Y130.845 E10.11623
G1 X108.041 Y130.803 E10.13736
G1 X107.475 Y130.683 E10.15852
G1 X106.932 Y130.485 E10.17967
G1 X106.422 Y130.215 E10.20078
G1 X106.015 Y129.926 E10.21904
G1 X105.768 Y129.728 E10.23063
G1 X105.343 Y129.337 E10.25175
G1 X104.976 Y128.89 E10.27291
G1 X104.674 Y128.397 E10.29407
G1 X104.421 Y127.801 E10.31776
G1 X104.325 Y127.516 E10.32876
G1 X104.179 Y126.957 E10.3499
G1 X104.106 Y126.182 E10.37838
G1 X104.106 Y108.834 E11.01307
G1 X104.146 Y108.257 E11.03423
G1 X104.336 Y107.467 E11.06396
G1 X104.445 Y107.152 E11.07616
G1 X104.671 Y106.62 E11.0973
G1 X104.969 Y106.125 E11.11844
G1 X105.238 Y105.791 E11.13413
G0 F810 X105.332 Y105.675
G0 X105.753 Y105.28
M204 S5000
M205 X30 Y30
G0 F7200 X105.715 Y105.91
M204 S500
M205 X20 Y20
G1 F6000 E11.16073
G1 F900 X106.268 Y105.443 E11.18721
G1 X106.579 Y105.228 E11.20104
G1 X107.05 Y104.95 E11.22105
G1 X107.557 Y104.745 E11.24106
G1 X108.088 Y104.615 E11.26106
G1 X108.702 Y104.564 E11.2836
G1 X126.156 Y104.545 E11.92218
G1 X126.701 Y104.584 E11.94217
G1 X127.235 Y104.703 E11.96219
G1 X127.903 Y104.976 E11.98859
G1 X128.349 Y105.211 E12.00703
G1 X128.813 Y105.501 E12.02705
G1 X129.23 Y105.855 E12.04706
G1 X129.59 Y106.266 E12.06705
G1 X129.887 Y106.725 E12.08705
G1 X130.137 Y107.287 E12.10956
G1 X130.246 Y107.599 E12.12165
G1 X130.388 Y108.126 E12.14162
G1 X130.455 Y108.836 E12.16771
G1 X130.437 Y126.3 E12.80665
G1 X130.396 Y126.845 E12.82665
G1 X130.277 Y127.378 E12.84663
G1 X130.081 Y127.889 E12.86665
G1 X129.772 Y128.425 E12.88929
G1 X129.558 Y128.734 E12.90304
G1 X129.214 Y129.16 E12.92307
G1 X128.813 Y129.531 E12.94306
G1 X128.361 Y129.839 E12.96307
G1 X127.713 Y130.137 E12.98916
G1 X127.397 Y130.247 E13.0014
G1 X126.869 Y130.389 E13.02141
G1 X126.156 Y130.455 E13.04761
G1 X108.618 Y130.405 E13.68926
G1 X108.073 Y130.363 E13.70926
G1 X107.54 Y130.243 E13.72924
G1 X107.03 Y130.046 E13.74925
G1 X106.554 Y129.777 E13.76925
G1 X106.29 Y129.583 E13.78124
G1 X106.043 Y129.385 E13.79282
G1 X105.642 Y129.013 E13.81283
G1 X105.301 Y128.586 E13.83282
G1 X105.024 Y128.115 E13.85281
G1 X104.838 Y127.661 E13.87076
G1 X104.742 Y127.376 E13.88177
G1 X104.606 Y126.846 E13.90179
G1 X104.546 Y126.182 E13.92618
G1 X104.546 Y108.834 E14.56087
G1 X104.586 Y108.289 E14.58087
G1 X104.752 Y107.611 E14.60641
G1 X104.861 Y107.296 E14.6186
G1 X105.077 Y106.794 E14.63859
G1 X105.269 Y106.483 E14.65197
G0 F810 X105.364 Y106.329
G0 X105.715 Y105.91
M204 S5000
M205 X30 Y30
G0 F7200 X106.097 Y106.151
M204 S500
M205 X20 Y20
G1 F6000 E14.67856
G1 F900 X106.518 Y105.805 E14.6985
G1 X106.829 Y105.59 E14.71233
G1 X107.273 Y105.331 E14.73114
G1 X107.752 Y105.145 E14.74994
G1 X108.253 Y105.035 E14.76871
G1 X108.702 Y105.004 E14.78517
G1 X126.156 Y104.985 E15.42375
G1 X126.668 Y105.024 E15.44253
G1 X127.168 Y105.143 E15.46134
G1 X127.698 Y105.365 E15.48236
G1 X128.144 Y105.6 E15.5008
G1 X128.579 Y105.874 E15.51961
G1 X128.965 Y106.212 E15.53839
G1 X129.294 Y106.606 E15.55716
G1 X129.559 Y107.046 E15.57596
G1 X129.721 Y107.432 E15.59127
G1 X129.83 Y107.744 E15.60336
G1 X129.961 Y108.24 E15.62213
G1 X130.015 Y108.835 E15.64399
G1 X129.997 Y126.299 E16.28293
G1 X129.957 Y126.811 E16.30172
G1 X129.837 Y127.311 E16.32053
G1 X129.642 Y127.785 E16.33929
G1 X129.41 Y128.175 E16.35589
G1 X129.196 Y128.484 E16.36964
G1 X128.872 Y128.882 E16.38842
G1 X128.49 Y129.225 E16.4072
G1 X128.059 Y129.504 E16.42598
G1 X127.568 Y129.722 E16.44564
G1 X127.252 Y129.832 E16.45788
G1 X126.755 Y129.962 E16.47667
G1 X126.158 Y130.015 E16.4986
G1 X108.62 Y129.965 E17.14025
G1 X108.108 Y129.924 E17.15904
G1 X107.609 Y129.803 E17.17783
G1 X107.134 Y129.607 E17.19663
G1 X106.565 Y129.24 E17.2214
G1 X106.318 Y129.042 E17.23298
G1 X105.944 Y128.691 E17.25175
G1 X105.628 Y128.285 E17.27057
G1 X105.379 Y127.836 E17.28936
G1 X105.255 Y127.52 E17.30178
G1 X105.159 Y127.235 E17.31278
G1 X105.033 Y126.738 E17.33154
G1 X104.986 Y126.182 E17.35195
G1 X104.986 Y108.834 E17.98665
G1 X105.026 Y108.322 E18.00544
G1 X105.167 Y107.755 E18.02681
G1 X105.276 Y107.44 E18.03901
G1 X105.482 Y106.969 E18.05782
G1 X105.643 Y106.716 E18.06879
G0 F810 X105.757 Y106.536
G0 X106.097 Y106.151
M204 S5000
M205 X30 Y30
G0 F7200 X106.475 Y106.399
M204 S500
M205 X20 Y20
G1 F6000 E18.09539
G1 F900 X106.769 Y106.166 E18.10911
G1 X107.08 Y105.951 E18.12294
G1 X107.494 Y105.713 E18.14042
G1 X107.942 Y105.548 E18.15788
G1 X108.412 Y105.459 E18.17538
G1 X108.703 Y105.444 E18.18604
G1 X126.157 Y105.425 E18.82462
G1 X126.633 Y105.464 E18.84209
G1 X127.096 Y105.583 E18.85958
G1 X127.493 Y105.755 E18.87541
G1 X127.939 Y105.99 E18.89386
G1 X128.342 Y106.247 E18.91134
G1 X128.696 Y106.568 E18.92883
G1 X128.992 Y106.943 E18.9463
G1 X129.306 Y107.577 E18.97219
G1 X129.415 Y107.889 E18.98428
G1 X129.534 Y108.352 E19.00177
G1 X129.575 Y108.835 E19.01951
G1 X129.557 Y126.299 E19.65845
G1 X129.517 Y126.775 E19.67592
G1 X129.397 Y127.238 E19.69342
G1 X129.203 Y127.674 E19.71088
G1 X129.048 Y127.924 E19.72164
G1 X128.834 Y128.233 E19.73539
G1 X128.53 Y128.602 E19.75289
G1 X128.169 Y128.915 E19.77037
G1 X127.761 Y129.164 E19.78785
G1 X127.423 Y129.306 E19.80127
G1 X127.107 Y129.416 E19.81351
G1 X126.644 Y129.535 E19.831
G1 X126.159 Y129.575 E19.8488
G1 X108.621 Y129.525 E20.49045
G1 X108.145 Y129.484 E20.50793
G1 X107.682 Y129.364 E20.52543
G1 X107.246 Y129.168 E20.54292
G1 X106.84 Y128.897 E20.56078
G1 X106.593 Y128.699 E20.57236
G1 X106.247 Y128.369 E20.58986
G1 X105.96 Y127.987 E20.60734
G1 X105.672 Y127.38 E20.63192
G1 X105.576 Y127.095 E20.64292
G1 X105.461 Y126.631 E20.66041
G1 X105.426 Y126.182 E20.67689
G1 X105.426 Y108.834 E21.31158
G1 X105.466 Y108.358 E21.32906
G1 X105.583 Y107.899 E21.34639
G1 X105.692 Y107.584 E21.35858
G1 X105.886 Y107.147 E21.37608
G1 X106.012 Y106.957 E21.38442
G0 F810 X106.149 Y106.748
G0 X106.475 Y106.399
M204 S5000
M205 X30 Y30
G0 F7200 X107.019 Y106.528
M204 S500
M205 X20 Y20
G1 F6000 E21.41102
G1 F900 X107.33 Y106.313 E21.42485
G1 X107.713 Y106.097 E21.44094
G1 X108.128 Y105.954 E21.457
G1 X108.703 Y105.884 E21.47819
G1 X126.157 Y105.865 E22.11676
G1 X126.595 Y105.904 E22.13285
G1 X127.019 Y106.022 E22.14895
G1 X127.288 Y106.144 E22.15976
G1 X127.734 Y106.379 E22.1782
G1 X128.103 Y106.618 E22.19429
G1 X128.422 Y106.92 E22.21036
G1 X128.681 Y107.275 E22.22644
G1 X128.891 Y107.722 E22.24451
G1 X129 Y108.034 E22.2566
G1 X129.106 Y108.46 E22.27266
G1 X129.135 Y108.834 E22.28638
G1 X129.117 Y126.298 E22.92532
G1 X129.077 Y126.736 E22.94142
G1 X128.958 Y127.159 E22.95749
G1 X128.686 Y127.674 E22.9788
G1 X128.472 Y127.983 E22.99255
G1 X128.19 Y128.32 E23.00863
G1 X127.852 Y128.601 E23.02471
G1 X127.279 Y128.89 E23.04819
G1 X126.963 Y129 E23.06043
G1 X126.536 Y129.107 E23.07654
G1 X126.16 Y129.135 E23.09033
G1 X108.622 Y129.085 E23.73198
G1 X108.184 Y129.044 E23.74808
G1 X107.762 Y128.924 E23.76413
G1 X107.367 Y128.73 E23.78023
G1 X107.115 Y128.553 E23.7915
G1 X106.868 Y128.355 E23.80308
G1 X106.552 Y128.05 E23.81914
G1 X106.296 Y127.693 E23.83522
G1 X106.089 Y127.24 E23.85344
G1 X105.993 Y126.955 E23.86444
G1 X105.891 Y126.527 E23.88054
G1 X105.866 Y126.182 E23.89319
G1 X105.866 Y108.834 E24.52789
G1 X105.906 Y108.396 E24.54398
G1 X105.999 Y108.043 E24.55734
G1 X106.108 Y107.728 E24.56953
G1 X106.289 Y107.327 E24.58563
G1 X106.495 Y107.03 E24.59885
G0 F810 X106.539 Y106.966
G0 X107.019 Y106.528
M204 S5000
M205 X30 Y30
G0 F7200 X106.927 Y107.191
M204 S500
M205 X20 Y20
G1 F6000 E24.62545
G1 F900 X107.269 Y106.89 E24.64212
G1 X107.58 Y106.675 E24.65595
G1 X107.928 Y106.483 E24.67049
G1 X108.307 Y106.365 E24.68502
G1 X108.704 Y106.324 E24.69962
G1 X126.158 Y106.305 E25.33819
G1 X126.553 Y106.344 E25.35272
G1 X127.083 Y106.533 E25.3733
G1 X127.529 Y106.768 E25.39175
G1 X127.86 Y106.988 E25.40629
G1 X128.141 Y107.269 E25.42083
G1 X128.36 Y107.601 E25.43538
G1 X128.475 Y107.867 E25.44598
G1 X128.584 Y108.179 E25.45807
G1 X128.677 Y108.565 E25.4726
G1 X128.695 Y108.834 E25.48246
G1 X128.677 Y126.298 E26.1214
G1 X128.637 Y126.693 E26.13593
G1 X128.518 Y127.073 E26.1505
G1 X128.325 Y127.423 E26.16512
G1 X128.111 Y127.732 E26.17887
G1 X127.853 Y128.035 E26.19343
G1 X127.54 Y128.28 E26.20797
G1 X127.134 Y128.475 E26.22445
G1 X126.818 Y128.585 E26.23669
G1 X126.431 Y128.677 E26.25125
G1 X126.161 Y128.695 E26.26115
G1 X108.623 Y128.645 E26.9028
G1 X108.228 Y128.604 E26.91733
G1 X107.849 Y128.485 E26.93186
G1 X107.391 Y128.21 E26.9514
G1 X107.144 Y128.012 E26.96299
G1 X106.86 Y127.733 E26.97755
G1 X106.638 Y127.404 E26.99207
G1 X106.506 Y127.099 E27.00423
G1 X106.41 Y126.814 E27.01523
G1 X106.321 Y126.427 E27.02976
G1 X106.306 Y126.182 E27.03874
G1 X106.306 Y108.834 E27.67344
G1 X106.346 Y108.439 E27.68797
G1 X106.415 Y108.187 E27.69752
G1 X106.524 Y107.872 E27.70972
G1 X106.553 Y107.811 E27.71219
G0 F810 X106.691 Y107.511
G0 X106.927 Y107.191
M204 S5000
M205 X30 Y30
G0 F7200 X107.31 Y107.426
M204 S500
M205 X20 Y20
G1 F6000 E27.73879
G1 F900 X107.519 Y107.252 E27.74874
G1 X107.83 Y107.037 E27.76257
G1 X108.139 Y106.872 E27.77539
G1 X108.478 Y106.781 E27.78823
G1 X108.704 Y106.764 E27.79652
G1 X126.158 Y106.745 E28.4351
G1 X126.507 Y106.784 E28.44794
G1 X126.878 Y106.923 E28.46244
G1 X127.324 Y107.158 E28.48088
G1 X127.613 Y107.355 E28.49368
G1 X127.851 Y107.613 E28.50652
G1 X128.06 Y108.012 E28.523
G1 X128.169 Y108.324 E28.53509
G1 X128.255 Y108.834 E28.55401
G1 X128.237 Y126.298 E29.19295
G1 X128.197 Y126.646 E29.20577
G1 X128.079 Y126.976 E29.21859
G1 X127.963 Y127.173 E29.22696
G1 X127.749 Y127.482 E29.24071
G1 X127.518 Y127.745 E29.25352
G1 X127.233 Y127.95 E29.26636
G1 X126.989 Y128.059 E29.27614
G1 X126.673 Y128.169 E29.28838
G1 X126.163 Y128.255 E29.3073
G1 X108.625 Y128.205 E29.94895
G1 X108.277 Y128.164 E29.96177
G1 X107.947 Y128.046 E29.97459
G1 X107.666 Y127.867 E29.98678
G1 X107.419 Y127.669 E29.99836
G1 X107.172 Y127.42 E30.0112
G1 X106.988 Y127.122 E30.02401
G1 X106.923 Y126.959 E30.03043
G1 X106.827 Y126.674 E30.04143
G1 X106.746 Y126.182 E30.05968
G1 X106.746 Y108.834 E30.69437
G1 X106.831 Y108.33 E30.71307
G1 X106.931 Y108.041 E30.72426
G0 F810 X106.94 Y108.015
G0 X107.091 Y107.699
G0 X107.31 Y107.426
M204 S5000
M205 X30 Y30
G0 F7200 X107.769 Y107.614
M204 S500
M205 X20 Y20
G1 F6000 E30.75086
G1 F900 X108.08 Y107.399 E30.76469
