;FLAVOR:RepRap
;TIME:389
;Generated with Cura_SteamEngine 2.3.1
M190 S70
M104 S215
M109 S215
G28 ; home all axes
M117 Purge extruder
G92 E0 ; reset extruder
G1 Z1.0 F3000 ; move z up little to prevent scratching of surface
G1 X0.1 Y20 Z0.3 F5000.0 ; move to start-line position G1 X0.1 Y200.0 Z0.3 F1500.0 E15 ; draw 1st line
G1 X0.4 Y200.0 Z0.3 F5000.0 ; move to side a little
G1 X0.4 Y20 Z0.3 F1500.0 E30 ; draw 2nd line
G92 E0 ; reset extruder
G1 Z1.0 F3000 ; move z up little to prevent scratching of surface
M117 All systems go!
;LAYER_COUNT:58
;LAYER:0
M107
G1 F6000 E-5
G0 F3600 X80.574 Y45.727 Z.299
;TYPE:SKIRT
G1 F6000 E0
G1 F1800 X80.995 Y45.058 E0.04127
G1 X81.48 Y44.435 E0.08249
G1 X82.027 Y43.865 E0.12374
G1 X82.628 Y43.353 E0.16496
G1 X83.278 Y42.904 E0.2062
G1 X83.969 Y42.524 E0.24738
G1 X84.696 Y42.215 E0.28862
G1 X85.451 Y41.981 E0.32989
G1 X86.225 Y41.825 E0.37111
G1 X87.375 Y41.739 E0.43132
G1 X124.474 Y41.719 E2.36826
G1 X125.262 Y41.759 E2.40946
G1 X126.043 Y41.878 E2.4507
G1 X126.808 Y42.075 E2.49195
G1 X127.548 Y42.349 E2.53315
G1 X128.258 Y42.696 E2.57441
G1 X128.928 Y43.113 E2.61561
G1 X129.553 Y43.596 E2.65685
G1 X130.126 Y44.139 E2.69806
G1 X130.641 Y44.738 E2.73931
G1 X131.093 Y45.386 E2.78056
G1 X131.477 Y46.076 E2.82179
G1 X131.789 Y46.801 E2.86299
G1 X132.026 Y47.554 E2.90421
G1 X132.186 Y48.328 E2.94547
G1 X132.242 Y48.874 E2.97413
G1 X132.249 Y48.902 E2.97564
G1 X132.353 Y49.685 E3.01688
G1 X132.379 Y50.319 E3.05001
G1 X132.379 Y51.219 E3.097
G1 X132.339 Y52.008 E3.13824
G1 X132.22 Y52.788 E3.17944
G1 X132.022 Y53.553 E3.22069
G1 X131.748 Y54.293 E3.26189
G1 X131.4 Y55.002 E3.30313
G1 X130.982 Y55.673 E3.3444
G1 X130.499 Y56.297 E3.3856
G1 X129.956 Y56.87 E3.42682
G1 X129.357 Y57.385 E3.46806
G1 X128.709 Y57.836 E3.50928
G1 X128.018 Y58.22 E3.55055
G1 X127.293 Y58.532 E3.59176
G1 X126.54 Y58.769 E3.63298
G1 X125.766 Y58.928 E3.67423
G1 X124.981 Y59.009 E3.71543
G1 X124.583 Y59.019 E3.73622
G1 X87.284 Y59.039 E5.68361
G1 X86.495 Y58.999 E5.72485
G1 X85.715 Y58.88 E5.76605
G1 X84.95 Y58.683 E5.80729
G1 X84.21 Y58.409 E5.84849
G1 X83.5 Y58.062 E5.88975
G1 X82.83 Y57.645 E5.93095
G1 X82.205 Y57.162 E5.97219
G1 X81.632 Y56.619 E6.01341
G1 X81.117 Y56.02 E6.05465
G1 X80.665 Y55.372 E6.0959
G1 X80.281 Y54.682 E6.13713
G1 X79.969 Y53.957 E6.17834
G1 X79.732 Y53.204 E6.21955
G1 X79.572 Y52.43 E6.26082
G1 X79.491 Y51.645 E6.30202
G1 X79.48 Y51.239 E6.32323
G1 X79.48 Y50.338 E6.37027
G1 X79.52 Y49.549 E6.41151
G1 X79.608 Y48.971 E6.44204
G1 X79.622 Y48.717 E6.45532
G1 X79.745 Y47.937 E6.49655
G1 X79.946 Y47.173 E6.53779
G1 X80.224 Y46.434 E6.57902
G1 X80.574 Y45.727 E6.6202
G0 F3600 X80.973 Y45.835
G1 F1800 X81.392 Y45.19 E6.66036
G1 X81.875 Y44.592 E6.7005
G1 X82.419 Y44.048 E6.74066
G1 X83.015 Y43.562 E6.78081
G1 X83.659 Y43.142 E6.82096
G1 X84.344 Y42.79 E6.86116
G1 X85.06 Y42.512 E6.90127
G1 X85.802 Y42.309 E6.94143
G1 X86.561 Y42.184 E6.98159
G1 X87.375 Y42.139 E7.02415
G1 X124.474 Y42.119 E8.9611
G1 X125.242 Y42.159 E9.00125
G1 X126.002 Y42.278 E9.04141
G1 X126.745 Y42.475 E9.08154
G1 X127.464 Y42.748 E9.1217
G1 X128.151 Y43.095 E9.16188
G1 X128.798 Y43.511 E9.20204
G1 X129.398 Y43.992 E9.24219
G1 X129.945 Y44.532 E9.28232
G1 X130.434 Y45.127 E9.32253
G1 X130.857 Y45.769 E9.36267
G1 X131.212 Y46.451 E9.40282
G1 X131.494 Y47.167 E9.44299
G1 X131.7 Y47.908 E9.48315
G1 X131.829 Y48.666 E9.52329
G1 X131.845 Y48.951 E9.5382
G1 X131.877 Y49.093 E9.5458
G1 X131.965 Y49.857 E9.58595
G1 X131.979 Y50.319 E9.61008
G1 X131.979 Y51.219 E9.65707
G1 X131.939 Y51.987 E9.69722
G1 X131.82 Y52.747 E9.73738
G1 X131.622 Y53.49 E9.77753
G1 X131.348 Y54.209 E9.8177
G1 X131.001 Y54.895 E9.85784
G1 X130.585 Y55.542 E9.898
G1 X130.104 Y56.142 E9.93815
G1 X129.563 Y56.689 E9.97832
G1 X128.968 Y57.177 E10.01849
G1 X128.326 Y57.6 E10.05863
G1 X127.643 Y57.955 E10.09882
G1 X126.928 Y58.236 E10.13893
G1 X126.186 Y58.442 E10.17914
G1 X125.428 Y58.57 E10.21927
G1 X124.583 Y58.619 E10.26346
G1 X87.284 Y58.639 E12.21085
G1 X86.516 Y58.599 E12.251
G1 X85.756 Y58.48 E12.29116
G1 X85.013 Y58.283 E12.3313
G1 X84.294 Y58.01 E12.37145
G1 X83.607 Y57.663 E12.41163
G1 X82.96 Y57.247 E12.45179
G1 X82.36 Y56.766 E12.49194
G1 X81.813 Y56.226 E12.53208
G1 X81.324 Y55.631 E12.57229
G1 X80.901 Y54.989 E12.61243
G1 X80.546 Y54.307 E12.65257
G1 X80.264 Y53.591 E12.69275
G1 X80.058 Y52.85 E12.7329
G1 X79.929 Y52.092 E12.77304
G1 X79.88 Y51.239 E12.81765
G1 X79.88 Y50.338 E12.86469
G1 X79.92 Y49.57 E12.90485
G1 X80.006 Y49.019 E12.93396
G1 X80.022 Y48.739 E12.9486
G1 X80.145 Y47.98 E12.98875
G1 X80.346 Y47.238 E13.02889
G1 X80.623 Y46.52 E13.06907
G1 X80.973 Y45.835 E13.10923
G0 F3600 X81.371 Y45.947
G1 F1800 X81.789 Y45.326 E13.14831
G1 X82.27 Y44.754 E13.18733
G1 X82.81 Y44.236 E13.2264
G1 X83.402 Y43.779 E13.26544
G1 X84.039 Y43.387 E13.3045
G1 X84.715 Y43.066 E13.34357
G1 X85.421 Y42.818 E13.38263
G1 X86.149 Y42.648 E13.42167
G1 X86.892 Y42.556 E13.46075
G1 X87.375 Y42.539 E13.48599
G1 X124.474 Y42.519 E15.42293
G1 X125.221 Y42.559 E15.46199
G1 X125.96 Y42.678 E15.50107
G1 X126.681 Y42.875 E15.54009
G1 X127.378 Y43.148 E15.57917
G1 X128.041 Y43.494 E15.61822
G1 X128.664 Y43.908 E15.65727
G1 X129.239 Y44.387 E15.69634
G1 X129.759 Y44.924 E15.73537
G1 X130.219 Y45.514 E15.77443
G1 X130.614 Y46.15 E15.81352
G1 X130.938 Y46.824 E15.85257
G1 X131.189 Y47.529 E15.89164
G1 X131.363 Y48.256 E15.93067
G1 X131.459 Y48.998 E15.96973
G1 X131.462 Y49.088 E15.97443
G1 X131.502 Y49.281 E15.98472
G1 X131.579 Y50.319 E16.03906
G1 X131.579 Y51.219 E16.08605
G1 X131.539 Y51.966 E16.12511
G1 X131.42 Y52.704 E16.16414
G1 X131.222 Y53.426 E16.20323
G1 X130.949 Y54.122 E16.24226
G1 X130.602 Y54.785 E16.28133
G1 X130.187 Y55.408 E16.32041
G1 X129.708 Y55.982 E16.35944
G1 X129.171 Y56.503 E16.39851
G1 X128.581 Y56.962 E16.43754
G1 X127.945 Y57.357 E16.47662
G1 X127.271 Y57.681 E16.51567
G1 X126.566 Y57.931 E16.55472
G1 X125.838 Y58.105 E16.5938
G1 X125.096 Y58.2 E16.63286
G1 X124.583 Y58.219 E16.65966
G1 X87.284 Y58.239 E18.60705
G1 X86.537 Y58.199 E18.6461
G1 X85.798 Y58.08 E18.68518
G1 X85.077 Y57.883 E18.72421
G1 X84.38 Y57.61 E18.76329
G1 X83.717 Y57.264 E18.80233
G1 X83.094 Y56.85 E18.84139
G1 X82.519 Y56.371 E18.88046
G1 X81.999 Y55.834 E18.91949
G1 X81.539 Y55.244 E18.95855
G1 X81.144 Y54.608 E18.99764
G1 X80.82 Y53.934 E19.03668
G1 X80.569 Y53.229 E19.07575
G1 X80.395 Y52.502 E19.11478
G1 X80.299 Y51.76 E19.15384
G1 X80.28 Y51.239 E19.18106
G1 X80.28 Y50.338 E19.2281
G1 X80.32 Y49.591 E19.26716
G1 X80.404 Y49.067 E19.29487
G1 X80.422 Y48.762 E19.31082
G1 X80.545 Y48.024 E19.34988
G1 X80.745 Y47.304 E19.3889
G1 X81.022 Y46.609 E19.42796
G1 X81.371 Y45.947 E19.46703
G0 F3600 X81.769 Y46.062
G1 F1800 X82.185 Y45.467 E19.50494
G1 X82.664 Y44.921 E19.54286
G1 X83.2 Y44.431 E19.58077
G1 X83.787 Y44.002 E19.61873
G1 X84.417 Y43.641 E19.65664
G1 X85.083 Y43.351 E19.69457
G1 X85.777 Y43.136 E19.7325
G1 X86.49 Y42.999 E19.77041
G1 X87.375 Y42.939 E19.81672
G1 X124.474 Y42.919 E21.75366
G1 X125.2 Y42.959 E21.79163
G1 X125.916 Y43.078 E21.82952
G1 X126.615 Y43.275 E21.86744
G1 X127.289 Y43.547 E21.90538
G1 X127.928 Y43.892 E21.9433
G1 X128.525 Y44.306 E21.98123
G1 X129.074 Y44.782 E22.01917
G1 X129.566 Y45.316 E22.05708
G1 X129.997 Y45.9 E22.09497
G1 X130.362 Y46.529 E22.13294
G1 X130.655 Y47.193 E22.17083
G1 X130.873 Y47.886 E22.20876
G1 X131.014 Y48.599 E22.24671
G1 X131.045 Y49.044 E22.27
G1 X131.124 Y49.465 E22.29236
G1 X131.179 Y50.319 E22.33704
G1 X131.179 Y51.219 E22.38403
G1 X131.139 Y51.944 E22.42194
G1 X131.02 Y52.661 E22.45989
G1 X130.822 Y53.36 E22.49782
G1 X130.549 Y54.033 E22.53574
G1 X130.204 Y54.672 E22.57365
G1 X129.79 Y55.269 E22.61158
G1 X129.314 Y55.817 E22.64948
G1 X128.78 Y56.31 E22.68742
G1 X128.195 Y56.74 E22.72533
G1 X127.566 Y57.104 E22.76327
G1 X126.901 Y57.397 E22.80121
G1 X126.208 Y57.615 E22.83914
G1 X125.496 Y57.755 E22.87703
G1 X124.583 Y57.819 E22.92481
G1 X87.284 Y57.839 E24.8722
G1 X86.558 Y57.799 E24.91016
G1 X85.842 Y57.68 E24.94806
G1 X85.143 Y57.483 E24.98597
G1 X84.469 Y57.211 E25.02392
G1 X83.83 Y56.866 E25.06183
G1 X83.233 Y56.452 E25.09976
G1 X82.684 Y55.976 E25.1377
G1 X82.192 Y55.442 E25.17561
G1 X81.761 Y54.858 E25.21351
G1 X81.396 Y54.229 E25.25147
G1 X81.103 Y53.565 E25.28937
G1 X80.885 Y52.872 E25.3273
G1 X80.744 Y52.159 E25.36524
G1 X80.68 Y51.239 E25.41339
G1 X80.68 Y50.338 E25.46043
G1 X80.72 Y49.613 E25.49834
G1 X80.802 Y49.117 E25.52459
G1 X80.822 Y48.786 E25.54191
G1 X80.945 Y48.07 E25.57984
G1 X81.145 Y47.372 E25.61774
G1 X81.421 Y46.7 E25.65567
G1 X81.769 Y46.062 E25.69362
G0 F3600 X82.167 Y46.181
G1 F1800 X82.581 Y45.612 E25.73036
G1 X83.057 Y45.093 E25.76712
G1 X83.589 Y44.632 E25.80388
G1 X84.17 Y44.234 E25.84065
G1 X84.792 Y43.905 E25.87738
G1 X85.447 Y43.648 E25.91412
G1 X86.128 Y43.467 E25.95091
G1 X86.824 Y43.364 E25.98764
G1 X87.376 Y43.339 E26.01649
G1 X124.475 Y43.319 E27.95343
G1 X125.178 Y43.359 E27.9902
G1 X125.871 Y43.478 E28.02691
G1 X126.547 Y43.675 E28.06367
G1 X127.196 Y43.947 E28.10041
G1 X127.811 Y44.291 E28.1372
G1 X128.382 Y44.702 E28.17393
G1 X128.903 Y45.176 E28.21071
G1 X129.367 Y45.706 E28.24749
G1 X129.767 Y46.284 E28.28418
G1 X130.1 Y46.905 E28.32097
G1 X130.36 Y47.559 E28.35772
G1 X130.544 Y48.238 E28.39445
G1 X130.65 Y48.934 E28.43121
G1 X130.661 Y49.16 E28.44302
G1 X130.742 Y49.646 E28.46874
G1 X130.779 Y50.319 E28.50393
G1 X130.779 Y51.219 E28.55092
G1 X130.739 Y51.922 E28.58769
G1 X130.62 Y52.616 E28.62445
G1 X130.422 Y53.291 E28.66117
G1 X130.15 Y53.94 E28.69791
G1 X129.805 Y54.554 E28.73469
G1 X129.394 Y55.125 E28.77142
G1 X128.92 Y55.646 E28.80819
G1 X128.39 Y56.11 E28.84497
G1 X127.811 Y56.51 E28.88171
G1 X127.19 Y56.842 E28.91848
G1 X126.536 Y57.102 E28.95522
G1 X125.856 Y57.286 E28.992
G1 X125.16 Y57.392 E29.02876
G1 X124.582 Y57.419 E29.05897
G1 X87.283 Y57.439 E31.00635
G1 X86.58 Y57.399 E31.04312
G1 X85.887 Y57.28 E31.07983
G1 X85.211 Y57.083 E31.11659
G1 X84.561 Y56.811 E31.15338
G1 X83.947 Y56.467 E31.19012
G1 X83.376 Y56.056 E31.22685
G1 X82.855 Y55.582 E31.26363
G1 X82.391 Y55.052 E31.30041
G1 X81.991 Y54.474 E31.33711
G1 X81.658 Y53.853 E31.3739
G1 X81.398 Y53.199 E31.41064
G1 X81.214 Y52.52 E31.44737
G1 X81.108 Y51.824 E31.48413
G1 X81.08 Y51.239 E31.5147
G1 X81.08 Y50.338 E31.56175
G1 X81.12 Y49.635 E31.59851
G1 X81.2 Y49.168 E31.62325
G1 X81.222 Y48.81 E31.64197
G1 X81.344 Y48.117 E31.67871
G1 X81.545 Y47.442 E31.71548
G1 X81.82 Y46.794 E31.75223
G1 X82.167 Y46.181 E31.78901
G0 F3600 X82.565 Y46.305
G1 F1800 X82.977 Y45.763 E31.82456
G1 X83.45 Y45.273 E31.86011
G1 X83.977 Y44.842 E31.89566
G1 X84.551 Y44.475 E31.93123
G1 X85.164 Y44.179 E31.96677
G1 X85.807 Y43.956 E32.0023
G1 X86.472 Y43.81 E32.03785
G1 X87.376 Y43.739 E32.08519
G1 X124.475 Y43.719 E34.02214
G1 X125.155 Y43.759 E34.0577
G1 X125.825 Y43.878 E34.09323
G1 X126.477 Y44.074 E34.12877
G1 X127.101 Y44.346 E34.16431
G1 X127.689 Y44.689 E34.19985
G1 X128.233 Y45.099 E34.23542
G1 X128.725 Y45.569 E34.27094
G1 X129.159 Y46.094 E34.30651
G1 X129.528 Y46.666 E34.34205
G1 X129.828 Y47.278 E34.37763
G1 X130.053 Y47.92 E34.41315
G1 X130.202 Y48.585 E34.44873
G1 X130.243 Y49.084 E34.47487
G1 X130.26 Y49.149 E34.47838
G1 X130.358 Y49.823 E34.51394
G1 X130.379 Y50.319 E34.53986
G1 X130.379 Y51.219 E34.58685
G1 X130.339 Y51.899 E34.62241
G1 X130.22 Y52.569 E34.65794
G1 X130.023 Y53.221 E34.6935
G1 X129.751 Y53.845 E34.72904
G1 X129.407 Y54.433 E34.76461
G1 X128.997 Y54.977 E34.80017
G1 X128.526 Y55.468 E34.8357
G1 X128.001 Y55.902 E34.87126
G1 X127.429 Y56.271 E34.9068
G1 X126.817 Y56.57 E34.94236
G1 X126.175 Y56.795 E34.97788
G1 X125.51 Y56.944 E35.01346
G1 X124.582 Y57.019 E35.06207
G1 X87.283 Y57.039 E37.00945
G1 X86.603 Y56.999 E37.04502
G1 X85.933 Y56.88 E37.08055
G1 X85.281 Y56.684 E37.11609
G1 X84.657 Y56.412 E37.15163
G1 X84.069 Y56.069 E37.18717
G1 X83.525 Y55.659 E37.22274
G1 X83.033 Y55.189 E37.25826
G1 X82.599 Y54.664 E37.29383
G1 X82.23 Y54.092 E37.32936
G1 X81.93 Y53.48 E37.36495
G1 X81.705 Y52.838 E37.40047
G1 X81.556 Y52.173 E37.43605
G1 X81.48 Y51.239 E37.48497
G1 X81.48 Y50.338 E37.53201
G1 X81.52 Y49.658 E37.56758
G1 X81.598 Y49.222 E37.5907
G1 X81.622 Y48.835 E37.61095
G1 X81.744 Y48.165 E37.6465
G1 X81.944 Y47.514 E37.68206
G1 X82.219 Y46.891 E37.71762
G1 X82.565 Y46.305 E37.75315
G0 F3600 X82.962 Y46.433
G1 F1800 X83.372 Y45.919 E37.78747
G1 X83.841 Y45.459 E37.82177
G1 X84.363 Y45.06 E37.85608
G1 X84.929 Y44.727 E37.89036
G1 X85.532 Y44.465 E37.92469
G1 X86.161 Y44.278 E37.95895
G1 X86.809 Y44.169 E37.99326
G1 X87.376 Y44.139 E38.0229
G1 X124.475 Y44.119 E39.95984
G1 X125.131 Y44.159 E39.99416
G1 X125.777 Y44.278 E40.02845
G1 X126.404 Y44.474 E40.06275
G1 X127.002 Y44.745 E40.09703
G1 X127.563 Y45.087 E40.13133
G1 X128.079 Y45.495 E40.16568
G1 X128.541 Y45.962 E40.19997
G1 X128.943 Y46.481 E40.23425
G1 X129.278 Y47.046 E40.26854
G1 X129.543 Y47.647 E40.30283
G1 X129.733 Y48.276 E40.33714
G1 X129.845 Y48.923 E40.37142
G1 X129.862 Y49.23 E40.38748
G1 X129.89 Y49.343 E40.39355
G1 X129.979 Y50.319 E40.44472
G1 X129.979 Y51.219 E40.49171
G1 X129.939 Y51.875 E40.52602
G1 X129.82 Y52.521 E40.56032
G1 X129.623 Y53.148 E40.59463
G1 X129.351 Y53.746 E40.62893
G1 X129.009 Y54.307 E40.66324
G1 X128.601 Y54.822 E40.69754
G1 X128.134 Y55.284 E40.73184
G1 X127.614 Y55.685 E40.76612
G1 X127.05 Y56.021 E40.8004
G1 X126.448 Y56.285 E40.83472
G1 X125.819 Y56.475 E40.86902
G1 X125.172 Y56.586 E40.9033
G1 X124.582 Y56.619 E40.93415
G1 X87.283 Y56.639 E42.88153
G1 X86.627 Y56.599 E42.91585
G1 X85.981 Y56.48 E42.95014
G1 X85.354 Y56.284 E42.98444
G1 X84.756 Y56.013 E43.01872
G1 X84.195 Y55.671 E43.05302
G1 X83.679 Y55.263 E43.08737
G1 X83.217 Y54.796 E43.12166
G1 X82.815 Y54.277 E43.15594
G1 X82.48 Y53.712 E43.19023
G1 X82.215 Y53.111 E43.22453
G1 X82.025 Y52.482 E43.25883
G1 X81.913 Y51.835 E43.29311
G1 X81.88 Y51.239 E43.32428
G1 X81.88 Y50.338 E43.37132
G1 X81.92 Y49.682 E43.40563
G1 X81.995 Y49.276 E43.42719
G1 X82.022 Y48.86 E43.44895
G1 X82.144 Y48.215 E43.48323
G1 X82.343 Y47.589 E43.51752
G1 X82.617 Y46.992 E43.55182
G1 X82.962 Y46.433 E43.58611
G0 F3600 X83.359 Y46.566
G1 F1800 X83.766 Y46.082 E43.61913
G1 X84.231 Y45.654 E43.65213
G1 X84.747 Y45.288 E43.68516
G1 X85.304 Y44.99 E43.71814
G1 X85.895 Y44.764 E43.75117
G1 X86.509 Y44.615 E43.78416
G1 X87.376 Y44.539 E43.8296
G1 X124.475 Y44.519 E45.76654
G1 X125.106 Y44.559 E45.79955
G1 X125.727 Y44.678 E45.83257
G1 X126.328 Y44.874 E45.86557
G1 X126.899 Y45.144 E45.89855
G1 X127.432 Y45.485 E45.93158
G1 X127.917 Y45.89 E45.96457
G1 X128.348 Y46.353 E45.9976
G1 X128.716 Y46.866 E46.03056
G1 X129.017 Y47.422 E46.06357
G1 X129.245 Y48.012 E46.0966
G1 X129.397 Y48.625 E46.12957
G1 X129.454 Y49.253 E46.16249
G1 X129.517 Y49.533 E46.17748
G1 X129.579 Y50.319 E46.21864
G1 X129.579 Y51.219 E46.26563
G1 X129.539 Y51.85 E46.29864
G1 X129.42 Y52.471 E46.33165
G1 X129.223 Y53.071 E46.36462
G1 X128.952 Y53.643 E46.39767
G1 X128.612 Y54.175 E46.43063
G1 X128.206 Y54.66 E46.46366
G1 X127.743 Y55.09 E46.49665
G1 X127.229 Y55.459 E46.52968
G1 X126.673 Y55.759 E46.56267
G1 X126.084 Y55.987 E46.59564
G1 X125.47 Y56.139 E46.62867
G1 X124.582 Y56.219 E46.67522
G1 X87.283 Y56.239 E48.6226
G1 X86.652 Y56.199 E48.65561
G1 X86.031 Y56.08 E48.68863
G1 X85.43 Y55.884 E48.72163
G1 X84.859 Y55.614 E48.75461
G1 X84.326 Y55.273 E48.78764
G1 X83.841 Y54.868 E48.82063
G1 X83.41 Y54.405 E48.85366
G1 X83.042 Y53.892 E48.88662
G1 X82.741 Y53.336 E48.91963
G1 X82.513 Y52.746 E48.95266
G1 X82.361 Y52.133 E48.98563
G1 X82.28 Y51.239 E49.0325
G1 X82.28 Y50.338 E49.07954
G1 X82.32 Y49.707 E49.11255
G1 X82.392 Y49.333 E49.13243
G1 X82.422 Y48.887 E49.15577
G1 X82.544 Y48.267 E49.18876
G1 X82.743 Y47.667 E49.22177
G1 X83.016 Y47.097 E49.25476
G1 X83.359 Y46.566 E49.28777
G0 F3600 X83.756 Y46.705
G1 F1800 X84.16 Y46.253 E49.31942
G1 X84.62 Y45.858 E49.35108
G1 X85.128 Y45.527 E49.38273
G1 X85.675 Y45.266 E49.41438
G1 X86.252 Y45.079 E49.44604
G1 X86.848 Y44.97 E49.47768
G1 X87.377 Y44.939 E49.50534
G1 X124.476 Y44.919 E51.44229
G1 X125.081 Y44.959 E51.47394
