;FLAVOR:Marlin
;TIME:4837
;Filament used: 3.21113m
;Layer height: 0.16
;Generated with Cura_SteamEngine 3.6.0
M140 S70
M105
M190 S70
M104 S215
M105
M109 S215
M82 ;absolute extrusion mode
G28 ; home all axes
M117 Purge extruder
G92 E0 ; reset extruder
G1 Z1.0 F3000 ; move z up little to prevent scratching of surface
G1 X0.1 Y20 Z0.3 F5000.0 ; move to start-line position G1 X0.1 Y200.0 Z0.3 F1500.0 E15 ; draw 1st line
G1 X0.4 Y200.0 Z0.3 F5000.0 ; move to side a little
G1 X0.4 Y20 Z0.3 F1500.0 E30 ; draw 2nd line
G92 E0 ; reset extruder
G1 Z1.0 F3000 ; move z up little to prevent scratching of surface
M117 All systems go!
G92 E0
G1 F6000 E-5
;LAYER_COUNT:86
;LAYER:0
M107
M204 S5000
M205 X30 Y30
G0 F7200 X25.219 Y102.282 Z0.2
M204 S500
M205 X20 Y20
;TYPE:SKIRT
G1 F6000 E0
G1 F900 X25.84 Y102.144 E0.02327
G1 X26.629 Y102.082 E0.05223
G1 X31.865 Y102.082 E0.24379
G1 X32.5 Y102.122 E0.26707
G1 X33.124 Y102.241 E0.29031
G1 X33.729 Y102.438 E0.31359
G1 X34.304 Y102.709 E0.33685
G1 X34.841 Y103.05 E0.36012
G1 X35.443 Y103.564 E0.38908
G1 X35.572 Y103.693 E0.39576
G1 X35.992 Y104.17 E0.41901
G1 X36.35 Y104.696 E0.44229
G1 X36.638 Y105.263 E0.46556
G1 X36.854 Y105.861 E0.48882
G1 X36.992 Y106.482 E0.51209
G1 X37.054 Y107.258 E0.54057
G1 X37.074 Y114.836 E0.81782
G1 X37.188 Y115.434 E0.8401
G1 X37.365 Y115.859 E0.85694
G1 X37.628 Y116.253 E0.87427
G1 X37.962 Y116.587 E0.89155
G1 X38.361 Y116.854 E0.90912
G1 X38.798 Y117.035 E0.92642
G1 X39.262 Y117.127 E0.94373
G1 X39.738 Y117.127 E0.96114
G1 X40.202 Y117.035 E0.97845
G1 X40.639 Y116.854 E0.99576
G1 X41.038 Y116.587 E1.01332
G1 X41.372 Y116.253 E1.0306
G1 X41.635 Y115.859 E1.04793
G1 X41.812 Y115.434 E1.06478
G1 X41.926 Y114.836 E1.08705
G1 X41.946 Y107.258 E1.3643
G1 X41.988 Y106.623 E1.38758
G1 X42.109 Y105.999 E1.41084
G1 X42.307 Y105.395 E1.43409
G1 X42.579 Y104.82 E1.45737
G1 X42.922 Y104.284 E1.48065
G1 X43.428 Y103.693 E1.50911
G1 X43.557 Y103.564 E1.51579
G1 X44.034 Y103.144 E1.53904
G1 X44.56 Y102.786 E1.56232
G1 X45.127 Y102.498 E1.58559
G1 X45.725 Y102.282 E1.60885
G1 X46.346 Y102.144 E1.63212
G1 X47.135 Y102.082 E1.66108
G1 X57.865 Y102.082 E2.05365
G1 X58.5 Y102.122 E2.07692
G1 X59.124 Y102.241 E2.10017
G1 X59.729 Y102.438 E2.12344
G1 X60.304 Y102.709 E2.1467
G1 X60.841 Y103.05 E2.16997
G1 X61.443 Y103.564 E2.19893
G1 X61.572 Y103.693 E2.20561
G1 X61.992 Y104.17 E2.22886
G1 X62.35 Y104.696 E2.25214
G1 X62.638 Y105.263 E2.27541
G1 X62.854 Y105.861 E2.29867
G1 X62.992 Y106.482 E2.32194
G1 X63.054 Y107.258 E2.35043
G1 X63.074 Y114.836 E2.62768
G1 X63.188 Y115.434 E2.64995
G1 X63.365 Y115.859 E2.66679
G1 X63.628 Y116.253 E2.68412
G1 X63.962 Y116.587 E2.7014
G1 X64.361 Y116.854 E2.71897
G1 X64.798 Y117.035 E2.73627
G1 X65.262 Y117.127 E2.75358
G1 X65.738 Y117.127 E2.771
G1 X66.202 Y117.035 E2.7883
G1 X66.639 Y116.854 E2.80561
G1 X67.038 Y116.587 E2.82317
G1 X67.372 Y116.253 E2.84045
G1 X67.635 Y115.859 E2.85779
G1 X67.812 Y115.434 E2.87463
G1 X67.926 Y114.836 E2.8969
G1 X67.946 Y107.258 E3.17415
G1 X67.988 Y106.623 E3.19744
G1 X68.109 Y105.999 E3.22069
G1 X68.307 Y105.395 E3.24395
G1 X68.579 Y104.82 E3.26722
G1 X68.922 Y104.284 E3.2905
G1 X69.428 Y103.693 E3.31896
G1 X69.557 Y103.564 E3.32564
G1 X70.034 Y103.144 E3.34889
G1 X70.56 Y102.786 E3.37217
G1 X71.127 Y102.498 E3.39544
G1 X71.725 Y102.282 E3.4187
G1 X72.346 Y102.144 E3.44197
G1 X73.135 Y102.082 E3.47093
G1 X83.865 Y102.082 E3.8635
G1 X84.5 Y102.122 E3.88678
G1 X85.124 Y102.241 E3.91002
G1 X85.729 Y102.438 E3.9333
G1 X86.304 Y102.709 E3.95655
G1 X86.841 Y103.05 E3.97983
G1 X87.443 Y103.564 E4.00879
G1 X87.572 Y103.693 E4.01546
G1 X87.992 Y104.17 E4.03871
G1 X88.35 Y104.696 E4.06199
G1 X88.638 Y105.263 E4.08526
G1 X88.854 Y105.861 E4.10852
G1 X88.992 Y106.482 E4.1318
G1 X89.054 Y107.258 E4.16028
G1 X89.074 Y114.836 E4.43753
G1 X89.188 Y115.434 E4.4598
G1 X89.365 Y115.859 E4.47664
G1 X89.628 Y116.253 E4.49398
G1 X89.962 Y116.587 E4.51126
G1 X90.361 Y116.854 E4.52882
G1 X90.798 Y117.035 E4.54613
G1 X91.262 Y117.127 E4.56343
G1 X91.738 Y117.127 E4.58085
G1 X92.202 Y117.035 E4.59815
G1 X92.639 Y116.854 E4.61546
G1 X93.038 Y116.587 E4.63302
G1 X93.372 Y116.253 E4.65031
G1 X93.635 Y115.859 E4.66764
G1 X93.812 Y115.434 E4.68448
G1 X93.926 Y114.836 E4.70675
G1 X93.946 Y107.258 E4.984
G1 X93.988 Y106.623 E5.00729
G1 X94.109 Y105.999 E5.03054
G1 X94.307 Y105.395 E5.0538
G1 X94.579 Y104.82 E5.07707
G1 X94.922 Y104.284 E5.10035
G1 X95.428 Y103.693 E5.12882
G1 X95.557 Y103.564 E5.13549
G1 X96.034 Y103.144 E5.15874
G1 X96.56 Y102.786 E5.18202
G1 X97.127 Y102.498 E5.20529
G1 X97.725 Y102.282 E5.22855
G1 X98.346 Y102.144 E5.25182
G1 X99.135 Y102.082 E5.28078
G1 X109.865 Y102.082 E5.67335
G1 X110.5 Y102.122 E5.69663
G1 X111.124 Y102.241 E5.71987
G1 X111.729 Y102.438 E5.74315
G1 X112.304 Y102.709 E5.7664
G1 X112.841 Y103.05 E5.78968
G1 X113.443 Y103.564 E5.81864
G1 X113.572 Y103.693 E5.82531
G1 X113.992 Y104.17 E5.84857
G1 X114.35 Y104.696 E5.87184
G1 X114.638 Y105.263 E5.89511
G1 X114.854 Y105.861 E5.91837
G1 X114.992 Y106.482 E5.94165
G1 X115.054 Y107.258 E5.97013
G1 X115.074 Y114.836 E6.24738
G1 X115.188 Y115.434 E6.26965
G1 X115.365 Y115.859 E6.2865
G1 X115.628 Y116.253 E6.30383
G1 X115.962 Y116.587 E6.32111
G1 X116.361 Y116.854 E6.33867
G1 X116.798 Y117.035 E6.35598
G1 X117.262 Y117.127 E6.37328
G1 X117.738 Y117.127 E6.3907
G1 X118.202 Y117.035 E6.40801
G1 X118.639 Y116.854 E6.42531
G1 X119.038 Y116.587 E6.44288
G1 X119.372 Y116.253 E6.46016
G1 X119.635 Y115.859 E6.47749
G1 X119.812 Y115.434 E6.49433
G1 X119.926 Y114.836 E6.51661
G1 X119.946 Y107.258 E6.79386
G1 X119.988 Y106.623 E6.81714
G1 X120.109 Y105.999 E6.84039
G1 X120.307 Y105.395 E6.86365
G1 X120.579 Y104.82 E6.88692
G1 X120.922 Y104.284 E6.9102
G1 X121.428 Y103.693 E6.93867
G1 X121.557 Y103.564 E6.94534
G1 X122.034 Y103.144 E6.96859
G1 X122.56 Y102.786 E6.99187
G1 X123.127 Y102.498 E7.01514
G1 X123.725 Y102.282 E7.0384
G1 X124.346 Y102.144 E7.06168
G1 X125.135 Y102.082 E7.09063
G1 X135.865 Y102.082 E7.4832
G1 X136.5 Y102.122 E7.50648
G1 X137.124 Y102.241 E7.52972
G1 X137.729 Y102.438 E7.553
G1 X138.304 Y102.709 E7.57626
G1 X138.841 Y103.05 E7.59953
G1 X139.443 Y103.564 E7.62849
G1 X139.572 Y103.693 E7.63516
G1 X139.992 Y104.17 E7.65842
G1 X140.35 Y104.696 E7.6817
G1 X140.638 Y105.263 E7.70496
G1 X140.854 Y105.861 E7.72822
G1 X140.992 Y106.482 E7.7515
G1 X141.054 Y107.258 E7.77998
G1 X141.074 Y114.836 E8.05723
G1 X141.188 Y115.434 E8.0795
G1 X141.365 Y115.859 E8.09635
G1 X141.628 Y116.253 E8.11368
G1 X141.962 Y116.587 E8.13096
G1 X142.361 Y116.854 E8.14852
G1 X142.798 Y117.035 E8.16583
G1 X143.262 Y117.127 E8.18314
G1 X143.738 Y117.127 E8.20055
G1 X144.202 Y117.035 E8.21786
G1 X144.639 Y116.854 E8.23516
G1 X145.038 Y116.587 E8.25273
G1 X145.372 Y116.253 E8.27001
G1 X145.635 Y115.859 E8.28734
G1 X145.812 Y115.434 E8.30418
G1 X145.926 Y114.836 E8.32646
G1 X145.946 Y107.258 E8.60371
G1 X145.988 Y106.623 E8.62699
G1 X146.109 Y105.999 E8.65025
G1 X146.307 Y105.395 E8.6735
G1 X146.579 Y104.82 E8.69677
G1 X146.922 Y104.284 E8.72005
G1 X147.428 Y103.693 E8.74852
G1 X147.557 Y103.564 E8.75519
G1 X148.034 Y103.144 E8.77845
G1 X148.56 Y102.786 E8.80172
G1 X149.127 Y102.498 E8.82499
G1 X149.725 Y102.282 E8.84825
G1 X150.346 Y102.144 E8.87153
G1 X151.135 Y102.082 E8.90048
G1 X161.865 Y102.082 E9.29305
G1 X162.5 Y102.122 E9.31633
G1 X163.124 Y102.241 E9.33957
G1 X163.729 Y102.438 E9.36285
G1 X164.304 Y102.709 E9.38611
G1 X164.841 Y103.05 E9.40938
G1 X165.443 Y103.564 E9.43834
G1 X165.572 Y103.693 E9.44502
G1 X165.992 Y104.17 E9.46827
G1 X166.35 Y104.696 E9.49155
G1 X166.638 Y105.263 E9.51481
G1 X166.854 Y105.861 E9.53808
G1 X166.992 Y106.482 E9.56135
G1 X167.054 Y107.258 E9.58983
G1 X167.074 Y114.836 E9.86708
G1 X167.188 Y115.434 E9.88935
G1 X167.365 Y115.859 E9.9062
G1 X167.628 Y116.253 E9.92353
G1 X167.962 Y116.587 E9.94081
G1 X168.361 Y116.854 E9.95838
G1 X168.798 Y117.035 E9.97568
G1 X169.262 Y117.127 E9.99299
G1 X169.738 Y117.127 E10.0104
G1 X170.202 Y117.035 E10.02771
G1 X170.639 Y116.854 E10.04501
G1 X171.038 Y116.587 E10.06258
G1 X171.372 Y116.253 E10.07986
G1 X171.635 Y115.859 E10.09719
G1 X171.812 Y115.434 E10.11404
G1 X171.926 Y114.836 E10.13631
G1 X171.946 Y107.258 E10.41356
G1 X171.988 Y106.623 E10.43684
G1 X172.109 Y105.999 E10.4601
G1 X172.307 Y105.395 E10.48335
G1 X172.579 Y104.82 E10.50662
G1 X172.922 Y104.284 E10.52991
G1 X173.428 Y103.693 E10.55837
G1 X173.557 Y103.564 E10.56505
G1 X174.034 Y103.144 E10.5883
G1 X174.56 Y102.786 E10.61158
G1 X175.127 Y102.498 E10.63484
G1 X175.725 Y102.282 E10.65811
G1 X176.346 Y102.144 E10.68138
G1 X177.135 Y102.082 E10.71034
G1 X187.865 Y102.082 E11.1029
G1 X188.5 Y102.122 E11.12618
G1 X189.124 Y102.241 E11.14942
G1 X189.729 Y102.438 E11.1727
G1 X190.304 Y102.709 E11.19596
G1 X190.841 Y103.05 E11.21923
G1 X191.443 Y103.564 E11.24819
G1 X191.572 Y103.693 E11.25487
G1 X191.992 Y104.17 E11.27812
G1 X192.35 Y104.696 E11.3014
G1 X192.638 Y105.263 E11.32467
G1 X192.854 Y105.861 E11.34793
G1 X192.992 Y106.482 E11.3712
G1 X193.054 Y107.258 E11.39968
G1 X193.074 Y114.836 E11.67693
G1 X193.188 Y115.434 E11.69921
G1 X193.365 Y115.859 E11.71605
G1 X193.628 Y116.253 E11.73338
G1 X193.962 Y116.587 E11.75066
G1 X194.361 Y116.854 E11.76823
G1 X194.798 Y117.035 E11.78553
G1 X195.262 Y117.127 E11.80284
G1 X195.738 Y117.127 E11.82025
G1 X196.202 Y117.035 E11.83756
G1 X196.639 Y116.854 E11.85487
G1 X197.038 Y116.587 E11.87243
G1 X197.372 Y116.253 E11.88971
G1 X197.635 Y115.859 E11.90704
G1 X197.812 Y115.434 E11.92389
G1 X197.926 Y114.836 E11.94616
G1 X197.946 Y107.258 E12.22341
G1 X197.988 Y106.623 E12.24669
G1 X198.109 Y105.999 E12.26995
G1 X198.307 Y105.395 E12.2932
G1 X198.579 Y104.82 E12.31648
G1 X198.922 Y104.284 E12.33976
G1 X199.428 Y103.693 E12.36822
G1 X199.557 Y103.564 E12.3749
G1 X200.034 Y103.144 E12.39815
G1 X200.56 Y102.786 E12.42143
G1 X201.127 Y102.498 E12.4447
G1 X201.725 Y102.282 E12.46796
G1 X202.346 Y102.144 E12.49123
G1 X203.135 Y102.082 E12.52019
G1 X208.371 Y102.082 E12.71175
G1 X209.006 Y102.122 E12.73503
G1 X209.63 Y102.241 E12.75827
G1 X210.235 Y102.438 E12.78155
G1 X210.81 Y102.709 E12.80481
G1 X211.347 Y103.05 E12.82808
G1 X211.949 Y103.564 E12.85704
G1 X212.078 Y103.693 E12.86371
G1 X212.498 Y104.17 E12.88697
G1 X212.856 Y104.696 E12.91025
G1 X213.144 Y105.263 E12.93351
G1 X213.36 Y105.861 E12.95677
G1 X213.498 Y106.482 E12.98005
G1 X213.56 Y107.271 E13.009
G1 X213.56 Y127.729 E13.75748
G1 X213.52 Y128.364 E13.78076
G1 X213.401 Y128.988 E13.804
G1 X213.204 Y129.593 E13.82728
G1 X212.933 Y130.168 E13.85054
G1 X212.592 Y130.705 E13.87381
G1 X212.078 Y131.307 E13.90277
G1 X211.949 Y131.436 E13.90945
G1 X211.472 Y131.856 E13.9327
G1 X210.946 Y132.214 E13.95598
G1 X210.379 Y132.502 E13.97925
G1 X209.781 Y132.718 E14.00251
G1 X209.16 Y132.856 E14.02578
G1 X208.371 Y132.918 E14.05474
G1 X26.629 Y132.918 E20.70398
G1 X25.994 Y132.878 E20.72725
G1 X25.37 Y132.759 E20.7505
G1 X24.765 Y132.562 E20.77377
G1 X24.19 Y132.291 E20.79703
G1 X23.653 Y131.95 E20.8203
G1 X23.051 Y131.436 E20.84927
G1 X22.922 Y131.307 E20.85594
G1 X22.502 Y130.83 E20.87919
G1 X22.144 Y130.304 E20.90247
G1 X21.856 Y129.737 E20.92574
G1 X21.64 Y129.139 E20.949
G1 X21.502 Y128.518 E20.97227
G1 X21.44 Y127.729 E21.00123
G1 X21.44 Y107.271 E21.74971
G1 X21.48 Y106.636 E21.77299
G1 X21.599 Y106.012 E21.79623
G1 X21.796 Y105.407 E21.81951
G1 X22.067 Y104.832 E21.84276
G1 X22.408 Y104.295 E21.86604
G1 X22.922 Y103.693 E21.895
G1 X23.051 Y103.564 E21.90167
G1 X23.528 Y103.144 E21.92492
G1 X24.054 Y102.786 E21.9482
G1 X24.539 Y102.539 E21.96812
G0 F810 X24.621 Y102.498
G0 X25.219 Y102.282
M204 S5000
M205 X30 Y30
G0 F7200 X25.446 Y102.676
M204 S500
M205 X20 Y20
G1 F6000 E21.99471
G1 F900 X26.042 Y102.559 E22.01694
G1 X26.629 Y102.522 E22.03845
G1 X31.865 Y102.522 E22.23002
G1 X32.471 Y102.562 E22.25224
G1 X33.067 Y102.681 E22.27447
G1 X33.642 Y102.877 E22.2967
G1 X34.186 Y103.148 E22.31894
G1 X34.691 Y103.487 E22.34119
G1 X35.132 Y103.875 E22.36268
G1 X35.261 Y104.004 E22.36935
G1 X35.661 Y104.461 E22.39157
G1 X35.998 Y104.967 E22.41382
G1 X36.266 Y105.512 E22.43604
G1 X36.46 Y106.088 E22.45827
G1 X36.577 Y106.684 E22.48049
G1 X36.614 Y107.259 E22.50157
G1 X36.634 Y114.883 E22.78051
G1 X36.763 Y115.556 E22.80558
G1 X36.975 Y116.068 E22.82585
G1 X37.288 Y116.536 E22.84645
G1 X37.681 Y116.929 E22.86679
G1 X38.149 Y117.242 E22.88739
G1 X38.672 Y117.459 E22.9081
G1 X39.217 Y117.567 E22.92843
G1 X39.783 Y117.567 E22.94914
G1 X40.328 Y117.459 E22.96946
G1 X40.851 Y117.242 E22.99018
G1 X41.319 Y116.929 E23.01078
G1 X41.712 Y116.536 E23.03111
G1 X42.025 Y116.068 E23.05171
G1 X42.237 Y115.556 E23.07199
G1 X42.366 Y114.883 E23.09706
G1 X42.386 Y107.259 E23.37599
G1 X42.428 Y106.653 E23.39821
G1 X42.548 Y106.057 E23.42046
G1 X42.746 Y105.483 E23.44267
G1 X43.018 Y104.939 E23.46492
G1 X43.358 Y104.436 E23.48714
G1 X43.739 Y104.004 E23.50821
G1 X43.868 Y103.875 E23.51489
G1 X44.325 Y103.475 E23.53711
G1 X44.831 Y103.138 E23.55935
G1 X45.376 Y102.87 E23.58157
G1 X45.952 Y102.676 E23.6038
G1 X46.548 Y102.559 E23.62603
G1 X47.135 Y102.522 E23.64755
G1 X57.865 Y102.522 E24.04011
G1 X58.471 Y102.562 E24.06233
G1 X59.067 Y102.681 E24.08457
G1 X59.642 Y102.877 E24.1068
G1 X60.186 Y103.148 E24.12903
G1 X60.691 Y103.487 E24.15128
G1 X61.132 Y103.875 E24.17277
G1 X61.261 Y104.004 E24.17945
G1 X61.661 Y104.461 E24.20167
G1 X61.998 Y104.967 E24.22391
G1 X62.266 Y105.512 E24.24613
G1 X62.46 Y106.088 E24.26837
G1 X62.577 Y106.684 E24.29059
G1 X62.614 Y107.259 E24.31167
G1 X62.634 Y114.883 E24.5906
G1 X62.763 Y115.556 E24.61567
G1 X62.975 Y116.068 E24.63595
G1 X63.288 Y116.536 E24.65655
G1 X63.681 Y116.929 E24.67688
G1 X64.149 Y117.242 E24.69748
G1 X64.672 Y117.459 E24.7182
G1 X65.217 Y117.567 E24.73852
G1 X65.783 Y117.567 E24.75923
G1 X66.328 Y117.459 E24.77956
G1 X66.851 Y117.242 E24.80027
G1 X67.319 Y116.929 E24.82087
G1 X67.712 Y116.536 E24.84121
G1 X68.025 Y116.068 E24.86181
G1 X68.237 Y115.556 E24.88208
G1 X68.366 Y114.883 E24.90715
G1 X68.386 Y107.259 E25.18609
G1 X68.428 Y106.653 E25.20831
G1 X68.548 Y106.057 E25.23055
G1 X68.746 Y105.483 E25.25277
G1 X69.018 Y104.939 E25.27502
G1 X69.358 Y104.436 E25.29723
G1 X69.739 Y104.004 E25.31831
G1 X69.868 Y103.875 E25.32498
G1 X70.325 Y103.475 E25.3472
G1 X70.831 Y103.138 E25.36944
G1 X71.376 Y102.87 E25.39166
G1 X71.952 Y102.676 E25.4139
G1 X72.548 Y102.559 E25.43612
G1 X73.135 Y102.522 E25.45764
G1 X83.865 Y102.522 E25.85021
G1 X84.471 Y102.562 E25.87243
G1 X85.067 Y102.681 E25.89466
G1 X85.642 Y102.877 E25.91689
G1 X86.186 Y103.148 E25.93913
G1 X86.691 Y103.487 E25.96138
G1 X87.132 Y103.875 E25.98287
G1 X87.261 Y104.004 E25.98954
G1 X87.661 Y104.461 E26.01176
G1 X87.998 Y104.967 E26.03401
G1 X88.266 Y105.512 E26.05623
G1 X88.46 Y106.088 E26.07846
G1 X88.577 Y106.684 E26.10068
G1 X88.614 Y107.259 E26.12176
G1 X88.634 Y114.883 E26.4007
G1 X88.763 Y115.556 E26.42577
G1 X88.975 Y116.068 E26.44604
G1 X89.288 Y116.536 E26.46664
G1 X89.681 Y116.929 E26.48698
G1 X90.149 Y117.242 E26.50758
G1 X90.672 Y117.459 E26.52829
G1 X91.217 Y117.567 E26.54862
G1 X91.783 Y117.567 E26.56933
G1 X92.328 Y117.459 E26.58965
G1 X92.851 Y117.242 E26.61037
G1 X93.319 Y116.929 E26.63097
G1 X93.712 Y116.536 E26.6513
G1 X94.025 Y116.068 E26.6719
G1 X94.237 Y115.556 E26.69218
G1 X94.366 Y114.883 E26.71725
G1 X94.386 Y107.259 E26.99618
G1 X94.428 Y106.653 E27.0184
G1 X94.548 Y106.057 E27.04065
G1 X94.746 Y105.483 E27.06286
G1 X95.018 Y104.939 E27.08511
G1 X95.358 Y104.436 E27.10733
G1 X95.739 Y104.004 E27.1284
G1 X95.868 Y103.875 E27.13508
G1 X96.325 Y103.475 E27.1573
G1 X96.831 Y103.138 E27.17954
G1 X97.376 Y102.87 E27.20176
G1 X97.952 Y102.676 E27.22399
G1 X98.548 Y102.559 E27.24622
G1 X99.135 Y102.522 E27.26773
G1 X109.865 Y102.522 E27.6603
G1 X110.471 Y102.562 E27.68252
G1 X111.067 Y102.681 E27.70476
G1 X111.642 Y102.877 E27.72699
G1 X112.186 Y103.148 E27.74922
G1 X112.691 Y103.487 E27.77147
G1 X113.132 Y103.875 E27.79296
G1 X113.261 Y104.004 E27.79964
G1 X113.661 Y104.461 E27.82186
G1 X113.998 Y104.967 E27.8441
G1 X114.266 Y105.512 E27.86632
