;FLAVOR:Marlin
;TIME:2350
;Filament used: 1.77886m
;Layer height: 0.16
;Generated with Cura_SteamEngine 3.6.0
M140 S70
M105
M190 S70
M104 S215
M105
M109 S215
M82 ;absolute extrusion mode
G28 ; home all axes
M117 Purge extruder
G92 E0 ; reset extruder
G1 Z1.0 F3000 ; move z up little to prevent scratching of surface
G1 X0.1 Y20 Z0.3 F5000.0 ; move to start-line position G1 X0.1 Y200.0 Z0.3 F1500.0 E15 ; draw 1st line
G1 X0.4 Y200.0 Z0.3 F5000.0 ; move to side a little
G1 X0.4 Y20 Z0.3 F1500.0 E30 ; draw 2nd line
G92 E0 ; reset extruder
G1 Z1.0 F3000 ; move z up little to prevent scratching of surface
M117 All systems go!
G92 E0
G1 F6000 E-5
;LAYER_COUNT:45
;LAYER:0
M107
M204 S5000
M205 X30 Y30
G0 F7200 X108.783 Y80.084 Z0.2
M204 S500
M205 X20 Y20
;TYPE:SKIRT
G1 F6000 E0
G1 F900 X109.297 Y79.482 E0.02896
G1 X109.426 Y79.353 E0.03564
G1 X109.903 Y78.933 E0.05889
G1 X110.429 Y78.575 E0.08217
G1 X110.996 Y78.287 E0.10543
G1 X111.594 Y78.071 E0.1287
G1 X112.215 Y77.933 E0.15197
G1 X113.004 Y77.871 E0.18093
G1 X121.996 Y77.871 E0.50991
G1 X122.631 Y77.911 E0.53319
G1 X123.255 Y78.03 E0.55643
G1 X123.86 Y78.227 E0.57971
G1 X124.435 Y78.498 E0.60296
G1 X124.972 Y78.839 E0.62624
G1 X125.574 Y79.353 E0.6552
G1 X125.703 Y79.482 E0.66187
G1 X126.123 Y79.959 E0.68512
G1 X126.481 Y80.485 E0.7084
G1 X126.769 Y81.052 E0.73167
G1 X126.985 Y81.65 E0.75493
G1 X127.123 Y82.271 E0.77821
G1 X127.185 Y83.06 E0.80716
G1 X127.185 Y86.304 E0.92585
G1 X127.391 Y86.42 E0.9345
G1 X128.335 Y87.018 E0.97538
G1 X128.85 Y87.392 E0.99867
G1 X129.212 Y87.722 E1.01659
G1 X130.001 Y88.514 E1.05749
G1 X130.42 Y88.992 E1.08074
G1 X130.707 Y89.404 E1.09911
G1 X131.298 Y90.35 E1.13992
G1 X131.601 Y90.909 E1.16319
G1 X131.786 Y91.369 E1.18133
G1 X132.156 Y92.433 E1.22254
G1 X132.327 Y93.046 E1.24582
G1 X132.406 Y93.536 E1.26398
G1 X132.529 Y94.642 E1.3047
G1 X132.56 Y95.201 E1.32518
G1 X132.559 Y139.691 E2.9529
G1 X132.527 Y140.26 E2.97375
G1 X132.4 Y141.382 E3.01506
G1 X132.289 Y142.008 E3.03832
G1 X132.142 Y142.501 E3.05714
G1 X131.767 Y143.561 E3.09828
G1 X131.518 Y144.146 E3.12154
G1 X131.273 Y144.578 E3.13971
G1 X130.677 Y145.52 E3.18049
G1 X130.304 Y146.035 E3.20376
G1 X129.972 Y146.4 E3.22181
G1 X129.177 Y147.192 E3.26286
G1 X128.699 Y147.611 E3.28612
G1 X128.287 Y147.898 E3.30449
G1 X127.777 Y148.216 E3.32648
G1 X127.808 Y148.29 E3.32942
G1 X127.978 Y148.903 E3.35269
G1 X128.069 Y149.533 E3.37598
G1 X128.08 Y150.168 E3.39921
G1 X128.036 Y150.568 E3.41394
G1 X128.119 Y150.727 E3.4205
G1 X128.34 Y151.323 E3.44375
G1 X128.484 Y151.943 E3.46704
G1 X128.549 Y152.575 E3.49029
G1 X128.548 Y152.61 E3.49157
G1 X128.593 Y152.774 E3.49779
G1 X128.685 Y153.403 E3.52105
G1 X128.697 Y154.039 E3.54432
G1 X128.629 Y154.671 E3.56758
G1 X128.401 Y155.535 E3.60027
G1 X128.193 Y156.111 E3.62267
G1 X127.94 Y156.694 E3.64592
G1 X127.616 Y157.241 E3.66918
G1 X127.225 Y157.743 E3.69246
G1 X126.775 Y158.192 E3.71572
G1 X126.331 Y158.54 E3.73636
G1 X125.827 Y158.892 E3.75885
G1 X125.284 Y159.223 E3.78212
G1 X124.704 Y159.483 E3.80537
G1 X124.095 Y159.668 E3.82866
G1 X123.394 Y159.783 E3.85465
G1 X122.829 Y159.835 E3.87541
G1 X122.193 Y159.853 E3.89869
G1 X121.56 Y159.792 E3.92195
G1 X120.94 Y159.651 E3.94522
G1 X120.342 Y159.434 E3.96849
G1 X119.518 Y158.979 E4.00293
G1 X119.089 Y158.687 E4.02191
G1 X118.587 Y158.297 E4.04517
G1 X118.137 Y157.847 E4.06845
G1 X117.994 Y157.662 E4.07701
G1 X117.718 Y157.715 E4.08729
G1 X117.081 Y157.755 E4.11064
G1 X116.903 Y157.755 E4.11716
G1 X116.794 Y157.884 E4.12333
G1 X116.327 Y158.314 E4.14656
G1 X115.808 Y158.683 E4.16986
G1 X115.248 Y158.984 E4.19312
G1 X114.821 Y159.156 E4.20996
G1 X113.699 Y159.551 E4.25348
G1 X113.087 Y159.724 E4.27675
G1 X112.459 Y159.819 E4.29998
G1 X111.823 Y159.834 E4.32326
G1 X111.19 Y159.77 E4.34654
G1 X110.571 Y159.626 E4.36979
G1 X109.974 Y159.406 E4.39307
G1 X109.165 Y158.956 E4.42694
G1 X108.736 Y158.663 E4.44594
G1 X108.235 Y158.272 E4.46919
G1 X107.786 Y157.822 E4.49245
G1 X107.398 Y157.318 E4.51572
G1 X107.075 Y156.77 E4.53899
G1 X106.824 Y156.186 E4.56225
G1 X106.669 Y155.661 E4.58228
G1 X106.545 Y155.142 E4.6018
G1 X106.504 Y154.907 E4.61053
G1 X106.481 Y154.863 E4.61234
G1 X106.22 Y154.283 E4.63561
G1 X106.033 Y153.676 E4.65885
G1 X105.923 Y153.049 E4.68214
G1 X105.894 Y152.414 E4.7054
G1 X105.944 Y151.78 E4.72867
G1 X106.073 Y151.157 E4.75194
G1 X106.279 Y150.556 E4.77519
G1 X106.559 Y149.985 E4.79845
G1 X106.909 Y149.454 E4.82172
G1 X107.322 Y148.97 E4.845
G1 X107.42 Y148.881 E4.84984
G1 X107.447 Y148.798 E4.85304
G1 X107.586 Y148.447 E4.86685
G1 X106.668 Y147.867 E4.90658
G1 X106.153 Y147.494 E4.92984
G1 X105.769 Y147.141 E4.94892
G1 X104.969 Y146.329 E4.99063
G1 X104.552 Y145.849 E5.01389
G1 X104.284 Y145.463 E5.03108
G1 X103.703 Y144.535 E5.07114
G1 X103.4 Y143.976 E5.0944
G1 X103.212 Y143.511 E5.11275
G1 X102.843 Y142.449 E5.15389
G1 X102.673 Y141.836 E5.17716
G1 X102.594 Y141.347 E5.19528
G1 X102.471 Y140.24 E5.23603
G1 X102.44 Y139.681 E5.25652
G1 X102.441 Y95.191 E6.88423
G1 X102.473 Y94.621 E6.90512
G1 X102.6 Y93.5 E6.9464
G1 X102.711 Y92.874 E6.96966
G1 X102.858 Y92.382 E6.98844
G1 X103.233 Y91.322 E7.02958
G1 X103.482 Y90.737 E7.05284
G1 X103.725 Y90.307 E7.07091
G1 X104.322 Y89.362 E7.11181
G1 X104.695 Y88.847 E7.13507
G1 X105.031 Y88.478 E7.15333
G1 X105.823 Y87.69 E7.19421
G1 X106.301 Y87.271 E7.21746
G1 X106.709 Y86.987 E7.23565
G1 X107.657 Y86.394 E7.27656
G1 X107.815 Y86.308 E7.28314
G1 X107.815 Y83.06 E7.40197
G1 X107.855 Y82.425 E7.42525
G1 X107.974 Y81.801 E7.44849
G1 X108.171 Y81.196 E7.47177
G1 X108.404 Y80.703 E7.49172
G0 F810 X108.442 Y80.621
G0 X108.783 Y80.084
M204 S5000
M205 X30 Y30
G0 F7200 X109.22 Y80.234
M204 S500
M205 X20 Y20
G1 F6000 E7.51832
G1 F900 X109.608 Y79.793 E7.53981
G1 X109.737 Y79.664 E7.54648
G1 X110.194 Y79.264 E7.5687
G1 X110.7 Y78.927 E7.59095
G1 X111.245 Y78.659 E7.61317
G1 X111.821 Y78.465 E7.6354
G1 X112.417 Y78.348 E7.65762
G1 X113.004 Y78.311 E7.67914
G1 X121.996 Y78.311 E8.00812
G1 X122.602 Y78.351 E8.03034
G1 X123.198 Y78.47 E8.05258
G1 X123.773 Y78.666 E8.07481
G1 X124.317 Y78.937 E8.09704
G1 X124.822 Y79.276 E8.11929
G1 X125.263 Y79.664 E8.14078
G1 X125.392 Y79.793 E8.14746
G1 X125.792 Y80.25 E8.16968
G1 X126.129 Y80.756 E8.19192
G1 X126.397 Y81.301 E8.21414
G1 X126.591 Y81.877 E8.23638
G1 X126.708 Y82.473 E8.2586
G1 X126.745 Y83.06 E8.28012
G1 X126.745 Y86.564 E8.40832
G1 X126.781 Y86.579 E8.40974
G1 X127.155 Y86.792 E8.42549
G1 X128.099 Y87.39 E8.46637
G1 X128.59 Y87.748 E8.48861
G1 X128.9 Y88.032 E8.50399
G1 X129.689 Y88.824 E8.54489
G1 X130.089 Y89.282 E8.56714
G1 X130.334 Y89.637 E8.58292
G1 X130.925 Y90.583 E8.62373
G1 X131.213 Y91.119 E8.64599
G1 X131.371 Y91.514 E8.66155
G1 X131.741 Y92.578 E8.70277
G1 X131.902 Y93.163 E8.72497
G1 X131.969 Y93.584 E8.74056
G1 X132.092 Y94.69 E8.78128
G1 X132.12 Y95.201 E8.8
G1 X132.119 Y139.691 E10.42772
G1 X132.09 Y140.211 E10.44677
G1 X131.963 Y141.333 E10.48808
G1 X131.855 Y141.931 E10.51032
G1 X131.727 Y142.354 E10.52648
G1 X131.352 Y143.414 E10.56762
G1 X131.113 Y143.972 E10.58983
G1 X130.901 Y144.343 E10.60546
G1 X130.305 Y145.285 E10.64625
G1 X129.947 Y145.776 E10.66848
G1 X129.662 Y146.088 E10.68394
G1 X128.867 Y146.88 E10.72499
G1 X128.409 Y147.28 E10.74724
G1 X128.054 Y147.525 E10.76302
G1 X127.231 Y148.039 E10.79852
G1 X127.271 Y148.119 E10.8018
G1 X127.473 Y148.692 E10.82402
G1 X127.599 Y149.286 E10.84624
G1 X127.645 Y149.892 E10.86847
G1 X127.611 Y150.499 E10.89072
G1 X127.584 Y150.642 E10.89604
G1 X127.8 Y151.105 E10.91473
G1 X127.982 Y151.684 E10.93694
G1 X128.087 Y152.283 E10.95919
G1 X128.102 Y152.65 E10.97263
G1 X128.168 Y152.891 E10.98177
G1 X128.251 Y153.493 E11.004
G1 X128.253 Y154.1 E11.02621
G1 X128.176 Y154.703 E11.04845
G1 X127.987 Y155.385 E11.07434
G1 X127.779 Y155.961 E11.09675
G1 X127.536 Y156.518 E11.11898
G1 X127.221 Y157.038 E11.14122
G1 X126.841 Y157.512 E11.16345
G1 X126.403 Y157.932 E11.18565
G1 X126.079 Y158.18 E11.20058
G1 X125.575 Y158.532 E11.22307
G1 X125.055 Y158.846 E11.2453
G1 X124.499 Y159.09 E11.26751
G1 X123.915 Y159.258 E11.28974
G1 X123.353 Y159.345 E11.31055
G1 X122.788 Y159.397 E11.33131
G1 X122.181 Y159.412 E11.35352
G1 X121.577 Y159.348 E11.37574
G1 X120.986 Y159.205 E11.39799
G1 X120.419 Y158.986 E11.42023
G1 X119.765 Y158.615 E11.44774
G1 X119.336 Y158.323 E11.46672
G1 X118.858 Y157.949 E11.48893
G1 X118.432 Y157.515 E11.51118
G1 X118.181 Y157.181 E11.52646
G1 X118.155 Y157.189 E11.52746
G1 X117.556 Y157.291 E11.54969
G1 X117.081 Y157.315 E11.56709
G1 X116.741 Y157.315 E11.57953
G1 X116.68 Y157.34 E11.58194
G1 X116.401 Y157.657 E11.59739
G1 X115.943 Y158.056 E11.61962
G1 X115.437 Y158.392 E11.64184
G1 X114.675 Y158.741 E11.6725
G1 X113.553 Y159.136 E11.71602
G1 X112.968 Y159.299 E11.73824
G1 X112.366 Y159.385 E11.76049
G1 X111.759 Y159.391 E11.7827
G1 X111.156 Y159.317 E11.80492
G1 X110.568 Y159.164 E11.82715
G1 X110.005 Y158.936 E11.84938
G1 X109.413 Y158.593 E11.87441
G1 X108.984 Y158.3 E11.89341
G1 X108.506 Y157.925 E11.91564
G1 X108.081 Y157.491 E11.93787
G1 X107.717 Y157.004 E11.96011
G1 X107.42 Y156.474 E11.98234
G1 X107.195 Y155.91 E12.00455
G1 X107.096 Y155.559 E12.0179
G1 X106.972 Y155.04 E12.03742
G1 X106.924 Y154.759 E12.04785
G1 X106.87 Y154.657 E12.05207
G1 X106.622 Y154.103 E12.07428
G1 X106.448 Y153.52 E12.09654
G1 X106.353 Y152.92 E12.11876
G1 X106.337 Y152.313 E12.14098
G1 X106.4 Y151.709 E12.1632
G1 X106.543 Y151.118 E12.18544
G1 X106.762 Y150.551 E12.20768
G1 X107.053 Y150.018 E12.2299
G1 X107.412 Y149.528 E12.25212
G1 X107.806 Y149.117 E12.27295
G1 X107.865 Y148.934 E12.27999
G1 X108.091 Y148.37 E12.30222
G1 X108.151 Y148.264 E12.30667
G1 X107.848 Y148.092 E12.31942
G1 X106.904 Y147.495 E12.36028
G1 X106.413 Y147.137 E12.38252
G1 X106.082 Y146.832 E12.39898
G1 X105.282 Y146.02 E12.44069
G1 X104.885 Y145.56 E12.46292
G1 X104.657 Y145.23 E12.47759
G1 X104.076 Y144.302 E12.51765
G1 X103.788 Y143.767 E12.53988
G1 X103.628 Y143.366 E12.55568
G1 X103.259 Y142.304 E12.59681
G1 X103.098 Y141.718 E12.61904
G1 X103.031 Y141.298 E12.6346
G1 X102.908 Y140.191 E12.67535
G1 X102.88 Y139.681 E12.69404
G1 X102.881 Y95.191 E14.32176
G1 X102.91 Y94.671 E14.34081
G1 X103.037 Y93.55 E14.38209
G1 X103.145 Y92.952 E14.40432
G1 X103.273 Y92.529 E14.42049
G1 X103.648 Y91.469 E14.46163
G1 X103.887 Y90.911 E14.48383
G1 X104.097 Y90.542 E14.49937
G1 X104.694 Y89.597 E14.54026
G1 X105.052 Y89.106 E14.56249
G1 X105.341 Y88.79 E14.57816
G1 X106.133 Y88.002 E14.61904
G1 X106.591 Y87.603 E14.64126
G1 X106.942 Y87.36 E14.65688
G1 X107.89 Y86.767 E14.69779
G1 X108.255 Y86.571 E14.71295
G1 X108.255 Y83.06 E14.8414
G1 X108.295 Y82.454 E14.86362
G1 X108.414 Y81.858 E14.88586
G1 X108.61 Y81.283 E14.90808
G1 X108.828 Y80.845 E14.92598
G0 F810 X108.881 Y80.739
G0 X109.22 Y80.234
M204 S5000
M205 X30 Y30
G0 F7200 X109.656 Y80.393
M204 S500
M205 X20 Y20
G1 F6000 E14.95258
G1 F900 X109.919 Y80.104 E14.96688
G1 X110.048 Y79.975 E14.97355
G1 X110.484 Y79.596 E14.99469
G1 X110.968 Y79.28 E15.01583
G1 X111.491 Y79.034 E15.03698
G1 X112.043 Y78.863 E15.05812
G1 X112.614 Y78.769 E15.07929
G1 X113.004 Y78.751 E15.09358
G1 X121.996 Y78.751 E15.42256
G1 X122.573 Y78.791 E15.44372
G1 X123.138 Y78.91 E15.46485
G1 X123.682 Y79.106 E15.486
G1 X124.193 Y79.375 E15.50713
G1 X124.663 Y79.712 E15.52829
G1 X124.952 Y79.975 E15.54258
G1 X125.081 Y80.104 E15.54926
G1 X125.46 Y80.54 E15.57039
G1 X125.776 Y81.024 E15.59154
G1 X126.022 Y81.547 E15.61269
G1 X126.193 Y82.099 E15.63383
G1 X126.287 Y82.67 E15.655
G1 X126.305 Y83.06 E15.66929
G1 X126.305 Y86.853 E15.80806
G1 X126.606 Y86.984 E15.82007
G1 X126.92 Y87.164 E15.83331
G1 X127.864 Y87.762 E15.87419
G1 X128.33 Y88.104 E15.89534
G1 X128.588 Y88.343 E15.90821
G1 X129.377 Y89.135 E15.94911
G1 X129.756 Y89.572 E15.97027
G1 X129.961 Y89.87 E15.98351
G1 X130.552 Y90.816 E16.02432
G1 X130.824 Y91.326 E16.04546
G1 X130.955 Y91.658 E16.05852
G1 X131.325 Y92.722 E16.09973
G1 X131.477 Y93.28 E16.12089
G1 X131.531 Y93.633 E16.13396
G1 X131.654 Y94.739 E16.17467
G1 X131.68 Y95.201 E16.1916
G1 X131.679 Y139.691 E17.81932
G1 X131.652 Y140.161 E17.83654
G1 X131.525 Y141.283 E17.87785
G1 X131.421 Y141.852 E17.89902
G1 X131.313 Y142.207 E17.91259
G1 X130.938 Y143.267 E17.95373
G1 X130.708 Y143.797 E17.97487
G1 X130.529 Y144.108 E17.988
G1 X129.933 Y145.05 E18.02878
G1 X129.591 Y145.516 E18.04993
G1 X129.351 Y145.776 E18.06287
G1 X128.556 Y146.568 E18.10393
G1 X128.119 Y146.947 E18.12509
G1 X127.821 Y147.152 E18.13833
G1 X126.875 Y147.743 E18.17913
G1 X126.645 Y147.866 E18.18868
G1 X126.727 Y148 E18.19443
G1 X126.96 Y148.529 E18.21557
G1 X127.117 Y149.085 E18.23671
G1 X127.195 Y149.658 E18.25787
G1 X127.195 Y150.235 E18.27898
G1 X127.125 Y150.727 E18.29716
G1 X127.249 Y150.941 E18.30621
G1 X127.466 Y151.477 E18.32736
G1 X127.607 Y152.037 E18.34849
G1 X127.67 Y152.611 E18.36962
G1 X127.666 Y152.723 E18.37372
G1 X127.743 Y153.007 E18.38448
G1 X127.815 Y153.58 E18.40561
G1 X127.808 Y154.158 E18.42676
G1 X127.721 Y154.729 E18.44789
G1 X127.574 Y155.236 E18.46721
G1 X127.366 Y155.812 E18.48961
G1 X127.132 Y156.34 E18.51074
G1 X126.828 Y156.832 E18.5319
G1 X126.459 Y157.277 E18.55305
G1 X125.827 Y157.819 E18.58351
G1 X125.323 Y158.171 E18.606
G1 X124.828 Y158.468 E18.62712
G1 X124.296 Y158.694 E18.64827
G1 X123.738 Y158.845 E18.66942
G1 X123.313 Y158.906 E18.68513
G1 X122.748 Y158.958 E18.70589
G1 X122.17 Y158.971 E18.72704
G1 X121.596 Y158.905 E18.74818
G1 X121.037 Y158.759 E18.76932
G1 X120.503 Y158.538 E18.79046
G1 X120.013 Y158.252 E18.81122
G1 X119.584 Y157.96 E18.8302
G1 X119.13 Y157.602 E18.85136
G1 X118.729 Y157.185 E18.87252
G1 X118.39 Y156.717 E18.89366
G1 X118.362 Y156.665 E18.89583
G1 X117.97 Y156.779 E18.91076
G1 X117.398 Y156.863 E18.93191
G1 X117.081 Y156.875 E18.94352
G1 X116.653 Y156.875 E18.95918
G1 X116.424 Y156.965 E18.96818
G1 X116.401 Y156.999 E18.96968
G1 X116.009 Y157.423 E18.99081
G1 X115.563 Y157.79 E19.01194
G1 X115.07 Y158.092 E19.03309
G1 X114.529 Y158.326 E19.05466
G1 X113.407 Y158.721 E19.09818
G1 X112.85 Y158.875 E19.11932
G1 X112.277 Y158.95 E19.14046
G1 X111.699 Y158.946 E19.16161
G1 X111.127 Y158.862 E19.18276
G1 X110.573 Y158.7 E19.20388
G1 X110.045 Y158.463 E19.22505
G1 X109.662 Y158.23 E19.24146
G1 X109.233 Y157.937 E19.26046
G1 X108.779 Y157.579 E19.28162
G1 X108.379 Y157.161 E19.30278
G1 X108.041 Y156.693 E19.3239
G1 X107.77 Y156.182 E19.34506
G1 X107.524 Y155.456 E19.37311
G1 X107.4 Y154.937 E19.39263
G1 X107.347 Y154.616 E19.40454
G1 X107.259 Y154.451 E19.41138
G1 X107.024 Y153.923 E19.43252
G1 X106.865 Y153.368 E19.45364
G1 X106.784 Y152.795 E19.47482
G1 X106.782 Y152.217 E19.49596
G1 X106.86 Y151.645 E19.51708
G1 X107.017 Y151.088 E19.53826
G1 X107.248 Y150.559 E19.55938
G1 X107.551 Y150.066 E19.58055
G1 X107.918 Y149.62 E19.60168
G1 X108.184 Y149.376 E19.61488
G1 X108.283 Y149.071 E19.62662
G1 X108.5 Y148.535 E19.64777
G1 X108.772 Y148.062 E19.66774
G1 X108.394 Y147.898 E19.68281
G1 X108.083 Y147.72 E19.69592
G1 X107.139 Y147.123 E19.73678
G1 X106.673 Y146.781 E19.75793
G1 X106.395 Y146.524 E19.77178
G1 X105.595 Y145.712 E19.81349
G1 X105.219 Y145.273 E19.83464
G1 X105.03 Y144.996 E19.8469
G1 X104.449 Y144.068 E19.88696
G1 X104.177 Y143.558 E19.90811
G1 X104.044 Y143.222 E19.92133
G1 X103.675 Y142.16 E19.96246
G1 X103.523 Y141.602 E19.98362
G1 X103.469 Y141.25 E19.99665
G1 X103.346 Y140.143 E20.0374
G1 X103.32 Y139.681 E20.05433
G1 X103.321 Y95.191 E21.68205
G1 X103.348 Y94.72 E21.69931
G1 X103.475 Y93.599 E21.74058
G1 X103.579 Y93.031 E21.76171
G1 X103.687 Y92.676 E21.77529
G1 X104.062 Y91.616 E21.81642
G1 X104.292 Y91.086 E21.83756
G1 X104.469 Y90.777 E21.85059
G1 X105.066 Y89.832 E21.89148
G1 X105.408 Y89.366 E21.91263
G1 X105.652 Y89.102 E21.92578
G1 X106.444 Y88.314 E21.96666
G1 X106.881 Y87.935 E21.98782
G1 X107.175 Y87.733 E22.00087
G1 X108.123 Y87.14 E22.04178
G1 X108.633 Y86.868 E22.06293
G1 X108.695 Y86.843 E22.06538
G1 X108.695 Y83.06 E22.20378
G1 X108.735 Y82.483 E22.22494
G1 X108.854 Y81.918 E22.24607
G1 X109.05 Y81.374 E22.26722
G1 X109.25 Y80.994 E22.28293
G0 F810 X109.319 Y80.863
