;FLAVOR:Marlin
;TIME:6890
;Filament used: 4.87809m
;Layer height: 0.16
;Generated with Cura_SteamEngine 3.6.0
M140 S70
M105
M190 S70
M104 S215
M105
M109 S215
M82 ;absolute extrusion mode
G28 ; home all axes
M117 Purge extruder
G92 E0 ; reset extruder
G1 Z1.0 F3000 ; move z up little to prevent scratching of surface
G1 X0.1 Y20 Z0.3 F5000.0 ; move to start-line position G1 X0.1 Y200.0 Z0.3 F1500.0 E15 ; draw 1st line
G1 X0.4 Y200.0 Z0.3 F5000.0 ; move to side a little
G1 X0.4 Y20 Z0.3 F1500.0 E30 ; draw 2nd line
G92 E0 ; reset extruder
G1 Z1.0 F3000 ; move z up little to prevent scratching of surface
M117 All systems go!
G92 E0
G1 F6000 E-5
;LAYER_COUNT:357
;LAYER:0
M107
M204 S5000
M205 X30 Y30
G0 F7200 X91.92 Y105.432 Z0.2
M204 S500
M205 X20 Y20
;TYPE:SKIRT
G1 F6000 E0
G1 F900 X92.446 Y105.074 E0.02328
G1 X93.013 Y104.786 E0.04655
G1 X93.611 Y104.57 E0.06981
G1 X94.232 Y104.432 E0.09308
G1 X95.021 Y104.37 E0.12204
G1 X98.827 Y104.37 E0.26128
G1 X99.462 Y104.41 E0.28456
G1 X100.086 Y104.529 E0.3078
G1 X100.691 Y104.726 E0.33108
G1 X101.266 Y104.997 E0.35434
G1 X101.803 Y105.338 E0.37761
G1 X102.405 Y105.852 E0.40657
G1 X102.651 Y106.098 E0.4193
G1 X103.071 Y106.575 E0.44255
G1 X103.429 Y107.101 E0.46583
G1 X103.717 Y107.668 E0.4891
G1 X103.933 Y108.266 E0.51236
G1 X104.071 Y108.887 E0.53564
G1 X104.133 Y109.676 E0.56459
G1 X104.134 Y121.376 E0.99265
G1 X104.098 Y121.94 E1.01333
G1 X109.345 Y121.94 E1.20529
G1 X109.98 Y121.98 E1.22857
G1 X110.604 Y122.099 E1.25181
G1 X111.209 Y122.296 E1.27509
G1 X111.784 Y122.567 E1.29835
G1 X112.321 Y122.908 E1.32162
G1 X112.923 Y123.422 E1.35058
G1 X113.052 Y123.551 E1.35726
G1 X113.455 Y124.009 E1.37958
G1 X113.846 Y123.551 E1.40161
G1 X113.975 Y123.422 E1.40828
G1 X114.452 Y123.002 E1.43153
G1 X114.978 Y122.644 E1.45481
G1 X115.545 Y122.356 E1.47808
G1 X116.143 Y122.14 E1.50134
G1 X116.764 Y122.002 E1.52462
G1 X117.553 Y121.94 E1.55357
G1 X147.754 Y121.94 E2.65851
G1 X147.735 Y121.817 E2.66306
G1 X147.715 Y121.373 E2.67932
G1 X147.715 Y109.676 E3.10727
G1 X147.755 Y109.041 E3.13055
G1 X147.874 Y108.417 E3.15379
G1 X148.071 Y107.812 E3.17707
G1 X148.342 Y107.237 E3.20033
G1 X148.683 Y106.7 E3.2236
G1 X149.197 Y106.098 E3.25256
G1 X149.443 Y105.852 E3.26529
G1 X149.92 Y105.432 E3.28854
G1 X150.446 Y105.074 E3.31182
G1 X151.013 Y104.786 E3.33509
G1 X151.611 Y104.57 E3.35835
G1 X152.232 Y104.432 E3.38162
G1 X153.021 Y104.37 E3.41058
G1 X154.22 Y104.37 E3.45445
G1 X154.751 Y104.403 E3.47391
G1 X154.796 Y104.264 E3.47926
G1 X155.067 Y103.689 E3.50251
G1 X155.408 Y103.152 E3.52579
G1 X155.922 Y102.551 E3.55472
G1 X156.051 Y102.422 E3.56139
G1 X156.528 Y102.002 E3.58465
G1 X157.054 Y101.644 E3.60792
G1 X157.621 Y101.356 E3.63119
G1 X158.219 Y101.14 E3.65445
G1 X158.84 Y101.002 E3.67773
G1 X159.629 Y100.94 E3.70668
G1 X161.371 Y100.94 E3.77042
G1 X162.006 Y100.98 E3.79369
G1 X162.63 Y101.099 E3.81694
G1 X163.235 Y101.296 E3.84021
G1 X163.81 Y101.567 E3.86347
G1 X164.347 Y101.908 E3.88674
G1 X164.949 Y102.422 E3.9157
G1 X165.078 Y102.551 E3.92238
G1 X165.498 Y103.028 E3.94563
G1 X165.856 Y103.554 E3.96891
G1 X166.144 Y104.121 E3.99218
G1 X166.36 Y104.719 E4.01544
G1 X166.498 Y105.34 E4.03871
G1 X166.56 Y106.129 E4.06767
G1 X166.56 Y128.871 E4.89971
G1 X166.52 Y129.506 E4.92299
G1 X166.401 Y130.13 E4.94623
G1 X166.204 Y130.735 E4.96951
G1 X165.933 Y131.31 E4.99277
G1 X165.592 Y131.847 E5.01604
G1 X165.078 Y132.449 E5.045
G1 X164.949 Y132.578 E5.05167
G1 X164.472 Y132.998 E5.07493
G1 X163.946 Y133.356 E5.09821
G1 X163.379 Y133.644 E5.12147
G1 X162.781 Y133.86 E5.14473
G1 X162.16 Y133.998 E5.16801
G1 X161.371 Y134.06 E5.19696
G1 X117.553 Y134.06 E6.8001
G1 X116.918 Y134.02 E6.82337
G1 X116.294 Y133.901 E6.84662
G1 X115.689 Y133.704 E6.86989
G1 X115.114 Y133.433 E6.89315
G1 X114.577 Y133.092 E6.91642
G1 X113.975 Y132.578 E6.94538
G1 X113.846 Y132.449 E6.95206
G1 X113.443 Y131.991 E6.97438
G1 X113.052 Y132.449 E6.99641
G1 X112.923 Y132.578 E7.00309
G1 X112.446 Y132.998 E7.02634
G1 X111.92 Y133.356 E7.04962
G1 X111.353 Y133.644 E7.07288
G1 X110.755 Y133.86 E7.09615
G1 X110.134 Y133.998 E7.11942
G1 X109.345 Y134.06 E7.14838
G1 X73.629 Y134.06 E8.45509
G1 X72.994 Y134.02 E8.47836
G1 X72.37 Y133.901 E8.50161
G1 X71.765 Y133.704 E8.52488
G1 X71.19 Y133.433 E8.54814
G1 X70.653 Y133.092 E8.57141
G1 X70.051 Y132.578 E8.60037
G1 X69.922 Y132.449 E8.60705
G1 X69.502 Y131.972 E8.6303
G1 X69.144 Y131.446 E8.65358
G1 X68.856 Y130.879 E8.67685
G1 X68.64 Y130.281 E8.70011
G1 X68.502 Y129.66 E8.72338
G1 X68.44 Y128.871 E8.75234
G1 X68.44 Y127.129 E8.81607
G1 X68.48 Y126.494 E8.83935
G1 X68.599 Y125.87 E8.86259
G1 X68.796 Y125.265 E8.88587
G1 X69.067 Y124.69 E8.90913
G1 X69.408 Y124.153 E8.9324
G1 X69.922 Y123.551 E8.96136
G1 X70.051 Y123.422 E8.96804
G1 X70.528 Y123.002 E8.99129
G1 X71.054 Y122.644 E9.01457
G1 X71.621 Y122.356 E9.03783
G1 X72.219 Y122.14 E9.0611
G1 X72.84 Y122.002 E9.08437
G1 X73.629 Y121.94 E9.11332
G1 X89.756 Y121.94 E9.70335
G1 X89.726 Y121.703 E9.71209
G1 X89.715 Y121.373 E9.72417
G1 X89.715 Y109.676 E10.15212
G1 X89.755 Y109.041 E10.1754
G1 X89.874 Y108.417 E10.19864
G1 X90.071 Y107.812 E10.22192
G1 X90.342 Y107.237 E10.24517
G1 X90.683 Y106.7 E10.26845
G1 X91.197 Y106.098 E10.29741
G1 X91.378 Y105.917 E10.30677
G0 F810 X91.443 Y105.852
G0 X91.92 Y105.432
M204 S5000
M205 X30 Y30
G0 F7200 X92.211 Y105.763
M204 S500
M205 X20 Y20
G1 F6000 E10.33337
G1 F900 X92.717 Y105.426 E10.35561
G1 X93.262 Y105.158 E10.37783
G1 X93.838 Y104.964 E10.40007
G1 X94.434 Y104.847 E10.42229
G1 X95.021 Y104.81 E10.44381
G1 X98.827 Y104.81 E10.58306
G1 X99.433 Y104.85 E10.60528
G1 X100.029 Y104.969 E10.62751
G1 X100.604 Y105.165 E10.64974
G1 X101.148 Y105.436 E10.67197
G1 X101.653 Y105.775 E10.69423
G1 X102.094 Y106.163 E10.71572
G1 X102.34 Y106.409 E10.72844
G1 X102.74 Y106.866 E10.75066
G1 X103.077 Y107.372 E10.77291
G1 X103.345 Y107.917 E10.79513
G1 X103.539 Y108.493 E10.81736
G1 X103.656 Y109.089 E10.83958
G1 X103.693 Y109.676 E10.8611
G1 X103.694 Y121.376 E11.28916
G1 X103.654 Y121.982 E11.31138
G1 X103.575 Y122.38 E11.32623
G1 X109.345 Y122.38 E11.53733
G1 X109.951 Y122.42 E11.55955
G1 X110.547 Y122.539 E11.58178
G1 X111.122 Y122.735 E11.60401
G1 X111.666 Y123.006 E11.62624
G1 X112.171 Y123.345 E11.6485
G1 X112.612 Y123.733 E11.66999
G1 X112.741 Y123.862 E11.67666
G1 X113.141 Y124.319 E11.69888
G1 X113.448 Y124.781 E11.71918
G1 X113.769 Y124.303 E11.74024
G1 X114.157 Y123.862 E11.76173
G1 X114.286 Y123.733 E11.76841
G1 X114.743 Y123.333 E11.79063
G1 X115.249 Y122.996 E11.81287
G1 X115.794 Y122.728 E11.83509
G1 X116.37 Y122.534 E11.85733
G1 X116.966 Y122.417 E11.87955
G1 X117.553 Y122.38 E11.90107
G1 X148.276 Y122.38 E13.0251
G1 X148.202 Y122.033 E13.03808
G1 X148.155 Y121.373 E13.06229
G1 X148.155 Y109.676 E13.49024
G1 X148.195 Y109.07 E13.51246
G1 X148.314 Y108.474 E13.53469
G1 X148.51 Y107.899 E13.55692
G1 X148.781 Y107.355 E13.57916
G1 X149.12 Y106.85 E13.60141
G1 X149.508 Y106.409 E13.6229
G1 X149.754 Y106.163 E13.63563
G1 X150.211 Y105.763 E13.65785
G1 X150.717 Y105.426 E13.68009
G1 X151.262 Y105.158 E13.70231
G1 X151.838 Y104.964 E13.72455
G1 X152.434 Y104.847 E13.74677
G1 X153.021 Y104.81 E13.76829
G1 X154.22 Y104.81 E13.81215
G1 X154.826 Y104.85 E13.83437
G1 X155.05 Y104.895 E13.84273
G1 X155.236 Y104.351 E13.86377
G1 X155.506 Y103.807 E13.88599
G1 X155.845 Y103.303 E13.90821
G1 X156.233 Y102.862 E13.9297
G1 X156.362 Y102.733 E13.93637
G1 X156.819 Y102.333 E13.95859
G1 X157.325 Y101.996 E13.98084
G1 X157.87 Y101.728 E14.00306
G1 X158.446 Y101.534 E14.02529
G1 X159.042 Y101.417 E14.04751
G1 X159.629 Y101.38 E14.06903
G1 X161.371 Y101.38 E14.13277
G1 X161.977 Y101.42 E14.15498
G1 X162.573 Y101.539 E14.17722
G1 X163.148 Y101.735 E14.19945
G1 X163.692 Y102.006 E14.22168
G1 X164.197 Y102.345 E14.24393
G1 X164.638 Y102.733 E14.26543
G1 X164.767 Y102.862 E14.2721
G1 X165.167 Y103.319 E14.29432
G1 X165.504 Y103.825 E14.31656
G1 X165.772 Y104.37 E14.33878
G1 X165.966 Y104.946 E14.36102
G1 X166.083 Y105.542 E14.38324
G1 X166.12 Y106.129 E14.40476
G1 X166.12 Y128.871 E15.2368
G1 X166.08 Y129.477 E15.25902
G1 X165.961 Y130.073 E15.28126
G1 X165.765 Y130.648 E15.30348
G1 X165.494 Y131.192 E15.32572
G1 X165.155 Y131.697 E15.34797
G1 X164.767 Y132.138 E15.36946
G1 X164.638 Y132.267 E15.37614
G1 X164.181 Y132.667 E15.39836
G1 X163.675 Y133.004 E15.4206
G1 X163.13 Y133.272 E15.44282
G1 X162.554 Y133.466 E15.46505
G1 X161.958 Y133.583 E15.48728
G1 X161.371 Y133.62 E15.50879
G1 X117.553 Y133.62 E17.11193
G1 X116.947 Y133.58 E17.13415
G1 X116.351 Y133.461 E17.15638
G1 X115.776 Y133.265 E17.17861
G1 X115.232 Y132.994 E17.20084
G1 X114.727 Y132.655 E17.2231
G1 X114.286 Y132.267 E17.24459
G1 X114.157 Y132.138 E17.25126
G1 X113.757 Y131.681 E17.27348
G1 X113.45 Y131.219 E17.29377
G1 X113.129 Y131.697 E17.31484
G1 X112.741 Y132.138 E17.33633
G1 X112.612 Y132.267 E17.34301
G1 X112.155 Y132.667 E17.36523
G1 X111.649 Y133.004 E17.38747
G1 X111.104 Y133.272 E17.40969
G1 X110.528 Y133.466 E17.43192
G1 X109.932 Y133.583 E17.45415
G1 X109.345 Y133.62 E17.47566
G1 X73.629 Y133.62 E18.78238
G1 X73.023 Y133.58 E18.8046
G1 X72.427 Y133.461 E18.82683
G1 X71.852 Y133.265 E18.84906
G1 X71.308 Y132.994 E18.87129
G1 X70.803 Y132.655 E18.89355
G1 X70.362 Y132.267 E18.91504
G1 X70.233 Y132.138 E18.92171
G1 X69.833 Y131.681 E18.94393
G1 X69.496 Y131.175 E18.96617
G1 X69.228 Y130.63 E18.98839
G1 X69.034 Y130.054 E19.01063
G1 X68.917 Y129.458 E19.03285
G1 X68.88 Y128.871 E19.05437
G1 X68.88 Y127.129 E19.1181
G1 X68.92 Y126.523 E19.14032
G1 X69.039 Y125.927 E19.16256
G1 X69.235 Y125.352 E19.18478
G1 X69.506 Y124.808 E19.20702
G1 X69.845 Y124.303 E19.22927
G1 X70.233 Y123.862 E19.25076
G1 X70.362 Y123.733 E19.25744
G1 X70.819 Y123.333 E19.27966
G1 X71.325 Y122.996 E19.3019
G1 X71.87 Y122.728 E19.32412
G1 X72.446 Y122.534 E19.34636
G1 X73.042 Y122.417 E19.36858
G1 X73.629 Y122.38 E19.3901
G1 X90.274 Y122.38 E19.99907
G1 X90.189 Y121.929 E20.01586
G1 X90.155 Y121.373 E20.03624
G1 X90.155 Y109.676 E20.46419
G1 X90.195 Y109.07 E20.48641
G1 X90.314 Y108.474 E20.50865
G1 X90.51 Y107.899 E20.53087
G1 X90.781 Y107.355 E20.55311
G1 X91.12 Y106.85 E20.57536
G1 X91.508 Y106.409 E20.59685
G1 X91.669 Y106.248 E20.60518
G0 F810 X91.754 Y106.163
G0 X92.211 Y105.763
M204 S5000
M205 X30 Y30
G0 F7200 X92.501 Y106.095
M204 S500
M205 X20 Y20
G1 F6000 E20.63178
G1 F900 X92.985 Y105.779 E20.65293
G1 X93.508 Y105.533 E20.67407
G1 X94.06 Y105.362 E20.69521
G1 X94.631 Y105.268 E20.71639
G1 X95.021 Y105.25 E20.73067
G1 X98.827 Y105.25 E20.86992
G1 X99.404 Y105.29 E20.89108
G1 X99.969 Y105.409 E20.9122
G1 X100.513 Y105.605 E20.93336
G1 X101.024 Y105.874 E20.95449
G1 X101.494 Y106.211 E20.97564
G1 X101.783 Y106.474 E20.98994
G1 X102.029 Y106.72 E21.00267
G1 X102.408 Y107.156 E21.02381
G1 X102.724 Y107.64 E21.04495
G1 X102.97 Y108.163 E21.0661
G1 X103.141 Y108.715 E21.08724
G1 X103.235 Y109.286 E21.10841
G1 X103.253 Y109.676 E21.1227
G1 X103.254 Y121.376 E21.55075
G1 X103.214 Y121.952 E21.57188
G1 X103.095 Y122.518 E21.59304
G1 X102.986 Y122.82 E21.60479
G1 X109.345 Y122.82 E21.83744
G1 X109.922 Y122.86 E21.8586
G1 X110.487 Y122.979 E21.87972
G1 X111.031 Y123.175 E21.90088
G1 X111.542 Y123.444 E21.92201
G1 X112.012 Y123.781 E21.94316
G1 X112.301 Y124.044 E21.95746
G1 X112.43 Y124.173 E21.96414
G1 X112.809 Y124.609 E21.98527
G1 X113.125 Y125.093 E22.00642
G1 X113.371 Y125.616 E22.02756
G1 X113.448 Y125.863 E22.03703
G1 X113.599 Y125.443 E22.05336
G1 X113.868 Y124.932 E22.07449
G1 X114.205 Y124.462 E22.09565
G1 X114.468 Y124.173 E22.10994
G1 X114.597 Y124.044 E22.11662
G1 X115.033 Y123.665 E22.13775
G1 X115.517 Y123.349 E22.1589
G1 X116.04 Y123.103 E22.18005
G1 X116.592 Y122.932 E22.20119
G1 X117.163 Y122.838 E22.22236
G1 X117.553 Y122.82 E22.23664
G1 X148.858 Y122.82 E23.38197
G1 X148.833 Y122.763 E23.38425
G1 X148.679 Y122.206 E23.40539
G1 X148.595 Y121.373 E23.43602
G1 X148.595 Y109.676 E23.86397
G1 X148.635 Y109.099 E23.88513
G1 X148.754 Y108.534 E23.90626
G1 X148.95 Y107.99 E23.92741
G1 X149.219 Y107.479 E23.94854
G1 X149.556 Y107.009 E23.9697
G1 X149.819 Y106.72 E23.984
G1 X150.065 Y106.474 E23.99672
G1 X150.501 Y106.095 E24.01786
G1 X150.985 Y105.779 E24.03901
G1 X151.508 Y105.533 E24.06015
G1 X152.06 Y105.362 E24.0813
G1 X152.631 Y105.268 E24.10247
G1 X153.021 Y105.25 E24.11675
G1 X154.22 Y105.25 E24.16062
G1 X154.797 Y105.29 E24.18178
G1 X155.362 Y105.409 E24.2029
G1 X155.388 Y105.418 E24.20391
G1 X155.479 Y104.986 E24.22006
G1 X155.675 Y104.443 E24.24118
G1 X155.944 Y103.931 E24.26234
G1 X156.282 Y103.462 E24.28349
G1 X156.544 Y103.173 E24.29777
G1 X156.673 Y103.044 E24.30444
G1 X157.109 Y102.665 E24.32558
G1 X157.593 Y102.349 E24.34672
G1 X158.116 Y102.103 E24.36787
G1 X158.668 Y101.932 E24.38901
G1 X159.239 Y101.838 E24.41018
G1 X159.629 Y101.82 E24.42447
G1 X161.371 Y101.82 E24.4882
G1 X161.948 Y101.86 E24.50936
G1 X162.513 Y101.979 E24.53049
G1 X163.057 Y102.175 E24.55164
G1 X163.568 Y102.444 E24.57277
G1 X164.038 Y102.781 E24.59393
G1 X164.327 Y103.044 E24.60822
G1 X164.456 Y103.173 E24.6149
G1 X164.835 Y103.609 E24.63603
G1 X165.151 Y104.093 E24.65718
G1 X165.397 Y104.616 E24.67833
G1 X165.568 Y105.168 E24.69947
G1 X165.662 Y105.739 E24.72064
G1 X165.68 Y106.129 E24.73493
G1 X165.68 Y128.871 E25.56697
G1 X165.64 Y129.448 E25.58813
G1 X165.521 Y130.013 E25.60925
G1 X165.325 Y130.557 E25.63041
G1 X165.056 Y131.068 E25.65154
G1 X164.719 Y131.538 E25.6727
G1 X164.456 Y131.827 E25.68699
G1 X164.327 Y131.956 E25.69367
G1 X163.891 Y132.335 E25.7148
G1 X163.407 Y132.651 E25.73595
G1 X162.884 Y132.897 E25.7571
G1 X162.332 Y133.068 E25.77824
G1 X161.761 Y133.162 E25.79941
G1 X161.371 Y133.18 E25.81369
G1 X117.553 Y133.18 E27.41683
G1 X116.976 Y133.14 E27.43799
G1 X116.411 Y133.021 E27.45911
G1 X115.867 Y132.825 E27.48027
G1 X115.356 Y132.556 E27.50139
G1 X114.886 Y132.219 E27.52255
G1 X114.597 Y131.956 E27.53685
G1 X114.468 Y131.827 E27.54352
G1 X114.089 Y131.391 E27.56466
G1 X113.773 Y130.907 E27.58581
G1 X113.527 Y130.384 E27.60695
G1 X113.45 Y130.137 E27.61642
G1 X113.299 Y130.557 E27.63275
G1 X113.03 Y131.068 E27.65388
G1 X112.693 Y131.538 E27.67503
G1 X112.43 Y131.827 E27.68933
G1 X112.301 Y131.956 E27.69601
G1 X111.865 Y132.335 E27.71714
G1 X111.381 Y132.651 E27.73829
G1 X110.858 Y132.897 E27.75943
G1 X110.306 Y133.068 E27.78058
G1 X109.735 Y133.162 E27.80175
G1 X109.345 Y133.18 E27.81603
G1 X73.629 Y133.18 E29.12274
G1 X73.052 Y133.14 E29.1439
G1 X72.487 Y133.021 E29.16503
G1 X71.943 Y132.825 E29.18618
G1 X71.432 Y132.556 E29.20731
G1 X70.962 Y132.219 E29.22847
G1 X70.673 Y131.956 E29.24277
G1 X70.544 Y131.827 E29.24944
G1 X70.165 Y131.391 E29.27058
G1 X69.849 Y130.907 E29.29173
G1 X69.603 Y130.384 E29.31287
G1 X69.432 Y129.832 E29.33401
G1 X69.338 Y129.261 E29.35519
G1 X69.32 Y128.871 E29.36947
G1 X69.32 Y127.129 E29.4332
G1 X69.36 Y126.552 E29.45436
G1 X69.479 Y125.987 E29.47549
G1 X69.675 Y125.443 E29.49664
G1 X69.944 Y124.932 E29.51777
G1 X70.281 Y124.462 E29.53893
G1 X70.544 Y124.173 E29.55323
G1 X70.673 Y124.044 E29.5599
G1 X71.109 Y123.665 E29.58104
G1 X71.593 Y123.349 E29.60218
G1 X72.116 Y123.103 E29.62333
G1 X72.668 Y122.932 E29.64447
G1 X73.239 Y122.838 E29.66564
G1 X73.629 Y122.82 E29.67993
G1 X90.862 Y122.82 E30.31042
G1 X90.802 Y122.673 E30.31623
G1 X90.661 Y122.113 E30.33735
G1 X90.595 Y121.373 E30.36453
G1 X90.595 Y109.676 E30.79248
G1 X90.635 Y109.099 E30.81364
G1 X90.754 Y108.534 E30.83477
G1 X90.95 Y107.99 E30.85592
G1 X91.219 Y107.479 E30.87705
G1 X91.556 Y107.009 E30.89821
G1 X91.819 Y106.72 E30.91251
G1 X91.959 Y106.58 E30.91975
G0 F810 X92.065 Y106.474
G0 X92.501 Y106.095
M204 S5000
M205 X30 Y30
G0 F7200 X92.79 Y106.428
M204 S500
M205 X20 Y20
G1 F6000 E30.94635
G1 F900 X93.252 Y106.135 E30.96636
G1 X93.751 Y105.912 E30.98636
G1 X94.277 Y105.765 E31.00634
G1 X95.021 Y105.69 E31.0337
G1 X98.827 Y105.69 E31.17295
G1 X99.372 Y105.73 E31.19294
G1 X99.906 Y105.849 E31.21296
G1 X100.416 Y106.044 E31.23293
G1 X100.893 Y106.312 E31.25295
G1 X101.472 Y106.785 E31.2803
G1 X101.718 Y107.031 E31.29303
