;FLAVOR:Marlin
;TIME:3547
;Filament used: 2.2111m
;Layer height: 0.16
;Generated with Cura_SteamEngine 3.6.0
M140 S70
M105
M190 S70
M104 S215
M105
M109 S215
M82 ;absolute extrusion mode
G28 ; home all axes
M117 Purge extruder
G92 E0 ; reset extruder
G1 Z1.0 F3000 ; move z up little to prevent scratching of surface
G1 X0.1 Y20 Z0.3 F5000.0 ; move to start-line position G1 X0.1 Y200.0 Z0.3 F1500.0 E15 ; draw 1st line
G1 X0.4 Y200.0 Z0.3 F5000.0 ; move to side a little
G1 X0.4 Y20 Z0.3 F1500.0 E30 ; draw 2nd line
G92 E0 ; reset extruder
G1 Z1.0 F3000 ; move z up little to prevent scratching of surface
M117 All systems go!
G92 E0
G1 F6000 E-5
;LAYER_COUNT:163
;LAYER:0
M107
M204 S5000
M205 X30 Y30
G0 F7200 X108.419 Y96.577 Z0.2
M204 S500
M205 X20 Y20
;TYPE:SKIRT
G1 F6000 E0
G1 F900 X108.855 Y96.114 E0.02327
G1 X109.336 Y95.716 E0.04611
G1 X110.303 Y95.012 E0.08987
G1 X110.839 Y94.671 E0.11311
G1 X111.415 Y94.4 E0.1364
G1 X112.019 Y94.203 E0.15965
G1 X112.644 Y94.083 E0.18293
G1 X113.411 Y94.045 E0.21103
G1 X114.993 Y94.086 E0.26892
G1 X115.305 Y93.976 E0.28103
G1 X115.927 Y93.842 E0.30431
G1 X116.269 Y93.802 E0.3169
G1 X118.572 Y93.614 E0.40144
G1 X119.208 Y93.602 E0.42472
G1 X119.579 Y93.632 E0.43833
G1 X122.575 Y93.987 E0.54871
G1 X123.201 Y94.102 E0.572
G1 X123.807 Y94.293 E0.59525
G1 X124.036 Y94.399 E0.60448
G1 X124.568 Y94.572 E0.62494
G1 X125.15 Y94.847 E0.64849
G1 X126.269 Y95.465 E0.69526
G1 X127.014 Y95.967 E0.72813
G1 X128.418 Y97.108 E0.79432
G1 X128.848 Y97.501 E0.81563
G1 X130.277 Y98.965 E0.89048
G1 X130.692 Y99.447 E0.91375
G1 X131.043 Y99.977 E0.93701
G1 X131.23 Y100.335 E0.95179
G1 X131.323 Y100.533 E0.95979
G1 X131.37 Y100.582 E0.96227
G1 X131.744 Y101.097 E0.98556
G1 X131.898 Y101.378 E0.99728
G1 X132.185 Y101.77 E1.01506
G1 X132.493 Y102.327 E1.03835
G1 X132.666 Y102.739 E1.05469
G1 X132.956 Y103.523 E1.08528
G1 X133.042 Y103.609 E1.08973
G1 X133.433 Y104.111 E1.11301
G1 X133.757 Y104.658 E1.13627
G1 X134.077 Y105.438 E1.16711
G1 X134.877 Y107.974 E1.2644
G1 X135.029 Y108.591 E1.28765
G1 X135.104 Y109.223 E1.31093
G1 X135.098 Y109.859 E1.3342
G1 X135.074 Y110.039 E1.34085
G1 X135.128 Y110.319 E1.35128
G1 X135.21 Y110.95 E1.37456
G1 X135.212 Y111.586 E1.39783
G1 X135.134 Y112.217 E1.42109
G1 X135.044 Y112.611 E1.43588
G1 X135.027 Y112.674 E1.43827
G1 X135.027 Y113.242 E1.45905
G1 X134.947 Y113.873 E1.48232
G1 X134.788 Y114.49 E1.50563
G1 X134.702 Y114.754 E1.51579
G1 X134.702 Y114.839 E1.5189
G1 X134.622 Y115.47 E1.54217
G1 X134.52 Y115.898 E1.55826
G1 X133.852 Y118.254 E1.64786
G1 X133.876 Y118.447 E1.65497
G1 X133.876 Y119.082 E1.67821
G1 X133.795 Y119.713 E1.70148
G1 X133.637 Y120.327 E1.72468
G1 X133.043 Y122.151 E1.79486
G1 X132.809 Y122.742 E1.81812
G1 X132.634 Y123.079 E1.83201
G1 X130.941 Y126.066 E1.95762
G1 X130.593 Y126.598 E1.98088
G1 X130.402 Y126.824 E1.99171
G1 X130.19 Y127.329 E2.01175
G1 X130.503 Y127.349 E2.02322
G1 X131.127 Y127.467 E2.04646
G1 X131.732 Y127.664 E2.06973
G1 X132.308 Y127.934 E2.09301
G1 X132.845 Y128.275 E2.11628
G1 X133.449 Y128.791 E2.14535
G1 X133.578 Y128.92 E2.15202
G1 X133.998 Y129.397 E2.17527
G1 X134.356 Y129.923 E2.19855
G1 X134.644 Y130.49 E2.22182
G1 X134.86 Y131.088 E2.24508
G1 X134.998 Y131.709 E2.26835
G1 X135.06 Y132.505 E2.29756
G1 X135.057 Y134.628 E2.37524
G1 X135.016 Y135.263 E2.39852
G1 X134.896 Y135.887 E2.42177
G1 X134.698 Y136.492 E2.44506
G1 X134.427 Y137.067 E2.46831
G1 X134.085 Y137.603 E2.49157
G1 X133.575 Y138.199 E2.52027
G1 X133.446 Y138.328 E2.52695
G1 X132.969 Y138.748 E2.5502
G1 X132.443 Y139.106 E2.57348
G1 X131.876 Y139.394 E2.59675
G1 X131.278 Y139.61 E2.62001
G1 X130.657 Y139.748 E2.64328
G1 X129.868 Y139.81 E2.67224
G1 X128.129 Y139.81 E2.73586
G1 X127.494 Y139.77 E2.75914
G1 X126.87 Y139.651 E2.78238
G1 X126.265 Y139.454 E2.80566
G1 X125.69 Y139.183 E2.82892
G1 X125.153 Y138.842 E2.85219
G1 X124.551 Y138.328 E2.88115
G1 X124.422 Y138.199 E2.88782
G1 X124.002 Y137.722 E2.91108
G1 X123.644 Y137.196 E2.93436
G1 X123.356 Y136.629 E2.95762
G1 X123.14 Y136.031 E2.98088
G1 X123.002 Y135.41 E3.00416
G1 X122.94 Y134.621 E3.03311
G1 X122.94 Y132.499 E3.11075
G1 X122.98 Y131.864 E3.13403
G1 X123.002 Y131.747 E3.13838
G1 X122.049 Y132.097 E3.17553
G1 X121.439 Y132.278 E3.19881
G1 X120.991 Y132.36 E3.21547
G1 X117.755 Y132.802 E3.33496
G1 X117.049 Y132.849 E3.36085
G1 X113.696 Y132.835 E3.48352
G1 X113.115 Y132.799 E3.50482
G1 X112.06 Y132.673 E3.54369
G1 X112.056 Y134.631 E3.61533
G1 X112.015 Y135.265 E3.63857
G1 X111.894 Y135.89 E3.66186
G1 X111.697 Y136.494 E3.68511
G1 X111.425 Y137.069 E3.70838
G1 X111.083 Y137.605 E3.73164
G1 X110.574 Y138.199 E3.76026
G1 X110.445 Y138.328 E3.76694
G1 X109.968 Y138.748 E3.79019
G1 X109.442 Y139.106 E3.81347
G1 X108.875 Y139.394 E3.83673
G1 X108.277 Y139.61 E3.86
G1 X107.656 Y139.748 E3.88327
G1 X106.867 Y139.81 E3.91223
G1 X105.132 Y139.81 E3.9757
G1 X104.497 Y139.77 E3.99898
G1 X103.873 Y139.651 E4.02222
G1 X103.268 Y139.454 E4.0455
G1 X102.693 Y139.183 E4.06876
G1 X102.156 Y138.842 E4.09203
G1 X101.554 Y138.328 E4.12099
G1 X101.425 Y138.199 E4.12767
G1 X101.005 Y137.722 E4.15092
G1 X100.647 Y137.196 E4.1742
G1 X100.359 Y136.629 E4.19746
G1 X100.143 Y136.031 E4.22073
G1 X100.005 Y135.41 E4.244
G1 X99.943 Y134.628 E4.2727
G1 X99.94 Y132.506 E4.35034
G1 X99.979 Y131.871 E4.37361
G1 X100.097 Y131.247 E4.39685
G1 X100.293 Y130.642 E4.42011
G1 X100.563 Y130.066 E4.44339
G1 X100.904 Y129.529 E4.46666
G1 X101.422 Y128.921 E4.49588
G1 X101.551 Y128.792 E4.50256
G1 X102.028 Y128.372 E4.52581
G1 X102.554 Y128.014 E4.54909
G1 X103.121 Y127.726 E4.57236
G1 X103.719 Y127.51 E4.59562
G1 X104.34 Y127.372 E4.61889
G1 X104.454 Y127.363 E4.62308
G1 X103.142 Y124.045 E4.75361
G1 X102.944 Y123.434 E4.77711
G1 X102.496 Y121.676 E4.84349
G1 X102.378 Y121.051 E4.86676
G1 X102.339 Y120.416 E4.89003
G1 X102.38 Y119.781 E4.91331
G1 X102.587 Y118.861 E4.94781
G1 X103.18 Y117.038 E5.01795
G1 X103.414 Y116.447 E5.04121
G1 X103.721 Y115.889 E5.06451
G1 X104.095 Y115.375 E5.08776
G1 X104.531 Y114.912 E5.11103
G1 X105.015 Y114.511 E5.13403
G1 X106.568 Y113.381 E5.2043
G1 X107.105 Y113.04 E5.22757
G1 X107.68 Y112.769 E5.25083
G1 X108.285 Y112.572 E5.2741
G1 X108.909 Y112.453 E5.29734
G1 X109.545 Y112.413 E5.32066
G1 X111.462 Y112.413 E5.3908
G1 X112.097 Y112.453 E5.41407
G1 X112.721 Y112.572 E5.43731
G1 X113.326 Y112.769 E5.46059
G1 X113.901 Y113.04 E5.48385
G1 X114.637 Y113.533 E5.51626
G1 X116.245 Y114.829 E5.59182
G1 X116.714 Y115.259 E5.6151
G1 X117.126 Y115.744 E5.63838
G1 X117.473 Y116.276 E5.66162
G1 X117.551 Y116.437 E5.66816
G1 X117.648 Y116.42 E5.67177
G1 X117.932 Y116.326 E5.68271
G1 X118.028 Y116.032 E5.69403
G1 X118.262 Y115.44 E5.71732
G1 X118.427 Y115.12 E5.73049
G1 X118.796 Y114.462 E5.75809
G1 X119.141 Y113.928 E5.78135
G1 X119.332 Y113.701 E5.7922
G1 X119.372 Y113.561 E5.79753
G1 X119.372 Y113.421 E5.80265
G1 X119.451 Y112.79 E5.82592
G1 X119.612 Y112.162 E5.84964
G1 X119.656 Y112.027 E5.85483
G1 X119.656 Y111.76 E5.8646
G1 X119.735 Y111.129 E5.88787
G1 X119.763 Y111.007 E5.89245
G1 X119.721 Y110.677 E5.90462
G1 X119.721 Y110.204 E5.92192
G1 X119.655 Y109.989 E5.93015
G1 X119.507 Y109.371 E5.9534
G1 X119.453 Y108.88 E5.97147
G1 X119.254 Y108.95 E5.97919
G1 X118.633 Y109.087 E6.00246
G1 X118.02 Y109.143 E6.02498
G1 X116.942 Y109.177 E6.06444
G1 X116.306 Y109.158 E6.08772
G1 X115.678 Y109.058 E6.11098
G1 X115.067 Y108.881 E6.13426
G1 X114.484 Y108.628 E6.15751
G1 X113.936 Y108.304 E6.1808
G1 X113.663 Y108.104 E6.19318
G1 X113.329 Y107.842 E6.20871
G1 X113.222 Y107.841 E6.21263
G1 X112.587 Y107.793 E6.23592
G1 X111.964 Y107.667 E6.25918
G1 X111.362 Y107.463 E6.28243
G1 X110.79 Y107.185 E6.3057
G1 X110.303 Y106.872 E6.32688
G1 X109.336 Y106.168 E6.37064
G1 X108.846 Y105.762 E6.39392
G1 X108.411 Y105.298 E6.41719
G1 X108.038 Y104.783 E6.44046
G1 X107.733 Y104.225 E6.46372
G1 X107.503 Y103.645 E6.48655
G1 X107.133 Y102.51 E6.53023
G1 X106.974 Y101.894 E6.5535
G1 X106.894 Y101.264 E6.57674
G1 X106.894 Y100.628 E6.60001
G1 X106.973 Y99.997 E6.62327
G1 X107.133 Y99.374 E6.64681
G1 X107.503 Y98.239 E6.69048
G1 X107.738 Y97.648 E6.71375
G1 X108.001 Y97.171 E6.73368
G0 F810 X108.045 Y97.091
G0 X108.419 Y96.577
M204 S5000
M205 X30 Y30
G0 F7200 X108.81 Y96.796
M204 S500
M205 X20 Y20
G1 F6000 E6.76028
G1 F900 X109.236 Y96.362 E6.78253
G1 X109.595 Y96.072 E6.79941
G1 X110.562 Y95.368 E6.84317
G1 X111.075 Y95.043 E6.86539
G1 X111.627 Y94.789 E6.88762
G1 X112.208 Y94.609 E6.90988
G1 X112.807 Y94.507 E6.93211
G1 X113.4 Y94.485 E6.95382
G1 X115.058 Y94.528 E7.0145
G1 X115.477 Y94.385 E7.03069
G1 X116.305 Y94.24 E7.06145
G1 X118.608 Y94.052 E7.14599
G1 X119.216 Y94.043 E7.16823
G1 X119.528 Y94.069 E7.17969
G1 X122.524 Y94.424 E7.29007
G1 X123.121 Y94.535 E7.31228
G1 X123.699 Y94.724 E7.33453
G1 X123.877 Y94.809 E7.34175
G1 X123.906 Y94.815 E7.34283
G1 X124.481 Y95.011 E7.36506
G1 X124.938 Y95.232 E7.38363
G1 X126.057 Y95.85 E7.4304
G1 X126.737 Y96.309 E7.46041
G1 X128.141 Y97.45 E7.52661
G1 X128.533 Y97.808 E7.54603
G1 X129.962 Y99.272 E7.62088
G1 X130.357 Y99.734 E7.64311
G1 X130.688 Y100.243 E7.66533
G1 X130.832 Y100.524 E7.67688
G1 X130.957 Y100.787 E7.68753
G1 X131.065 Y100.905 E7.69339
G1 X131.415 Y101.401 E7.7156
G1 X131.516 Y101.594 E7.72357
G1 X131.857 Y102.076 E7.74517
G1 X132.253 Y102.891 E7.77832
G1 X132.576 Y103.765 E7.81241
G1 X132.731 Y103.921 E7.82045
G1 X133.099 Y104.404 E7.84267
G1 X133.402 Y104.931 E7.86491
G1 X133.657 Y105.57 E7.89008
G1 X134.457 Y108.106 E7.98737
G1 X134.601 Y108.696 E8.00959
G1 X134.667 Y109.3 E8.03182
G1 X134.653 Y109.908 E8.05407
G1 X134.629 Y110.06 E8.0597
G1 X134.696 Y110.403 E8.07249
G1 X134.773 Y111.006 E8.09473
G1 X134.769 Y111.614 E8.11697
G1 X134.62 Y112.495 E8.14966
G1 X134.584 Y112.628 E8.1547
G1 X134.591 Y112.688 E8.15691
G1 X134.582 Y113.295 E8.17912
G1 X134.493 Y113.896 E8.20135
G1 X134.37 Y114.353 E8.21867
G1 X134.26 Y114.691 E8.23167
G1 X134.257 Y114.892 E8.23903
G1 X134.097 Y115.778 E8.27197
G1 X133.404 Y118.221 E8.36487
G1 X133.44 Y118.528 E8.37618
G1 X133.431 Y119.135 E8.39839
G1 X133.342 Y119.736 E8.42062
G1 X133.219 Y120.191 E8.43786
G1 X132.625 Y122.015 E8.50805
G1 X132.399 Y122.579 E8.53028
G1 X132.251 Y122.862 E8.54196
G1 X130.558 Y125.849 E8.66758
G1 X130.225 Y126.357 E8.6898
G1 X130.022 Y126.591 E8.70113
G1 X129.72 Y127.312 E8.72973
G1 X129.502 Y127.749 E8.7476
G1 X129.868 Y127.749 E8.76099
G1 X130.475 Y127.789 E8.78325
G1 X131.071 Y127.907 E8.80547
G1 X131.646 Y128.103 E8.8277
G1 X132.19 Y128.373 E8.84992
G1 X132.694 Y128.712 E8.87214
G1 X133.138 Y129.102 E8.89376
G1 X133.267 Y129.231 E8.90044
G1 X133.667 Y129.688 E8.92266
G1 X134.004 Y130.194 E8.9449
G1 X134.272 Y130.739 E8.96712
G1 X134.466 Y131.315 E8.98936
G1 X134.583 Y131.911 E9.01158
G1 X134.62 Y132.505 E9.03335
G1 X134.617 Y134.628 E9.11102
G1 X134.576 Y135.234 E9.13325
G1 X134.456 Y135.829 E9.15545
G1 X134.259 Y136.404 E9.17769
G1 X133.988 Y136.948 E9.19993
G1 X133.648 Y137.452 E9.22217
G1 X133.264 Y137.888 E9.24343
G1 X133.135 Y138.017 E9.2501
G1 X132.678 Y138.417 E9.27232
G1 X132.172 Y138.754 E9.29456
G1 X131.627 Y139.022 E9.31678
G1 X131.051 Y139.216 E9.33902
G1 X130.455 Y139.333 E9.36124
G1 X129.868 Y139.37 E9.38276
G1 X128.129 Y139.37 E9.44638
G1 X127.523 Y139.33 E9.4686
G1 X126.927 Y139.211 E9.49084
G1 X126.352 Y139.015 E9.51306
G1 X125.808 Y138.744 E9.5353
G1 X125.303 Y138.405 E9.55755
G1 X124.862 Y138.017 E9.57904
G1 X124.733 Y137.888 E9.58572
G1 X124.333 Y137.431 E9.60794
G1 X123.996 Y136.925 E9.63018
G1 X123.728 Y136.38 E9.6524
G1 X123.534 Y135.804 E9.67464
G1 X123.417 Y135.208 E9.69686
G1 X123.38 Y134.621 E9.71838
G1 X123.38 Y132.499 E9.79601
G1 X123.42 Y131.893 E9.81823
G1 X123.539 Y131.297 E9.84047
G1 X123.549 Y131.268 E9.84159
G1 X123.007 Y131.277 E9.86142
G1 X121.897 Y131.684 E9.90468
G1 X121.315 Y131.856 E9.92688
G1 X120.931 Y131.924 E9.94115
G1 X117.695 Y132.366 E10.06064
G1 X117.051 Y132.409 E10.08425
G1 X113.698 Y132.395 E10.20693
G1 X113.168 Y132.362 E10.22636
G1 X111.599 Y132.174 E10.28417
G1 X111.62 Y132.507 E10.29638
G1 X111.616 Y134.63 E10.37405
G1 X111.575 Y135.236 E10.39627
G1 X111.455 Y135.832 E10.41852
G1 X111.257 Y136.406 E10.44073
G1 X110.986 Y136.95 E10.46297
G1 X110.646 Y137.453 E10.48518
G1 X110.263 Y137.888 E10.50638
G1 X110.134 Y138.017 E10.51306
G1 X109.677 Y138.417 E10.53528
G1 X109.171 Y138.754 E10.55752
G1 X108.626 Y139.022 E10.57974
G1 X108.05 Y139.216 E10.60198
G1 X107.454 Y139.333 E10.6242
G1 X106.867 Y139.37 E10.64572
G1 X105.132 Y139.37 E10.70919
G1 X104.526 Y139.33 E10.73141
G1 X103.93 Y139.211 E10.75365
G1 X103.355 Y139.015 E10.77588
G1 X102.811 Y138.744 E10.79811
G1 X102.306 Y138.405 E10.82036
G1 X101.865 Y138.017 E10.84185
G1 X101.736 Y137.888 E10.84853
G1 X101.336 Y137.431 E10.87075
G1 X100.999 Y136.925 E10.89299
G1 X100.731 Y136.38 E10.91521
G1 X100.537 Y135.804 E10.93745
G1 X100.42 Y135.208 E10.95967
G1 X100.383 Y134.628 E10.98093
G1 X100.38 Y132.506 E11.05857
G1 X100.419 Y131.899 E11.08082
G1 X100.537 Y131.303 E11.10305
G1 X100.733 Y130.728 E11.12528
G1 X101.002 Y130.183 E11.14751
G1 X101.341 Y129.679 E11.16973
G1 X101.733 Y129.232 E11.19149
G1 X101.862 Y129.103 E11.19816
G1 X102.319 Y128.703 E11.22038
G1 X102.825 Y128.366 E11.24262
G1 X103.37 Y128.098 E11.26484
G1 X103.946 Y127.904 E11.28708
G1 X104.542 Y127.787 E11.3093
G1 X105.082 Y127.753 E11.3291
G1 X103.551 Y123.883 E11.48136
G1 X103.37 Y123.325 E11.50282
G1 X102.922 Y121.567 E11.5692
G1 X102.811 Y120.969 E11.59145
G1 X102.779 Y120.363 E11.61365
G1 X102.828 Y119.757 E11.6359
G1 X103.006 Y118.997 E11.66445
G1 X103.599 Y117.174 E11.73459
G1 X103.824 Y116.61 E11.75681
G1 X104.122 Y116.08 E11.77905
G1 X104.486 Y115.594 E11.80127
G1 X104.912 Y115.16 E11.82352
G1 X105.274 Y114.867 E11.84056
G1 X106.827 Y113.737 E11.91082
G1 X107.341 Y113.413 E11.93305
G1 X107.892 Y113.159 E11.95525
G1 X108.473 Y112.979 E11.9775
G1 X109.072 Y112.877 E11.99973
G1 X109.545 Y112.853 E12.01706
G1 X111.462 Y112.853 E12.0872
G1 X112.068 Y112.893 E12.10942
G1 X112.664 Y113.012 E12.13165
G1 X113.239 Y113.208 E12.15388
G1 X113.783 Y113.479 E12.17611
G1 X114.361 Y113.876 E12.20177
G1 X115.969 Y115.172 E12.27733
G1 X116.416 Y115.583 E12.29954
G1 X116.805 Y116.05 E12.32178
G1 X117.13 Y116.564 E12.34403
G1 X117.297 Y116.927 E12.35865
G1 X117.762 Y116.846 E12.37592
G1 X118.217 Y116.696 E12.39345
G1 X118.233 Y116.683 E12.3942
G1 X118.325 Y116.54 E12.40042
G1 X118.446 Y116.168 E12.41473
G1 X118.81 Y115.335 E12.44799
G1 X119.179 Y114.677 E12.47559
G1 X119.511 Y114.168 E12.49783
G1 X119.729 Y113.914 E12.51007
G1 X119.814 Y113.619 E12.52131
G1 X119.817 Y113.367 E12.53053
G1 X119.905 Y112.766 E12.55275
G1 X120.03 Y112.298 E12.57047
G1 X120.095 Y112.098 E12.57816
G1 X120.101 Y111.707 E12.59247
G1 X120.211 Y111.058 E12.61655
G1 X120.157 Y110.595 E12.63361
G1 X120.164 Y110.149 E12.64993
G1 X120.075 Y109.86 E12.66099
G1 X119.936 Y109.269 E12.6832
G1 X119.875 Y108.664 E12.70545
G1 X119.889 Y108.226 E12.72148
G1 X119.655 Y108.343 E12.73106
G1 X119.081 Y108.542 E12.75328
G1 X118.486 Y108.663 E12.7755
G1 X118.006 Y108.704 E12.79312
G1 X116.928 Y108.738 E12.83258
G1 X116.32 Y108.717 E12.85484
G1 X115.721 Y108.617 E12.87706
G1 X115.14 Y108.438 E12.8993
G1 X114.588 Y108.186 E12.9215
G1 X113.934 Y107.758 E12.9501
G1 X113.482 Y107.404 E12.9711
G1 X113.227 Y107.401 E12.98043
G1 X112.621 Y107.354 E13.00267
G1 X112.027 Y107.227 E13.02489
G1 X111.454 Y107.024 E13.04713
G1 X110.913 Y106.748 E13.06935
G1 X110.562 Y106.516 E13.08475
G1 X109.595 Y105.812 E13.12851
G1 X109.128 Y105.423 E13.15074
G1 X108.717 Y104.976 E13.17296
G1 X108.367 Y104.479 E13.1952
G1 X108.086 Y103.94 E13.21744
G1 X107.922 Y103.509 E13.23431
G1 X107.552 Y102.374 E13.27799
G1 X107.402 Y101.785 E13.30022
G1 X107.33 Y101.182 E13.32244
G1 X107.339 Y100.574 E13.34469
G1 X107.427 Y99.973 E13.36691
G1 X107.552 Y99.51 E13.38446
G1 X107.922 Y98.375 E13.42813
G1 X108.147 Y97.811 E13.45035
G1 X108.387 Y97.385 E13.46824
G0 F810 X108.445 Y97.281
G0 X108.81 Y96.796
M204 S5000
M205 X30 Y30
G0 F7200 X109.2 Y97.019
M204 S500
M205 X20 Y20
G1 F6000 E13.49484
G1 F900 X109.614 Y96.616 E13.51597
