;FLAVOR:Marlin
;TIME:3696
;Filament used: 2.8752m
;Layer height: 0.16
;Generated with Cura_SteamEngine 3.6.0
M140 S70
M105
M190 S70
M104 S215
M105
M109 S215
M82 ;absolute extrusion mode
G28 ; home all axes
M117 Purge extruder
G92 E0 ; reset extruder
G1 Z1.0 F3000 ; move z up little to prevent scratching of surface
G1 X0.1 Y20 Z0.3 F5000.0 ; move to start-line position G1 X0.1 Y200.0 Z0.3 F1500.0 E15 ; draw 1st line
G1 X0.4 Y200.0 Z0.3 F5000.0 ; move to side a little
G1 X0.4 Y20 Z0.3 F1500.0 E30 ; draw 2nd line
G92 E0 ; reset extruder
G1 Z1.0 F3000 ; move z up little to prevent scratching of surface
M117 All systems go!
G92 E0
G1 F6000 E-5
;LAYER_COUNT:163
;LAYER:0
M107
M204 S5000
M205 X30 Y30
G0 F7200 X101.5 Y97.198 Z0.2
M204 S500
M205 X20 Y20
;TYPE:SKIRT
G1 F6000 E0
G1 F900 X101.838 Y96.86 E0.01749
G1 X102.096 Y96.625 E0.03026
G1 X102.592 Y96.227 E0.05352
G1 X103.216 Y95.852 E0.08016
G1 X103.666 Y95.624 E0.09861
G1 X104.25 Y95.373 E0.12187
G1 X104.861 Y95.197 E0.14513
G1 X105.205 Y95.121 E0.15802
G1 X105.834 Y95.023 E0.18131
G1 X106.304 Y95.002 E0.19853
G1 X128.907 Y95.035 E1.02548
G1 X129.542 Y95.076 E1.04876
G1 X130.166 Y95.196 E1.07201
G1 X130.804 Y95.407 E1.0966
G1 X131.262 Y95.593 E1.11468
G1 X131.835 Y95.869 E1.13795
G1 X132.426 Y96.257 E1.16382
G1 X132.767 Y96.517 E1.17951
G1 X133.247 Y96.934 E1.20277
G1 X133.672 Y97.407 E1.22603
G1 X133.928 Y97.762 E1.24205
G1 X134.317 Y98.354 E1.26796
G1 X134.632 Y98.907 E1.29125
G1 X134.875 Y99.494 E1.31449
G1 X134.983 Y99.852 E1.32817
G1 X135.079 Y100.219 E1.34205
G1 X135.201 Y100.844 E1.36535
G1 X135.243 Y101.38 E1.38502
G1 X135.26 Y102.095 E1.41119
G1 X135.235 Y102.73 E1.43444
G1 X135.13 Y103.357 E1.45769
G1 X134.948 Y103.967 E1.48098
G1 X134.707 Y104.512 E1.50279
G1 X134.779 Y104.642 E1.50822
G1 X135.013 Y105.234 E1.53151
G1 X135.171 Y105.85 E1.55478
G1 X135.25 Y106.48 E1.57801
G1 X135.26 Y106.82 E1.59045
G1 X135.23 Y113.098 E1.82014
G1 X135.187 Y113.733 E1.84343
G1 X135.178 Y113.779 E1.84514
G1 X135.178 Y114.088 E1.85645
G1 X135.138 Y114.723 E1.87973
G1 X135.084 Y115.006 E1.89027
G1 X135.084 Y116.483 E1.94431
G1 X135.115 Y116.622 E1.94952
G1 X135.177 Y117.411 E1.97847
G1 X135.177 Y118.152 E2.00558
G1 X135.242 Y118.912 E2.03349
G1 X135.26 Y119.343 E2.04927
G1 X135.26 Y124.703 E2.24537
G1 X135.22 Y125.338 E2.26865
G1 X135.101 Y125.962 E2.29189
G1 X134.904 Y126.567 E2.31517
G1 X134.633 Y127.142 E2.33843
G1 X134.292 Y127.679 E2.3617
G1 X133.887 Y128.169 E2.38496
G1 X133.423 Y128.604 E2.40823
G1 X133.319 Y128.68 E2.41294
G1 X133.449 Y128.791 E2.4192
G1 X133.578 Y128.92 E2.42587
G1 X133.998 Y129.397 E2.44912
G1 X134.356 Y129.923 E2.4724
G1 X134.644 Y130.49 E2.49567
G1 X134.86 Y131.088 E2.51893
G1 X134.998 Y131.709 E2.5422
G1 X135.06 Y132.505 E2.57142
G1 X135.057 Y134.628 E2.64909
G1 X135.016 Y135.263 E2.67237
G1 X134.896 Y135.887 E2.69562
G1 X134.698 Y136.492 E2.71891
G1 X134.427 Y137.067 E2.74216
G1 X134.085 Y137.603 E2.76542
G1 X133.575 Y138.199 E2.79412
G1 X133.446 Y138.328 E2.8008
G1 X132.969 Y138.748 E2.82405
G1 X132.443 Y139.106 E2.84733
G1 X131.876 Y139.394 E2.8706
G1 X131.278 Y139.61 E2.89386
G1 X130.657 Y139.748 E2.91713
G1 X129.868 Y139.81 E2.94609
G1 X128.129 Y139.81 E3.00971
G1 X127.494 Y139.77 E3.03299
G1 X126.87 Y139.651 E3.05623
G1 X126.265 Y139.454 E3.07951
G1 X125.69 Y139.183 E3.10277
G1 X125.153 Y138.842 E3.12604
G1 X124.694 Y138.45 E3.14812
G1 X124.18 Y138.641 E3.16818
G1 X123.56 Y138.786 E3.19148
G1 X122.928 Y138.852 E3.21473
G1 X122.292 Y138.838 E3.238
G1 X121.663 Y138.744 E3.26127
G1 X121.051 Y138.573 E3.28452
G1 X120.465 Y138.326 E3.30779
G1 X119.914 Y138.007 E3.33108
G1 X119.408 Y137.622 E3.35434
G1 X118.835 Y137.039 E3.38425
G1 X118.302 Y136.401 E3.41466
G1 X118.158 Y136.276 E3.42164
G1 X117.937 Y136.134 E3.43125
G1 X117.527 Y136.026 E3.44676
G1 X117.52 Y136.027 E3.44702
G1 X116.998 Y136.127 E3.46647
G1 X116.796 Y136.25 E3.47512
G1 X116.513 Y136.51 E3.48918
G1 X116.218 Y136.876 E3.50638
G1 X115.788 Y137.346 E3.52968
G1 X115.303 Y137.757 E3.55294
G1 X114.771 Y138.104 E3.57618
G1 X114.199 Y138.382 E3.59945
G1 X113.596 Y138.586 E3.62274
G1 X112.973 Y138.713 E3.646
G1 X112.339 Y138.761 E3.66926
G1 X111.704 Y138.728 E3.69253
G1 X111.078 Y138.617 E3.71579
G1 X110.471 Y138.427 E3.73906
G1 X110.38 Y138.385 E3.74272
G1 X109.968 Y138.748 E3.76281
G1 X109.442 Y139.106 E3.78609
G1 X108.875 Y139.394 E3.80936
G1 X108.277 Y139.61 E3.83262
G1 X107.656 Y139.748 E3.8559
G1 X106.867 Y139.81 E3.88485
G1 X105.132 Y139.81 E3.94833
G1 X104.497 Y139.77 E3.97161
G1 X103.873 Y139.651 E3.99485
G1 X103.268 Y139.454 E4.01813
G1 X102.693 Y139.183 E4.04138
G1 X102.156 Y138.842 E4.06466
G1 X101.554 Y138.328 E4.09362
G1 X101.425 Y138.199 E4.10029
G1 X101.005 Y137.722 E4.12354
G1 X100.647 Y137.196 E4.14682
G1 X100.359 Y136.629 E4.17009
G1 X100.143 Y136.031 E4.19335
G1 X100.005 Y135.41 E4.21663
G1 X99.943 Y134.628 E4.24533
G1 X99.94 Y132.506 E4.32296
G1 X99.979 Y131.871 E4.34624
G1 X100.097 Y131.247 E4.36947
G1 X100.293 Y130.642 E4.39274
G1 X100.563 Y130.066 E4.41601
G1 X100.904 Y129.529 E4.43929
G1 X101.422 Y128.921 E4.46851
G1 X101.551 Y128.792 E4.47518
G1 X101.681 Y128.677 E4.48153
G1 X101.337 Y128.393 E4.49785
G1 X100.901 Y127.93 E4.52112
G1 X100.528 Y127.415 E4.54439
G1 X100.221 Y126.858 E4.56766
G1 X99.987 Y126.266 E4.59095
G1 X99.829 Y125.65 E4.61421
G1 X99.75 Y125.02 E4.63744
G1 X99.74 Y124.647 E4.65109
G1 X99.822 Y117.355 E4.9179
G1 X99.869 Y116.721 E4.94116
G1 X99.915 Y116.495 E4.94959
G1 X99.915 Y115.013 E5.00381
G1 X99.885 Y114.878 E5.00887
G1 X99.823 Y114.089 E5.03783
G1 X99.823 Y113.348 E5.06494
G1 X99.758 Y112.588 E5.09285
G1 X99.74 Y112.157 E5.10863
G1 X99.74 Y106.797 E5.30473
G1 X99.78 Y106.162 E5.32801
G1 X99.899 Y105.538 E5.35125
G1 X100.096 Y104.933 E5.37453
G1 X100.295 Y104.51 E5.39163
G1 X100.144 Y104.21 E5.40392
G1 X99.931 Y103.611 E5.42718
G1 X99.796 Y102.989 E5.45047
G1 X99.74 Y102.056 E5.48466
G1 X99.767 Y101.232 E5.51482
G1 X99.827 Y100.599 E5.53809
G1 X99.967 Y99.979 E5.56134
G1 X100.183 Y99.381 E5.5846
G1 X100.35 Y99.035 E5.59866
G1 X100.771 Y98.238 E5.63164
G1 X101.056 Y97.772 E5.65162
G0 F810 X101.103 Y97.695
G0 X101.5 Y97.198
M204 S5000
M205 X30 Y30
G0 F7200 X101.862 Y97.455
M204 S500
M205 X20 Y20
G1 F6000 E5.67822
G1 F900 X102.134 Y97.185 E5.69224
G1 X102.392 Y96.95 E5.70501
G1 X102.867 Y96.572 E5.72722
G1 X103.415 Y96.245 E5.75057
G1 X103.865 Y96.017 E5.76902
G1 X104.424 Y95.778 E5.79127
G1 X104.956 Y95.627 E5.8115
G1 X105.3 Y95.551 E5.82439
G1 X105.901 Y95.459 E5.84663
G1 X106.304 Y95.442 E5.86139
G1 X128.907 Y95.475 E6.68835
G1 X129.513 Y95.516 E6.71057
G1 X130.109 Y95.636 E6.73281
G1 X130.638 Y95.815 E6.75324
G1 X131.096 Y96.001 E6.77133
G1 X131.643 Y96.266 E6.79357
G1 X132.159 Y96.607 E6.8162
G1 X132.5 Y96.867 E6.83188
G1 X132.958 Y97.266 E6.85411
G1 X133.36 Y97.723 E6.87638
G1 X133.56 Y98.004 E6.88899
G1 X133.949 Y98.596 E6.91491
G1 X134.249 Y99.125 E6.93716
G1 X134.558 Y99.964 E6.96987
G1 X134.654 Y100.331 E6.98375
G1 X134.768 Y100.928 E7.00599
G1 X134.803 Y101.39 E7.02294
G1 X134.82 Y102.105 E7.04911
G1 X134.794 Y102.712 E7.07133
G1 X134.689 Y103.311 E7.09358
G1 X134.507 Y103.89 E7.11579
G1 X134.249 Y104.441 E7.13805
G1 X134.21 Y104.502 E7.1407
G1 X134.213 Y104.506 E7.14088
G1 X134.478 Y105.052 E7.16308
G1 X134.67 Y105.629 E7.18533
G1 X134.785 Y106.226 E7.20758
G1 X134.82 Y106.818 E7.22927
G1 X134.79 Y113.096 E7.45896
G1 X134.747 Y113.702 E7.48119
G1 X134.738 Y113.746 E7.48283
G1 X134.738 Y114.088 E7.49535
G1 X134.698 Y114.694 E7.51757
G1 X134.644 Y114.964 E7.52764
G1 X134.644 Y116.539 E7.58526
G1 X134.7 Y116.824 E7.59589
G1 X134.737 Y117.411 E7.61741
G1 X134.737 Y118.178 E7.64547
G1 X134.803 Y118.949 E7.67378
G1 X134.82 Y119.343 E7.68821
G1 X134.82 Y124.703 E7.88431
G1 X134.78 Y125.309 E7.90653
G1 X134.661 Y125.905 E7.92877
G1 X134.465 Y126.48 E7.95099
G1 X134.194 Y127.024 E7.97323
G1 X133.855 Y127.529 E7.99548
G1 X133.453 Y127.984 E8.01769
G1 X132.994 Y128.382 E8.03992
G1 X132.719 Y128.563 E8.05196
G1 X132.658 Y128.688 E8.05705
G1 X132.694 Y128.712 E8.05864
G1 X133.138 Y129.102 E8.08026
G1 X133.267 Y129.231 E8.08693
G1 X133.667 Y129.688 E8.10915
G1 X134.004 Y130.194 E8.13139
G1 X134.272 Y130.739 E8.15361
G1 X134.466 Y131.315 E8.17585
G1 X134.583 Y131.911 E8.19807
G1 X134.62 Y132.505 E8.21985
G1 X134.617 Y134.628 E8.29752
G1 X134.576 Y135.234 E8.31974
G1 X134.456 Y135.829 E8.34195
G1 X134.259 Y136.404 E8.36419
G1 X133.988 Y136.948 E8.38642
G1 X133.648 Y137.452 E8.40866
G1 X133.264 Y137.888 E8.42992
G1 X133.135 Y138.017 E8.4366
G1 X132.678 Y138.417 E8.45881
G1 X132.172 Y138.754 E8.48106
G1 X131.627 Y139.022 E8.50328
G1 X131.051 Y139.216 E8.52551
G1 X130.455 Y139.333 E8.54774
G1 X129.868 Y139.37 E8.56925
G1 X128.129 Y139.37 E8.63288
G1 X127.523 Y139.33 E8.6551
G1 X126.927 Y139.211 E8.67733
G1 X126.352 Y139.015 E8.69956
G1 X125.808 Y138.744 E8.72179
G1 X125.303 Y138.405 E8.74405
G1 X124.862 Y138.017 E8.76554
G1 X124.771 Y137.926 E8.77025
G1 X124.372 Y138.111 E8.78634
G1 X123.792 Y138.29 E8.80854
G1 X123.193 Y138.392 E8.83077
G1 X122.585 Y138.414 E8.85303
G1 X121.98 Y138.356 E8.87527
G1 X121.388 Y138.22 E8.89749
G1 X120.819 Y138.007 E8.91972
G1 X120.283 Y137.721 E8.94195
G1 X119.789 Y137.367 E8.96418
G1 X119.173 Y136.757 E8.9959
G1 X118.62 Y136.095 E9.02746
G1 X118.42 Y135.921 E9.03716
G1 X118.116 Y135.726 E9.05037
G1 X117.568 Y135.582 E9.0711
G1 X117.459 Y135.591 E9.0751
G1 X116.838 Y135.709 E9.09823
G1 X116.527 Y135.899 E9.11156
G1 X116.19 Y136.209 E9.12832
G1 X115.875 Y136.6 E9.14669
G1 X115.463 Y137.047 E9.16893
G1 X114.997 Y137.436 E9.19114
G1 X114.483 Y137.761 E9.21338
G1 X113.931 Y138.015 E9.23562
G1 X113.351 Y138.195 E9.25783
G1 X112.752 Y138.297 E9.28006
G1 X112.144 Y138.319 E9.30232
G1 X111.539 Y138.262 E9.32456
G1 X110.947 Y138.125 E9.34679
G1 X110.378 Y137.912 E9.36902
G1 X110.285 Y137.863 E9.37286
G1 X110.263 Y137.888 E9.37408
G1 X110.134 Y138.017 E9.38075
G1 X109.677 Y138.417 E9.40297
G1 X109.171 Y138.754 E9.42522
G1 X108.626 Y139.022 E9.44744
G1 X108.05 Y139.216 E9.46967
G1 X107.454 Y139.333 E9.4919
G1 X106.867 Y139.37 E9.51341
G1 X105.132 Y139.37 E9.57689
G1 X104.526 Y139.33 E9.59911
G1 X103.93 Y139.211 E9.62135
G1 X103.355 Y139.015 E9.64357
G1 X102.811 Y138.744 E9.66581
G1 X102.306 Y138.405 E9.68806
G1 X101.865 Y138.017 E9.70955
G1 X101.736 Y137.888 E9.71623
G1 X101.336 Y137.431 E9.73845
G1 X100.999 Y136.925 E9.76069
G1 X100.731 Y136.38 E9.78291
G1 X100.537 Y135.804 E9.80514
G1 X100.42 Y135.208 E9.82737
G1 X100.383 Y134.628 E9.84863
G1 X100.38 Y132.506 E9.92626
G1 X100.419 Y131.899 E9.94852
G1 X100.537 Y131.303 E9.97075
G1 X100.733 Y130.728 E9.99297
G1 X101.002 Y130.183 E10.01521
G1 X101.341 Y129.679 E10.03743
G1 X101.733 Y129.232 E10.05918
G1 X101.862 Y129.103 E10.06586
G1 X102.319 Y128.703 E10.08808
G1 X102.343 Y128.687 E10.08913
G1 X102.285 Y128.568 E10.09398
G1 X101.977 Y128.361 E10.10755
G1 X101.522 Y127.959 E10.12977
G1 X101.123 Y127.501 E10.15199
G1 X100.787 Y126.994 E10.17424
G1 X100.522 Y126.448 E10.19645
G1 X100.33 Y125.871 E10.2187
G1 X100.215 Y125.274 E10.24094
G1 X100.18 Y124.652 E10.26373
G1 X100.262 Y117.36 E10.53053
G1 X100.309 Y116.754 E10.55277
G1 X100.355 Y116.537 E10.56089
G1 X100.355 Y114.956 E10.61873
G1 X100.3 Y114.676 E10.62917
G1 X100.263 Y114.089 E10.65069
G1 X100.263 Y113.322 E10.67875
G1 X100.197 Y112.551 E10.70706
G1 X100.18 Y112.157 E10.72149
G1 X100.18 Y106.797 E10.91759
G1 X100.22 Y106.191 E10.93981
G1 X100.339 Y105.595 E10.96205
G1 X100.535 Y105.02 E10.98427
G1 X100.787 Y104.515 E11.00492
G1 X100.783 Y104.509 E11.00519
G1 X100.517 Y103.962 E11.02744
G1 X100.326 Y103.385 E11.04968
G1 X100.212 Y102.789 E11.07188
G1 X100.179 Y102.071 E11.09817
G1 X100.206 Y101.247 E11.12834
G1 X100.266 Y100.642 E11.15058
G1 X100.405 Y100.05 E11.17283
G1 X100.739 Y99.24 E11.20488
G1 X101.16 Y98.443 E11.23786
G1 X101.416 Y98.028 E11.2557
G0 F810 X101.478 Y97.926
G0 X101.862 Y97.455
M204 S5000
M205 X30 Y30
G0 F7200 X102.223 Y97.713
M204 S500
M205 X20 Y20
G1 F6000 E11.2823
G1 F900 X102.43 Y97.511 E11.29288
G1 X102.688 Y97.276 E11.30565
G1 X103.141 Y96.917 E11.32679
G1 X103.614 Y96.637 E11.3469
G1 X104.064 Y96.409 E11.36536
G1 X104.596 Y96.184 E11.38649
G1 X105.051 Y96.056 E11.40379
G1 X105.395 Y95.98 E11.41668
G1 X105.967 Y95.895 E11.43783
G1 X106.303 Y95.882 E11.45013
G1 X128.906 Y95.915 E12.27709
G1 X129.483 Y95.956 E12.29826
G1 X130.048 Y96.076 E12.31939
G1 X130.473 Y96.222 E12.33583
G1 X130.931 Y96.408 E12.35391
G1 X131.45 Y96.662 E12.37505
G1 X131.892 Y96.957 E12.3945
G1 X132.233 Y97.217 E12.41019
G1 X132.668 Y97.598 E12.43134
G1 X133.192 Y98.246 E12.46183
G1 X133.581 Y98.838 E12.48775
G1 X133.865 Y99.341 E12.50888
G1 X134.132 Y100.075 E12.53746
G1 X134.228 Y100.442 E12.55134
G1 X134.335 Y101.01 E12.57248
G1 X134.363 Y101.401 E12.58682
G1 X134.38 Y102.116 E12.61299
G1 X134.354 Y102.693 E12.63412
G1 X134.248 Y103.261 E12.65526
G1 X134.065 Y103.809 E12.6764
G1 X133.808 Y104.327 E12.69756
G1 X133.688 Y104.502 E12.70532
G1 X133.937 Y104.923 E12.72321
G1 X134.16 Y105.457 E12.74439
G1 X134.307 Y106.016 E12.76553
G1 X134.38 Y106.816 E12.79492
G1 X134.35 Y113.094 E13.02461
G1 X134.307 Y113.67 E13.04575
G1 X134.298 Y113.712 E13.04732
G1 X134.298 Y114.088 E13.06107
G1 X134.258 Y114.665 E13.08223
G1 X134.204 Y114.921 E13.09181
G1 X134.204 Y116.565 E13.15195
G1 X134.279 Y117.021 E13.16886
G1 X134.297 Y117.411 E13.18315
G1 X134.297 Y118.192 E13.21172
G1 X134.365 Y118.987 E13.24091
G1 X134.38 Y119.343 E13.25395
G1 X134.38 Y124.703 E13.45005
G1 X134.34 Y125.28 E13.47121
G1 X134.221 Y125.845 E13.49234
G1 X134.025 Y126.389 E13.51349
G1 X133.756 Y126.9 E13.53462
G1 X133.419 Y127.37 E13.55578
G1 X133.02 Y127.788 E13.57692
G1 X132.568 Y128.148 E13.59806
G1 X132.362 Y128.269 E13.6068
G1 X132.314 Y128.403 E13.61201
G1 X132.141 Y128.732 E13.62561
G1 X132.125 Y128.776 E13.62732
G1 X132.095 Y128.833 E13.62968
G1 X132.536 Y129.149 E13.64953
G1 X132.827 Y129.413 E13.6639
G1 X132.956 Y129.542 E13.67058
G1 X133.335 Y129.978 E13.69171
G1 X133.651 Y130.462 E13.71286
G1 X133.897 Y130.985 E13.73401
G1 X134.068 Y131.537 E13.75515
G1 X134.162 Y132.108 E13.77632
G1 X134.18 Y132.504 E13.79082
G1 X134.177 Y134.627 E13.86849
G1 X134.136 Y135.203 E13.88962
G1 X134.016 Y135.769 E13.91079
G1 X133.82 Y136.312 E13.93191
G1 X133.55 Y136.823 E13.95306
G1 X133.212 Y137.292 E13.97421
G1 X132.953 Y137.577 E13.9883
G1 X132.824 Y137.706 E13.99497
G1 X132.388 Y138.085 E14.01611
G1 X131.904 Y138.401 E14.03725
G1 X131.381 Y138.647 E14.0584
G1 X130.829 Y138.818 E14.07954
G1 X130.258 Y138.912 E14.10071
G1 X129.868 Y138.93 E14.115
G1 X128.129 Y138.93 E14.17862
G1 X127.552 Y138.89 E14.19978
G1 X126.987 Y138.771 E14.22091
G1 X126.443 Y138.575 E14.24206
G1 X125.932 Y138.306 E14.26319
G1 X125.462 Y137.969 E14.28435
G1 X125.173 Y137.706 E14.29864
G1 X125.044 Y137.577 E14.30532
G1 X124.867 Y137.373 E14.3152
G1 X124.513 Y137.572 E14.33006
G1 X123.975 Y137.783 E14.3512
G1 X123.413 Y137.918 E14.37235
G1 X122.838 Y137.974 E14.39348
G1 X122.26 Y137.951 E14.41465
G1 X121.692 Y137.847 E14.43577
G1 X121.143 Y137.667 E14.45691
G1 X120.624 Y137.412 E14.47807
G1 X120.145 Y137.089 E14.4992
G1 X119.715 Y136.702 E14.52037
G1 X119.511 Y136.475 E14.53154
G1 X118.935 Y135.785 E14.56442
G1 X118.686 Y135.569 E14.57648
G1 X118.296 Y135.319 E14.59343
G1 X117.605 Y135.137 E14.61957
G1 X117.404 Y135.153 E14.62695
G1 X116.676 Y135.293 E14.65407
G1 X116.261 Y135.546 E14.67185
G1 X115.868 Y135.908 E14.6914
G1 X115.532 Y136.324 E14.71097
G1 X115.139 Y136.748 E14.73212
G1 X114.692 Y137.114 E14.75325
G1 X114.198 Y137.414 E14.7744
G1 X113.668 Y137.643 E14.79552
G1 X113.111 Y137.797 E14.81667
G1 X112.538 Y137.873 E14.83781
G1 X111.96 Y137.869 E14.85896
G1 X111.388 Y137.785 E14.88011
G1 X110.833 Y137.623 E14.90127
G1 X110.306 Y137.387 E14.92239
G1 X110.191 Y137.315 E14.92736
G1 X109.952 Y137.577 E14.94033
G1 X109.823 Y137.706 E14.947
G1 X109.387 Y138.085 E14.96814
G1 X108.903 Y138.401 E14.98929
G1 X108.38 Y138.647 E15.01043
G1 X107.828 Y138.818 E15.03158
G1 X107.257 Y138.912 E15.05275
G1 X106.867 Y138.93 E15.06703
G1 X105.132 Y138.93 E15.13051
G1 X104.555 Y138.89 E15.15167
