;FLAVOR:Marlin
;TIME:902
;Filament used: 0.296752m
;Layer height: 0.16
;Generated with Cura_SteamEngine 3.6.0
M140 S70
M105
M190 S70
M104 S215
M105
M109 S215
M82 ;absolute extrusion mode
G28 ; home all axes
M117 Purge extruder
G92 E0 ; reset extruder
G1 Z1.0 F3000 ; move z up little to prevent scratching of surface
G1 X0.1 Y20 Z0.3 F5000.0 ; move to start-line position G1 X0.1 Y200.0 Z0.3 F1500.0 E15 ; draw 1st line
G1 X0.4 Y200.0 Z0.3 F5000.0 ; move to side a little
G1 X0.4 Y20 Z0.3 F1500.0 E30 ; draw 2nd line
G92 E0 ; reset extruder
G1 Z1.0 F3000 ; move z up little to prevent scratching of surface
M117 All systems go!
G92 E0
G1 F6000 E-5
;LAYER_COUNT:38
;LAYER:0
M107
M204 S5000
M205 X30 Y30
G0 F7200 X99.234 Y103.282 Z0.16
M204 S500
M205 X20 Y20
;TYPE:SKIRT
G1 F6000 E0
G1 F900 X100.155 Y102.425 E0.03347
G1 X101.18 Y101.589 E0.06867
G1 X102.848 Y100.319 E0.12445
G1 X103.873 Y99.588 E0.15795
G1 X104.683 Y99.078 E0.18342
G1 X105.531 Y98.571 E0.20971
G1 X106.631 Y97.96 E0.24319
G1 X107.767 Y97.42 E0.27666
G1 X108.936 Y96.953 E0.31015
G1 X110.132 Y96.561 E0.34364
G1 X111.35 Y96.247 E0.37711
G1 X112.586 Y96.01 E0.4106
G1 X113.835 Y95.852 E0.44409
G1 X115.091 Y95.774 E0.47758
G1 X116.349 Y95.776 E0.51105
G1 X116.418 Y95.781 E0.51289
G1 X117.53 Y95.648 E0.54269
G1 X118.787 Y95.58 E0.57619
G1 X119.618 Y95.579 E0.5983
G1 X121.165 Y95.609 E0.63947
G1 X122.422 Y95.673 E0.67296
G1 X123.672 Y95.817 E0.70644
G1 X124.91 Y96.04 E0.73991
G1 X126.132 Y96.342 E0.7734
G1 X127.332 Y96.72 E0.80688
G1 X128.506 Y97.174 E0.84037
G1 X129.648 Y97.702 E0.87385
G1 X130.755 Y98.301 E0.90734
G1 X131.821 Y98.969 E0.94081
G1 X132.843 Y99.703 E0.97429
G1 X133.816 Y100.501 E1.00778
G1 X134.932 Y101.556 E1.04864
G1 X136.901 Y103.568 E1.12354
G1 X137.752 Y104.495 E1.15703
G1 X138.543 Y105.474 E1.19052
G1 X139.27 Y106.502 E1.22402
G1 X139.93 Y107.573 E1.25749
G1 X140.52 Y108.684 E1.29096
G1 X141.039 Y109.831 E1.32446
G1 X141.484 Y111.008 E1.35794
G1 X141.853 Y112.211 E1.39143
G1 X142.145 Y113.435 E1.42491
G1 X142.359 Y114.675 E1.45839
G1 X142.494 Y115.926 E1.49187
G1 X142.55 Y117.417 E1.53157
G1 X142.55 Y118.759 E1.56728
G1 X142.51 Y120.017 E1.60077
G1 X142.39 Y121.269 E1.63423
G1 X142.191 Y122.512 E1.66773
G1 X141.913 Y123.739 E1.70121
G1 X141.558 Y124.947 E1.73471
G1 X141.127 Y126.129 E1.76818
G1 X140.622 Y127.281 E1.80165
G1 X140.044 Y128.4 E1.83516
G1 X139.397 Y129.479 E1.86864
G1 X138.683 Y130.515 E1.90212
G1 X137.904 Y131.503 E1.9356
G1 X136.751 Y132.76 E1.98098
G1 X136.634 Y132.877 E1.98538
G1 X135.716 Y133.738 E2.01887
G1 X135.173 Y134.186 E2.0376
G1 X135.484 Y135.008 E2.06099
G1 X135.853 Y136.211 E2.09447
G1 X136.145 Y137.435 E2.12795
G1 X136.359 Y138.675 E2.16143
G1 X136.494 Y139.926 E2.19491
G1 X136.55 Y141.417 E2.23462
G1 X136.55 Y142.759 E2.27032
G1 X136.51 Y144.017 E2.30381
G1 X136.39 Y145.269 E2.33728
G1 X136.191 Y146.512 E2.37077
G1 X135.913 Y147.739 E2.40425
G1 X135.558 Y148.947 E2.43775
G1 X135.127 Y150.129 E2.47123
G1 X134.622 Y151.281 E2.5047
G1 X134.044 Y152.4 E2.53821
G1 X133.397 Y153.479 E2.57168
G1 X132.683 Y154.515 E2.60516
G1 X131.904 Y155.503 E2.63864
G1 X130.751 Y156.76 E2.68403
G1 X130.634 Y156.877 E2.68843
G1 X129.716 Y157.738 E2.72192
G1 X128.746 Y158.539 E2.75539
G1 X127.726 Y159.277 E2.78889
G1 X126.662 Y159.948 E2.82236
G1 X125.557 Y160.551 E2.85585
G1 X124.416 Y161.082 E2.88934
G1 X123.244 Y161.54 E2.92282
G1 X122.045 Y161.922 E2.95631
G1 X121.735 Y161.999 E2.96481
G1 X120.994 Y162.289 E2.98598
G1 X119.795 Y162.671 E3.01946
G1 X118.574 Y162.976 E3.05295
G1 X117.337 Y163.203 E3.08641
G1 X116.087 Y163.352 E3.11991
G1 X114.383 Y163.425 E3.16529
G1 X110.932 Y163.425 E3.25711
G1 X109.674 Y163.385 E3.2906
G1 X108.422 Y163.265 E3.32407
G1 X107.179 Y163.066 E3.35756
G1 X105.952 Y162.788 E3.39104
G1 X105.152 Y162.553 E3.41323
G1 X104.738 Y162.513 E3.42429
G1 X103.496 Y162.314 E3.45776
G1 X102.268 Y162.036 E3.49126
G1 X101.061 Y161.681 E3.52474
G1 X99.879 Y161.249 E3.55823
G1 X98.726 Y160.744 E3.59172
G1 X97.609 Y160.166 E3.62518
G1 X96.53 Y159.518 E3.65867
G1 X95.494 Y158.803 E3.69217
G1 X94.506 Y158.024 E3.72564
G1 X93.253 Y156.875 E3.77088
G1 X93.136 Y156.758 E3.77528
G1 X92.275 Y155.84 E3.80877
G1 X91.474 Y154.87 E3.84224
G1 X90.736 Y153.85 E3.87574
G1 X90.065 Y152.786 E3.90921
G1 X89.462 Y151.681 E3.94271
G1 X88.931 Y150.54 E3.97619
G1 X88.473 Y149.368 E4.00968
G1 X88.091 Y148.169 E4.04316
G1 X87.786 Y146.948 E4.07665
G1 X87.559 Y145.711 E4.11011
G1 X87.41 Y144.461 E4.1436
G1 X87.342 Y143.204 E4.1771
G1 X87.344 Y142.225 E4.20315
G1 X87.382 Y140.81 E4.24081
G1 X87.456 Y139.554 E4.27429
G1 X87.609 Y138.305 E4.30777
G1 X87.842 Y137.068 E4.34127
G1 X88.152 Y135.849 E4.37473
G1 X88.54 Y134.652 E4.40821
G1 X89.002 Y133.481 E4.44171
G1 X89.538 Y132.343 E4.47518
G1 X90.146 Y131.241 E4.50867
G1 X90.822 Y130.179 E4.54217
G1 X91.564 Y129.163 E4.57564
G1 X92.369 Y128.196 E4.60912
G1 X93.234 Y127.282 E4.64261
G1 X94.155 Y126.425 E4.67608
G1 X94.709 Y125.973 E4.6951
G1 X94.473 Y125.368 E4.71238
G1 X94.091 Y124.169 E4.74587
G1 X93.786 Y122.948 E4.77935
G1 X93.559 Y121.711 E4.81282
G1 X93.41 Y120.461 E4.84631
G1 X93.342 Y119.204 E4.87981
G1 X93.344 Y118.225 E4.90586
G1 X93.382 Y116.81 E4.94352
G1 X93.456 Y115.554 E4.977
G1 X93.609 Y114.305 E5.01048
G1 X93.842 Y113.068 E5.04397
G1 X94.152 Y111.849 E5.07744
G1 X94.54 Y110.652 E5.11092
G1 X95.002 Y109.481 E5.14442
G1 X95.538 Y108.343 E5.17789
G1 X96.146 Y107.241 E5.21138
G1 X96.822 Y106.179 E5.24488
G1 X97.564 Y105.163 E5.27835
G1 X98.369 Y104.196 E5.31183
G1 X98.547 Y104.008 E5.31872
G0 F810 X99.234 Y103.282
M204 S5000
M205 X30 Y30
G0 F7200 X99.624 Y103.459
M204 S500
M205 X20 Y20
G1 F6000 E5.34533
G1 F900 X100.543 Y102.618 E5.37847
G1 X101.423 Y101.907 E5.40858
G1 X103.091 Y100.637 E5.46436
G1 X104.106 Y99.914 E5.49752
G1 X104.888 Y99.421 E5.52211
G1 X105.736 Y98.914 E5.5484
G1 X106.825 Y98.31 E5.58154
G1 X107.951 Y97.776 E5.6147
G1 X109.108 Y97.316 E5.64783
G1 X110.293 Y96.931 E5.68098
G1 X111.5 Y96.623 E5.71412
G1 X112.724 Y96.393 E5.74726
G1 X113.96 Y96.242 E5.7804
G1 X115.204 Y96.171 E5.81355
G1 X116.432 Y96.18 E5.84623
G1 X116.465 Y96.174 E5.84712
G1 X117.703 Y96.035 E5.88027
G1 X118.947 Y95.977 E5.9134
G1 X119.61 Y95.979 E5.93104
G1 X121.157 Y96.009 E5.97221
G1 X122.401 Y96.073 E6.00536
G1 X123.638 Y96.217 E6.03849
G1 X124.864 Y96.44 E6.07165
G1 X126.073 Y96.741 E6.1048
G1 X127.26 Y97.119 E6.13795
G1 X128.42 Y97.572 E6.17108
G1 X129.548 Y98.099 E6.20421
G1 X130.641 Y98.697 E6.23736
G1 X131.693 Y99.365 E6.27052
G1 X132.7 Y100.098 E6.30366
G1 X133.657 Y100.894 E6.33678
G1 X134.646 Y101.836 E6.37313
G1 X136.615 Y103.848 E6.44803
G1 X137.457 Y104.766 E6.48118
G1 X138.239 Y105.736 E6.51433
G1 X138.957 Y106.754 E6.54748
G1 X139.608 Y107.816 E6.58062
G1 X140.189 Y108.918 E6.61377
G1 X140.699 Y110.054 E6.6469
G1 X141.134 Y111.221 E6.68004
G1 X141.494 Y112.414 E6.7132
G1 X141.776 Y113.627 E6.74633
G1 X141.98 Y114.856 E6.77948
G1 X142.105 Y116.095 E6.81262
G1 X142.15 Y117.417 E6.84781
G1 X142.15 Y118.759 E6.88352
G1 X142.11 Y120.004 E6.91667
G1 X141.99 Y121.244 E6.94981
G1 X141.791 Y122.473 E6.98294
G1 X141.513 Y123.688 E7.01611
G1 X141.158 Y124.882 E7.04925
G1 X140.728 Y126.05 E7.08237
G1 X140.223 Y127.189 E7.11552
G1 X139.646 Y128.293 E7.14867
G1 X138.999 Y129.358 E7.18182
G1 X138.285 Y130.379 E7.21497
G1 X137.508 Y131.352 E7.2481
G1 X136.468 Y132.477 E7.28887
G1 X136.351 Y132.594 E7.29327
G1 X135.442 Y133.446 E7.32642
G1 X134.7 Y134.057 E7.352
G1 X135.134 Y135.221 E7.38505
G1 X135.494 Y136.414 E7.41821
G1 X135.776 Y137.627 E7.45135
G1 X135.98 Y138.856 E7.4845
G1 X136.105 Y140.095 E7.51763
G1 X136.15 Y141.417 E7.55283
G1 X136.15 Y142.759 E7.58853
G1 X136.11 Y144.004 E7.62168
G1 X135.99 Y145.244 E7.65483
G1 X135.791 Y146.473 E7.68795
G1 X135.513 Y147.688 E7.72112
G1 X135.158 Y148.882 E7.75426
G1 X134.728 Y150.05 E7.78738
G1 X134.223 Y151.189 E7.82053
G1 X133.646 Y152.293 E7.85368
G1 X132.999 Y153.358 E7.88684
G1 X132.285 Y154.379 E7.91999
G1 X131.508 Y155.352 E7.95312
G1 X130.468 Y156.477 E7.99388
G1 X130.351 Y156.594 E7.99829
G1 X129.442 Y157.446 E8.03144
G1 X128.481 Y158.238 E8.06457
G1 X127.471 Y158.967 E8.09771
G1 X126.416 Y159.629 E8.13085
G1 X125.32 Y160.222 E8.16401
G1 X124.189 Y160.744 E8.19716
G1 X123.027 Y161.192 E8.23029
G1 X121.838 Y161.565 E8.26345
G1 X121.605 Y161.622 E8.26983
G1 X120.777 Y161.941 E8.29344
G1 X119.588 Y162.314 E8.3266
G1 X118.378 Y162.609 E8.35974
G1 X117.152 Y162.826 E8.39287
G1 X115.914 Y162.965 E8.42602
G1 X114.383 Y163.025 E8.46678
G1 X110.932 Y163.025 E8.55861
G1 X109.687 Y162.985 E8.59175
G1 X108.447 Y162.865 E8.6249
G1 X107.218 Y162.666 E8.65803
G1 X106.003 Y162.388 E8.69119
G1 X105.235 Y162.16 E8.71251
G1 X104.764 Y162.114 E8.7251
G1 X103.534 Y161.914 E8.75826
G1 X102.32 Y161.636 E8.7914
G1 X101.126 Y161.281 E8.82454
G1 X99.957 Y160.85 E8.85769
G1 X98.819 Y160.344 E8.89083
G1 X97.715 Y159.767 E8.92398
G1 X96.651 Y159.12 E8.95711
G1 X95.63 Y158.406 E8.99026
G1 X94.657 Y157.628 E9.02341
G1 X93.536 Y156.592 E9.06403
G1 X93.419 Y156.475 E9.06843
G1 X92.567 Y155.566 E9.10158
G1 X91.775 Y154.605 E9.13471
G1 X91.046 Y153.595 E9.16786
G1 X90.384 Y152.54 E9.201
G1 X89.791 Y151.444 E9.23415
G1 X89.269 Y150.313 E9.2673
G1 X88.821 Y149.151 E9.30044
G1 X88.448 Y147.962 E9.33359
G1 X88.153 Y146.752 E9.36673
G1 X87.936 Y145.526 E9.39986
G1 X87.797 Y144.288 E9.43301
G1 X87.739 Y143.044 E9.46615
G1 X87.744 Y142.236 E9.48765
G1 X87.782 Y140.821 E9.52531
G1 X87.855 Y139.578 E9.55844
G1 X88.008 Y138.342 E9.59158
G1 X88.24 Y137.118 E9.62473
G1 X88.551 Y135.911 E9.65789
G1 X88.938 Y134.727 E9.69104
G1 X89.4 Y133.571 E9.72416
G1 X89.935 Y132.446 E9.75731
G1 X90.541 Y131.358 E9.79044
G1 X91.216 Y130.311 E9.82359
G1 X91.957 Y129.31 E9.85673
G1 X92.761 Y128.358 E9.88988
G1 X93.624 Y127.459 E9.92304
G1 X94.543 Y126.618 E9.95619
G1 X95.186 Y126.098 E9.97819
G1 X94.821 Y125.151 E10.0052
G1 X94.448 Y123.962 E10.03836
G1 X94.153 Y122.752 E10.07149
G1 X93.936 Y121.526 E10.10462
G1 X93.797 Y120.288 E10.13777
G1 X93.739 Y119.044 E10.17091
G1 X93.744 Y118.236 E10.19241
G1 X93.782 Y116.821 E10.23007
G1 X93.855 Y115.578 E10.2632
G1 X94.008 Y114.342 E10.29634
G1 X94.24 Y113.118 E10.32949
G1 X94.551 Y111.911 E10.36265
G1 X94.938 Y110.727 E10.3958
G1 X95.4 Y109.571 E10.42892
G1 X95.935 Y108.446 E10.46207
G1 X96.541 Y107.358 E10.49521
G1 X97.216 Y106.311 E10.52835
G1 X97.957 Y105.31 E10.56149
G1 X98.761 Y104.358 E10.59465
G1 X98.932 Y104.18 E10.60121
G0 F810 X99.624 Y103.459
M204 S5000
M205 X30 Y30
G0 F7200 X100.013 Y103.639
M204 S500
M205 X20 Y20
G1 F6000 E10.62782
G1 F900 X100.93 Y102.814 E10.66064
G1 X101.665 Y102.225 E10.68571
G1 X103.333 Y100.955 E10.74149
G1 X104.338 Y100.241 E10.77429
G1 X105.093 Y99.764 E10.79805
G1 X105.941 Y99.257 E10.82434
G1 X107.019 Y98.659 E10.85714
G1 X108.134 Y98.133 E10.88995
G1 X109.28 Y97.679 E10.92275
G1 X110.453 Y97.301 E10.95554
G1 X111.649 Y97 E10.98835
G1 X112.861 Y96.777 E11.02114
G1 X114.085 Y96.633 E11.05394
G1 X115.316 Y96.569 E11.08674
G1 X116.467 Y96.583 E11.11736
G1 X116.649 Y96.552 E11.12228
G1 X117.875 Y96.424 E11.15508
G1 X119.602 Y96.379 E11.20104
G1 X121.149 Y96.409 E11.24221
G1 X122.38 Y96.472 E11.27501
G1 X123.605 Y96.616 E11.30783
G1 X124.817 Y96.839 E11.34062
G1 X126.013 Y97.139 E11.37343
G1 X127.186 Y97.517 E11.40622
G1 X128.333 Y97.97 E11.43904
G1 X129.447 Y98.497 E11.47183
G1 X130.525 Y99.094 E11.50461
G1 X131.563 Y99.76 E11.53743
G1 X132.554 Y100.492 E11.57021
G1 X133.497 Y101.287 E11.60303
G1 X134.36 Y102.116 E11.63487
G1 X136.329 Y104.128 E11.70978
G1 X137.163 Y105.036 E11.74258
G1 X137.935 Y105.997 E11.77538
G1 X138.644 Y107.006 E11.80819
G1 X139.285 Y108.058 E11.84097
G1 X139.857 Y109.15 E11.87377
G1 X140.357 Y110.277 E11.90658
G1 X140.783 Y111.434 E11.93939
G1 X141.133 Y112.616 E11.97219
G1 X141.406 Y113.818 E12.00498
G1 X141.6 Y115.035 E12.03778
G1 X141.715 Y116.263 E12.07059
G1 X141.75 Y117.417 E12.10131
G1 X141.75 Y118.759 E12.13702
G1 X141.71 Y119.991 E12.16982
G1 X141.59 Y121.218 E12.20262
G1 X141.391 Y122.434 E12.23541
G1 X141.114 Y123.636 E12.26823
G1 X140.759 Y124.816 E12.30102
G1 X140.328 Y125.971 E12.33382
G1 X139.823 Y127.096 E12.36663
G1 X139.247 Y128.185 E12.39941
G1 X138.601 Y129.235 E12.43221
G1 X137.888 Y130.241 E12.46502
G1 X137.112 Y131.199 E12.49783
G1 X136.185 Y132.194 E12.53401
G1 X136.068 Y132.311 E12.53841
G1 X135.169 Y133.154 E12.57121
G1 X134.216 Y133.937 E12.60403
G1 X134.209 Y133.942 E12.60425
G1 X134.357 Y134.277 E12.614
G1 X134.783 Y135.434 E12.64681
G1 X135.133 Y136.616 E12.67961
G1 X135.406 Y137.818 E12.7124
G1 X135.6 Y139.035 E12.74519
G1 X135.715 Y140.263 E12.77801
G1 X135.75 Y141.417 E12.80873
G1 X135.75 Y142.759 E12.84444
G1 X135.71 Y143.991 E12.87724
G1 X135.59 Y145.218 E12.91004
G1 X135.391 Y146.434 E12.94283
G1 X135.114 Y147.636 E12.97565
G1 X134.759 Y148.816 E13.00844
G1 X134.328 Y149.971 E13.04124
G1 X133.823 Y151.096 E13.07405
G1 X133.247 Y152.185 E13.10683
G1 X132.601 Y153.235 E13.13963
G1 X131.888 Y154.241 E13.17244
G1 X131.112 Y155.199 E13.20525
G1 X130.185 Y156.194 E13.24143
G1 X130.068 Y156.311 E13.24583
G1 X129.169 Y157.154 E13.27863
G1 X128.216 Y157.937 E13.31145
G1 X127.215 Y158.656 E13.34424
G1 X126.17 Y159.309 E13.37703
G1 X125.084 Y159.893 E13.40984
G1 X123.963 Y160.405 E13.44263
G1 X122.811 Y160.844 E13.47543
G1 X121.633 Y161.206 E13.50822
G1 X121.482 Y161.242 E13.51235
G1 X120.561 Y161.593 E13.53858
G1 X119.383 Y161.955 E13.57137
G1 X118.183 Y162.241 E13.60419
G1 X116.968 Y162.448 E13.63699
G1 X115.742 Y162.576 E13.66979
G1 X114.383 Y162.625 E13.70597
G1 X110.932 Y162.625 E13.79779
G1 X109.7 Y162.585 E13.83059
G1 X108.473 Y162.465 E13.8634
G1 X107.257 Y162.266 E13.89618
G1 X106.055 Y161.989 E13.929
G1 X105.31 Y161.765 E13.9497
G1 X104.79 Y161.714 E13.96361
G1 X103.573 Y161.514 E13.99642
G1 X102.372 Y161.236 E14.02922
G1 X101.192 Y160.881 E14.06201
G1 X100.037 Y160.45 E14.09481
G1 X98.912 Y159.945 E14.12763
G1 X97.823 Y159.368 E14.16042
G1 X96.773 Y158.722 E14.19322
G1 X95.768 Y158.009 E14.22601
G1 X94.81 Y157.232 E14.25883
G1 X93.819 Y156.309 E14.29486
G1 X93.702 Y156.192 E14.29927
G1 X92.859 Y155.293 E14.33206
G1 X92.076 Y154.34 E14.36488
G1 X91.357 Y153.339 E14.39767
G1 X90.704 Y152.294 E14.43046
G1 X90.12 Y151.208 E14.46327
G1 X89.608 Y150.087 E14.49606
G1 X89.169 Y148.935 E14.52886
G1 X88.807 Y147.757 E14.56165
G1 X88.521 Y146.557 E14.59448
G1 X88.314 Y145.342 E14.62727
G1 X88.186 Y144.116 E14.66007
G1 X88.137 Y142.884 E14.69288
G1 X88.144 Y142.247 E14.70983
G1 X88.182 Y140.832 E14.74749
G1 X88.255 Y139.601 E14.7803
G1 X88.408 Y138.378 E14.8131
G1 X88.639 Y137.167 E14.8459
G1 X88.949 Y135.974 E14.8787
G1 X89.335 Y134.804 E14.91148
G1 X89.797 Y133.661 E14.94429
G1 X90.332 Y132.55 E14.9771
G1 X90.937 Y131.476 E15.0099
G1 X91.611 Y130.444 E15.04269
G1 X92.351 Y129.458 E15.0755
G1 X93.152 Y128.521 E15.1083
G1 X94.013 Y127.639 E15.14109
G1 X94.93 Y126.814 E15.17391
G1 X95.665 Y126.225 E15.19897
G1 X95.669 Y126.222 E15.19911
G1 X95.608 Y126.087 E15.20305
G1 X95.169 Y124.935 E15.23585
G1 X94.807 Y123.757 E15.26864
G1 X94.521 Y122.557 E15.30147
G1 X94.314 Y121.342 E15.33426
G1 X94.186 Y120.116 E15.36706
G1 X94.137 Y118.884 E15.39987
G1 X94.144 Y118.247 E15.41682
G1 X94.182 Y116.832 E15.45448
G1 X94.255 Y115.601 E15.48729
G1 X94.408 Y114.378 E15.52009
G1 X94.639 Y113.167 E15.55289
G1 X94.949 Y111.974 E15.58569
G1 X95.335 Y110.804 E15.61847
G1 X95.797 Y109.661 E15.65128
G1 X96.332 Y108.55 E15.68409
G1 X96.937 Y107.476 E15.71689
G1 X97.611 Y106.444 E15.74968
G1 X98.351 Y105.458 E15.78249
G1 X99.152 Y104.521 E15.81529
G1 X99.315 Y104.354 E15.8215
G0 F810 X100.013 Y103.639
M204 S5000
M205 X30 Y30
G0 F7200 X100.403 Y103.821
M204 S500
M205 X20 Y20
G1 F6000 E15.8481
G1 F900 X101.316 Y103.013 E15.88054
G1 X101.907 Y102.543 E15.90064
G1 X103.575 Y101.273 E15.95642
G1 X104.57 Y100.567 E15.98888
G1 X105.298 Y100.108 E16.01178
G1 X106.146 Y99.601 E16.03807
G1 X107.213 Y99.009 E16.07054
G1 X108.316 Y98.489 E16.10298
G1 X109.451 Y98.043 E16.13543
G1 X110.613 Y97.672 E16.16789
G1 X111.797 Y97.377 E16.20036
G1 X112.997 Y97.161 E16.2328
G1 X114.209 Y97.024 E16.26525
