;FLAVOR:Marlin
;TIME:2726
;Filament used: 2.11272m
;Layer height: 0.2
;Generated with Cura_SteamEngine 3.6.0
M140 S70
M105
M190 S70
M104 S215
M105
M109 S215
M82 ;absolute extrusion mode
G28 ; home all axes
M117 Purge extruder
G92 E0 ; reset extruder
G1 Z1.0 F3000 ; move z up little to prevent scratching of surface
G1 X0.1 Y20 Z0.3 F5000.0 ; move to start-line position G1 X0.1 Y200.0 Z0.3 F1500.0 E15 ; draw 1st line
G1 X0.4 Y200.0 Z0.3 F5000.0 ; move to side a little
G1 X0.4 Y20 Z0.3 F1500.0 E30 ; draw 2nd line
G92 E0 ; reset extruder
G1 Z1.0 F3000 ; move z up little to prevent scratching of surface
M117 All systems go!
G92 E0
G1 F6000 E-5
;LAYER_COUNT:76
;LAYER:0
M107
M204 S5000
M205 X30 Y30
G0 F7200 X73.644 Y28.467 Z0.2
M204 S500
M205 X20 Y20
;TYPE:SKIRT
G1 F6000 E0
G1 F900 X74.149 Y27.315 E0.04184
G1 X74.727 Y26.196 E0.08373
G1 X75.374 Y25.117 E0.12557
G1 X76.088 Y24.081 E0.16742
G1 X76.867 Y23.093 E0.20927
G1 X78.02 Y21.836 E0.266
G1 X78.137 Y21.719 E0.2715
G1 X79.055 Y20.858 E0.31336
G1 X80.025 Y20.057 E0.3552
G1 X81.045 Y19.319 E0.39708
G1 X82.109 Y18.648 E0.43891
G1 X83.214 Y18.045 E0.48078
G1 X84.355 Y17.514 E0.52264
G1 X85.527 Y17.056 E0.56449
G1 X86.726 Y16.674 E0.60635
G1 X87.947 Y16.369 E0.64821
G1 X89.184 Y16.142 E0.69004
G1 X90.434 Y15.993 E0.7319
G1 X92.138 Y15.92 E0.78863
G1 X102.888 Y15.92 E1.14618
G1 X104.146 Y15.96 E1.18804
G1 X105.398 Y16.08 E1.22987
G1 X106.641 Y16.279 E1.27174
G1 X107.868 Y16.557 E1.31359
G1 X109.076 Y16.912 E1.35546
G1 X110.258 Y17.343 E1.39731
G1 X111.41 Y17.848 E1.43914
G1 X112.529 Y18.426 E1.48103
G1 X113.608 Y19.073 E1.52288
G1 X114.644 Y19.787 E1.56473
G1 X115.632 Y20.566 E1.60657
G1 X116.704 Y21.537 E1.65468
G1 X116.82 Y21.65 E1.66007
G1 X117.693 Y22.556 E1.70191
G1 X118.001 Y22.919 E1.71775
G1 X118.118 Y22.777 E1.72387
G1 X119.061 Y21.775 E1.76963
G1 X119.176 Y21.661 E1.77502
G1 X120.097 Y20.804 E1.81686
G1 X121.071 Y20.007 E1.85872
G1 X122.094 Y19.274 E1.90058
G1 X123.161 Y18.607 E1.94243
G1 X124.268 Y18.009 E1.98428
G1 X125.411 Y17.483 E2.02613
G1 X126.585 Y17.031 E2.06797
G1 X127.786 Y16.654 E2.10983
G1 X129.008 Y16.354 E2.15169
G1 X130.247 Y16.132 E2.19355
G1 X131.497 Y15.989 E2.2354
G1 X133.109 Y15.923 E2.28906
G1 X143.86 Y15.92 E2.64664
G1 X145.118 Y15.96 E2.6885
G1 X146.371 Y16.079 E2.73036
G1 X147.614 Y16.278 E2.77223
G1 X148.841 Y16.555 E2.81407
G1 X150.048 Y16.91 E2.85591
G1 X151.231 Y17.341 E2.89779
G1 X152.384 Y17.846 E2.93966
G1 X153.502 Y18.423 E2.9815
G1 X154.581 Y19.07 E3.02335
G1 X155.617 Y19.784 E3.06519
G1 X156.606 Y20.563 E3.10707
G1 X157.867 Y21.719 E3.16397
G1 X157.984 Y21.836 E3.16947
G1 X158.845 Y22.754 E3.21133
G1 X159.646 Y23.724 E3.25317
G1 X160.384 Y24.744 E3.29504
G1 X161.055 Y25.808 E3.33688
G1 X161.658 Y26.913 E3.37875
G1 X162.189 Y28.054 E3.42061
G1 X162.647 Y29.226 E3.46246
G1 X163.029 Y30.425 E3.50431
G1 X163.334 Y31.646 E3.54617
G1 X163.561 Y32.883 E3.588
G1 X163.71 Y34.133 E3.62987
G1 X163.783 Y35.837 E3.6866
G1 X163.783 Y38.603 E3.7786
G1 X163.743 Y39.861 E3.82046
G1 X163.623 Y41.113 E3.86229
G1 X163.424 Y42.356 E3.90416
G1 X163.146 Y43.583 E3.94601
G1 X162.791 Y44.791 E3.98788
G1 X162.36 Y45.973 E4.02973
G1 X161.855 Y47.125 E4.07156
G1 X161.277 Y48.244 E4.11345
G1 X160.63 Y49.323 E4.1553
G1 X159.916 Y50.359 E4.19715
G1 X159.137 Y51.347 E4.23899
G1 X157.984 Y52.604 E4.29573
G1 X157.867 Y52.721 E4.30123
G1 X156.949 Y53.582 E4.34309
G1 X155.979 Y54.383 E4.38493
G1 X154.959 Y55.121 E4.4268
G1 X153.895 Y55.792 E4.46864
G1 X152.79 Y56.395 E4.51051
G1 X151.649 Y56.926 E4.55237
G1 X150.477 Y57.384 E4.59422
G1 X149.278 Y57.766 E4.63607
G1 X148.573 Y57.942 E4.66024
G1 X148.028 Y58.64 E4.6897
G1 X146.339 Y60.698 E4.77825
G1 X145.511 Y61.645 E4.82009
G1 X144.317 Y62.821 E4.87583
G1 X143.279 Y63.76 E4.92238
G1 X143.253 Y67.596 E5.04997
G1 X143.204 Y68.854 E5.09184
G1 X143.076 Y70.106 E5.1337
G1 X142.843 Y71.467 E5.17963
G1 X142.693 Y72.193 E5.20428
G1 X142.4 Y73.417 E5.24614
G1 X141.979 Y74.764 E5.29308
G1 X141.73 Y75.471 E5.31801
G1 X141.274 Y76.644 E5.35987
G1 X140.657 Y77.959 E5.40818
G1 X140.313 Y78.627 E5.43317
G1 X139.702 Y79.727 E5.47503
G1 X138.913 Y80.943 E5.52324
G1 X138.474 Y81.568 E5.54864
G1 X137.718 Y82.574 E5.5905
G1 X136.773 Y83.668 E5.63858
G1 X136.271 Y84.208 E5.6631
G1 X135.385 Y85.102 E5.70496
G1 X134.298 Y86.058 E5.75311
G1 X133.718 Y86.532 E5.77802
G1 X132.719 Y87.297 E5.81987
G1 X131.546 Y88.076 E5.86671
G1 X130.904 Y88.47 E5.89176
G1 X129.811 Y89.094 E5.93362
G1 X128.45 Y89.749 E5.98386
G1 X127.754 Y90.052 E6.00911
G1 X126.585 Y90.518 E6.05096
G1 X125.252 Y90.947 E6.09754
G1 X124.536 Y91.15 E6.12229
G1 X123.315 Y91.455 E6.16415
G1 X121.858 Y91.713 E6.21336
G1 X121.109 Y91.817 E6.23851
G1 X119.858 Y91.95 E6.28036
G1 X118.439 Y92.005 E6.32759
G1 X117.69 Y92.007 E6.3525
G1 X116.432 Y91.97 E6.39436
G1 X114.994 Y91.83 E6.44241
G1 X114.244 Y91.729 E6.46758
G1 X113.003 Y91.521 E6.50944
G1 X111.541 Y91.171 E6.55944
G1 X110.817 Y90.968 E6.58445
G1 X109.617 Y90.59 E6.62629
G1 X108.443 Y90.136 E6.66816
G1 X107.085 Y89.499 E6.71805
G1 X105.763 Y88.817 E6.76752
G1 X104.664 Y88.205 E6.80936
G1 X103.605 Y87.524 E6.85124
G1 X102.392 Y86.618 E6.90159
G1 X101.807 Y86.145 E6.92661
G1 X100.854 Y85.323 E6.96847
G1 X99.815 Y84.294 E7.01711
G1 X99.3 Y83.745 E7.04215
G1 X98.469 Y82.801 E7.08398
G1 X97.699 Y81.805 E7.12585
G1 X96.832 Y80.501 E7.17793
G1 X96.054 Y79.224 E7.22767
G1 X95.434 Y78.129 E7.26952
G1 X94.884 Y76.997 E7.31138
G1 X94.302 Y75.542 E7.3635
G1 X94.048 Y74.826 E7.38877
G1 X93.666 Y73.627 E7.43062
G1 X93.335 Y72.292 E7.47637
G1 X93.18 Y71.557 E7.50135
G1 X92.96 Y70.318 E7.54321
G1 X92.818 Y69.067 E7.58508
G1 X92.755 Y67.613 E7.63349
G1 X92.728 Y63.793 E7.76054
G1 X92.615 Y63.691 E7.76561
G1 X90.707 Y61.833 E7.85419
G1 X89.834 Y60.927 E7.89603
G1 X88.756 Y59.627 E7.9522
G1 X87.488 Y57.958 E8.02192
G1 X87.158 Y57.883 E8.03317
G1 X85.95 Y57.528 E8.07505
G1 X84.768 Y57.097 E8.1169
G1 X83.616 Y56.592 E8.15873
G1 X82.497 Y56.014 E8.20062
G1 X81.418 Y55.367 E8.24247
G1 X80.382 Y54.653 E8.28431
G1 X79.394 Y53.874 E8.32616
G1 X78.137 Y52.721 E8.38289
G1 X78.02 Y52.604 E8.3884
G1 X77.159 Y51.686 E8.43026
G1 X76.358 Y50.716 E8.4721
G1 X75.62 Y49.696 E8.51397
G1 X74.949 Y48.632 E8.55581
G1 X74.346 Y47.527 E8.59768
G1 X73.815 Y46.386 E8.63954
G1 X73.357 Y45.214 E8.68139
G1 X72.975 Y44.015 E8.72324
G1 X72.67 Y42.794 E8.7651
G1 X72.443 Y41.557 E8.80693
G1 X72.294 Y40.307 E8.8488
G1 X72.221 Y38.603 E8.90553
G1 X72.221 Y35.837 E8.99752
G1 X72.261 Y34.579 E9.03939
G1 X72.381 Y33.327 E9.08122
G1 X72.58 Y32.084 E9.12309
G1 X72.858 Y30.857 E9.16493
G1 X73.213 Y29.649 E9.20681
G1 X73.37 Y29.218 E9.22207
G0 F810 X73.644 Y28.467
M204 S5000
M205 X30 Y30
G0 F7200 X74.043 Y28.546
M204 S500
M205 X20 Y20
G1 F6000 E9.24867
G1 F900 X74.548 Y27.407 E9.29011
G1 X75.125 Y26.303 E9.33155
G1 X75.772 Y25.238 E9.37299
G1 X76.486 Y24.217 E9.41443
G1 X77.263 Y23.244 E9.45585
G1 X78.303 Y22.119 E9.5068
G1 X78.42 Y22.002 E9.51231
G1 X79.329 Y21.15 E9.55374
G1 X80.29 Y20.358 E9.59516
G1 X81.3 Y19.629 E9.63659
G1 X82.355 Y18.967 E9.67802
G1 X83.451 Y18.374 E9.71946
G1 X84.582 Y17.852 E9.76089
G1 X85.744 Y17.404 E9.80232
G1 X86.933 Y17.031 E9.84376
G1 X88.143 Y16.736 E9.88519
G1 X89.369 Y16.519 E9.9266
G1 X90.607 Y16.38 E9.96803
G1 X92.138 Y16.32 E10.01899
G1 X102.888 Y16.32 E10.37654
G1 X104.133 Y16.36 E10.41797
G1 X105.373 Y16.48 E10.4594
G1 X106.602 Y16.679 E10.50081
G1 X107.817 Y16.957 E10.54227
G1 X109.011 Y17.312 E10.5837
G1 X110.179 Y17.742 E10.6251
G1 X111.318 Y18.247 E10.66654
G1 X112.422 Y18.824 E10.70797
G1 X113.487 Y19.471 E10.74941
G1 X114.508 Y20.185 E10.79085
G1 X115.481 Y20.962 E10.83227
G1 X116.425 Y21.824 E10.87478
G1 X116.541 Y21.937 E10.88017
G1 X117.405 Y22.834 E10.92159
G1 X118.005 Y23.543 E10.95249
G1 X118.502 Y22.946 E10.97832
G1 X119.342 Y22.059 E11.01895
G1 X119.457 Y21.945 E11.02434
G1 X120.369 Y21.097 E11.06576
G1 X121.334 Y20.309 E11.1072
G1 X122.348 Y19.585 E11.14864
G1 X123.406 Y18.928 E11.19006
G1 X124.504 Y18.339 E11.2315
G1 X125.637 Y17.822 E11.27292
G1 X126.801 Y17.379 E11.31435
G1 X127.991 Y17.012 E11.35577
G1 X129.203 Y16.722 E11.39722
G1 X130.43 Y16.51 E11.43863
G1 X131.669 Y16.377 E11.48008
G1 X133.11 Y16.323 E11.52804
G1 X143.861 Y16.32 E11.88562
G1 X145.106 Y16.36 E11.92705
G1 X146.345 Y16.479 E11.96845
G1 X147.575 Y16.678 E12.00989
G1 X148.79 Y16.955 E12.05134
G1 X149.984 Y17.31 E12.09277
G1 X151.152 Y17.74 E12.13416
G1 X152.291 Y18.245 E12.1756
G1 X153.395 Y18.822 E12.21704
G1 X154.46 Y19.468 E12.25847
G1 X155.481 Y20.181 E12.29988
G1 X156.455 Y20.959 E12.34135
G1 X157.584 Y22.002 E12.39247
G1 X157.701 Y22.119 E12.39797
G1 X158.553 Y23.028 E12.43941
G1 X159.345 Y23.989 E12.48083
G1 X160.074 Y24.999 E12.52226
G1 X160.736 Y26.054 E12.56368
G1 X161.329 Y27.15 E12.60513
G1 X161.851 Y28.281 E12.64656
G1 X162.299 Y29.443 E12.68798
G1 X162.672 Y30.632 E12.72943
G1 X162.967 Y31.842 E12.77085
G1 X163.184 Y33.068 E12.81226
G1 X163.323 Y34.306 E12.8537
G1 X163.383 Y35.837 E12.90466
G1 X163.383 Y38.603 E12.99665
G1 X163.343 Y39.848 E13.03809
G1 X163.223 Y41.088 E13.07952
G1 X163.024 Y42.317 E13.12093
G1 X162.746 Y43.532 E13.16238
G1 X162.391 Y44.726 E13.20382
G1 X161.961 Y45.894 E13.24521
G1 X161.456 Y47.033 E13.28665
G1 X160.879 Y48.137 E13.32808
G1 X160.232 Y49.202 E13.36953
G1 X159.518 Y50.223 E13.41097
G1 X158.741 Y51.196 E13.45238
G1 X157.701 Y52.321 E13.50334
G1 X157.584 Y52.438 E13.50884
G1 X156.675 Y53.29 E13.55028
G1 X155.714 Y54.082 E13.5917
G1 X154.704 Y54.811 E13.63313
G1 X153.649 Y55.473 E13.67455
G1 X152.553 Y56.066 E13.716
G1 X151.422 Y56.588 E13.75743
G1 X150.26 Y57.036 E13.79885
G1 X149.071 Y57.409 E13.8403
G1 X148.338 Y57.588 E13.8654
G1 X148.293 Y57.652 E13.868
G1 X147.719 Y58.386 E13.89899
G1 X146.03 Y60.444 E13.98754
G1 X145.21 Y61.381 E14.02895
G1 X144.048 Y62.524 E14.08316
G1 X142.88 Y63.58 E14.13554
G1 X142.853 Y67.594 E14.26905
G1 X142.804 Y68.838 E14.31045
G1 X142.676 Y70.077 E14.35188
G1 X142.452 Y71.386 E14.39605
G1 X142.302 Y72.112 E14.42071
G1 X142.011 Y73.324 E14.46217
G1 X141.601 Y74.632 E14.50776
G1 X141.352 Y75.339 E14.53269
G1 X140.901 Y76.5 E14.57411
G1 X140.301 Y77.776 E14.62101
G1 X139.957 Y78.444 E14.646
G1 X139.352 Y79.532 E14.68741
G1 X138.585 Y80.713 E14.73425
G1 X138.146 Y81.338 E14.75965
G1 X137.398 Y82.334 E14.80108
G1 X136.48 Y83.396 E14.84777
G1 X135.978 Y83.936 E14.87229
G1 X135.101 Y84.82 E14.91371
G1 X134.045 Y85.749 E14.96049
G1 X133.465 Y86.223 E14.9854
G1 X132.476 Y86.98 E15.02682
G1 X131.336 Y87.736 E15.07232
G1 X130.694 Y88.13 E15.09737
G1 X129.612 Y88.747 E15.1388
G1 X128.291 Y89.383 E15.18756
G1 X127.595 Y89.686 E15.21281
G1 X126.437 Y90.146 E15.25425
G1 X125.143 Y90.562 E15.29946
G1 X124.427 Y90.765 E15.32422
G1 X123.218 Y91.066 E15.36565
G1 X121.803 Y91.317 E15.41345
G1 X121.054 Y91.421 E15.4386
G1 X119.815 Y91.552 E15.48004
G1 X118.438 Y91.605 E15.52588
G1 X117.689 Y91.607 E15.55079
G1 X116.444 Y91.57 E15.59221
G1 X115.048 Y91.433 E15.63887
G1 X114.298 Y91.332 E15.66404
G1 X113.069 Y91.127 E15.70548
G1 X111.649 Y90.786 E15.75405
G1 X110.925 Y90.583 E15.77906
G1 X109.738 Y90.208 E15.82046
G1 X108.576 Y89.758 E15.86191
G1 X107.269 Y89.144 E15.90994
G1 X105.947 Y88.462 E15.95941
G1 X104.859 Y87.856 E16.00084
G1 X103.812 Y87.181 E16.04227
G1 X102.643 Y86.307 E16.09082
G1 X102.058 Y85.834 E16.11584
G1 X101.115 Y85.02 E16.15727
G1 X100.107 Y84.021 E16.20447
G1 X99.592 Y83.472 E16.22951
G1 X98.769 Y82.536 E16.27096
G1 X98.009 Y81.55 E16.31237
G1 X97.174 Y80.293 E16.36256
G1 X96.396 Y79.016 E16.4123
G1 X95.782 Y77.932 E16.45373
G1 X95.239 Y76.81 E16.49519
G1 X94.679 Y75.408 E16.5454
G1 X94.425 Y74.692 E16.57067
G1 X94.047 Y73.505 E16.6121
G1 X93.727 Y72.209 E16.6565
G1 X93.572 Y71.474 E16.68149
G1 X93.354 Y70.248 E16.7229
G1 X93.215 Y69.01 E16.76434
G1 X93.154 Y67.61 E16.81095
G1 X93.125 Y63.615 E16.94383
G1 X92.894 Y63.405 E16.95421
G1 X90.986 Y61.547 E17.04279
G1 X90.122 Y60.65 E17.08421
G1 X89.074 Y59.385 E17.13885
G1 X87.717 Y57.599 E17.21345
G1 X87.209 Y57.483 E17.23078
G1 X86.015 Y57.128 E17.27221
G1 X84.847 Y56.698 E17.31361
G1 X83.708 Y56.193 E17.35505
G1 X82.604 Y55.616 E17.39648
G1 X81.539 Y54.969 E17.43793
G1 X80.518 Y54.255 E17.47937
G1 X79.545 Y53.478 E17.52078
G1 X78.42 Y52.438 E17.57174
G1 X78.303 Y52.321 E17.57724
G1 X77.451 Y51.412 E17.61868
G1 X76.659 Y50.451 E17.6601
G1 X75.93 Y49.441 E17.70153
G1 X75.268 Y48.386 E17.74295
G1 X74.675 Y47.29 E17.7844
G1 X74.153 Y46.159 E17.82583
G1 X73.705 Y44.997 E17.86725
G1 X73.332 Y43.808 E17.9087
G1 X73.037 Y42.598 E17.95012
G1 X72.82 Y41.372 E17.99153
G1 X72.681 Y40.134 E18.03297
G1 X72.621 Y38.603 E18.08393
G1 X72.621 Y35.837 E18.17592
G1 X72.661 Y34.592 E18.21735
G1 X72.781 Y33.352 E18.25879
G1 X72.98 Y32.123 E18.3002
G1 X73.258 Y30.908 E18.34165
G1 X73.613 Y29.714 E18.38309
G1 X73.767 Y29.297 E18.39787
G0 F810 X74.043 Y28.546
M204 S5000
M205 X30 Y30
G0 F7200 X74.443 Y28.625
M204 S500
M205 X20 Y20
G1 F6000 E18.42448
G1 F900 X74.948 Y27.5 E18.46549
G1 X75.524 Y26.411 E18.50647
G1 X76.17 Y25.361 E18.54747
G1 X76.883 Y24.355 E18.58848
G1 X77.659 Y23.397 E18.62949
G1 X78.586 Y22.402 E18.67472
G1 X78.703 Y22.285 E18.68022
G1 X79.602 Y21.442 E18.72121
G1 X80.555 Y20.659 E18.76224
G1 X81.556 Y19.94 E18.80323
G1 X82.601 Y19.287 E18.84421
G1 X83.687 Y18.703 E18.88522
G1 X84.808 Y18.191 E18.92621
G1 X85.96 Y17.752 E18.96722
G1 X87.138 Y17.39 E19.00821
G1 X88.338 Y17.104 E19.04924
G1 X89.553 Y16.897 E19.09023
G1 X90.779 Y16.769 E19.13123
G1 X92.138 Y16.72 E19.17646
G1 X102.888 Y16.72 E19.534
G1 X104.12 Y16.76 E19.575
G1 X105.347 Y16.88 E19.61601
G1 X106.563 Y17.079 E19.65699
G1 X107.765 Y17.356 E19.69802
G1 X108.945 Y17.711 E19.739
G1 X110.1 Y18.142 E19.78
G1 X111.225 Y18.647 E19.82102
G1 X112.314 Y19.223 E19.86199
G1 X113.364 Y19.869 E19.903
G1 X114.37 Y20.582 E19.94401
G1 X115.328 Y21.358 E19.98501
G1 X116.146 Y22.11 E20.02197
G1 X116.262 Y22.223 E20.02735
G1 X117.117 Y23.111 E20.06836
G1 X117.912 Y24.053 E20.10935
G1 X118.004 Y24.177 E20.11449
G1 X118.091 Y24.059 E20.11936
G1 X118.886 Y23.117 E20.16036
G1 X119.624 Y22.343 E20.19593
G1 X119.739 Y22.229 E20.20132
G1 X120.642 Y21.39 E20.24231
G1 X121.598 Y20.612 E20.28331
G1 X122.602 Y19.897 E20.32431
G1 X123.65 Y19.248 E20.3653
G1 X124.738 Y18.669 E20.4063
G1 X125.862 Y18.162 E20.44731
G1 X127.016 Y17.729 E20.4883
G1 X128.196 Y17.371 E20.52932
G1 X129.396 Y17.091 E20.5703
G1 X130.612 Y16.889 E20.6113
G1 X131.839 Y16.766 E20.65231
G1 X133.11 Y16.723 E20.69461
G1 X143.861 Y16.72 E21.05219
G1 X145.093 Y16.76 E21.09319
G1 X146.32 Y16.879 E21.13419
G1 X147.536 Y17.078 E21.17517
G1 X148.737 Y17.355 E21.21617
G1 X149.918 Y17.71 E21.25718
G1 X151.073 Y18.14 E21.29818
G1 X152.198 Y18.644 E21.33918
G1 X153.288 Y19.221 E21.3802
G1 X154.338 Y19.866 E21.42118
G1 X155.344 Y20.579 E21.46219
G1 X156.302 Y21.355 E21.5032
G1 X157.301 Y22.285 E21.5486
G1 X157.418 Y22.402 E21.5541
G1 X158.261 Y23.301 E21.59509
G1 X159.044 Y24.254 E21.63611
G1 X159.763 Y25.255 E21.6771
G1 X160.416 Y26.3 E21.71809
G1 X161 Y27.386 E21.7591
G1 X161.512 Y28.507 E21.80009
G1 X161.951 Y29.659 E21.84109
G1 X162.313 Y30.837 E21.88208
G1 X162.599 Y32.037 E21.92311
G1 X162.806 Y33.252 E21.96411
G1 X162.934 Y34.478 E22.0051
G1 X162.983 Y35.837 E22.05033
G1 X162.983 Y38.603 E22.14233
G1 X162.943 Y39.835 E22.18333
G1 X162.823 Y41.062 E22.22433
G1 X162.624 Y42.278 E22.26532
G1 X162.347 Y43.48 E22.30634
G1 X161.992 Y44.66 E22.34733
G1 X161.561 Y45.815 E22.38833
G1 X161.056 Y46.94 E22.42935
G1 X160.48 Y48.029 E22.47032
G1 X159.834 Y49.079 E22.51132
G1 X159.121 Y50.085 E22.55234
G1 X158.345 Y51.043 E22.59334
G1 X157.418 Y52.038 E22.63857
G1 X157.301 Y52.155 E22.64407
G1 X156.402 Y52.998 E22.68506
G1 X155.449 Y53.781 E22.72609
G1 X154.448 Y54.5 E22.76708
G1 X153.403 Y55.153 E22.80806
G1 X152.317 Y55.737 E22.84908
G1 X151.196 Y56.249 E22.89007
G1 X150.044 Y56.688 E22.93107
G1 X148.866 Y57.05 E22.97206
G1 X148.097 Y57.233 E22.99835
G1 X147.964 Y57.424 E23.00609
G1 X147.41 Y58.133 E23.03602
G1 X145.721 Y60.191 E23.12457
G1 X144.909 Y61.118 E23.16555
G1 X143.78 Y62.227 E23.21819
G1 X142.482 Y63.401 E23.2764
