;FLAVOR:Marlin
;TIME:2397
;Filament used: 1.29531m
;Layer height: 0.16
;Generated with Cura_SteamEngine 3.6.0
M140 S70
M105
M190 S70
M104 S215
M105
M109 S215
M82 ;absolute extrusion mode
G28 ; home all axes
M117 Purge extruder
G92 E0 ; reset extruder
G1 Z1.0 F3000 ; move z up little to prevent scratching of surface
G1 X0.1 Y20 Z0.3 F5000.0 ; move to start-line position G1 X0.1 Y200.0 Z0.3 F1500.0 E15 ; draw 1st line
G1 X0.4 Y200.0 Z0.3 F5000.0 ; move to side a little
G1 X0.4 Y20 Z0.3 F1500.0 E30 ; draw 2nd line
G92 E0 ; reset extruder
G1 Z1.0 F3000 ; move z up little to prevent scratching of surface
M117 All systems go!
G92 E0
G1 F6000 E-5
;LAYER_COUNT:135
;LAYER:0
M107
M204 S5000
M205 X30 Y30
G0 F7200 X106.928 Y91.284 Z0.2
M204 S500
M205 X20 Y20
;TYPE:SKIRT
G1 F6000 E0
G1 F900 X107.392 Y90.849 E0.02327
G1 X107.907 Y90.476 E0.04653
G1 X108.465 Y90.17 E0.06982
G1 X109.056 Y89.936 E0.09307
G1 X109.672 Y89.779 E0.11633
G1 X110.619 Y89.69 E0.15113
G1 X123.152 Y89.699 E0.60966
G1 X123.786 Y89.739 E0.63291
G1 X124.587 Y89.908 E0.66286
G1 X125.322 Y90.126 E0.69091
G1 X125.919 Y90.345 E0.71417
G1 X126.484 Y90.637 E0.73744
G1 X127.029 Y91.014 E0.76168
G1 X127.625 Y91.487 E0.78952
G1 X128.097 Y91.912 E0.81276
G1 X128.615 Y92.535 E0.8424
G1 X130.259 Y94.868 E0.94682
G1 X130.592 Y95.41 E0.97009
G1 X130.854 Y95.989 E0.99335
G1 X131.042 Y96.597 E1.01663
G1 X131.152 Y97.223 E1.03988
G1 X131.183 Y97.789 E1.06062
G1 X131.138 Y137.99 E2.53142
G1 X131.097 Y138.624 E2.55467
G1 X130.977 Y139.249 E2.57795
G1 X130.78 Y139.853 E2.60119
G1 X130.508 Y140.428 E2.62447
G1 X130.075 Y141.086 E2.65329
G1 X129.874 Y141.345 E2.66528
G1 X129.454 Y141.822 E2.68853
G1 X128.977 Y142.243 E2.71181
G1 X128.45 Y142.6 E2.7351
G1 X127.688 Y142.968 E2.76606
G1 X127.354 Y143.096 E2.77914
G1 X126.747 Y143.286 E2.80241
G1 X126.121 Y143.398 E2.82568
G1 X125.538 Y143.431 E2.84704
G1 X111.352 Y143.418 E3.36606
G1 X110.718 Y143.377 E3.3893
G1 X109.999 Y143.232 E3.41613
G1 X109.64 Y143.132 E3.42977
G1 X109.04 Y142.924 E3.453
G1 X108.47 Y142.641 E3.47629
G1 X107.95 Y142.297 E3.4991
G1 X107.685 Y142.097 E3.51124
G1 X107.202 Y141.683 E3.53452
G1 X106.776 Y141.211 E3.55778
G1 X106.411 Y140.69 E3.58105
G1 X106.065 Y140.011 E3.60893
G1 X105.947 Y139.729 E3.62012
G1 X105.739 Y139.128 E3.64339
G1 X105.608 Y138.506 E3.66664
G1 X105.555 Y137.776 E3.69342
G1 X105.555 Y94.75 E5.26758
G1 X105.595 Y94.115 E5.29085
G1 X105.714 Y93.491 E5.3141
G1 X105.911 Y92.886 E5.33737
G1 X106.182 Y92.311 E5.36063
G1 X106.474 Y91.851 E5.38056
G0 F810 X106.523 Y91.774
G0 X106.928 Y91.284
M204 S5000
M205 X30 Y30
G0 F7200 X107.362 Y91.469
M204 S500
M205 X20 Y20
G1 F6000 E5.40716
G1 F900 X107.821 Y91.071 E5.42939
G1 X108.328 Y90.736 E5.45162
G1 X108.874 Y90.47 E5.47384
G1 X109.451 Y90.279 E5.49608
G1 X110.048 Y90.165 E5.51832
G1 X110.618 Y90.13 E5.53921
G1 X123.151 Y90.139 E5.99774
G1 X123.758 Y90.179 E6.02
G1 X124.462 Y90.33 E6.04634
G1 X125.197 Y90.548 E6.07439
G1 X125.767 Y90.758 E6.09662
G1 X126.304 Y91.042 E6.11884
G1 X126.755 Y91.358 E6.13899
G1 X127.351 Y91.831 E6.16683
G1 X127.801 Y92.239 E6.18905
G1 X128.256 Y92.789 E6.21516
G1 X129.9 Y95.122 E6.31958
G1 X130.216 Y95.64 E6.34178
G1 X130.462 Y96.196 E6.36403
G1 X130.633 Y96.779 E6.38626
G1 X130.725 Y97.38 E6.4085
G1 X130.743 Y97.788 E6.42344
G1 X130.698 Y137.989 E7.89424
G1 X130.657 Y138.595 E7.91646
G1 X130.538 Y139.191 E7.9387
G1 X130.341 Y139.766 E7.96094
G1 X130.07 Y140.31 E7.98317
G1 X129.728 Y140.817 E8.00555
G1 X129.527 Y141.076 E8.01754
G1 X129.124 Y141.53 E8.03975
G1 X128.664 Y141.928 E8.06201
G1 X128.156 Y142.262 E8.08425
G1 X127.53 Y142.557 E8.10957
G1 X127.196 Y142.685 E8.12265
G1 X126.616 Y142.865 E8.14487
G1 X126.017 Y142.967 E8.1671
G1 X125.539 Y142.991 E8.18461
G1 X111.353 Y142.978 E8.70363
G1 X110.747 Y142.937 E8.72585
G1 X110.117 Y142.809 E8.74937
G1 X109.758 Y142.709 E8.763
G1 X109.185 Y142.507 E8.78523
G1 X108.643 Y142.233 E8.80745
G1 X108.215 Y141.946 E8.8263
G1 X107.95 Y141.746 E8.83845
G1 X107.49 Y141.348 E8.8607
G1 X107.086 Y140.894 E8.88294
G1 X106.746 Y140.391 E8.90515
G1 X106.471 Y139.841 E8.92765
G1 X106.353 Y139.559 E8.93883
G1 X106.156 Y138.985 E8.96104
G1 X106.036 Y138.389 E8.98328
G1 X105.995 Y137.776 E9.00576
G1 X105.995 Y94.75 E10.57991
G1 X106.035 Y94.144 E10.60213
G1 X106.154 Y93.548 E10.62437
G1 X106.35 Y92.973 E10.64659
G1 X106.621 Y92.429 E10.66883
G1 X106.894 Y92.023 E10.68673
G0 F810 X106.96 Y91.924
G0 X107.362 Y91.469
M204 S5000
M205 X30 Y30
G0 F7200 X107.396 Y92.083
M204 S500
M205 X20 Y20
G1 F6000 E10.71333
G1 F900 X107.795 Y91.665 E10.73447
G1 X108.247 Y91.305 E10.75561
G1 X108.745 Y91.012 E10.77675
G1 X109.278 Y90.789 E10.79789
G1 X109.838 Y90.643 E10.81906
G1 X110.618 Y90.57 E10.84772
G1 X123.151 Y90.579 E11.30626
G1 X123.728 Y90.619 E11.32742
G1 X124.337 Y90.752 E11.35022
G1 X125.072 Y90.97 E11.37827
G1 X125.613 Y91.172 E11.3994
G1 X126.121 Y91.447 E11.42053
G1 X126.481 Y91.703 E11.4367
G1 X127.077 Y92.176 E11.46453
G1 X127.504 Y92.566 E11.48569
G1 X127.896 Y93.042 E11.50825
G1 X129.54 Y95.375 E11.61267
G1 X129.839 Y95.87 E11.63383
G1 X130.068 Y96.4 E11.65495
G1 X130.221 Y96.958 E11.67612
G1 X130.303 Y97.788 E11.70663
G1 X130.258 Y137.989 E13.17744
G1 X130.217 Y138.565 E13.19856
G1 X130.098 Y139.131 E13.21972
G1 X129.901 Y139.674 E13.24086
G1 X129.631 Y140.185 E13.262
G1 X129.38 Y140.547 E13.27812
G1 X129.179 Y140.806 E13.29011
G1 X128.794 Y141.237 E13.31126
G1 X128.353 Y141.61 E13.33239
G1 X127.865 Y141.92 E13.35354
G1 X127.373 Y142.146 E13.37335
G1 X127.039 Y142.274 E13.38643
G1 X126.486 Y142.443 E13.40759
G1 X125.915 Y142.534 E13.42874
G1 X125.539 Y142.551 E13.44251
G1 X111.353 Y142.538 E13.96153
G1 X110.777 Y142.498 E13.98265
G1 X110.235 Y142.385 E14.00291
G1 X109.876 Y142.285 E14.01654
G1 X109.332 Y142.092 E14.03766
G1 X108.819 Y141.825 E14.05882
G1 X108.48 Y141.594 E14.07383
G1 X108.215 Y141.394 E14.08597
G1 X107.779 Y141.015 E14.10711
G1 X107.399 Y140.579 E14.12827
G1 X107.083 Y140.096 E14.14939
G1 X106.877 Y139.672 E14.16663
G1 X106.759 Y139.39 E14.17782
G1 X106.573 Y138.842 E14.19899
G1 X106.465 Y138.275 E14.22011
G1 X106.435 Y137.776 E14.2384
G1 X106.435 Y94.75 E15.81255
G1 X106.475 Y94.173 E15.83371
G1 X106.594 Y93.608 E15.85484
G1 X106.79 Y93.064 E15.87599
G1 X106.99 Y92.684 E15.8917
G0 F810 X107.059 Y92.553
G0 X107.396 Y92.083
M204 S5000
M205 X30 Y30
G0 F7200 X107.832 Y92.252
M204 S500
M205 X20 Y20
G1 F6000 E15.9183
G1 F900 X108.225 Y91.873 E15.93828
G1 X108.67 Y91.555 E15.95829
G1 X109.157 Y91.306 E15.9783
G1 X109.674 Y91.13 E15.99828
G1 X110.212 Y91.032 E16.01829
G1 X110.618 Y91.01 E16.03316
G1 X123.151 Y91.019 E16.4917
G1 X123.696 Y91.059 E16.51169
G1 X124.211 Y91.173 E16.53099
G1 X124.946 Y91.391 E16.55904
G1 X125.458 Y91.585 E16.57907
G1 X125.935 Y91.85 E16.59903
G1 X126.208 Y92.047 E16.61135
G1 X126.804 Y92.52 E16.63919
G1 X127.206 Y92.891 E16.6592
G1 X127.536 Y93.296 E16.67831
G1 X129.18 Y95.629 E16.78273
G1 X129.462 Y96.097 E16.80272
G1 X129.672 Y96.602 E16.82273
G1 X129.806 Y97.132 E16.84273
G1 X129.863 Y97.787 E16.86679
G1 X129.818 Y137.988 E18.33759
G1 X129.777 Y138.533 E18.35758
G1 X129.658 Y139.067 E18.3776
G1 X129.462 Y139.577 E18.39759
G1 X129.193 Y140.053 E18.41759
G1 X129.033 Y140.277 E18.42767
G1 X128.832 Y140.536 E18.43966
G1 X128.466 Y140.942 E18.45966
G1 X128.045 Y141.291 E18.47967
G1 X127.577 Y141.574 E18.49968
G1 X127.215 Y141.735 E18.51417
G1 X126.881 Y141.863 E18.52726
G1 X126.358 Y142.021 E18.54725
G1 X125.817 Y142.101 E18.56725
G1 X125.54 Y142.111 E18.57739
G1 X111.354 Y142.098 E19.09641
G1 X110.808 Y142.058 E19.11644
G1 X110.353 Y141.961 E19.13346
G1 X109.994 Y141.861 E19.14709
G1 X109.48 Y141.676 E19.16708
G1 X108.998 Y141.418 E19.18708
G1 X108.745 Y141.243 E19.19833
G1 X108.48 Y141.043 E19.21048
G1 X108.069 Y140.683 E19.23047
G1 X107.715 Y140.267 E19.25045
G1 X107.425 Y139.803 E19.27047
G1 X107.283 Y139.502 E19.28265
G1 X107.165 Y139.22 E19.29383
G1 X106.991 Y138.701 E19.31386
G1 X106.895 Y138.163 E19.33385
G1 X106.875 Y137.776 E19.34803
G1 X106.875 Y94.75 E20.92219
G1 X106.915 Y94.205 E20.94218
G1 X107.034 Y93.671 E20.9622
G1 X107.229 Y93.161 E20.98217
G1 X107.409 Y92.841 E20.99561
G0 F810 X107.497 Y92.684
G0 X107.832 Y92.252
M204 S5000
M205 X30 Y30
G0 F7200 X108.266 Y92.432
M204 S500
M205 X20 Y20
G1 F6000 E21.0222
G1 F900 X108.654 Y92.096 E21.04098
G1 X109.089 Y91.824 E21.05975
G1 X109.562 Y91.623 E21.07856
G1 X110.059 Y91.497 E21.09731
G1 X110.617 Y91.45 E21.1178
G1 X123.15 Y91.459 E21.57634
G1 X123.662 Y91.499 E21.59513
G1 X124.086 Y91.595 E21.61103
G1 X124.821 Y91.813 E21.63908
G1 X125.301 Y91.997 E21.65789
G1 X125.934 Y92.392 E21.68519
G1 X126.53 Y92.865 E21.71302
G1 X126.907 Y93.215 E21.73184
G1 X127.177 Y93.549 E21.74756
G1 X128.821 Y95.882 E21.85198
G1 X129.083 Y96.324 E21.87077
G1 X129.273 Y96.8 E21.88953
G1 X129.388 Y97.301 E21.90833
G1 X129.423 Y97.787 E21.92616
G1 X129.378 Y137.988 E23.39696
G1 X129.337 Y138.5 E23.41575
G1 X129.218 Y138.999 E23.43452
G1 X129.023 Y139.474 E23.45331
G1 X128.685 Y140.007 E23.4764
G1 X128.484 Y140.266 E23.48839
G1 X128.139 Y140.646 E23.50717
G1 X127.739 Y140.968 E23.52596
G1 X127.058 Y141.324 E23.55407
G1 X126.724 Y141.452 E23.56716
G1 X126.232 Y141.598 E23.58593
G1 X125.54 Y141.671 E23.61139
G1 X111.354 Y141.658 E24.1304
G1 X110.842 Y141.618 E24.14919
G1 X110.471 Y141.537 E24.16308
G1 X110.112 Y141.437 E24.17672
G1 X109.63 Y141.261 E24.19549
G1 X109.01 Y140.892 E24.22189
G1 X108.745 Y140.692 E24.23404
G1 X108.361 Y140.352 E24.2528
G1 X108.033 Y139.956 E24.27161
G1 X107.689 Y139.332 E24.29768
G1 X107.571 Y139.05 E24.30887
G1 X107.41 Y138.562 E24.32767
G1 X107.327 Y138.056 E24.34643
G1 X107.315 Y137.776 E24.35668
G1 X107.315 Y94.75 E25.93084
G1 X107.355 Y94.238 E25.94963
G1 X107.474 Y93.739 E25.96839
G1 X107.669 Y93.264 E25.98718
G1 X107.825 Y93.008 E25.99815
G0 F810 X107.935 Y92.825
G0 X108.266 Y92.432
M204 S5000
M205 X30 Y30
G0 F7200 X108.699 Y92.627
M204 S500
M205 X20 Y20
G1 F6000 E26.02475
G1 F900 X109.079 Y92.338 E26.04221
G1 X109.502 Y92.115 E26.05971
G1 X109.956 Y91.967 E26.07718
G1 X110.617 Y91.89 E26.10152
G1 X123.15 Y91.899 E26.56006
G1 X123.626 Y91.939 E26.57754
G1 X123.961 Y92.017 E26.59012
G1 X124.696 Y92.235 E26.61817
G1 X125.141 Y92.409 E26.63565
G1 X125.661 Y92.737 E26.65814
G1 X126.257 Y93.21 E26.68598
G1 X126.605 Y93.537 E26.70345
G1 X126.817 Y93.803 E26.7159
G1 X128.461 Y96.136 E26.82031
G1 X128.703 Y96.548 E26.8378
G1 X128.872 Y96.995 E26.85528
G1 X128.965 Y97.463 E26.87274
G1 X128.983 Y97.786 E26.88457
G1 X128.938 Y137.987 E28.35537
G1 X128.898 Y138.463 E28.37285
G1 X128.778 Y138.926 E28.39035
G1 X128.584 Y139.363 E28.40784
G1 X128.337 Y139.737 E28.42424
G1 X128.136 Y139.996 E28.43623
G1 X127.813 Y140.348 E28.45371
G1 X127.435 Y140.641 E28.47121
G1 X126.9 Y140.914 E28.49319
G1 X126.566 Y141.042 E28.50627
G1 X126.107 Y141.175 E28.52376
G1 X125.54 Y141.231 E28.5446
G1 X111.354 Y141.218 E29.06361
G1 X110.878 Y141.178 E29.08109
G1 X110.59 Y141.113 E29.09189
G1 X110.231 Y141.013 E29.10552
G1 X109.782 Y140.847 E29.12304
G1 X109.275 Y140.541 E29.1447
G1 X109.01 Y140.341 E29.15685
G1 X108.654 Y140.022 E29.17434
G1 X108.356 Y139.648 E29.19184
G1 X108.095 Y139.162 E29.21202
G1 X107.977 Y138.88 E29.2232
G1 X107.83 Y138.425 E29.2407
G1 X107.755 Y137.776 E29.2646
G1 X107.755 Y94.75 E30.83875
G1 X107.795 Y94.274 E30.85623
G1 X107.914 Y93.811 E30.87372
G1 X108.108 Y93.374 E30.89121
G1 X108.235 Y93.183 E30.89961
G0 F810 X108.372 Y92.976
G0 X108.699 Y92.627
M204 S5000
M205 X30 Y30
G0 F7200 X108.808 Y93.141
M204 S500
M205 X20 Y20
G1 F6000 E30.9262
G1 F900 X109.129 Y92.84 E30.9423
G1 X109.499 Y92.603 E30.95838
G1 X109.905 Y92.436 E30.97444
G1 X110.336 Y92.346 E30.99055
G1 X110.617 Y92.33 E31.00085
G1 X123.15 Y92.339 E31.45938
G1 X123.587 Y92.379 E31.47544
G1 X123.836 Y92.439 E31.48481
G1 X124.571 Y92.657 E31.51286
G1 X124.979 Y92.82 E31.52893
G1 X125.387 Y93.081 E31.54665
G1 X125.983 Y93.554 E31.57449
G1 X126.301 Y93.858 E31.59058
G1 X126.457 Y94.056 E31.59981
G1 X128.101 Y96.389 E31.70422
G1 X128.321 Y96.77 E31.72032
G1 X128.468 Y97.184 E31.73639
G1 X128.543 Y97.786 E31.75859
G1 X128.498 Y137.987 E33.22939
G1 X128.458 Y138.424 E33.24544
G1 X128.339 Y138.848 E33.26156
G1 X128.145 Y139.242 E33.27762
G1 X127.99 Y139.468 E33.28765
G1 X127.789 Y139.727 E33.29964
G1 X127.489 Y140.048 E33.31572
G1 X127.136 Y140.31 E33.3318
G1 X126.743 Y140.503 E33.34782
G1 X126.409 Y140.631 E33.36091
G1 X125.986 Y140.75 E33.37698
G1 X125.541 Y140.791 E33.39333
G1 X111.355 Y140.778 E33.91235
G1 X110.708 Y140.689 E33.93624
G1 X110.349 Y140.589 E33.94987
G1 X109.938 Y140.433 E33.96596
G1 X109.54 Y140.19 E33.98302
G1 X109.275 Y139.99 E33.99517
G1 X108.95 Y139.694 E34.01125
G1 X108.683 Y139.345 E34.02732
G1 X108.501 Y138.992 E34.04186
G1 X108.383 Y138.71 E34.05304
G1 X108.25 Y138.291 E34.06912
G1 X108.195 Y137.776 E34.08807
G1 X108.195 Y94.75 E35.66223
G1 X108.235 Y94.312 E35.67832
G1 X108.353 Y93.889 E35.69439
G1 X108.42 Y93.753 E35.69993
G0 F810 X108.546 Y93.494
G0 X108.808 Y93.141
M204 S5000
M205 X30 Y30
G0 F7200 X109.242 Y93.324
M204 S500
M205 X20 Y20
G1 F6000 E35.72653
G1 F900 X109.554 Y93.078 E35.74107
G1 X109.91 Y92.9 E35.75563
G1 X110.293 Y92.796 E35.77015
G1 X110.616 Y92.77 E35.782
G1 X123.149 Y92.779 E36.24054
G1 X123.711 Y92.861 E36.26132
G1 X124.446 Y93.079 E36.28937
G1 X124.814 Y93.229 E36.30391
G1 X125.114 Y93.426 E36.31704
G1 X125.71 Y93.899 E36.34487
G1 X126.098 Y94.309 E36.36553
G1 X127.742 Y96.642 E36.46995
G1 X127.937 Y96.989 E36.48451
G1 X128.059 Y97.367 E36.49904
G1 X128.103 Y97.785 E36.51442
G1 X128.058 Y137.986 E37.98522
G1 X128.018 Y138.382 E37.99978
G1 X127.899 Y138.761 E38.01431
G1 X127.642 Y139.198 E38.03286
G1 X127.441 Y139.457 E38.04486
G1 X127.167 Y139.745 E38.0594
G1 X126.841 Y139.972 E38.07393
G1 X126.586 Y140.092 E38.08424
G1 X126.252 Y140.22 E38.09733
G1 X125.868 Y140.324 E38.11189
G1 X125.541 Y140.351 E38.12389
G1 X111.355 Y140.338 E38.6429
G1 X110.826 Y140.265 E38.66244
G1 X110.467 Y140.165 E38.67607
G1 X110.096 Y140.021 E38.69063
G1 X109.805 Y139.838 E38.70321
G1 X109.54 Y139.638 E38.71536
G1 X109.249 Y139.368 E38.72988
G1 X109.017 Y139.045 E38.74443
G1 X108.906 Y138.822 E38.75354
G1 X108.788 Y138.54 E38.76473
G1 X108.673 Y138.16 E38.77925
G1 X108.635 Y137.776 E38.79337
G1 X108.635 Y94.75 E40.36753
G1 X108.675 Y94.355 E40.38205
G1 X108.793 Y93.975 E40.39661
G1 X108.826 Y93.916 E40.39908
G0 F810 X108.985 Y93.627
G0 X109.242 Y93.324
M204 S5000
M205 X30 Y30
G0 F7200 X109.422 Y93.777
M204 S500
M205 X20 Y20
G1 F6000 E40.42568
G1 F900 X109.672 Y93.532 E40.43849
G1 X109.972 Y93.351 E40.45131
G1 X110.305 Y93.241 E40.46414
G1 X110.616 Y93.21 E40.47557
G1 X123.149 Y93.219 E40.93411
G1 X123.586 Y93.283 E40.95026
G1 X124.321 Y93.501 E40.97831
G1 X124.643 Y93.638 E40.99112
G1 X124.84 Y93.771 E40.99981
G1 X125.436 Y94.244 E41.02765
G1 X125.738 Y94.563 E41.04372
G1 X127.382 Y96.896 E41.14814
G1 X127.55 Y97.203 E41.16094
G1 X127.644 Y97.541 E41.17378
G1 X127.663 Y97.785 E41.18273
G1 X127.618 Y137.986 E42.65353
G1 X127.578 Y138.334 E42.66635
G1 X127.46 Y138.664 E42.67917
G1 X127.295 Y138.928 E42.69056
G1 X127.094 Y139.187 E42.70256
G1 X126.849 Y139.438 E42.71539
G1 X126.428 Y139.681 E42.73317
G1 X126.094 Y139.809 E42.74626
G1 X125.755 Y139.896 E42.75907
G1 X125.542 Y139.911 E42.76688
G1 X111.356 Y139.898 E43.28589
G1 X110.944 Y139.842 E43.3011
G1 X110.585 Y139.742 E43.31474
G1 X110.26 Y139.61 E43.32757
G1 X110.07 Y139.487 E43.33585
G1 X109.805 Y139.287 E43.348
G1 X109.551 Y139.046 E43.36081
G1 X109.312 Y138.652 E43.37767
G1 X109.194 Y138.37 E43.38885
G1 X109.097 Y138.034 E43.40165
G1 X109.075 Y137.776 E43.41112
G1 X109.075 Y94.75 E44.98527
G1 X109.112 Y94.428 E44.99713
G0 F810 X109.115 Y94.402
G0 X109.232 Y94.072
G0 X109.422 Y93.777
M204 S5000
M205 X30 Y30
G0 F7200 X109.856 Y93.954
M204 S500
M205 X20 Y20
G1 F6000 E45.02373
G1 F900 X110.096 Y93.78 E45.03458
G1 X110.373 Y93.677 E45.04539
G1 X110.616 Y93.65 E45.05433
G1 X123.149 Y93.659 E45.51287
G1 X123.461 Y93.704 E45.5244
G1 X124.196 Y93.922 E45.55245
G1 X124.567 Y94.115 E45.56775
G1 X125.163 Y94.588 E45.59559
G1 X125.378 Y94.816 E45.60705
