;FLAVOR:Marlin
;TIME:4530
;Filament used: 1.98768m
;Layer height: 0.2
;Generated with Cura_SteamEngine 4.0.0
M140 S70
M105
M190 S70
M104 S215
M105
M109 S215
M82 ;absolute extrusion mode
G28 ; home all axes
M117 Purge extruder
G92 E0 ; reset extruder
G1 Z1.0 F3000 ; move z up little to prevent scratching of surface
G1 X0.1 Y20 Z0.3 F5000.0 ; move to start-line position G1 X0.1 Y200.0 Z0.3 F1500.0 E15 ; draw 1st line
G1 X0.4 Y200.0 Z0.3 F5000.0 ; move to side a little
G1 X0.4 Y20 Z0.3 F1500.0 E30 ; draw 2nd line
G92 E0 ; reset extruder
G1 Z1.0 F3000 ; move z up little to prevent scratching of surface
M117 All systems go!
G92 E0
G1 F6000 E-5
;LAYER_COUNT:103
;LAYER:0
M107
M204 S5000
M205 X30 Y30
G0 F7200 X93.255 Y70.562 Z0.2
M204 S500
M205 X20 Y20
;TYPE:SKIRT
G1 F6000 E0
G1 F900 X93.848 Y69.904 E0.02946
G1 X94.497 Y69.303 E0.05888
G1 X95.177 Y68.777 E0.08747
G1 X95.462 Y68.576 E0.09907
G1 X96.208 Y68.099 E0.12852
G1 X96.993 Y67.692 E0.15793
G1 X97.813 Y67.356 E0.18741
G1 X98.6 Y67.115 E0.21478
G1 X99.33 Y66.803 E0.24119
G1 X100.172 Y66.531 E0.27062
G1 X101.036 Y66.335 E0.30009
G1 X101.913 Y66.218 E0.32951
G1 X102.009 Y66.214 E0.33271
G1 X102.132 Y66.186 E0.3369
G1 X103.009 Y66.068 E0.36634
G1 X103.876 Y66.03 E0.3952
G1 X104.774 Y66.03 E0.42507
G1 X105.658 Y66.07 E0.4545
G1 X106.535 Y66.19 E0.48394
G1 X107.398 Y66.388 E0.51339
G1 X108.239 Y66.663 E0.54282
G1 X109.052 Y67.013 E0.57226
G1 X109.831 Y67.435 E0.60173
G1 X110.545 Y67.91 E0.63025
G1 X111.271 Y68.439 E0.66013
G1 X111.962 Y68.992 E0.68956
G1 X112.601 Y69.605 E0.71901
G1 X113.181 Y70.273 E0.74844
G1 X113.699 Y70.991 E0.77789
G1 X114.15 Y71.753 E0.80734
G1 X114.53 Y72.552 E0.83676
G1 X114.812 Y73.306 E0.86354
G1 X114.952 Y73.733 E0.87848
G1 X115.19 Y74.586 E0.90794
G1 X115.349 Y75.456 E0.93735
G1 X115.43 Y76.338 E0.96681
G1 X115.43 Y77.223 E0.99625
G1 X115.415 Y77.386 E1.00169
G1 X119.125 Y77.386 E1.12509
G1 X119.104 Y77.126 E1.13376
G1 X119.113 Y76.241 E1.1632
G1 X119.202 Y75.36 E1.19265
G1 X119.371 Y74.491 E1.2221
G1 X119.583 Y73.742 E1.24799
G1 X119.732 Y73.286 E1.26394
G1 X120.044 Y72.458 E1.29337
G1 X120.43 Y71.661 E1.32283
G1 X120.887 Y70.903 E1.35226
G1 X121.41 Y70.189 E1.3817
G1 X121.995 Y69.525 E1.41113
G1 X122.638 Y68.916 E1.44059
G1 X123.276 Y68.41 E1.46767
G1 X124.002 Y67.881 E1.49755
G1 X124.74 Y67.392 E1.527
G1 X125.519 Y66.972 E1.55643
G1 X126.333 Y66.624 E1.58588
G1 X127.175 Y66.352 E1.61531
G1 X128.039 Y66.156 E1.64477
G1 X128.916 Y66.039 E1.6742
G1 X129.773 Y66.001 E1.70273
G1 X130.671 Y66.001 E1.7326
G1 X131.555 Y66.041 E1.76203
G1 X132.432 Y66.161 E1.79147
G1 X133.018 Y66.296 E1.81147
G1 X133.57 Y66.371 E1.83
G1 X133.846 Y66.434 E1.83942
G1 X134.516 Y66.526 E1.86191
G1 X135.379 Y66.724 E1.89136
G1 X136.22 Y66.999 E1.92079
G1 X137.033 Y67.349 E1.95023
G1 X137.35 Y67.512 E1.96209
G1 X137.786 Y67.661 E1.97741
G1 X138.595 Y68.02 E2.00685
G1 X139.368 Y68.451 E2.03629
G1 X140.099 Y68.951 E2.06574
G1 X140.782 Y69.514 E2.09518
G1 X141.412 Y70.136 E2.12463
G1 X141.982 Y70.813 E2.15406
G1 X142.49 Y71.538 E2.18351
G1 X142.929 Y72.307 E2.21296
G1 X143.298 Y73.111 E2.24238
G1 X143.593 Y73.946 E2.27183
G1 X143.811 Y74.804 E2.30128
G1 X143.95 Y75.678 E2.33071
G1 X144.01 Y76.561 E2.36015
G1 X143.991 Y77.446 E2.38959
G1 X143.891 Y78.326 E2.41905
G1 X143.713 Y79.193 E2.44849
G1 X143.457 Y80.04 E2.47792
G1 X143.125 Y80.861 E2.50737
G1 X143.105 Y80.9 E2.50883
G1 X143.221 Y81.027 E2.51455
G1 X143.756 Y81.732 E2.54399
G1 X144.226 Y82.482 E2.57342
G1 X144.626 Y83.272 E2.60288
G1 X144.954 Y84.094 E2.63231
G1 X145.205 Y84.943 E2.66176
G1 X145.38 Y85.811 E2.69121
G1 X145.475 Y86.691 E2.72065
G1 X145.494 Y87.303 E2.74101
G1 X145.493 Y157.378 E5.07172
G1 X145.453 Y158.262 E5.10115
G1 X145.333 Y159.14 E5.13062
G1 X145.135 Y160.002 E5.16004
G1 X144.86 Y160.844 E5.1895
G1 X144.51 Y161.657 E5.21894
G1 X144.088 Y162.435 E5.24838
G1 X143.597 Y163.172 E5.27783
G1 X143.042 Y163.861 E5.30726
G1 X142.623 Y164.308 E5.32764
G1 X142.506 Y164.425 E5.33314
G1 X141.852 Y165.022 E5.36259
G1 X141.147 Y165.557 E5.39203
G1 X140.397 Y166.027 E5.42147
G1 X139.607 Y166.427 E5.45092
G1 X138.785 Y166.755 E5.48035
G1 X137.936 Y167.006 E5.5098
G1 X137.068 Y167.181 E5.53925
G1 X136.188 Y167.276 E5.56869
G1 X135.576 Y167.295 E5.58905
G1 X99.423 Y167.295 E6.79151
G1 X98.539 Y167.255 E6.82094
G1 X97.662 Y167.135 E6.85038
G1 X96.799 Y166.937 E6.87983
G1 X95.958 Y166.662 E6.90926
G1 X95.145 Y166.312 E6.9387
G1 X94.366 Y165.89 E6.96817
G1 X93.63 Y165.399 E6.99759
G1 X92.94 Y164.844 E7.02705
G1 X92.493 Y164.425 E7.04742
G1 X92.376 Y164.308 E7.05293
G1 X91.779 Y163.654 E7.08238
G1 X91.244 Y162.949 E7.11181
G1 X90.774 Y162.199 E7.14125
G1 X90.374 Y161.409 E7.1707
G1 X90.046 Y160.587 E7.20014
G1 X89.795 Y159.738 E7.22959
G1 X89.62 Y158.87 E7.25904
G1 X89.525 Y157.99 E7.28848
G1 X89.506 Y157.378 E7.30884
G1 X89.509 Y87.303 E9.63955
G1 X89.549 Y86.418 E9.66901
G1 X89.669 Y85.541 E9.69845
G1 X89.867 Y84.678 E9.7279
G1 X90.142 Y83.837 E9.75733
G1 X90.492 Y83.024 E9.78677
G1 X90.915 Y82.246 E9.81622
G1 X91.405 Y81.509 E9.84566
G1 X91.924 Y80.864 E9.8732
G1 X91.784 Y80.567 E9.88412
G1 X91.48 Y79.736 E9.91355
G1 X91.252 Y78.881 E9.94298
G1 X91.102 Y78.008 E9.97244
G1 X91.031 Y77.126 E10.00187
G1 X91.04 Y76.241 E10.03131
G1 X91.129 Y75.36 E10.06076
G1 X91.298 Y74.491 E10.0902
G1 X91.543 Y73.641 E10.11962
G1 X91.865 Y72.816 E10.14908
G1 X92.26 Y72.024 E10.17852
G1 X92.725 Y71.27 E10.20798
G1 X92.776 Y71.202 E10.21081
G0 F810 X93.255 Y70.562
M204 S5000
M205 X30 Y30
G0 F7200 X93.305 Y71.146
M204 S500
M205 X20 Y20
G1 F6000 E10.23742
G1 F900 X93.856 Y70.477 E10.26624
G1 X94.467 Y69.862 E10.29508
G1 X95.407 Y69.104 E10.33524
G1 X95.692 Y68.903 E10.34684
G1 X96.423 Y68.437 E10.37567
G1 X97.194 Y68.04 E10.40451
G1 X97.998 Y67.715 E10.43336
G1 X98.714 Y67.5 E10.45822
G1 X98.722 Y67.496 E10.45852
G1 X99.521 Y67.159 E10.48736
G1 X100.347 Y66.898 E10.51617
G1 X101.194 Y66.713 E10.54501
G1 X102.055 Y66.608 E10.57386
G1 X102.102 Y66.606 E10.57542
G1 X102.291 Y66.565 E10.58186
G1 X103.151 Y66.458 E10.61068
G1 X103.876 Y66.43 E10.63481
G1 X104.774 Y66.43 E10.66468
G1 X105.64 Y66.47 E10.69351
G1 X106.499 Y66.59 E10.72236
G1 X107.343 Y66.788 E10.75119
G1 X108.165 Y67.063 E10.78002
G1 X108.958 Y67.413 E10.80885
G1 X109.716 Y67.834 E10.83769
G1 X110.31 Y68.233 E10.86149
G1 X111.036 Y68.762 E10.89137
G1 X111.712 Y69.304 E10.92019
G1 X112.336 Y69.906 E10.94903
G1 X112.901 Y70.564 E10.97787
G1 X113.403 Y71.27 E11.00668
G1 X113.839 Y72.02 E11.03554
G1 X114.203 Y72.807 E11.06438
G1 X114.432 Y73.43 E11.08646
G1 X114.572 Y73.857 E11.1014
G1 X114.804 Y74.693 E11.13026
G1 X114.958 Y75.546 E11.15909
G1 X115.032 Y76.41 E11.18793
G1 X115.027 Y77.277 E11.21677
G1 X114.977 Y77.786 E11.23378
G1 X119.556 Y77.786 E11.38608
G1 X119.54 Y77.674 E11.38984
G1 X119.498 Y76.808 E11.41868
G1 X119.536 Y75.942 E11.44751
G1 X119.654 Y75.083 E11.47634
G1 X119.963 Y73.866 E11.51811
G1 X120.112 Y73.41 E11.53406
G1 X120.419 Y72.6 E11.56287
G1 X120.799 Y71.821 E11.5917
G1 X121.25 Y71.08 E11.62055
G1 X121.767 Y70.384 E11.64939
G1 X122.345 Y69.738 E11.67822
G1 X122.981 Y69.149 E11.70705
G1 X123.511 Y68.733 E11.72946
G1 X124.237 Y68.204 E11.75934
G1 X124.961 Y67.726 E11.78819
G1 X125.725 Y67.317 E11.81702
G1 X126.524 Y66.98 E11.84586
G1 X127.351 Y66.719 E11.8747
G1 X128.198 Y66.534 E11.90354
G1 X129.058 Y66.428 E11.93236
G1 X129.773 Y66.401 E11.95616
G1 X130.671 Y66.401 E11.98602
G1 X131.537 Y66.441 E12.01486
G1 X132.396 Y66.561 E12.04371
G1 X132.934 Y66.687 E12.06208
G1 X133.534 Y66.771 E12.08223
G1 X133.775 Y66.827 E12.09046
G1 X134.48 Y66.926 E12.11414
G1 X135.324 Y67.124 E12.14298
G1 X136.146 Y67.399 E12.1718
G1 X137.159 Y67.87 E12.20896
G1 X137.657 Y68.04 E12.22646
G1 X138.448 Y68.394 E12.25529
G1 X139.203 Y68.82 E12.28412
G1 X139.916 Y69.314 E12.31297
G1 X140.58 Y69.871 E12.3418
G1 X141.19 Y70.487 E12.37063
G1 X141.741 Y71.156 E12.39946
G1 X142.227 Y71.874 E12.42829
G1 X142.646 Y72.633 E12.45713
G1 X142.993 Y73.428 E12.48598
G1 X143.265 Y74.251 E12.51481
G1 X143.46 Y75.096 E12.54365
G1 X143.576 Y75.955 E12.57248
G1 X143.613 Y76.821 E12.60131
G1 X143.57 Y77.687 E12.63015
G1 X143.447 Y78.545 E12.65898
G1 X143.246 Y79.388 E12.6878
G1 X142.967 Y80.209 E12.71664
G1 X142.628 Y80.971 E12.74438
G1 X142.925 Y81.297 E12.75905
G1 X143.448 Y81.989 E12.7879
G1 X143.904 Y82.726 E12.81673
G1 X144.291 Y83.501 E12.84554
G1 X144.605 Y84.31 E12.8744
G1 X144.843 Y85.143 E12.90322
G1 X145.003 Y85.995 E12.93205
G1 X145.083 Y86.858 E12.96088
G1 X145.094 Y87.303 E12.97568
G1 X145.093 Y157.378 E15.30638
G1 X145.053 Y158.244 E15.33522
G1 X144.933 Y159.103 E15.36407
G1 X144.735 Y159.947 E15.3929
G1 X144.46 Y160.769 E15.42173
G1 X144.11 Y161.562 E15.45056
G1 X143.689 Y162.32 E15.4794
G1 X143.2 Y163.036 E15.50824
G1 X142.647 Y163.703 E15.53705
G1 X142.34 Y164.025 E15.55185
G1 X142.223 Y164.142 E15.55735
G1 X141.582 Y164.726 E15.5862
G1 X140.89 Y165.249 E15.61505
G1 X140.153 Y165.705 E15.64387
G1 X139.378 Y166.092 E15.67268
G1 X138.569 Y166.406 E15.70155
G1 X137.736 Y166.644 E15.73036
G1 X136.884 Y166.804 E15.75919
G1 X136.021 Y166.884 E15.78802
G1 X135.576 Y166.895 E15.80283
G1 X99.423 Y166.895 E17.00528
G1 X98.557 Y166.855 E17.03411
G1 X97.698 Y166.735 E17.06296
G1 X96.854 Y166.537 E17.09179
G1 X96.032 Y166.262 E17.12062
G1 X95.239 Y165.912 E17.14945
G1 X94.481 Y165.491 E17.17829
G1 X93.766 Y165.002 E17.2071
G1 X93.098 Y164.449 E17.23595
G1 X92.776 Y164.142 E17.25074
G1 X92.659 Y164.025 E17.25625
G1 X92.075 Y163.384 E17.28509
G1 X91.552 Y162.692 E17.31394
G1 X91.096 Y161.955 E17.34276
G1 X90.709 Y161.18 E17.37158
G1 X90.395 Y160.371 E17.40044
G1 X90.157 Y159.538 E17.42925
G1 X89.997 Y158.686 E17.45809
G1 X89.917 Y157.823 E17.48691
G1 X89.906 Y157.378 E17.50172
G1 X89.909 Y87.303 E19.83242
G1 X89.949 Y86.437 E19.86126
G1 X90.069 Y85.578 E19.8901
G1 X90.267 Y84.734 E19.91894
G1 X90.542 Y83.912 E19.94777
G1 X90.892 Y83.119 E19.9766
G1 X91.313 Y82.361 E20.00544
G1 X91.802 Y81.645 E20.03427
G1 X92.356 Y80.978 E20.06311
G1 X92.394 Y80.938 E20.06495
G1 X92.066 Y80.197 E20.0919
G1 X91.789 Y79.376 E20.12072
G1 X91.589 Y78.532 E20.14957
G1 X91.467 Y77.674 E20.17839
G1 X91.425 Y76.808 E20.20723
G1 X91.463 Y75.942 E20.23606
G1 X91.581 Y75.083 E20.2649
G1 X91.777 Y74.239 E20.29372
G1 X92.05 Y73.416 E20.32256
G1 X92.398 Y72.622 E20.35139
G1 X92.817 Y71.863 E20.38023
G1 X92.855 Y71.807 E20.38248
G0 F810 X93.305 Y71.146
M204 S5000
M205 X30 Y30
G0 F7200 X93.896 Y71.042
M204 S500
M205 X20 Y20
G1 F6000 E20.40909
G1 F900 X94.468 Y70.415 E20.43731
G1 X95.096 Y69.845 E20.46552
G1 X95.638 Y69.431 E20.48821
G1 X95.923 Y69.23 E20.49981
G1 X96.638 Y68.774 E20.52801
G1 X97.394 Y68.388 E20.55624
G1 X98.182 Y68.075 E20.58444
G1 X98.859 Y67.877 E20.6079
G1 X98.927 Y67.841 E20.61046
G1 X99.71 Y67.516 E20.63866
G1 X100.521 Y67.266 E20.66689
G1 X101.351 Y67.093 E20.69509
G1 X102.178 Y67.001 E20.72276
G1 X102.449 Y66.944 E20.73197
G1 X103.291 Y66.849 E20.76016
G1 X103.876 Y66.83 E20.77962
G1 X104.774 Y66.83 E20.80949
G1 X105.621 Y66.87 E20.83769
G1 X106.461 Y66.99 E20.86592
G1 X107.286 Y67.188 E20.89413
G1 X108.089 Y67.463 E20.92237
G1 X108.862 Y67.812 E20.95057
G1 X109.598 Y68.232 E20.97876
G1 X110.074 Y68.556 E20.99791
G1 X110.8 Y69.085 E21.02779
G1 X111.461 Y69.616 E21.05599
G1 X112.07 Y70.208 E21.08424
G1 X112.62 Y70.854 E21.11245
G1 X113.106 Y71.548 E21.14063
G1 X113.526 Y72.286 E21.16888
G1 X113.873 Y73.06 E21.19709
G1 X114.052 Y73.555 E21.2146
G1 X114.192 Y73.982 E21.22954
G1 X114.418 Y74.8 E21.25777
G1 X114.566 Y75.635 E21.28597
G1 X114.635 Y76.48 E21.31417
G1 X114.624 Y77.329 E21.34241
G1 X114.533 Y78.172 E21.37061
G1 X114.53 Y78.186 E21.37109
G1 X120.008 Y78.186 E21.55329
G1 X119.915 Y77.345 E21.58143
G1 X119.903 Y76.497 E21.60964
G1 X119.97 Y75.651 E21.63786
G1 X120.116 Y74.816 E21.66606
G1 X120.343 Y73.991 E21.69452
G1 X120.492 Y73.535 E21.71047
G1 X120.793 Y72.742 E21.73868
G1 X121.168 Y71.98 E21.76693
G1 X121.612 Y71.258 E21.79512
G1 X122.123 Y70.581 E21.82333
G1 X122.695 Y69.954 E21.85156
G1 X123.323 Y69.384 E21.87977
G1 X123.747 Y69.056 E21.8976
G1 X124.473 Y68.527 E21.92748
G1 X125.181 Y68.06 E21.95569
G1 X125.93 Y67.663 E21.98388
G1 X126.714 Y67.337 E22.01212
G1 X127.524 Y67.086 E22.04033
G1 X128.355 Y66.913 E22.06856
G1 X129.198 Y66.819 E22.09677
G1 X129.773 Y66.801 E22.1159
G1 X130.671 Y66.801 E22.14577
G1 X131.518 Y66.841 E22.17397
G1 X132.358 Y66.961 E22.2022
G1 X132.846 Y67.078 E22.21889
G1 X133.496 Y67.171 E22.24073
G1 X133.7 Y67.22 E22.2477
G1 X134.442 Y67.326 E22.27263
G1 X135.267 Y67.524 E22.30085
G1 X136.07 Y67.799 E22.32908
G1 X137.019 Y68.245 E22.36396
G1 X137.527 Y68.419 E22.38182
G1 X138.3 Y68.768 E22.41003
G1 X139.037 Y69.188 E22.43824
G1 X139.731 Y69.676 E22.46646
G1 X140.376 Y70.227 E22.49467
G1 X140.966 Y70.837 E22.5229
G1 X141.496 Y71.499 E22.55111
G1 X141.962 Y72.208 E22.57933
G1 X142.358 Y72.958 E22.60753
G1 X142.683 Y73.742 E22.63576
G1 X142.932 Y74.553 E22.66398
G1 X143.103 Y75.384 E22.6922
G1 X143.196 Y76.227 E22.7204
G1 X143.208 Y77.075 E22.74861
G1 X143.141 Y77.921 E22.77684
G1 X142.995 Y78.756 E22.80503
G1 X142.77 Y79.574 E22.83325
G1 X142.47 Y80.367 E22.86145
G1 X142.143 Y81.033 E22.88613
G1 X142.629 Y81.566 E22.91012
G1 X143.138 Y82.245 E22.93834
G1 X143.581 Y82.968 E22.96654
G1 X143.954 Y83.73 E22.99476
G1 X144.254 Y84.524 E23.02299
G1 X144.478 Y85.342 E23.0512
G1 X144.623 Y86.178 E23.07942
G1 X144.694 Y87.303 E23.11691
G1 X144.693 Y157.378 E25.44762
G1 X144.653 Y158.225 E25.47582
G1 X144.533 Y159.065 E25.50404
G1 X144.335 Y159.89 E25.53226
G1 X144.06 Y160.693 E25.56049
G1 X143.711 Y161.466 E25.5887
G1 X143.291 Y162.202 E25.61689
G1 X142.803 Y162.896 E25.6451
G1 X142.057 Y163.742 E25.68262
G1 X141.94 Y163.859 E25.68812
G1 X141.313 Y164.43 E25.71633
G1 X140.634 Y164.939 E25.74455
G1 X139.911 Y165.382 E25.77275
G1 X139.149 Y165.755 E25.80097
G1 X138.355 Y166.055 E25.8292
G1 X137.537 Y166.279 E25.85741
G1 X136.701 Y166.424 E25.88563
G1 X135.576 Y166.495 E25.92312
G1 X99.423 Y166.495 E27.12558
G1 X98.576 Y166.455 E27.15378
G1 X97.736 Y166.335 E27.182
G1 X96.911 Y166.137 E27.21022
G1 X96.108 Y165.862 E27.23845
G1 X95.335 Y165.513 E27.26666
G1 X94.599 Y165.093 E27.29485
G1 X93.905 Y164.605 E27.32306
G1 X93.059 Y163.859 E27.36058
G1 X92.942 Y163.742 E27.36608
G1 X92.371 Y163.115 E27.39429
G1 X91.862 Y162.436 E27.42251
G1 X91.419 Y161.713 E27.45071
G1 X91.046 Y160.951 E27.47893
G1 X90.746 Y160.157 E27.50716
G1 X90.522 Y159.339 E27.53537
G1 X90.377 Y158.503 E27.56359
G1 X90.306 Y157.378 E27.60108
G1 X90.309 Y87.303 E29.93179
G1 X90.349 Y86.455 E29.96002
G1 X90.469 Y85.615 E29.98825
G1 X90.667 Y84.791 E30.01643
G1 X90.942 Y83.988 E30.04466
G1 X91.291 Y83.215 E30.07287
G1 X91.711 Y82.478 E30.10109
G1 X92.199 Y81.784 E30.1293
G1 X92.887 Y81.005 E30.16387
G1 X92.68 Y80.614 E30.17859
G1 X92.355 Y79.83 E30.20681
G1 X92.106 Y79.019 E30.23503
G1 X91.935 Y78.188 E30.26325
G1 X91.842 Y77.345 E30.29146
G1 X91.83 Y76.497 E30.31967
G1 X91.897 Y75.651 E30.34789
G1 X92.043 Y74.816 E30.37608
G1 X92.268 Y73.998 E30.4043
G1 X92.568 Y73.204 E30.43253
G1 X92.942 Y72.443 E30.46074
G1 X93.386 Y71.72 E30.48895
G1 X93.415 Y71.681 E30.49057
G0 F810 X93.896 Y71.042
M204 S5000
M205 X30 Y30
G0 F7200 X93.967 Y71.597
M204 S500
M205 X20 Y20
G1 F6000 E30.51718
G1 F900 X94.499 Y70.961 E30.54476
G1 X95.089 Y70.378 E30.57235
G1 X95.868 Y69.758 E30.60546
G1 X96.153 Y69.557 E30.61706
G1 X96.853 Y69.112 E30.64465
G1 X97.593 Y68.737 E30.67224
G1 X98.365 Y68.435 E30.69981
G1 X99.007 Y68.252 E30.72201
G1 X99.131 Y68.187 E30.72667
G1 X99.899 Y67.873 E30.75427
G1 X100.693 Y67.635 E30.78184
G1 X101.506 Y67.474 E30.8094
G1 X102.204 Y67.405 E30.83273
G1 X102.604 Y67.325 E30.8463
G1 X103.429 Y67.242 E30.87388
G1 X103.876 Y67.23 E30.88875
G1 X104.774 Y67.23 E30.91862
G1 X105.602 Y67.27 E30.94619
G1 X106.423 Y67.39 E30.97379
G1 X107.228 Y67.588 E31.00136
G1 X108.01 Y67.862 E31.02892
G1 X108.763 Y68.211 E31.05652
G1 X109.478 Y68.631 E31.0841
G1 X109.839 Y68.879 E31.09867
G1 X110.565 Y69.408 E31.12855
G1 X111.21 Y69.928 E31.1561
G1 X111.803 Y70.508 E31.18369
G1 X112.337 Y71.143 E31.21129
