;FLAVOR:Marlin
;TIME:1761
;Filament used: 0.788858m
;Layer height: 0.16
;Generated with Cura_SteamEngine 3.6.0
M140 S70
M105
M190 S70
M104 S215
M105
M109 S215
M82 ;absolute extrusion mode
G28 ; home all axes
M117 Purge extruder
G92 E0 ; reset extruder
G1 Z1.0 F3000 ; move z up little to prevent scratching of surface
G1 X0.1 Y20 Z0.3 F5000.0 ; move to start-line position G1 X0.1 Y200.0 Z0.3 F1500.0 E15 ; draw 1st line
G1 X0.4 Y200.0 Z0.3 F5000.0 ; move to side a little
G1 X0.4 Y20 Z0.3 F1500.0 E30 ; draw 2nd line
G92 E0 ; reset extruder
G1 Z1.0 F3000 ; move z up little to prevent scratching of surface
M117 All systems go!
G92 E0
G1 F6000 E-5
;LAYER_COUNT:7
;LAYER:0
M107
M204 S5000
M205 X30 Y30
G0 F7200 X93.922 Y94.051 Z0.2
M204 S500
M205 X20 Y20
;TYPE:SKIRT
G1 F6000 E0
G1 F900 X94.051 Y93.922 E0.00667
G1 X94.528 Y93.502 E0.02993
G1 X95.054 Y93.144 E0.05321
G1 X95.621 Y92.856 E0.07647
G1 X96.219 Y92.64 E0.09973
G1 X96.84 Y92.502 E0.12301
G1 X97.629 Y92.44 E0.15196
G1 X137.371 Y92.44 E1.60597
G1 X138.006 Y92.48 E1.62925
G1 X138.63 Y92.599 E1.65249
G1 X139.235 Y92.796 E1.67577
G1 X139.81 Y93.067 E1.69903
G1 X140.347 Y93.408 E1.7223
G1 X140.949 Y93.922 E1.75126
G1 X141.078 Y94.051 E1.75793
G1 X141.498 Y94.528 E1.78119
G1 X141.856 Y95.054 E1.80447
G1 X142.144 Y95.621 E1.82773
G1 X142.36 Y96.219 E1.85099
G1 X142.498 Y96.84 E1.87427
G1 X142.56 Y97.629 E1.90322
G1 X142.56 Y137.371 E3.35723
G1 X142.52 Y138.006 E3.38051
G1 X142.401 Y138.63 E3.40375
G1 X142.204 Y139.235 E3.42703
G1 X141.933 Y139.81 E3.45029
G1 X141.592 Y140.347 E3.47356
G1 X141.078 Y140.949 E3.50252
G1 X140.949 Y141.078 E3.50919
G1 X140.472 Y141.498 E3.53245
G1 X139.946 Y141.856 E3.55572
G1 X139.379 Y142.144 E3.57899
G1 X138.781 Y142.36 E3.60225
G1 X138.16 Y142.498 E3.62553
G1 X137.371 Y142.56 E3.65448
G1 X97.629 Y142.56 E5.10849
G1 X96.994 Y142.52 E5.13177
G1 X96.37 Y142.401 E5.15501
G1 X95.765 Y142.204 E5.17829
G1 X95.19 Y141.933 E5.20154
G1 X94.653 Y141.592 E5.22482
G1 X94.051 Y141.078 E5.25378
G1 X93.922 Y140.949 E5.26045
G1 X93.502 Y140.472 E5.28371
G1 X93.144 Y139.946 E5.30698
G1 X92.856 Y139.379 E5.33025
G1 X92.64 Y138.781 E5.35351
G1 X92.502 Y138.16 E5.37679
G1 X92.44 Y137.371 E5.40574
G1 X92.44 Y97.629 E6.85975
G1 X92.48 Y96.994 E6.88303
G1 X92.599 Y96.37 E6.90627
G1 X92.796 Y95.765 E6.92955
G1 X93.067 Y95.19 E6.9528
G1 X93.408 Y94.653 E6.97608
G1 X93.45 Y94.604 E6.97844
G0 F810 X93.922 Y94.051
M204 S5000
M205 X30 Y30
G0 F7200 X94.233 Y94.362
M204 S500
M205 X20 Y20
G1 F6000 E7.00504
G1 F900 X94.362 Y94.233 E7.01171
G1 X94.819 Y93.833 E7.03393
G1 X95.325 Y93.496 E7.05617
G1 X95.87 Y93.228 E7.07839
G1 X96.446 Y93.034 E7.10063
G1 X97.042 Y92.917 E7.12285
G1 X97.629 Y92.88 E7.14437
G1 X137.371 Y92.88 E8.59838
G1 X137.977 Y92.92 E8.6206
G1 X138.573 Y93.039 E8.64283
G1 X139.148 Y93.235 E8.66506
G1 X139.692 Y93.506 E8.68729
G1 X140.197 Y93.845 E8.70955
G1 X140.638 Y94.233 E8.73104
G1 X140.767 Y94.362 E8.73771
G1 X141.167 Y94.819 E8.75993
G1 X141.504 Y95.325 E8.78217
G1 X141.772 Y95.87 E8.80439
G1 X141.966 Y96.446 E8.82663
G1 X142.083 Y97.042 E8.84885
G1 X142.12 Y97.629 E8.87037
G1 X142.12 Y137.371 E10.32438
G1 X142.08 Y137.977 E10.3466
G1 X141.961 Y138.573 E10.36883
G1 X141.765 Y139.148 E10.39106
G1 X141.494 Y139.692 E10.41329
G1 X141.155 Y140.197 E10.43555
G1 X140.767 Y140.638 E10.45704
G1 X140.638 Y140.767 E10.46371
G1 X140.181 Y141.167 E10.48593
G1 X139.675 Y141.504 E10.50817
G1 X139.13 Y141.772 E10.53039
G1 X138.554 Y141.966 E10.55263
G1 X137.958 Y142.083 E10.57485
G1 X137.371 Y142.12 E10.59637
G1 X97.629 Y142.12 E12.05038
G1 X97.023 Y142.08 E12.0726
G1 X96.427 Y141.961 E12.09483
G1 X95.852 Y141.765 E12.11706
G1 X95.308 Y141.494 E12.13929
G1 X94.803 Y141.155 E12.16155
G1 X94.362 Y140.767 E12.18304
G1 X94.233 Y140.638 E12.18971
G1 X93.833 Y140.181 E12.21193
G1 X93.496 Y139.675 E12.23417
G1 X93.228 Y139.13 E12.25639
G1 X93.034 Y138.554 E12.27863
G1 X92.917 Y137.958 E12.30085
G1 X92.88 Y137.371 E12.32237
G1 X92.88 Y97.629 E13.77638
G1 X92.92 Y97.023 E13.7986
G1 X93.039 Y96.427 E13.82083
G1 X93.235 Y95.852 E13.84306
G1 X93.506 Y95.308 E13.86529
G1 X93.767 Y94.919 E13.88243
G0 F810 X93.845 Y94.803
G0 X94.233 Y94.362
M204 S5000
M205 X30 Y30
G0 F7200 X94.544 Y94.673
M204 S500
M205 X20 Y20
G1 F6000 E13.90903
G1 F900 X94.673 Y94.544 E13.91571
G1 X95.109 Y94.165 E13.93684
G1 X95.593 Y93.849 E13.95799
G1 X96.116 Y93.603 E13.97913
G1 X96.668 Y93.432 E14.00028
G1 X97.239 Y93.338 E14.02145
G1 X97.629 Y93.32 E14.03573
G1 X137.371 Y93.32 E15.48974
G1 X137.948 Y93.36 E15.5109
G1 X138.513 Y93.479 E15.53203
G1 X139.057 Y93.675 E15.55318
G1 X139.568 Y93.944 E15.57431
G1 X140.038 Y94.281 E15.59547
G1 X140.327 Y94.544 E15.60976
G1 X140.456 Y94.673 E15.61644
G1 X140.835 Y95.109 E15.63757
G1 X141.151 Y95.593 E15.65872
G1 X141.397 Y96.116 E15.67987
G1 X141.568 Y96.668 E15.70101
G1 X141.662 Y97.239 E15.72218
G1 X141.68 Y97.629 E15.73647
G1 X141.68 Y137.371 E17.19047
G1 X141.64 Y137.948 E17.21163
G1 X141.521 Y138.513 E17.23276
G1 X141.325 Y139.057 E17.25391
G1 X141.056 Y139.568 E17.27504
G1 X140.719 Y140.038 E17.2962
G1 X140.456 Y140.327 E17.3105
G1 X140.327 Y140.456 E17.31717
G1 X139.891 Y140.835 E17.33831
G1 X139.407 Y141.151 E17.35945
G1 X138.884 Y141.397 E17.3806
G1 X138.332 Y141.568 E17.40174
G1 X137.761 Y141.662 E17.42291
G1 X137.371 Y141.68 E17.4372
G1 X97.629 Y141.68 E18.8912
G1 X97.052 Y141.64 E18.91236
G1 X96.487 Y141.521 E18.93349
G1 X95.943 Y141.325 E18.95464
G1 X95.432 Y141.056 E18.97577
G1 X94.962 Y140.719 E18.99693
G1 X94.673 Y140.456 E19.01123
G1 X94.544 Y140.327 E19.0179
G1 X94.165 Y139.891 E19.03904
G1 X93.849 Y139.407 E19.06019
G1 X93.603 Y138.884 E19.08133
G1 X93.432 Y138.332 E19.10247
G1 X93.338 Y137.761 E19.12365
G1 X93.32 Y137.371 E19.13793
G1 X93.32 Y97.629 E20.59194
G1 X93.36 Y97.052 E20.6131
G1 X93.479 Y96.487 E20.63422
G1 X93.675 Y95.943 E20.65538
G1 X93.944 Y95.432 E20.6765
G1 X94.085 Y95.236 E20.68534
G0 F810 X94.281 Y94.962
G0 X94.544 Y94.673
M204 S5000
M205 X30 Y30
G0 F7200 X94.855 Y94.984
M204 S500
M205 X20 Y20
G1 F6000 E20.71194
G1 F900 X94.984 Y94.855 E20.71861
G1 X95.398 Y94.498 E20.73861
G1 X95.86 Y94.205 E20.75863
G1 X96.359 Y93.982 E20.77862
G1 X96.885 Y93.835 E20.79861
G1 X97.629 Y93.76 E20.82596
G1 X137.371 Y93.76 E22.27997
G1 X137.916 Y93.8 E22.29996
G1 X138.45 Y93.919 E22.31998
G1 X138.96 Y94.114 E22.33996
G1 X139.437 Y94.382 E22.35997
G1 X140.016 Y94.855 E22.38733
G1 X140.145 Y94.984 E22.394
G1 X140.502 Y95.398 E22.414
G1 X140.795 Y95.86 E22.43402
G1 X141.018 Y96.359 E22.45401
G1 X141.165 Y96.885 E22.474
G1 X141.24 Y97.629 E22.50135
G1 X141.24 Y137.371 E23.95536
G1 X141.2 Y137.916 E23.97535
G1 X141.081 Y138.45 E23.99537
G1 X140.886 Y138.96 E24.01535
G1 X140.618 Y139.437 E24.03536
G1 X140.145 Y140.016 E24.06272
G1 X140.016 Y140.145 E24.06939
G1 X139.602 Y140.502 E24.08939
G1 X139.14 Y140.795 E24.10941
G1 X138.641 Y141.018 E24.1294
G1 X138.115 Y141.165 E24.14939
G1 X137.371 Y141.24 E24.17674
G1 X97.629 Y141.24 E25.63075
G1 X97.084 Y141.2 E25.65074
G1 X96.55 Y141.081 E25.67076
G1 X96.04 Y140.886 E25.69074
G1 X95.563 Y140.618 E25.71075
G1 X94.984 Y140.145 E25.73811
G1 X94.855 Y140.016 E25.74478
G1 X94.498 Y139.602 E25.76478
G1 X94.205 Y139.14 E25.7848
G1 X93.982 Y138.641 E25.80479
G1 X93.835 Y138.115 E25.82478
G1 X93.76 Y137.371 E25.85213
G1 X93.76 Y97.629 E27.30614
G1 X93.8 Y97.084 E27.32613
G1 X93.919 Y96.55 E27.34615
G1 X94.114 Y96.04 E27.36613
G1 X94.382 Y95.563 E27.38614
G1 X94.395 Y95.547 E27.3869
G0 F810 X94.855 Y94.984
M204 S5000
M205 X30 Y30
G0 F7200 X95.167 Y95.296
M204 S500
M205 X20 Y20
G1 F6000 E27.4135
G1 F900 X95.296 Y95.167 E27.42017
G1 X95.686 Y94.833 E27.43896
G1 X96.123 Y94.564 E27.45773
G1 X96.597 Y94.366 E27.47652
G1 X97.095 Y94.243 E27.49529
G1 X97.629 Y94.2 E27.51489
G1 X137.371 Y94.2 E28.9689
G1 X137.883 Y94.24 E28.98769
G1 X138.382 Y94.359 E29.00646
G1 X138.857 Y94.554 E29.02524
G1 X139.296 Y94.82 E29.04402
G1 X139.704 Y95.167 E29.06362
G1 X139.833 Y95.296 E29.07029
G1 X140.167 Y95.686 E29.08908
G1 X140.436 Y96.123 E29.10785
G1 X140.634 Y96.597 E29.12665
G1 X140.757 Y97.095 E29.14541
G1 X140.8 Y97.629 E29.16501
G1 X140.8 Y137.371 E30.61902
G1 X140.76 Y137.883 E30.63781
G1 X140.641 Y138.382 E30.65658
G1 X140.446 Y138.857 E30.67536
G1 X140.18 Y139.296 E30.69414
G1 X139.833 Y139.704 E30.71374
G1 X139.704 Y139.833 E30.72041
G1 X139.314 Y140.167 E30.7392
G1 X138.877 Y140.436 E30.75797
G1 X138.403 Y140.634 E30.77677
G1 X137.905 Y140.757 E30.79554
G1 X137.371 Y140.8 E30.81514
G1 X97.629 Y140.8 E32.26914
G1 X97.117 Y140.76 E32.28793
G1 X96.618 Y140.641 E32.3067
G1 X96.143 Y140.446 E32.32549
G1 X95.704 Y140.18 E32.34427
G1 X95.296 Y139.833 E32.36386
G1 X95.167 Y139.704 E32.37054
G1 X94.833 Y139.314 E32.38932
G1 X94.564 Y138.877 E32.4081
G1 X94.366 Y138.403 E32.42689
G1 X94.243 Y137.905 E32.44566
G1 X94.2 Y137.371 E32.46526
G1 X94.2 Y97.629 E33.91927
G1 X94.24 Y97.117 E33.93805
G1 X94.359 Y96.618 E33.95682
G1 X94.554 Y96.143 E33.97561
G1 X94.721 Y95.868 E33.98738
G0 F810 X94.82 Y95.704
G0 X95.167 Y95.296
M204 S5000
M205 X30 Y30
G0 F7200 X95.478 Y95.607
M204 S500
M205 X20 Y20
G1 F6000 E34.01398
G1 F900 X95.607 Y95.478 E34.02065
G1 X95.972 Y95.169 E34.03815
G1 X96.383 Y94.926 E34.05562
G1 X96.829 Y94.754 E34.07311
G1 X97.297 Y94.659 E34.09058
G1 X97.629 Y94.64 E34.10274
G1 X137.371 Y94.64 E35.55675
G1 X137.847 Y94.68 E35.57423
G1 X138.31 Y94.799 E35.59172
G1 X138.747 Y94.993 E35.60921
G1 X139.145 Y95.257 E35.62668
G1 X139.393 Y95.478 E35.63884
G1 X139.522 Y95.607 E35.64551
G1 X139.831 Y95.972 E35.66301
G1 X140.074 Y96.383 E35.68048
G1 X140.246 Y96.829 E35.69797
G1 X140.341 Y97.297 E35.71544
G1 X140.36 Y97.629 E35.7276
G1 X140.36 Y137.371 E37.18161
G1 X140.32 Y137.847 E37.19909
G1 X140.201 Y138.31 E37.21658
G1 X140.007 Y138.747 E37.23407
G1 X139.743 Y139.145 E37.25154
G1 X139.522 Y139.393 E37.2637
G1 X139.393 Y139.522 E37.27037
G1 X139.028 Y139.831 E37.28787
G1 X138.617 Y140.074 E37.30534
G1 X138.171 Y140.246 E37.32283
G1 X137.703 Y140.341 E37.3403
G1 X137.371 Y140.36 E37.35246
G1 X97.629 Y140.36 E38.80647
G1 X97.153 Y140.32 E38.82395
G1 X96.69 Y140.201 E38.84144
G1 X96.253 Y140.007 E38.85893
G1 X95.855 Y139.743 E38.8764
G1 X95.607 Y139.522 E38.88856
G1 X95.478 Y139.393 E38.89523
G1 X95.169 Y139.028 E38.91273
G1 X94.926 Y138.617 E38.9302
G1 X94.754 Y138.171 E38.94768
G1 X94.659 Y137.703 E38.96516
G1 X94.64 Y137.371 E38.97732
G1 X94.64 Y97.629 E40.43133
G1 X94.68 Y97.153 E40.44881
G1 X94.799 Y96.69 E40.4663
G1 X94.993 Y96.253 E40.48379
G1 X95.039 Y96.184 E40.48682
G0 F810 X95.257 Y95.855
G0 X95.478 Y95.607
M204 S5000
M205 X30 Y30
G0 F7200 X95.789 Y95.918
M204 S500
M205 X20 Y20
G1 F6000 E40.51342
G1 F900 X95.918 Y95.789 E40.52009
G1 X96.256 Y95.508 E40.53618
G1 X96.639 Y95.292 E40.55226
G1 X97.054 Y95.149 E40.56832
G1 X97.629 Y95.08 E40.58951
G1 X137.371 Y95.08 E42.04352
G1 X137.809 Y95.12 E42.05961
G1 X138.232 Y95.238 E42.07568
G1 X138.627 Y95.431 E42.09176
G1 X139.082 Y95.789 E42.11294
G1 X139.211 Y95.918 E42.11962
G1 X139.492 Y96.256 E42.1357
G1 X139.708 Y96.639 E42.15179
G1 X139.851 Y97.054 E42.16784
G1 X139.92 Y97.629 E42.18903
G1 X139.92 Y137.371 E43.64304
G1 X139.88 Y137.809 E43.65913
G1 X139.762 Y138.232 E43.6752
G1 X139.569 Y138.627 E43.69128
G1 X139.211 Y139.082 E43.71246
G1 X139.082 Y139.211 E43.71914
G1 X138.744 Y139.492 E43.73522
G1 X138.361 Y139.708 E43.75131
G1 X137.946 Y139.851 E43.76737
G1 X137.371 Y139.92 E43.78855
G1 X97.629 Y139.92 E45.24256
G1 X97.191 Y139.88 E45.25865
G1 X96.768 Y139.762 E45.27472
G1 X96.373 Y139.569 E45.2908
G1 X95.918 Y139.211 E45.31199
G1 X95.789 Y139.082 E45.31866
G1 X95.508 Y138.744 E45.33474
G1 X95.292 Y138.361 E45.35083
G1 X95.149 Y137.946 E45.36689
G1 X95.08 Y137.371 E45.38808
G1 X95.08 Y97.629 E46.84208
G1 X95.12 Y97.191 E46.85817
G1 X95.238 Y96.768 E46.87424
G1 X95.366 Y96.507 E46.88488
G0 F810 X95.431 Y96.373
G0 X95.789 Y95.918
M204 S5000
M205 X30 Y30
G0 F7200 X96.1 Y96.229
M204 S500
M205 X20 Y20
G1 F6000 E46.91147
G1 F900 X96.229 Y96.1 E46.91815
G1 X96.537 Y95.848 E46.93271
G1 X96.889 Y95.664 E46.94724
G1 X97.27 Y95.553 E46.96176
G1 X97.629 Y95.52 E46.97495
G1 X137.371 Y95.52 E48.42896
G1 X137.766 Y95.56 E48.44348
G1 X138.146 Y95.678 E48.45804
G1 X138.494 Y95.87 E48.47258
G1 X138.771 Y96.1 E48.48575
G1 X138.9 Y96.229 E48.49243
G1 X139.152 Y96.537 E48.50699
G1 X139.336 Y96.889 E48.52152
G1 X139.447 Y97.27 E48.53604
G1 X139.48 Y97.629 E48.54923
G1 X139.48 Y137.371 E50.00323
G1 X139.44 Y137.766 E50.01776
G1 X139.322 Y138.146 E50.03232
G1 X139.13 Y138.494 E50.04686
G1 X138.9 Y138.771 E50.06003
G1 X138.771 Y138.9 E50.0667
G1 X138.463 Y139.152 E50.08126
G1 X138.111 Y139.336 E50.0958
G1 X137.73 Y139.447 E50.11031
G1 X137.371 Y139.48 E50.1235
G1 X97.629 Y139.48 E51.57751
G1 X97.234 Y139.44 E51.59204
G1 X96.854 Y139.322 E51.60659
G1 X96.506 Y139.13 E51.62114
G1 X96.229 Y138.9 E51.63431
G1 X96.1 Y138.771 E51.64098
G1 X95.848 Y138.463 E51.65554
G1 X95.664 Y138.111 E51.67007
G1 X95.553 Y137.73 E51.68459
G1 X95.52 Y137.371 E51.69778
G1 X95.52 Y97.629 E53.15179
G1 X95.56 Y97.234 E53.16631
G1 X95.678 Y96.854 E53.18087
G1 X95.693 Y96.827 E53.182
G0 F810 X95.87 Y96.506
G0 X96.1 Y96.229
M204 S5000
M205 X30 Y30
G0 F7200 X96.411 Y96.54
M204 S500
M205 X20 Y20
G1 F6000 E53.2086
G1 F900 X96.54 Y96.411 E53.21528
G1 X96.814 Y96.193 E53.22809
G1 X97.131 Y96.043 E53.24092
G1 X97.629 Y95.96 E53.25939
G1 X137.371 Y95.96 E54.71339
G1 X137.719 Y96 E54.72621
G1 X138.049 Y96.117 E54.73902
G1 X138.46 Y96.411 E54.75751
G1 X138.589 Y96.54 E54.76418
G1 X138.807 Y96.814 E54.77699
G1 X138.957 Y97.131 E54.78982
G1 X139.04 Y97.629 E54.80829
G1 X139.04 Y137.371 E56.2623
G1 X139 Y137.719 E56.27512
G1 X138.883 Y138.049 E56.28793
G1 X138.589 Y138.46 E56.30641
G1 X138.46 Y138.589 E56.31309
G1 X138.186 Y138.807 E56.3259
G1 X137.869 Y138.957 E56.33873
G1 X137.371 Y139.04 E56.3572
G1 X97.629 Y139.04 E57.81121
G1 X97.281 Y139 E57.82402
G1 X96.951 Y138.883 E57.83683
G1 X96.54 Y138.589 E57.85532
G1 X96.411 Y138.46 E57.862
G1 X96.193 Y138.186 E57.87481
G1 X96.043 Y137.869 E57.88764
G1 X95.96 Y137.371 E57.90611
G1 X95.96 Y97.629 E59.36012
G1 X96 Y97.281 E59.37293
G1 X96.043 Y97.16 E59.37763
G0 F810 X96.117 Y96.951
G0 X96.411 Y96.54
M204 S5000
M205 X30 Y30
G0 F7200 X96.722 Y96.851
M204 S500
M205 X20 Y20
G1 F6000 E59.40423
G1 F900 X96.851 Y96.722 E59.4109
G1 X97.087 Y96.543 E59.42174
G1 X97.362 Y96.433 E59.43258
G1 X97.629 Y96.4 E59.44242
G1 X137.371 Y96.4 E60.89643
G1 X137.664 Y96.44 E60.90724
G1 X137.936 Y96.556 E60.91806
G1 X138.149 Y96.722 E60.92794
G1 X138.278 Y96.851 E60.93462
G1 X138.457 Y97.087 E60.94545
G1 X138.567 Y97.362 E60.95629
G1 X138.6 Y97.629 E60.96613
G1 X138.6 Y137.371 E62.42014
G1 X138.56 Y137.664 E62.43096
G1 X138.444 Y137.936 E62.44178
G1 X138.278 Y138.149 E62.45166
G1 X138.149 Y138.278 E62.45833
G1 X137.913 Y138.457 E62.46917
G1 X137.638 Y138.567 E62.48001
G1 X137.371 Y138.6 E62.48985
G1 X97.629 Y138.6 E63.94386
G1 X97.336 Y138.56 E63.95467
G1 X97.064 Y138.444 E63.96549
G1 X96.851 Y138.278 E63.97537
G1 X96.722 Y138.149 E63.98205
G1 X96.543 Y137.913 E63.99288
G1 X96.433 Y137.638 E64.00372
G1 X96.4 Y137.371 E64.01356
G1 X96.4 Y97.629 E65.46757
G1 X96.419 Y97.496 E65.47249
G0 F810 X96.44 Y97.336
G0 X96.556 Y97.064
G0 X96.722 Y96.851
M204 S5000
M205 X30 Y30
G0 F7200 X97.033 Y97.162
M204 S500
M205 X20 Y20
G1 F6000 E65.49908
G1 F900 X97.162 Y97.033 E65.50576
G1 X97.35 Y96.902 E65.51414
G1 X97.629 Y96.84 E65.5246
G1 X137.371 Y96.84 E66.9786
G1 X137.596 Y96.88 E66.98697
G1 X137.838 Y97.033 E66.99744
G1 X137.967 Y97.162 E67.00412
G1 X138.098 Y97.35 E67.0125
G1 X138.16 Y97.629 E67.02296
G1 X138.16 Y137.371 E68.47696
G1 X138.12 Y137.596 E68.48532
G1 X137.967 Y137.838 E68.4958
G1 X137.838 Y137.967 E68.50247
G1 X137.65 Y138.098 E68.51086
G1 X137.371 Y138.16 E68.52131
G1 X97.629 Y138.16 E69.97532
G1 X97.404 Y138.12 E69.98368
G1 X97.162 Y137.967 E69.99415
G1 X97.033 Y137.838 E70.00083
G1 X96.902 Y137.65 E70.00921
G1 X96.84 Y137.371 E70.01967
G1 X96.84 Y97.842 E71.46588
G0 F810 X96.84 Y97.629
G0 X96.88 Y97.404
G0 X97.033 Y97.162
M204 S5000
M205 X30 Y30
G0 F7200 X97.344 Y97.473
M204 S500
M205 X20 Y20
