;FLAVOR:Marlin
;TIME:1827
;Filament used: 0.818013m
;Layer height: 0.16
;Generated with Cura_SteamEngine 3.6.0
M140 S70
M105
M190 S70
M104 S215
M105
M109 S215
M82 ;absolute extrusion mode
G28 ; home all axes
M117 Purge extruder
G92 E0 ; reset extruder
G1 Z1.0 F3000 ; move z up little to prevent scratching of surface
G1 X0.1 Y20 Z0.3 F5000.0 ; move to start-line position G1 X0.1 Y200.0 Z0.3 F1500.0 E15 ; draw 1st line
G1 X0.4 Y200.0 Z0.3 F5000.0 ; move to side a little
G1 X0.4 Y20 Z0.3 F1500.0 E30 ; draw 2nd line
G92 E0 ; reset extruder
G1 Z1.0 F3000 ; move z up little to prevent scratching of surface
M117 All systems go!
G92 E0
G1 F6000 E-5
;LAYER_COUNT:7
;LAYER:0
M107
M204 S5000
M205 X30 Y30
G0 F7200 X94.357 Y94.562 Z0.2
M204 S500
M205 X20 Y20
;TYPE:SKIRT
G1 F6000 E0
G1 F900 X94.821 Y94.127 E0.02327
G1 X95.078 Y93.928 E0.03516
G1 X95.978 Y93.278 E0.07578
G1 X96.516 Y92.939 E0.09904
G1 X97.093 Y92.67 E0.12234
G1 X97.401 Y92.56 E0.1343
G1 X98.456 Y92.223 E0.17482
G1 X99.073 Y92.068 E0.1981
G1 X99.99 Y91.983 E0.23179
G1 X134.468 Y91.94 E1.49321
G1 X135.267 Y92.002 E1.52253
G1 X136.345 Y92.173 E1.56246
G1 X136.965 Y92.312 E1.58571
G1 X137.846 Y92.661 E1.62038
G1 X138.831 Y93.162 E1.66081
G1 X139.379 Y93.485 E1.68408
G1 X140.106 Y94.085 E1.71857
G1 X140.885 Y94.86 E1.75877
G1 X141.306 Y95.336 E1.78202
G1 X141.812 Y96.126 E1.81634
G1 X142.32 Y97.11 E1.85686
G1 X142.576 Y97.692 E1.88012
G1 X142.756 Y98.302 E1.90339
G1 X142.819 Y98.624 E1.91539
G1 X142.995 Y99.713 E1.95575
G1 X143.06 Y100.527 E1.98563
G1 X143.015 Y135.032 E3.24803
G1 X142.974 Y135.666 E3.27128
G1 X142.854 Y136.291 E3.29456
G1 X142.765 Y136.596 E3.30619
G1 X142.423 Y137.643 E3.34648
G1 X142.188 Y138.234 E3.36975
G1 X141.703 Y139.051 E3.40451
G1 X141.049 Y139.949 E3.44516
G1 X140.643 Y140.438 E3.46841
G1 X140.179 Y140.873 E3.49168
G1 X139.922 Y141.072 E3.50357
G1 X139.022 Y141.722 E3.54419
G1 X138.484 Y142.061 E3.56745
G1 X137.907 Y142.33 E3.59075
G1 X137.599 Y142.44 E3.60271
G1 X136.544 Y142.777 E3.64323
G1 X135.927 Y142.932 E3.66651
G1 X135.01 Y143.017 E3.7002
G1 X100.534 Y143.06 E4.96154
G1 X99.726 Y142.996 E4.9912
G1 X98.63 Y142.82 E5.03181
G1 X98.009 Y142.68 E5.0551
G1 X97.412 Y142.463 E5.07834
G1 X97.113 Y142.321 E5.09045
G1 X96.128 Y141.813 E5.131
G1 X95.582 Y141.487 E5.15427
G1 X94.86 Y140.885 E5.18866
G1 X94.085 Y140.106 E5.22886
G1 X93.666 Y139.628 E5.25212
G1 X93.162 Y138.831 E5.28662
G1 X92.66 Y137.844 E5.32713
G1 X92.408 Y137.26 E5.3504
G1 X92.173 Y136.344 E5.385
G1 X92.003 Y135.274 E5.42464
G1 X91.94 Y134.473 E5.45403
G1 X91.985 Y99.968 E6.71644
G1 X92.026 Y99.334 E6.73968
G1 X92.146 Y98.709 E6.76297
G1 X92.235 Y98.404 E6.77459
G1 X92.577 Y97.357 E6.81489
G1 X92.812 Y96.766 E6.83816
G1 X93.297 Y95.949 E6.87292
G1 X93.897 Y95.125 E6.91021
G0 F810 X93.951 Y95.051
G0 X94.357 Y94.562
M204 S5000
M205 X30 Y30
G0 F7200 X94.696 Y94.844
M204 S500
M205 X20 Y20
G1 F6000 E6.93681
G1 F900 X95.336 Y94.285 E6.9679
G1 X96.236 Y93.635 E7.00852
G1 X96.751 Y93.312 E7.03076
G1 X97.535 Y92.979 E7.06192
G1 X98.59 Y92.642 E7.10244
G1 X99.18 Y92.496 E7.12468
G1 X99.99 Y92.423 E7.15443
G1 X134.468 Y92.38 E8.41585
G1 X135.198 Y92.437 E8.44264
G1 X136.276 Y92.608 E8.48257
G1 X136.868 Y92.743 E8.50479
G1 X137.647 Y93.053 E8.53546
G1 X138.632 Y93.554 E8.57589
G1 X139.154 Y93.865 E8.59812
G1 X139.795 Y94.397 E8.6286
G1 X140.574 Y95.172 E8.6688
G1 X140.976 Y95.628 E8.69104
G1 X141.421 Y96.328 E8.72139
G1 X141.929 Y97.312 E8.76191
G1 X142.172 Y97.869 E8.78414
G1 X142.385 Y98.694 E8.81531
G1 X142.561 Y99.783 E8.85567
G1 X142.62 Y100.526 E8.88294
G1 X142.575 Y135.031 E10.14535
G1 X142.534 Y135.637 E10.16757
G1 X142.347 Y136.46 E10.19845
G1 X142.005 Y137.507 E10.23874
G1 X141.778 Y138.07 E10.26095
G1 X141.348 Y138.792 E10.2917
G1 X140.694 Y139.69 E10.33234
G1 X140.304 Y140.156 E10.35457
G1 X139.664 Y140.715 E10.38566
G1 X138.764 Y141.365 E10.42628
G1 X138.249 Y141.688 E10.44852
G1 X137.465 Y142.021 E10.47969
G1 X136.41 Y142.358 E10.52021
G1 X135.82 Y142.504 E10.54244
G1 X135.01 Y142.577 E10.5722
G1 X100.534 Y142.62 E11.83354
G1 X99.795 Y142.562 E11.86066
G1 X98.699 Y142.386 E11.90127
G1 X98.107 Y142.25 E11.9235
G1 X97.314 Y141.93 E11.95478
G1 X96.329 Y141.422 E11.99533
G1 X95.809 Y141.109 E12.01754
G1 X95.172 Y140.574 E12.04797
G1 X94.397 Y139.795 E12.08817
G1 X93.997 Y139.337 E12.11042
G1 X93.554 Y138.631 E12.14092
G1 X93.052 Y137.644 E12.18143
G1 X92.813 Y137.086 E12.20364
G1 X92.607 Y136.275 E12.23425
G1 X92.437 Y135.205 E12.27389
G1 X92.38 Y134.474 E12.30071
G1 X92.425 Y99.969 E13.56312
G1 X92.466 Y99.363 E13.58534
G1 X92.653 Y98.54 E13.61622
G1 X92.995 Y97.493 E13.65652
G1 X93.222 Y96.93 E13.67873
G1 X93.652 Y96.208 E13.70947
G1 X94.236 Y95.407 E13.74574
G0 F810 X94.306 Y95.31
G0 X94.696 Y94.844
M204 S5000
M205 X30 Y30
G0 F7200 X95.034 Y95.127
M204 S500
M205 X20 Y20
G1 F6000 E13.77234
G1 F900 X95.594 Y94.641 E13.79947
G1 X96.494 Y93.991 E13.84008
G1 X96.984 Y93.686 E13.8612
G1 X97.669 Y93.398 E13.88839
G1 X98.724 Y93.061 E13.92891
G1 X99.285 Y92.924 E13.95003
G1 X99.991 Y92.863 E13.97596
G1 X134.469 Y92.82 E15.23738
G1 X135.129 Y92.872 E15.2616
G1 X136.207 Y93.043 E15.30153
G1 X136.77 Y93.172 E15.32266
G1 X137.447 Y93.445 E15.34937
G1 X138.432 Y93.946 E15.3898
G1 X138.928 Y94.243 E15.41095
G1 X139.485 Y94.709 E15.43752
G1 X140.264 Y95.484 E15.47773
G1 X140.645 Y95.919 E15.49888
G1 X141.03 Y96.529 E15.52527
G1 X141.538 Y97.513 E15.56579
G1 X141.767 Y98.044 E15.58695
G1 X141.95 Y98.764 E15.61412
G1 X142.126 Y99.853 E15.65448
G1 X142.18 Y100.525 E15.67915
G1 X142.135 Y135.03 E16.94156
G1 X142.094 Y135.607 E16.96272
G1 X141.928 Y136.323 E16.98961
G1 X141.586 Y137.37 E17.02991
G1 X141.369 Y137.906 E17.05106
G1 X140.992 Y138.533 E17.07783
G1 X140.338 Y139.431 E17.11847
G1 X139.966 Y139.873 E17.13961
G1 X139.406 Y140.359 E17.16674
G1 X138.506 Y141.009 E17.20736
G1 X138.016 Y141.314 E17.22847
G1 X137.331 Y141.602 E17.25566
G1 X136.276 Y141.939 E17.29618
G1 X135.715 Y142.076 E17.31731
G1 X135.009 Y142.137 E17.34323
G1 X100.533 Y142.18 E18.60458
G1 X99.865 Y142.127 E18.62909
G1 X98.769 Y141.951 E18.66971
G1 X98.206 Y141.82 E18.69085
G1 X97.516 Y141.539 E18.71811
G1 X96.531 Y141.031 E18.75866
G1 X96.037 Y140.731 E18.7798
G1 X95.484 Y140.264 E18.80629
G1 X94.709 Y139.485 E18.84649
G1 X94.33 Y139.048 E18.86765
G1 X93.946 Y138.432 E18.89421
G1 X93.444 Y137.445 E18.93472
G1 X93.218 Y136.913 E18.95587
G1 X93.042 Y136.206 E18.98252
G1 X92.872 Y135.136 E19.02216
G1 X92.82 Y134.475 E19.04642
G1 X92.865 Y99.97 E20.30883
G1 X92.906 Y99.393 E20.32999
G1 X93.072 Y98.677 E20.35688
G1 X93.414 Y97.63 E20.39718
G1 X93.631 Y97.094 E20.41834
G1 X94.008 Y96.467 E20.4451
G1 X94.574 Y95.69 E20.48027
G0 F810 X94.662 Y95.569
G0 X95.034 Y95.127
M204 S5000
M205 X30 Y30
G0 F7200 X95.371 Y95.411
M204 S500
M205 X20 Y20
G1 F6000 E20.50687
G1 F900 X95.851 Y94.998 E20.53004
G1 X96.751 Y94.348 E20.57065
G1 X97.217 Y94.061 E20.59068
G1 X97.803 Y93.817 E20.6139
G1 X98.858 Y93.48 E20.65442
G1 X99.389 Y93.353 E20.6744
G1 X99.991 Y93.303 E20.6965
G1 X134.469 Y93.26 E21.95792
G1 X135.06 Y93.306 E21.9796
G1 X136.138 Y93.477 E22.01954
G1 X136.67 Y93.602 E22.03953
G1 X137.248 Y93.837 E22.06236
G1 X138.233 Y94.338 E22.10279
G1 X138.7 Y94.621 E22.12277
G1 X139.175 Y95.021 E22.14549
G1 X139.954 Y95.796 E22.18569
G1 X140.312 Y96.208 E22.20566
G1 X140.639 Y96.731 E22.22823
G1 X141.147 Y97.715 E22.26874
G1 X141.362 Y98.218 E22.28875
G1 X141.516 Y98.834 E22.31198
G1 X141.692 Y99.923 E22.35234
G1 X141.74 Y100.525 E22.37444
G1 X141.695 Y135.03 E23.63684
G1 X141.654 Y135.575 E23.65684
G1 X141.51 Y136.186 E23.67981
G1 X141.168 Y137.233 E23.7201
G1 X140.961 Y137.739 E23.74011
G1 X140.636 Y138.274 E23.76301
G1 X139.982 Y139.172 E23.80365
G1 X139.629 Y139.589 E23.82364
G1 X139.149 Y140.002 E23.84681
G1 X138.249 Y140.652 E23.88743
G1 X137.783 Y140.939 E23.90745
G1 X137.197 Y141.183 E23.93067
G1 X136.142 Y141.52 E23.97119
G1 X135.611 Y141.647 E23.99117
G1 X135.009 Y141.697 E24.01327
G1 X100.533 Y141.74 E25.27461
G1 X99.935 Y141.693 E25.29656
G1 X98.839 Y141.517 E25.33717
G1 X98.307 Y141.391 E25.35717
G1 X97.718 Y141.148 E25.38048
G1 X96.733 Y140.64 E25.42103
G1 X96.266 Y140.355 E25.44105
G1 X95.796 Y139.954 E25.46365
G1 X95.021 Y139.175 E25.50385
G1 X94.664 Y138.76 E25.52388
G1 X94.338 Y138.233 E25.54655
G1 X93.836 Y137.246 E25.58707
G1 X93.625 Y136.741 E25.60709
G1 X93.476 Y136.137 E25.62985
G1 X93.306 Y135.067 E25.66949
G1 X93.26 Y134.475 E25.69121
G1 X93.305 Y99.97 E26.95362
G1 X93.346 Y99.425 E26.97362
G1 X93.49 Y98.814 E26.99658
G1 X93.832 Y97.767 E27.03688
G1 X94.039 Y97.261 E27.05688
G1 X94.364 Y96.726 E27.07978
G1 X94.912 Y95.974 E27.11383
G0 F810 X95.018 Y95.828
G0 X95.371 Y95.411
M204 S5000
M205 X30 Y30
G0 F7200 X95.707 Y95.697
M204 S500
M205 X20 Y20
G1 F6000 E27.14043
G1 F900 X96.109 Y95.355 E27.15974
G1 X97.009 Y94.705 E27.20035
G1 X97.447 Y94.437 E27.21914
G1 X97.937 Y94.236 E27.23852
G1 X98.992 Y93.899 E27.27904
G1 X99.492 Y93.782 E27.29782
G1 X99.992 Y93.743 E27.31617
G1 X134.47 Y93.7 E28.57759
G1 X134.991 Y93.741 E28.59671
G1 X136.069 Y93.912 E28.63664
G1 X136.568 Y94.031 E28.65541
G1 X137.048 Y94.23 E28.67442
G1 X138.033 Y94.731 E28.71485
G1 X138.471 Y94.998 E28.73362
G1 X138.864 Y95.333 E28.75251
G1 X139.643 Y96.108 E28.79272
G1 X139.978 Y96.497 E28.8115
G1 X140.248 Y96.933 E28.83026
G1 X140.756 Y97.917 E28.87078
G1 X140.956 Y98.39 E28.88957
G1 X141.082 Y98.904 E28.90893
G1 X141.258 Y99.993 E28.94929
G1 X141.3 Y100.524 E28.96877
G1 X141.255 Y135.029 E30.23118
G1 X141.214 Y135.541 E30.24997
G1 X141.092 Y136.05 E30.26912
G1 X140.75 Y137.097 E30.30942
G1 X140.553 Y137.571 E30.3282
G1 X140.281 Y138.015 E30.34725
G1 X139.627 Y138.913 E30.38789
G1 X139.293 Y139.303 E30.40668
G1 X138.891 Y139.645 E30.42599
G1 X137.991 Y140.295 E30.46661
G1 X137.553 Y140.563 E30.48539
G1 X137.063 Y140.764 E30.50477
G1 X136.008 Y141.101 E30.54529
G1 X135.508 Y141.218 E30.56408
G1 X135.008 Y141.257 E30.58243
G1 X100.532 Y141.3 E31.84377
G1 X100.005 Y141.258 E31.86311
G1 X98.909 Y141.082 E31.90373
G1 X98.41 Y140.962 E31.9225
G1 X97.919 Y140.757 E31.94197
G1 X96.934 Y140.249 E31.98252
G1 X96.498 Y139.979 E32.00128
G1 X96.108 Y139.643 E32.02011
G1 X95.333 Y138.864 E32.06032
G1 X95 Y138.473 E32.07911
G1 X94.731 Y138.033 E32.09797
G1 X94.229 Y137.046 E32.13849
G1 X94.032 Y136.572 E32.15727
G1 X93.911 Y136.068 E32.17623
G1 X93.741 Y134.998 E32.21587
G1 X93.7 Y134.476 E32.23503
G1 X93.745 Y99.971 E33.49743
G1 X93.786 Y99.459 E33.51622
G1 X93.908 Y98.95 E33.53537
G1 X94.25 Y97.903 E33.57567
G1 X94.447 Y97.429 E33.59445
G1 X94.719 Y96.985 E33.6135
G1 X95.247 Y96.26 E33.64631
G0 F810 X95.373 Y96.087
G0 X95.707 Y95.697
M204 S5000
M205 X30 Y30
G0 F7200 X96.042 Y95.985
M204 S500
M205 X20 Y20
G1 F6000 E33.67291
G1 F900 X96.366 Y95.711 E33.68844
G1 X97.266 Y95.061 E33.72905
G1 X97.676 Y94.815 E33.74655
G1 X98.071 Y94.656 E33.76213
G1 X99.126 Y94.319 E33.80265
G1 X99.592 Y94.212 E33.82014
G1 X99.992 Y94.183 E33.83481
G1 X134.47 Y94.14 E35.09623
G1 X134.922 Y94.175 E35.11282
G1 X136 Y94.346 E35.15275
G1 X136.464 Y94.46 E35.17023
G1 X136.849 Y94.622 E35.18551
G1 X137.834 Y95.123 E35.22594
G1 X138.24 Y95.374 E35.24341
G1 X138.554 Y95.644 E35.25856
G1 X139.333 Y96.419 E35.29876
G1 X139.643 Y96.784 E35.31628
G1 X139.857 Y97.135 E35.33132
G1 X140.365 Y98.119 E35.37184
G1 X140.548 Y98.561 E35.38934
G1 X140.647 Y98.975 E35.40491
G1 X140.823 Y100.064 E35.44527
G1 X140.86 Y100.524 E35.46215
G1 X140.815 Y135.029 E36.72456
G1 X140.774 Y135.505 E36.74204
G1 X140.674 Y135.913 E36.75741
G1 X140.332 Y136.96 E36.79771
G1 X140.146 Y137.4 E36.81518
G1 X139.925 Y137.756 E36.83051
G1 X139.271 Y138.654 E36.87116
G1 X138.958 Y139.015 E36.88864
G1 X138.634 Y139.289 E36.90416
G1 X137.734 Y139.939 E36.94478
G1 X137.324 Y140.185 E36.96227
G1 X136.929 Y140.344 E36.97785
G1 X135.874 Y140.681 E37.01837
G1 X135.408 Y140.788 E37.03586
G1 X135.008 Y140.817 E37.05054
G1 X100.532 Y140.86 E38.31188
G1 X100.075 Y140.824 E38.32865
G1 X98.979 Y140.648 E38.36927
G1 X98.515 Y140.533 E38.38676
G1 X98.121 Y140.366 E38.40241
G1 X97.136 Y139.858 E38.44296
G1 X96.731 Y139.604 E38.46045
G1 X96.419 Y139.333 E38.47557
G1 X95.644 Y138.554 E38.51577
G1 X95.337 Y138.188 E38.53325
G1 X95.123 Y137.834 E38.54838
G1 X94.621 Y136.847 E38.5889
G1 X94.44 Y136.404 E38.60641
G1 X94.345 Y135.999 E38.62163
G1 X94.175 Y134.929 E38.66126
G1 X94.14 Y134.476 E38.67789
G1 X94.185 Y99.971 E39.94029
G1 X94.226 Y99.495 E39.95777
G1 X94.326 Y99.087 E39.97314
G1 X94.668 Y98.04 E40.01344
G1 X94.854 Y97.6 E40.03092
G1 X95.075 Y97.244 E40.04625
G1 X95.582 Y96.548 E40.07775
G0 F810 X95.729 Y96.346
G0 X96.042 Y95.985
M204 S5000
M205 X30 Y30
G0 F7200 X96.375 Y96.275
M204 S500
M205 X20 Y20
G1 F6000 E40.10435
G1 F900 X96.624 Y96.068 E40.11619
G1 X97.524 Y95.418 E40.15681
G1 X97.902 Y95.194 E40.17289
G1 X98.205 Y95.075 E40.1848
G1 X99.26 Y94.738 E40.22532
G1 X99.689 Y94.643 E40.24139
G1 X99.993 Y94.623 E40.25254
G1 X134.471 Y94.58 E41.51396
G1 X134.853 Y94.61 E41.52798
G1 X135.931 Y94.781 E41.56791
G1 X136.357 Y94.889 E41.58399
G1 X136.649 Y95.014 E41.59561
G1 X137.634 Y95.515 E41.63604
G1 X138.006 Y95.749 E41.65212
G1 X138.244 Y95.956 E41.66366
G1 X139.023 Y96.731 E41.70386
G1 X139.305 Y97.068 E41.71994
G1 X139.466 Y97.337 E41.73141
G1 X139.974 Y98.321 E41.77192
G1 X140.14 Y98.728 E41.788
G1 X140.213 Y99.045 E41.79991
G1 X140.389 Y100.134 E41.84027
G1 X140.42 Y100.523 E41.85454
G1 X140.375 Y135.028 E43.11695
G1 X140.335 Y135.466 E43.13304
G1 X140.255 Y135.776 E43.14475
G1 X139.913 Y136.823 E43.18505
G1 X139.74 Y137.227 E43.20113
G1 X139.569 Y137.497 E43.21282
G1 X138.915 Y138.395 E43.25347
G1 X138.625 Y138.725 E43.26954
G1 X138.376 Y138.932 E43.28139
G1 X137.476 Y139.582 E43.322
G1 X137.098 Y139.806 E43.33808
G1 X136.795 Y139.925 E43.34999
G1 X135.74 Y140.262 E43.39051
G1 X135.311 Y140.357 E43.40658
G1 X135.007 Y140.377 E43.41773
G1 X100.531 Y140.42 E44.67908
G1 X100.144 Y140.389 E44.69328
G1 X99.048 Y140.213 E44.73389
G1 X98.622 Y140.105 E44.74997
G1 X98.323 Y139.975 E44.7619
G1 X97.338 Y139.467 E44.80245
G1 X96.967 Y139.231 E44.81853
G1 X96.731 Y139.023 E44.83004
G1 X95.956 Y138.244 E44.87025
G1 X95.676 Y137.905 E44.88633
G1 X95.515 Y137.634 E44.89786
G1 X95.013 Y136.647 E44.93838
G1 X94.85 Y136.239 E44.95445
G1 X94.78 Y135.93 E44.96604
G1 X94.61 Y134.86 E45.00568
G1 X94.58 Y134.477 E45.01974
G1 X94.625 Y99.972 E46.28214
G1 X94.665 Y99.534 E46.29823
G1 X94.745 Y99.224 E46.30995
G1 X95.087 Y98.177 E46.35024
G1 X95.26 Y97.773 E46.36632
G1 X95.431 Y97.503 E46.37802
G1 X95.916 Y96.837 E46.40816
G0 F810 X96.085 Y96.605
G0 X96.375 Y96.275
M204 S5000
M205 X30 Y30
G0 F7200 X96.706 Y96.568
M204 S500
M205 X20 Y20
G1 F6000 E46.43476
G1 F900 X96.882 Y96.425 E46.44305
G1 X97.782 Y95.775 E46.48367
G1 X98.126 Y95.576 E46.49821
G1 X98.339 Y95.494 E46.50656
G1 X99.394 Y95.157 E46.54708
G1 X99.782 Y95.075 E46.56159
G1 X99.994 Y95.063 E46.56936
G1 X134.472 Y95.02 E47.83078
G1 X134.784 Y95.044 E47.84223
G1 X135.862 Y95.215 E47.88216
G1 X136.247 Y95.317 E47.89673
G1 X136.45 Y95.406 E47.90484
G1 X137.435 Y95.907 E47.94527
G1 X137.769 Y96.122 E47.9598
G1 X137.933 Y96.268 E47.96784
G1 X138.712 Y97.043 E48.00804
G1 X138.965 Y97.351 E48.02262
G1 X139.075 Y97.539 E48.03059
G1 X139.583 Y98.523 E48.07111
G1 X139.729 Y98.892 E48.08563
G1 X139.779 Y99.115 E48.09399
G1 X139.955 Y100.204 E48.13435
G1 X139.98 Y100.523 E48.14605
G1 X139.935 Y135.028 E49.40846
G1 X139.895 Y135.423 E49.42298
G1 X139.837 Y135.64 E49.4312
G1 X139.495 Y136.687 E49.4715
G1 X139.334 Y137.05 E49.48603
G1 X139.214 Y137.238 E49.49419
G1 X138.56 Y138.136 E49.53483
G1 X138.294 Y138.432 E49.54939
G1 X138.118 Y138.575 E49.55769
G1 X137.218 Y139.225 E49.59831
G1 X136.874 Y139.424 E49.61285
G1 X136.661 Y139.506 E49.6212
G1 X135.606 Y139.843 E49.66172
G1 X135.218 Y139.925 E49.67622
G1 X135.006 Y139.937 E49.68399
G1 X100.53 Y139.98 E50.94534
G1 X100.214 Y139.955 E50.95694
G1 X99.118 Y139.779 E50.99755
G1 X98.734 Y139.677 E51.01208
G1 X98.524 Y139.584 E51.02049
G1 X97.539 Y139.076 E51.06103
G1 X97.206 Y138.859 E51.07558
G1 X97.043 Y138.712 E51.08361
G1 X96.268 Y137.933 E51.12381
