;FLAVOR:Marlin
;TIME:5499
;Filament used: 6.58067m
;Layer height: 0.2
;Generated with Cura_SteamEngine 3.6.0
M140 S70
M105
M190 S70
M104 S215
M105
M109 S215
M82 ;absolute extrusion mode
G28 ; home all axes
M117 Purge extruder
G92 E0 ; reset extruder
G1 Z1.0 F3000 ; move z up little to prevent scratching of surface
G1 X0.1 Y20 Z0.3 F5000.0 ; move to start-line position G1 X0.1 Y200.0 Z0.3 F1500.0 E15 ; draw 1st line
G1 X0.4 Y200.0 Z0.3 F5000.0 ; move to side a little
G1 X0.4 Y20 Z0.3 F1500.0 E30 ; draw 2nd line
G92 E0 ; reset extruder
G1 Z1.0 F3000 ; move z up little to prevent scratching of surface
M117 All systems go!
G92 E0
G1 F6000 E-5
;LAYER_COUNT:77
;LAYER:0
M107
M204 S5000
M205 X30 Y30
G0 F7200 X77.876 Y86.188 Z0.2
M204 S500
M205 X20 Y20
;TYPE:SKIRT
G1 F6000 E0
G1 F900 X78.085 Y86.009 E0.01007
G1 X80.311 Y84.203 E0.11494
G1 X80.71 Y83.91 E0.13305
G1 X83.126 Y82.314 E0.23899
G1 X83.379 Y82.157 E0.24988
G1 X83.822 Y81.9 E0.26862
G1 X84.136 Y81.573 E0.28521
G1 X84.631 Y81.173 E0.30849
G1 X85.156 Y80.847 E0.3311
G1 X88.502 Y79.04 E0.47023
G1 X88.785 Y78.898 E0.48181
G1 X91.636 Y77.582 E0.5967
G1 X91.844 Y77.491 E0.605
G1 X94.477 Y76.416 E0.70905
G1 X94.702 Y76.331 E0.71785
G1 X97.561 Y75.319 E0.82881
G1 X97.775 Y75.249 E0.83705
G1 X100.74 Y74.346 E0.95045
G1 X100.956 Y74.285 E0.95866
G1 X103.854 Y73.541 E1.06812
G1 X104.089 Y73.487 E1.07695
G1 X104.181 Y73.468 E1.08038
G1 X104.81 Y73.378 E1.10363
G1 X105.446 Y73.369 E1.1269
G1 X106.078 Y73.439 E1.15017
G1 X106.696 Y73.588 E1.17342
G1 X107.291 Y73.813 E1.1967
G1 X107.853 Y74.112 E1.21999
G1 X108.373 Y74.478 E1.24325
G1 X108.842 Y74.906 E1.26648
G1 X108.879 Y74.95 E1.26858
G1 X109.596 Y74.663 E1.29684
G1 X110.2 Y74.464 E1.32011
G1 X110.627 Y74.372 E1.33609
G1 X113.621 Y73.862 E1.4472
G1 X114.368 Y73.791 E1.47466
G1 X117.399 Y73.729 E1.58557
G1 X117.606 Y73.729 E1.59315
G1 X120.631 Y73.791 E1.70384
G1 X121.376 Y73.862 E1.73122
G1 X124.377 Y74.373 E1.8426
G1 X124.996 Y74.519 E1.86587
G1 X125.543 Y74.72 E1.88719
G1 X126.104 Y74.964 E1.90957
G1 X126.248 Y74.804 E1.91745
G1 X126.73 Y74.388 E1.94074
G1 X127.259 Y74.036 E1.96399
G1 X127.829 Y73.754 E1.98725
G1 X128.429 Y73.544 E2.01051
G1 X129.051 Y73.412 E2.03377
G1 X129.685 Y73.359 E2.05705
G1 X130.32 Y73.386 E2.0803
G1 X131.048 Y73.517 E2.10737
G1 X134.084 Y74.296 E2.22204
G1 X134.306 Y74.358 E2.23047
G1 X137.246 Y75.257 E2.34295
G1 X137.457 Y75.327 E2.35109
G1 X140.314 Y76.34 E2.46199
G1 X140.532 Y76.423 E2.47052
G1 X143.315 Y77.557 E2.58047
G1 X143.537 Y77.654 E2.58933
G1 X146.235 Y78.907 E2.69817
G1 X146.516 Y79.048 E2.70967
G1 X149.987 Y80.93 E2.85413
G1 X150.526 Y81.267 E2.87739
G1 X151.018 Y81.67 E2.90065
G1 X151.213 Y81.878 E2.91108
G1 X154.322 Y83.937 E3.04751
G1 X154.715 Y84.225 E3.06534
G1 X156.924 Y86.015 E3.16936
G1 X157.141 Y86.201 E3.17982
G1 X159.226 Y88.096 E3.2829
G1 X159.431 Y88.293 E3.2933
G1 X161.384 Y90.279 E3.39521
G1 X161.592 Y90.504 E3.40642
G1 X163.389 Y92.568 E3.50654
G1 X163.586 Y92.809 E3.51793
G1 X165.266 Y94.997 E3.61886
G1 X165.563 Y95.428 E3.63801
G1 X166.986 Y97.741 E3.73736
G1 X167.149 Y98.026 E3.74937
G1 X168.394 Y100.38 E3.8468
G1 X168.546 Y100.694 E3.85956
G1 X169.62 Y103.115 E3.95646
G1 X169.752 Y103.443 E3.9694
G1 X170.648 Y105.916 E4.06563
G1 X170.761 Y106.265 E4.07905
G1 X171.476 Y108.797 E4.17531
G1 X171.564 Y109.161 E4.18901
G1 X172.085 Y111.716 E4.28441
G1 X172.166 Y112.27 E4.3049
G1 X172.257 Y113.277 E4.34189
G1 X172.447 Y113.8 E4.36225
G1 X172.588 Y114.42 E4.38551
G1 X172.651 Y115.126 E4.41144
G1 X172.703 Y117.811 E4.5097
G1 X172.695 Y118.205 E4.52411
G1 X172.541 Y120.829 E4.62028
G1 X172.503 Y121.222 E4.63473
G1 X172.153 Y123.769 E4.72879
G1 X172.085 Y124.151 E4.74298
G1 X171.536 Y126.687 E4.83792
G1 X171.427 Y127.106 E4.85376
G1 X169.73 Y132.615 E5.06465
G1 X169.635 Y132.892 E5.07537
G1 X168.52 Y135.883 E5.19215
G1 X168.394 Y136.191 E5.20433
G1 X166.629 Y140.117 E5.36181
G1 X166.332 Y140.679 E5.38507
G1 X165.967 Y141.2 E5.40834
G1 X165.666 Y141.532 E5.42474
G1 X165.307 Y142.245 E5.45394
G1 X165.181 Y142.48 E5.4637
G1 X163.54 Y145.353 E5.58475
G1 X163.394 Y145.593 E5.59503
G1 X161.632 Y148.315 E5.71366
G1 X161.477 Y148.539 E5.72363
G1 X159.55 Y151.191 E5.84356
G1 X159.376 Y151.418 E5.85403
G1 X157.308 Y153.95 E5.97363
G1 X157.129 Y154.157 E5.98364
G1 X154.931 Y156.569 E6.10304
G1 X154.731 Y156.777 E6.11359
G1 X152.412 Y159.047 E6.23232
G1 X152.2 Y159.242 E6.24286
G1 X149.746 Y161.385 E6.36205
G1 X149.515 Y161.575 E6.373
G1 X147.067 Y163.47 E6.48626
G1 X146.541 Y163.827 E6.50952
G1 X145.974 Y164.115 E6.53278
G1 X145.376 Y164.33 E6.55603
G1 X144.755 Y164.468 E6.57931
G1 X144.122 Y164.527 E6.60257
G1 X143.382 Y164.495 E6.62967
G1 X143.04 Y164.455 E6.64226
G1 X142.414 Y164.341 E6.66554
G1 X141.808 Y164.15 E6.68879
G1 X141.23 Y163.885 E6.71205
G1 X140.69 Y163.549 E6.73532
G1 X140.197 Y163.148 E6.75857
G1 X139.675 Y162.588 E6.78658
G1 X137.369 Y159.702 E6.92174
G1 X137.004 Y159.181 E6.94501
G1 X136.707 Y158.618 E6.9683
G1 X136.483 Y158.023 E6.99156
G1 X136.336 Y157.405 E7.0148
G1 X136.267 Y156.772 E7.0381
G1 X136.287 Y156.045 E7.0647
G1 X136.321 Y155.701 E7.07735
G1 X136.423 Y155.074 E7.10059
G1 X136.603 Y154.464 E7.12386
G1 X136.858 Y153.881 E7.14714
G1 X137.184 Y153.335 E7.17041
G1 X137.576 Y152.835 E7.19365
G1 X138.129 Y152.302 E7.22175
G1 X140.34 Y150.471 E7.32678
G1 X142.395 Y148.605 E7.42834
G1 X144.467 Y146.534 E7.53552
G1 X146.288 Y144.537 E7.63439
G1 X148.057 Y142.402 E7.73584
G1 X149.753 Y140.149 E7.83901
G1 X150.353 Y139.268 E7.87801
G1 X150.566 Y138.69 E7.90054
G1 X150.883 Y138.086 E7.9255
G1 X152.556 Y135.362 E8.04246
G1 X153.924 Y132.849 E8.14714
G1 X155.265 Y130.08 E8.2597
G1 X155.284 Y129.834 E8.26873
G1 X155.414 Y129.211 E8.29201
G1 X155.561 Y128.758 E8.30943
G1 X156.942 Y125.113 E8.45204
G1 X157.463 Y123.336 E8.51979
G1 X157.834 Y121.54 E8.58689
G1 X158.052 Y119.773 E8.65203
G1 X158.115 Y117.956 E8.71854
G1 X158.038 Y116.4 E8.77554
G1 X158.047 Y115.765 E8.79877
G1 X158.125 Y115.208 E8.81935
G1 X157.981 Y114.2 E8.85661
G1 X157.63 Y112.359 E8.92517
G1 X157.108 Y110.498 E8.99589
G1 X156.474 Y108.797 E9.0623
G1 X155.644 Y107.031 E9.13369
G1 X154.704 Y105.382 E9.20314
G1 X152.181 Y101.824 E9.36272
G1 X150.861 Y100.282 E9.43698
G1 X149.339 Y98.742 E9.5162
G1 X147.734 Y97.332 E9.59436
G1 X143.549 Y94.231 E9.78493
G1 X143.08 Y94.09 E9.80284
G1 X142.365 Y93.759 E9.83167
G1 X139.709 Y92.268 E9.94311
G1 X137.517 Y91.233 E10.03179
G1 X135.236 Y90.319 E10.1217
G1 X132.893 Y89.529 E10.21216
G1 X130.39 Y88.842 E10.30712
G1 X127.907 Y88.311 E10.40002
G1 X127.295 Y88.14 E10.42327
G1 X126.709 Y87.893 E10.44653
G1 X126.158 Y87.574 E10.46983
G1 X125.652 Y87.189 E10.49309
G1 X125.199 Y86.743 E10.51635
G1 X124.804 Y86.244 E10.53963
G1 X124.476 Y85.7 E10.56287
G1 X124.383 Y85.491 E10.57124
G1 X123.95 Y85.536 E10.58717
G1 X120.528 Y85.584 E10.71238
G1 X120.223 Y85.579 E10.72354
G1 X117.438 Y85.45 E10.82554
G1 X111.691 Y85.58 E11.03586
G1 X110.816 Y85.523 E11.06794
G1 X110.617 Y85.493 E11.0753
G1 X110.586 Y85.568 E11.07827
G1 X110.274 Y86.122 E11.10153
G1 X109.895 Y86.632 E11.12478
G1 X109.454 Y87.091 E11.14807
G1 X108.96 Y87.491 E11.17132
G1 X108.42 Y87.826 E11.19457
G1 X107.841 Y88.091 E11.21787
G1 X107.092 Y88.313 E11.24645
G1 X104.612 Y88.845 E11.33925
G1 X102.122 Y89.527 E11.4337
G1 X99.753 Y90.325 E11.52516
G1 X97.432 Y91.257 E11.61667
G1 X95.326 Y92.253 E11.7019
G1 X92.639 Y93.757 E11.81456
G1 X92.066 Y94.032 E11.83781
G1 X91.462 Y94.233 E11.8611
G1 X91.444 Y94.237 E11.86178
G1 X87.264 Y97.334 E12.05211
G1 X85.656 Y98.748 E12.13045
G1 X84.136 Y100.284 E12.20951
G1 X82.824 Y101.816 E12.2833
G1 X80.29 Y105.393 E12.44368
G1 X79.353 Y107.035 E12.51285
G1 X78.528 Y108.795 E12.58397
G1 X77.894 Y110.496 E12.65038
G1 X77.361 Y112.393 E12.72247
G1 X77.02 Y114.193 E12.7895
G1 X76.878 Y115.189 E12.82631
G1 X76.908 Y115.323 E12.83133
G1 X76.968 Y115.956 E12.85459
G1 X76.964 Y116.38 E12.87011
G1 X76.884 Y117.924 E12.92667
G1 X76.948 Y119.775 E12.99443
G1 X77.162 Y121.527 E13.05901
G1 X77.538 Y123.341 E13.12679
G1 X78.054 Y125.102 E13.19392
G1 X79.455 Y128.807 E13.33884
G1 X79.642 Y129.414 E13.36208
G1 X79.751 Y130.041 E13.38536
G1 X79.755 Y130.118 E13.38818
G1 X81.081 Y132.861 E13.49965
G1 X82.449 Y135.377 E13.60443
G1 X84.077 Y138.032 E13.71837
G1 X84.375 Y138.594 E13.74165
G1 X84.6 Y139.188 E13.76488
G1 X84.604 Y139.204 E13.76549
G1 X85.251 Y140.155 E13.80757
G1 X86.945 Y142.406 E13.91064
G1 X88.707 Y144.53 E14.01161
G1 X90.601 Y146.605 E14.11439
G1 X92.613 Y148.613 E14.21839
G1 X94.646 Y150.458 E14.31884
G1 X96.872 Y152.301 E14.42457
G1 X97.335 Y152.737 E14.44784
G1 X97.74 Y153.227 E14.47109
G1 X98.081 Y153.764 E14.49437
G1 X98.351 Y154.34 E14.51764
G1 X98.547 Y154.945 E14.54091
G1 X98.68 Y155.7 E14.56896
G1 X98.714 Y156.043 E14.58157
G1 X98.737 Y156.678 E14.60481
G1 X98.68 Y157.312 E14.6281
G1 X98.544 Y157.933 E14.65136
G1 X98.331 Y158.532 E14.67462
G1 X98.045 Y159.1 E14.69789
G1 X97.632 Y159.7 E14.72454
G1 X95.325 Y162.588 E14.85977
G1 X94.898 Y163.059 E14.88303
G1 X94.415 Y163.473 E14.9063
G1 X93.884 Y163.822 E14.92955
G1 X93.313 Y164.103 E14.95284
G1 X92.712 Y164.309 E14.97608
G1 X91.965 Y164.455 E15.00393
G1 X91.626 Y164.495 E15.01642
G1 X90.991 Y164.53 E15.03968
G1 X90.357 Y164.485 E15.06294
G1 X89.733 Y164.36 E15.08622
G1 X89.13 Y164.158 E15.10949
G1 X88.557 Y163.883 E15.13274
G1 X87.937 Y163.472 E15.15995
G1 X85.512 Y161.596 E15.27213
G1 X85.277 Y161.403 E15.28325
G1 X82.814 Y159.249 E15.40296
G1 X82.607 Y159.057 E15.41329
G1 X80.272 Y156.773 E15.53279
G1 X80.074 Y156.568 E15.54322
G1 X77.854 Y154.137 E15.66367
G1 X77.671 Y153.926 E15.67389
G1 X75.64 Y151.439 E15.79136
G1 X75.468 Y151.216 E15.80167
G1 X73.537 Y148.563 E15.92172
G1 X73.382 Y148.337 E15.93174
G1 X71.591 Y145.573 E16.05224
G1 X71.441 Y145.327 E16.06278
G1 X69.817 Y142.479 E16.18273
G1 X69.688 Y142.237 E16.19276
G1 X69.361 Y141.583 E16.21951
G1 X68.975 Y141.139 E16.24104
G1 X68.622 Y140.61 E16.26431
G1 X68.386 Y140.149 E16.28325
G1 X66.62 Y136.226 E16.44065
G1 X66.491 Y135.911 E16.45311
G1 X65.361 Y132.87 E16.5718
G1 X65.27 Y132.603 E16.58212
G1 X63.573 Y127.115 E16.79228
G1 X63.46 Y126.682 E16.80866
G1 X62.914 Y124.139 E16.90382
G1 X62.848 Y123.767 E16.91764
G1 X62.497 Y121.218 E17.01178
G1 X62.458 Y120.82 E17.02641
G1 X62.306 Y118.194 E17.12264
G1 X62.299 Y117.803 E17.13695
G1 X62.344 Y115.508 E17.22093
G1 X62.396 Y114.874 E17.24421
G1 X62.528 Y114.252 E17.26747
G1 X62.696 Y113.767 E17.28625
G1 X62.829 Y112.289 E17.34054
G1 X62.911 Y111.735 E17.36103
G1 X63.441 Y109.129 E17.45833
G1 X63.531 Y108.755 E17.4724
G1 X64.238 Y106.264 E17.56714
G1 X64.348 Y105.923 E17.58024
G1 X65.24 Y103.46 E17.67608
G1 X65.375 Y103.126 E17.68926
G1 X66.456 Y100.697 E17.78653
G1 X66.606 Y100.388 E17.7991
G1 X67.871 Y97.997 E17.89807
G1 X68.03 Y97.718 E17.90982
G1 X69.43 Y95.435 E18.0078
G1 X69.729 Y95.001 E18.02708
G1 X71.4 Y92.822 E18.12754
G1 X71.603 Y92.573 E18.1393
G1 X73.425 Y90.486 E18.24066
G1 X73.626 Y90.27 E18.25145
G1 X75.572 Y88.287 E18.3531
G1 X75.786 Y88.081 E18.36397
G1 X77.338 Y86.676 E18.44056
G0 F810 X77.876 Y86.188
M204 S5000
M205 X30 Y30
G0 F7200 X78.172 Y86.514
M204 S500
M205 X20 Y20
G1 F6000 E18.46716
G1 F900 X78.362 Y86.35 E18.47634
G1 X80.588 Y84.544 E18.58121
G1 X80.953 Y84.277 E18.59776
G1 X83.369 Y82.681 E18.7037
G1 X83.6 Y82.538 E18.71364
G1 X84.084 Y82.258 E18.73409
G1 X84.494 Y81.843 E18.75544
G1 X84.974 Y81.47 E18.77768
G1 X85.365 Y81.234 E18.79439
G1 X88.711 Y79.427 E18.93352
G1 X88.97 Y79.297 E18.94412
G1 X91.821 Y77.981 E19.059
G1 X92.011 Y77.899 E19.06657
G1 X94.644 Y76.824 E19.17062
G1 X94.848 Y76.746 E19.17861
G1 X97.707 Y75.734 E19.28957
G1 X97.903 Y75.669 E19.29713
G1 X100.868 Y74.766 E19.41052
G1 X101.065 Y74.711 E19.41801
G1 X103.963 Y73.967 E19.52747
G1 X104.178 Y73.917 E19.53555
G1 X104.27 Y73.898 E19.53899
G1 X104.871 Y73.815 E19.56118
G1 X105.479 Y73.811 E19.58343
G1 X106.082 Y73.887 E19.60566
G1 X106.67 Y74.042 E19.62791
G1 X107.232 Y74.272 E19.65013
G1 X107.759 Y74.574 E19.67235
G1 X108.242 Y74.942 E19.69457
G1 X108.673 Y75.371 E19.71681
G1 X108.76 Y75.484 E19.72203
G1 X109.035 Y75.361 E19.73305
G1 X109.759 Y75.071 E19.76159
G1 X110.337 Y74.883 E19.78383
G1 X110.701 Y74.806 E19.79744
G1 X113.695 Y74.296 E19.90855
G1 X114.377 Y74.231 E19.93362
G1 X117.408 Y74.169 E20.04453
G1 X117.597 Y74.169 E20.05145
G1 X120.622 Y74.231 E20.16215
G1 X121.303 Y74.296 E20.18717
G1 X124.304 Y74.807 E20.29855
G1 X124.895 Y74.948 E20.32078
G1 X125.368 Y75.123 E20.33923
G1 X126.222 Y75.494 E20.3733
G1 X126.289 Y75.404 E20.3774
G1 X126.714 Y74.971 E20.3996
G1 X127.193 Y74.597 E20.42183
G1 X127.717 Y74.289 E20.44407
G1 X128.277 Y74.053 E20.4663
G1 X128.863 Y73.892 E20.48854
G1 X129.465 Y73.809 E20.51077
G1 X130.073 Y73.807 E20.53302
G1 X130.938 Y73.943 E20.56505
G1 X133.974 Y74.722 E20.67972
G1 X134.177 Y74.779 E20.68744
G1 X137.117 Y75.678 E20.79992
G1 X137.31 Y75.742 E20.80736
G1 X140.167 Y76.755 E20.91826
G1 X140.366 Y76.831 E20.92605
G1 X143.149 Y77.965 E21.036
G1 X143.352 Y78.053 E21.0441
G1 X146.05 Y79.306 E21.15293
G1 X146.306 Y79.435 E21.16342
G1 X149.777 Y81.317 E21.30788
G1 X150.291 Y81.641 E21.33011
G1 X150.758 Y82.029 E21.35232
G1 X150.938 Y82.225 E21.36205
G1 X154.079 Y84.304 E21.49986
G1 X154.438 Y84.567 E21.51615
G1 X156.647 Y86.357 E21.62017
G1 X156.845 Y86.527 E21.62972
G1 X158.93 Y88.422 E21.7328
G1 X159.117 Y88.602 E21.74229
G1 X161.07 Y90.588 E21.8442
G1 X161.26 Y90.793 E21.85443
G1 X163.057 Y92.857 E21.95455
G1 X163.237 Y93.077 E21.96495
G1 X164.917 Y95.265 E22.06588
G1 X165.188 Y95.658 E22.08334
G1 X166.611 Y97.971 E22.1827
G1 X166.76 Y98.232 E22.19369
G1 X168.005 Y100.586 E22.29112
G1 X168.144 Y100.873 E22.30279
G1 X169.218 Y103.294 E22.39969
G1 X169.339 Y103.593 E22.41149
G1 X170.235 Y106.066 E22.50772
G1 X170.337 Y106.384 E22.51994
G1 X171.052 Y108.916 E22.6162
G1 X171.133 Y109.249 E22.62874
G1 X171.654 Y111.804 E22.72414
G1 X171.728 Y112.31 E22.74285
G1 X171.825 Y113.381 E22.78219
G1 X171.848 Y113.427 E22.78407
G1 X172.047 Y114.002 E22.80633
G1 X172.169 Y114.597 E22.82855
G1 X172.211 Y115.135 E22.8483
G1 X172.263 Y117.82 E22.94655
G1 X172.256 Y118.18 E22.95972
G1 X172.102 Y120.804 E23.05589
G1 X172.067 Y121.162 E23.06905
G1 X171.717 Y123.709 E23.16311
G1 X171.655 Y124.058 E23.17608
G1 X171.106 Y126.594 E23.27101
G1 X171.006 Y126.976 E23.28546
G1 X169.309 Y132.485 E23.49636
G1 X169.223 Y132.739 E23.50617
G1 X168.108 Y135.73 E23.62295
G1 X167.993 Y136.01 E23.63403
G1 X166.228 Y139.936 E23.79151
G1 X165.943 Y140.473 E23.81376
G1 X165.59 Y140.968 E23.836
G1 X165.303 Y141.275 E23.85138
G1 X164.914 Y142.047 E23.883
G1 X164.799 Y142.261 E23.89189
G1 X163.158 Y145.134 E24.01294
G1 X163.024 Y145.354 E24.02237
G1 X161.262 Y148.076 E24.141
G1 X161.122 Y148.281 E24.15008
G1 X159.195 Y150.933 E24.27002
G1 X159.035 Y151.139 E24.27956
G1 X156.967 Y153.671 E24.39917
G1 X156.804 Y153.861 E24.40832
G1 X154.606 Y156.273 E24.52772
G1 X154.423 Y156.463 E24.53737
G1 X152.104 Y158.733 E24.65609
G1 X151.911 Y158.911 E24.6657
G1 X149.457 Y161.054 E24.7849
G1 X149.246 Y161.227 E24.79488
G1 X146.798 Y163.122 E24.90814
G1 X146.294 Y163.462 E24.93038
G1 X145.75 Y163.732 E24.9526
G1 X145.175 Y163.929 E24.97484
G1 X144.579 Y164.049 E24.99708
G1 X143.973 Y164.089 E25.0193
G1 X143.433 Y164.058 E25.03909
G1 X143.091 Y164.018 E25.05169
G1 X142.494 Y163.908 E25.0739
G1 X141.916 Y163.72 E25.09614
G1 X141.367 Y163.458 E25.11839
G1 X140.858 Y163.127 E25.14061
G1 X140.397 Y162.731 E25.16284
G1 X140.019 Y162.313 E25.18346
G1 X137.713 Y159.427 E25.31861
G1 X137.365 Y158.928 E25.34087
G1 X137.087 Y158.388 E25.36309
G1 X136.881 Y157.817 E25.3853
G1 X136.752 Y157.223 E25.40754
G1 X136.703 Y156.617 E25.42978
G1 X136.724 Y156.089 E25.44912
G1 X136.758 Y155.745 E25.46176
G1 X136.858 Y155.145 E25.48402
G1 X137.035 Y154.564 E25.50624
G1 X137.287 Y154.011 E25.52847
G1 X137.609 Y153.496 E25.55069
G1 X137.996 Y153.028 E25.57291
G1 X138.409 Y152.641 E25.59362
G1 X140.628 Y150.803 E25.69904
G1 X142.7 Y148.922 E25.80142
G1 X144.795 Y146.828 E25.90979
G1 X146.602 Y144.847 E26.00789
G1 X148.425 Y142.646 E26.11245
