;FLAVOR:Marlin
;TIME:8745
;Filament used: 7.94219m
;Layer height: 0.16
;Generated with Cura_SteamEngine 3.6.0
M140 S70
M105
M190 S70
M104 S215
M105
M109 S215
M82 ;absolute extrusion mode
G28 ; home all axes
M117 Purge extruder
G92 E0 ; reset extruder
G1 Z1.0 F3000 ; move z up little to prevent scratching of surface
G1 X0.1 Y20 Z0.3 F5000.0 ; move to start-line position G1 X0.1 Y200.0 Z0.3 F1500.0 E15 ; draw 1st line
G1 X0.4 Y200.0 Z0.3 F5000.0 ; move to side a little
G1 X0.4 Y20 Z0.3 F1500.0 E30 ; draw 2nd line
G92 E0 ; reset extruder
G1 Z1.0 F3000 ; move z up little to prevent scratching of surface
M117 All systems go!
G92 E0
G1 F6000 E-5
;LAYER_COUNT:51
;LAYER:0
M107
M204 S5000
M205 X30 Y30
G0 F7200 X79.328 Y91.314 Z0.2
M204 S500
M205 X20 Y20
;TYPE:SKIRT
G1 F6000 E0
G1 F900 X81.216 Y89.667 E0.09166
G1 X81.456 Y89.47 E0.10302
G1 X83.462 Y87.926 E0.19564
G1 X83.708 Y87.748 E0.20675
G1 X85.831 Y86.308 E0.3006
G1 X86.078 Y86.151 E0.31131
G1 X88.33 Y84.807 E0.40726
G1 X88.579 Y84.668 E0.41769
G1 X90.932 Y83.438 E0.51483
G1 X91.182 Y83.316 E0.52501
G1 X93.615 Y82.21 E0.62279
G1 X93.86 Y82.106 E0.63253
G1 X96.392 Y81.112 E0.73205
G1 X96.641 Y81.021 E0.74174
G1 X99.258 Y80.149 E0.84267
G1 X99.51 Y80.073 E0.8523
G1 X102.172 Y79.337 E0.95334
G1 X102.415 Y79.276 E0.96251
G1 X105.151 Y78.664 E1.06508
G1 X105.4 Y78.615 E1.07437
G1 X108.174 Y78.139 E1.17734
G1 X108.417 Y78.103 E1.18633
G1 X111.22 Y77.761 E1.28964
G1 X111.475 Y77.737 E1.29901
G1 X114.436 Y77.527 E1.40761
G1 X114.677 Y77.515 E1.41644
G1 X117.435 Y77.451 E1.51737
G1 X117.675 Y77.452 E1.52615
G1 X120.465 Y77.52 E1.62826
G1 X120.709 Y77.531 E1.6372
G1 X123.529 Y77.736 E1.74064
G1 X123.775 Y77.76 E1.74968
G1 X126.577 Y78.102 E1.85296
G1 X126.822 Y78.138 E1.86202
G1 X129.595 Y78.615 E1.96496
G1 X129.839 Y78.663 E1.97406
G1 X132.578 Y79.274 E2.07673
G1 X132.827 Y79.337 E2.08613
G1 X135.487 Y80.074 E2.18711
G1 X135.734 Y80.149 E2.19656
G1 X138.351 Y81.02 E2.29747
G1 X138.6 Y81.11 E2.30716
G1 X141.133 Y82.103 E2.40669
G1 X141.38 Y82.208 E2.41651
G1 X143.813 Y83.314 E2.51429
G1 X144.062 Y83.435 E2.52442
G1 X146.412 Y84.663 E2.62143
G1 X146.663 Y84.804 E2.63196
G1 X148.912 Y86.147 E2.7278
G1 X149.158 Y86.303 E2.73846
G1 X151.293 Y87.751 E2.83284
G1 X151.537 Y87.928 E2.84387
G1 X153.536 Y89.465 E2.93612
G1 X153.778 Y89.663 E2.94756
G1 X155.666 Y91.31 E3.03923
G1 X155.902 Y91.53 E3.05103
G1 X157.633 Y93.246 E3.14021
G1 X157.862 Y93.488 E3.1524
G1 X159.468 Y95.305 E3.24112
G1 X159.688 Y95.571 E3.25375
G1 X161.135 Y97.452 E3.34057
G1 X161.344 Y97.745 E3.35374
G1 X162.625 Y99.681 E3.43867
G1 X162.814 Y99.99 E3.45192
G1 X163.95 Y102.007 E3.53662
G1 X164.124 Y102.346 E3.55056
G1 X165.079 Y104.387 E3.633
G1 X165.229 Y104.742 E3.6471
G1 X166.028 Y106.856 E3.72978
G1 X166.154 Y107.235 E3.7444
G1 X166.771 Y109.361 E3.82539
G1 X166.867 Y109.746 E3.83991
G1 X167.311 Y111.893 E3.92012
G1 X167.378 Y112.299 E3.93517
G1 X167.646 Y114.475 E4.01539
G1 X167.68 Y114.884 E4.0304
G1 X167.771 Y117.075 E4.11063
G1 X167.771 Y117.492 E4.12589
G1 X167.681 Y119.685 E4.20619
G1 X167.647 Y120.093 E4.22117
G1 X167.381 Y122.264 E4.30119
G1 X167.315 Y122.67 E4.31624
G1 X166.871 Y124.826 E4.39677
G1 X166.774 Y125.216 E4.41148
G1 X166.157 Y127.341 E4.49243
G1 X166.032 Y127.717 E4.50693
G1 X165.233 Y129.833 E4.58968
G1 X165.082 Y130.19 E4.60386
G1 X164.128 Y132.229 E4.68622
G1 X163.955 Y132.565 E4.70005
G1 X162.819 Y134.585 E4.78484
G1 X162.63 Y134.896 E4.79815
G1 X161.35 Y136.832 E4.88307
G1 X161.141 Y137.124 E4.8962
G1 X159.695 Y139.006 E4.98304
G1 X159.475 Y139.273 E4.99569
G1 X157.87 Y141.09 E5.08439
G1 X157.644 Y141.33 E5.09645
G1 X155.912 Y143.05 E5.18576
G1 X155.672 Y143.273 E5.19774
G1 X153.784 Y144.92 E5.28941
G1 X153.544 Y145.117 E5.30077
G1 X151.546 Y146.655 E5.39302
G1 X151.302 Y146.831 E5.40402
G1 X149.165 Y148.282 E5.49853
G1 X148.916 Y148.441 E5.50933
G1 X146.67 Y149.781 E5.60502
G1 X146.423 Y149.92 E5.61539
G1 X144.07 Y151.151 E5.71255
G1 X143.82 Y151.273 E5.72272
G1 X141.387 Y152.38 E5.82052
G1 X141.142 Y152.483 E5.83024
G1 X138.606 Y153.48 E5.92994
G1 X138.353 Y153.572 E5.93979
G1 X135.745 Y154.44 E6.04035
G1 X135.5 Y154.515 E6.04972
G1 X132.834 Y155.255 E6.15095
G1 X132.583 Y155.318 E6.16042
G1 X129.845 Y155.929 E6.26306
G1 X129.602 Y155.977 E6.27212
G1 X126.828 Y156.455 E6.3751
G1 X126.584 Y156.49 E6.38412
G1 X123.783 Y156.833 E6.48736
G1 X123.533 Y156.858 E6.49656
G1 X120.711 Y157.062 E6.60007
G1 X120.467 Y157.074 E6.60901
G1 X117.624 Y157.142 E6.71305
G1 X117.38 Y157.142 E6.72198
G1 X114.536 Y157.073 E6.82606
G1 X114.294 Y157.061 E6.83493
G1 X111.472 Y156.857 E6.93844
G1 X111.225 Y156.833 E6.94752
G1 X108.425 Y156.492 E7.05072
G1 X108.178 Y156.456 E7.05985
G1 X105.403 Y155.978 E7.16287
G1 X105.16 Y155.93 E7.17194
G1 X102.422 Y155.319 E7.27457
G1 X102.171 Y155.256 E7.28404
G1 X99.505 Y154.516 E7.38527
G1 X99.261 Y154.441 E7.39461
G1 X96.654 Y153.574 E7.49512
G1 X96.402 Y153.483 E7.50493
G1 X93.865 Y152.487 E7.60464
G1 X93.618 Y152.383 E7.61445
G1 X91.185 Y151.276 E7.71224
G1 X90.935 Y151.154 E7.72242
G1 X88.582 Y149.923 E7.81958
G1 X88.335 Y149.784 E7.82995
G1 X86.09 Y148.444 E7.9256
G1 X85.843 Y148.287 E7.93631
G1 X83.705 Y146.837 E8.03082
G1 X83.459 Y146.659 E8.04193
G1 X81.461 Y145.121 E8.13418
G1 X81.221 Y144.924 E8.14554
G1 X79.333 Y143.277 E8.2372
G1 X79.098 Y143.059 E8.24893
G1 X77.365 Y141.342 E8.33818
G1 X77.132 Y141.095 E8.35061
G1 X75.528 Y139.277 E8.43931
G1 X75.311 Y139.013 E8.45181
G1 X73.864 Y137.131 E8.53867
G1 X73.655 Y136.839 E8.5518
G1 X72.375 Y134.904 E8.63668
G1 X72.186 Y134.594 E8.64997
G1 X71.049 Y132.574 E8.73477
G1 X70.875 Y132.236 E8.74868
G1 X69.921 Y130.197 E8.83104
G1 X69.771 Y129.841 E8.84518
G1 X68.972 Y127.726 E8.92789
G1 X68.846 Y127.35 E8.9424
G1 X68.229 Y125.226 E9.02332
G1 X68.133 Y124.837 E9.03798
G1 X67.688 Y122.682 E9.11849
G1 X67.621 Y122.276 E9.13354
G1 X67.354 Y120.104 E9.21361
G1 X67.32 Y119.697 E9.22855
G1 X67.229 Y117.507 E9.30874
G1 X67.229 Y117.09 E9.324
G1 X67.319 Y114.897 E9.4043
G1 X67.353 Y114.487 E9.41935
G1 X67.62 Y112.313 E9.49949
G1 X67.686 Y111.909 E9.51447
G1 X68.129 Y109.759 E9.59478
G1 X68.226 Y109.369 E9.60948
G1 X68.843 Y107.244 E9.69044
G1 X68.968 Y106.868 E9.70493
G1 X69.767 Y104.752 E9.78769
G1 X69.918 Y104.395 E9.80187
G1 X70.872 Y102.356 E9.88423
G1 X71.045 Y102.019 E9.89809
G1 X72.181 Y100 E9.98284
G1 X72.37 Y99.69 E9.99613
G1 X73.65 Y97.754 E10.08104
G1 X73.859 Y97.461 E10.09421
G1 X75.305 Y95.58 E10.18101
G1 X75.525 Y95.314 E10.19364
G1 X77.131 Y93.496 E10.28239
G1 X77.358 Y93.256 E10.29448
G1 X78.805 Y91.819 E10.36909
G0 F810 X79.089 Y91.537
G0 X79.328 Y91.314
M204 S5000
M205 X30 Y30
G0 F7200 X79.617 Y91.646
M204 S500
M205 X20 Y20
G1 F6000 E10.39568
G1 F900 X81.505 Y89.999 E10.48735
G1 X81.724 Y89.819 E10.49772
G1 X83.73 Y88.275 E10.59033
G1 X83.955 Y88.113 E10.60048
G1 X86.078 Y86.673 E10.69433
G1 X86.303 Y86.529 E10.7041
G1 X88.555 Y85.185 E10.80005
G1 X88.783 Y85.058 E10.8096
G1 X91.136 Y83.828 E10.90674
G1 X91.364 Y83.716 E10.91604
G1 X93.797 Y82.61 E11.01382
G1 X94.021 Y82.516 E11.0227
G1 X96.553 Y81.522 E11.12222
G1 X96.781 Y81.439 E11.1311
G1 X99.398 Y80.567 E11.23202
G1 X99.627 Y80.497 E11.24078
G1 X102.289 Y79.761 E11.34183
G1 X102.512 Y79.705 E11.35024
G1 X105.248 Y79.093 E11.45281
G1 X105.475 Y79.049 E11.46127
G1 X108.249 Y78.573 E11.56425
G1 X108.47 Y78.54 E11.57242
G1 X111.273 Y78.198 E11.67573
G1 X111.506 Y78.176 E11.68429
G1 X114.467 Y77.966 E11.7929
G1 X114.687 Y77.955 E11.80096
G1 X117.445 Y77.891 E11.90189
G1 X117.665 Y77.891 E11.90994
G1 X120.455 Y77.959 E12.01204
G1 X120.677 Y77.97 E12.02018
G1 X123.497 Y78.175 E12.12362
G1 X123.722 Y78.197 E12.13189
G1 X126.524 Y78.539 E12.23517
G1 X126.747 Y78.572 E12.24342
G1 X129.52 Y79.049 E12.34636
G1 X129.743 Y79.093 E12.35467
G1 X132.482 Y79.704 E12.45735
G1 X132.71 Y79.761 E12.46595
G1 X135.37 Y80.498 E12.56693
G1 X135.595 Y80.566 E12.57553
G1 X138.212 Y81.437 E12.67644
G1 X138.439 Y81.52 E12.68528
G1 X140.972 Y82.513 E12.78482
G1 X141.198 Y82.608 E12.79379
G1 X143.631 Y83.714 E12.89157
G1 X143.859 Y83.825 E12.90085
G1 X146.209 Y85.053 E12.99786
G1 X146.438 Y85.181 E13.00746
G1 X148.687 Y86.524 E13.10329
G1 X148.911 Y86.667 E13.11302
G1 X151.046 Y88.115 E13.2074
G1 X151.269 Y88.276 E13.21746
G1 X153.268 Y89.813 E13.30971
G1 X153.489 Y89.995 E13.32019
G1 X155.377 Y91.642 E13.41185
G1 X155.593 Y91.842 E13.42262
G1 X157.324 Y93.558 E13.5118
G1 X157.533 Y93.779 E13.52293
G1 X159.139 Y95.596 E13.61165
G1 X159.339 Y95.839 E13.62316
G1 X160.786 Y97.72 E13.70999
G1 X160.977 Y97.988 E13.72203
G1 X162.258 Y99.924 E13.80696
G1 X162.43 Y100.206 E13.81905
G1 X163.566 Y102.223 E13.90374
G1 X163.726 Y102.532 E13.91647
G1 X164.681 Y104.573 E13.99891
G1 X164.818 Y104.898 E14.01182
G1 X165.617 Y107.012 E14.0945
G1 X165.732 Y107.357 E14.10781
G1 X166.349 Y109.483 E14.1888
G1 X166.436 Y109.835 E14.20206
G1 X166.88 Y111.982 E14.28228
G1 X166.941 Y112.353 E14.29603
G1 X167.209 Y114.529 E14.37624
G1 X167.24 Y114.902 E14.38994
G1 X167.331 Y117.093 E14.47017
G1 X167.331 Y117.474 E14.48411
G1 X167.241 Y119.667 E14.56441
G1 X167.211 Y120.04 E14.5781
G1 X166.945 Y122.211 E14.65812
G1 X166.884 Y122.581 E14.67184
G1 X166.44 Y124.737 E14.75238
G1 X166.352 Y125.093 E14.76579
G1 X165.735 Y127.218 E14.84675
G1 X165.62 Y127.562 E14.86002
G1 X164.821 Y129.678 E14.94277
G1 X164.684 Y130.004 E14.95571
G1 X163.73 Y132.043 E15.03807
G1 X163.572 Y132.35 E15.0507
G1 X162.436 Y134.37 E15.13549
G1 X162.263 Y134.653 E15.14762
G1 X160.983 Y136.589 E15.23254
G1 X160.793 Y136.856 E15.24453
G1 X159.347 Y138.738 E15.33136
G1 X159.146 Y138.982 E15.34292
G1 X157.541 Y140.799 E15.43162
G1 X157.333 Y141.018 E15.44267
G1 X155.601 Y142.738 E15.53198
G1 X155.383 Y142.941 E15.54288
G1 X153.495 Y144.588 E15.63454
G1 X153.276 Y144.768 E15.64491
G1 X151.278 Y146.306 E15.73716
G1 X151.055 Y146.467 E15.74722
G1 X148.918 Y147.918 E15.84173
G1 X148.69 Y148.064 E15.85163
G1 X146.444 Y149.404 E15.94732
G1 X146.219 Y149.53 E15.95675
G1 X143.866 Y150.761 E16.05391
G1 X143.637 Y150.872 E16.06322
G1 X141.204 Y151.979 E16.16101
G1 X140.981 Y152.074 E16.16988
G1 X138.445 Y153.071 E16.26958
G1 X138.214 Y153.155 E16.27857
G1 X135.606 Y154.023 E16.37913
G1 X135.383 Y154.091 E16.38766
G1 X132.717 Y154.831 E16.48889
G1 X132.487 Y154.888 E16.49756
G1 X129.749 Y155.499 E16.6002
G1 X129.528 Y155.543 E16.60844
G1 X126.754 Y156.021 E16.71143
G1 X126.531 Y156.054 E16.71967
G1 X123.73 Y156.397 E16.82292
G1 X123.501 Y156.419 E16.83133
G1 X120.679 Y156.623 E16.93485
G1 X120.456 Y156.634 E16.94302
G1 X117.613 Y156.702 E17.04706
G1 X117.391 Y156.702 E17.05518
G1 X114.547 Y156.633 E17.15926
G1 X114.326 Y156.622 E17.16736
G1 X111.504 Y156.418 E17.27088
G1 X111.278 Y156.396 E17.27918
G1 X108.478 Y156.055 E17.38238
G1 X108.253 Y156.022 E17.3907
G1 X105.478 Y155.544 E17.49372
G1 X105.256 Y155.5 E17.502
G1 X102.518 Y154.889 E17.60464
G1 X102.288 Y154.832 E17.61331
G1 X99.622 Y154.092 E17.71454
G1 X99.4 Y154.024 E17.72303
G1 X96.793 Y153.157 E17.82355
G1 X96.563 Y153.073 E17.83251
G1 X94.026 Y152.077 E17.93222
G1 X93.801 Y151.982 E17.94116
G1 X91.368 Y150.875 E18.03895
G1 X91.139 Y150.764 E18.04826
G1 X88.786 Y149.533 E18.14542
G1 X88.56 Y149.406 E18.1549
G1 X86.315 Y148.066 E18.25056
G1 X86.09 Y147.923 E18.26031
G1 X83.952 Y146.473 E18.35483
G1 X83.727 Y146.31 E18.36499
G1 X81.729 Y144.772 E18.45724
G1 X81.51 Y144.592 E18.46761
G1 X79.622 Y142.945 E18.55927
G1 X79.407 Y142.746 E18.56999
G1 X77.674 Y141.029 E18.65925
G1 X77.462 Y140.804 E18.67056
G1 X75.858 Y138.986 E18.75926
G1 X75.659 Y138.745 E18.77069
G1 X74.212 Y136.863 E18.85755
G1 X74.022 Y136.596 E18.86954
G1 X72.742 Y134.661 E18.95442
G1 X72.569 Y134.378 E18.96655
G1 X71.432 Y132.358 E19.05136
G1 X71.273 Y132.05 E19.06404
G1 X70.319 Y130.011 E19.1464
G1 X70.182 Y129.686 E19.15931
G1 X69.383 Y127.571 E19.24202
G1 X69.268 Y127.227 E19.25529
G1 X68.651 Y125.103 E19.33621
G1 X68.563 Y124.748 E19.3496
G1 X68.118 Y122.593 E19.4301
G1 X68.058 Y122.223 E19.44382
G1 X67.791 Y120.051 E19.52388
G1 X67.76 Y119.679 E19.53754
G1 X67.669 Y117.489 E19.61773
G1 X67.669 Y117.108 E19.63167
G1 X67.759 Y114.915 E19.71197
G1 X67.789 Y114.541 E19.7257
G1 X68.056 Y112.367 E19.80583
G1 X68.117 Y111.998 E19.81952
G1 X68.56 Y109.848 E19.89983
G1 X68.648 Y109.492 E19.91325
G1 X69.265 Y107.367 E19.9942
G1 X69.38 Y107.023 E20.00747
G1 X70.179 Y104.907 E20.09022
G1 X70.316 Y104.581 E20.10316
G1 X71.27 Y102.542 E20.18552
G1 X71.429 Y102.235 E20.19817
G1 X72.565 Y100.216 E20.28293
G1 X72.737 Y99.933 E20.29504
G1 X74.017 Y97.997 E20.37996
G1 X74.208 Y97.729 E20.392
G1 X75.654 Y95.848 E20.4788
G1 X75.855 Y95.605 E20.49034
G1 X77.461 Y93.787 E20.57909
G1 X77.668 Y93.568 E20.59011
G1 X79.094 Y92.152 E20.66364
G0 F810 X79.399 Y91.849
G0 X79.617 Y91.646
M204 S5000
M205 X30 Y30
G0 F7200 X79.906 Y91.977
M204 S500
M205 X20 Y20
G1 F6000 E20.69023
G1 F900 X81.794 Y90.33 E20.7819
G1 X81.992 Y90.168 E20.79126
G1 X83.998 Y88.624 E20.88387
G1 X84.202 Y88.477 E20.89307
G1 X86.325 Y87.037 E20.98693
G1 X86.529 Y86.907 E20.99578
G1 X88.781 Y85.563 E21.09172
G1 X88.987 Y85.448 E21.10036
G1 X91.34 Y84.218 E21.1975
G1 X91.546 Y84.117 E21.20589
G1 X93.979 Y83.011 E21.30367
G1 X94.182 Y82.925 E21.31174
G1 X96.714 Y81.931 E21.41125
G1 X96.92 Y81.856 E21.41928
G1 X99.537 Y80.984 E21.5202
G1 X99.744 Y80.921 E21.52811
G1 X102.406 Y80.185 E21.62916
G1 X102.608 Y80.135 E21.63677
G1 X105.344 Y79.523 E21.73935
G1 X105.549 Y79.482 E21.74699
G1 X108.323 Y79.006 E21.84997
G1 X108.524 Y78.977 E21.8574
G1 X111.327 Y78.635 E21.96071
G1 X111.537 Y78.614 E21.96843
G1 X114.498 Y78.404 E22.07703
G1 X114.697 Y78.395 E22.08432
G1 X117.455 Y78.331 E22.18525
G1 X117.654 Y78.331 E22.19253
G1 X120.444 Y78.399 E22.29464
G1 X120.645 Y78.409 E22.302
G1 X123.465 Y78.614 E22.40545
G1 X123.668 Y78.634 E22.41291
G1 X126.47 Y78.976 E22.51619
G1 X126.673 Y79.006 E22.52369
G1 X129.446 Y79.483 E22.62664
G1 X129.647 Y79.522 E22.63413
G1 X132.386 Y80.133 E22.7368
G1 X132.592 Y80.185 E22.74457
G1 X135.252 Y80.922 E22.84556
G1 X135.456 Y80.984 E22.85336
G1 X138.073 Y81.855 E22.95427
G1 X138.279 Y81.929 E22.96228
G1 X140.812 Y82.922 E23.06182
G1 X141.016 Y83.009 E23.06993
G1 X143.449 Y84.115 E23.16771
G1 X143.655 Y84.215 E23.17609
G1 X146.005 Y85.443 E23.2731
G1 X146.212 Y85.559 E23.28178
G1 X148.461 Y86.902 E23.37762
G1 X148.664 Y87.032 E23.38644
G1 X150.799 Y88.48 E23.48082
G1 X151.001 Y88.625 E23.48991
G1 X153 Y90.162 E23.58217
G1 X153.2 Y90.326 E23.59163
G1 X155.088 Y91.973 E23.6833
G1 X155.283 Y92.154 E23.69303
G1 X157.014 Y93.87 E23.78221
G1 X157.203 Y94.071 E23.7923
G1 X158.809 Y95.888 E23.88102
G1 X158.99 Y96.107 E23.89142
G1 X160.437 Y97.988 E23.97824
G1 X160.61 Y98.23 E23.98913
G1 X161.891 Y100.166 E24.07406
G1 X162.047 Y100.422 E24.08503
G1 X163.183 Y102.439 E24.16972
G1 X163.327 Y102.718 E24.18121
G1 X164.282 Y104.759 E24.26365
G1 X164.406 Y105.053 E24.27532
G1 X165.205 Y107.167 E24.35801
G1 X165.309 Y107.48 E24.37007
G1 X165.926 Y109.606 E24.45106
G1 X166.005 Y109.924 E24.46305
G1 X166.449 Y112.071 E24.54326
G1 X166.505 Y112.407 E24.55573
G1 X166.773 Y114.583 E24.63594
G1 X166.8 Y114.921 E24.64835
G1 X166.891 Y117.112 E24.72858
G1 X166.891 Y117.456 E24.74116
G1 X166.801 Y119.649 E24.82146
G1 X166.774 Y119.986 E24.83383
G1 X166.508 Y122.157 E24.91385
G1 X166.453 Y122.492 E24.92627
G1 X166.009 Y124.648 E25.00681
G1 X165.929 Y124.971 E25.01898
G1 X165.312 Y127.096 E25.09994
G1 X165.209 Y127.407 E25.11193
G1 X164.41 Y129.523 E25.19468
G1 X164.285 Y129.817 E25.20637
G1 X163.331 Y131.856 E25.28873
G1 X163.188 Y132.134 E25.30016
G1 X162.052 Y134.154 E25.38495
G1 X161.896 Y134.41 E25.39592
G1 X160.616 Y136.346 E25.48083
G1 X160.444 Y136.588 E25.4917
G1 X158.998 Y138.47 E25.57853
G1 X158.816 Y138.69 E25.58897
G1 X157.211 Y140.507 E25.67767
G1 X157.023 Y140.706 E25.68769
G1 X155.291 Y142.426 E25.77699
G1 X155.094 Y142.61 E25.78685
G1 X153.206 Y144.257 E25.87852
G1 X153.008 Y144.419 E25.88788
G1 X151.01 Y145.957 E25.98013
G1 X150.808 Y146.103 E25.98925
G1 X148.671 Y147.554 E26.08375
G1 X148.465 Y147.686 E26.0927
G1 X146.219 Y149.026 E26.18839
