;FLAVOR:Marlin
;TIME:781
;Filament used: 0.647823m
;Layer height: 0.2
;Generated with Cura_SteamEngine 3.6.0
M140 S70
M105
M190 S70
M104 S215
M105
M109 S215
M82 ;absolute extrusion mode
G28 ; home all axes
M117 Purge extruder
G92 E0 ; reset extruder
G1 Z1.0 F3000 ; move z up little to prevent scratching of surface
G1 X0.1 Y20 Z0.3 F5000.0 ; move to start-line position G1 X0.1 Y200.0 Z0.3 F1500.0 E15 ; draw 1st line
G1 X0.4 Y200.0 Z0.3 F5000.0 ; move to side a little
G1 X0.4 Y20 Z0.3 F1500.0 E30 ; draw 2nd line
G92 E0 ; reset extruder
G1 Z1.0 F3000 ; move z up little to prevent scratching of surface
M117 All systems go!
G92 E0
G1 F6000 E-5
;LAYER_COUNT:63
;LAYER:0
M107
M204 S5000
M205 X30 Y30
G0 F7200 X108.054 Y107.228 Z0.2
M204 S500
M205 X20 Y20
;TYPE:SKIRT
G1 F6000 E0
G1 F900 X108.521 Y106.796 E0.02328
G1 X108.798 Y106.585 E0.03601
G1 X110.108 Y105.659 E0.09471
G1 X110.65 Y105.325 E0.118
G1 X111.033 Y105.141 E0.13355
G1 X113.001 Y104.296 E0.2119
G1 X113.6 Y104.083 E0.23516
G1 X114.019 Y103.981 E0.25094
G1 X115.593 Y103.671 E0.30963
G1 X116.311 Y103.583 E0.3361
G1 X117.243 Y103.535 E0.37024
G1 X117.845 Y103.54 E0.39227
G1 X119.04 Y103.621 E0.43609
G1 X119.6 Y103.69 E0.45673
G1 X120.4 Y103.835 E0.48648
G1 X121.072 Y104.005 E0.51184
G1 X122.6 Y104.505 E0.57066
G1 X123.435 Y104.864 E0.60391
G1 X124.833 Y105.621 E0.66208
G1 X125.591 Y106.124 E0.69536
G1 X126.851 Y107.135 E0.75446
G1 X127.402 Y107.65 E0.78206
G1 X128.12 Y108.428 E0.82079
G1 X128.505 Y108.899 E0.84305
G1 X129.132 Y109.768 E0.88225
G1 X129.497 Y110.354 E0.90751
G1 X130.13 Y111.545 E0.95686
G1 X130.459 Y112.31 E0.98732
G1 X130.971 Y113.835 E1.04618
G1 X131.146 Y114.506 E1.07155
G1 X131.293 Y115.284 E1.10051
G1 X131.374 Y115.956 E1.12528
G1 X131.459 Y117.562 E1.18412
G1 X131.425 Y118.475 E1.21754
G1 X131.219 Y120.075 E1.27657
G1 X131.023 Y120.96 E1.30973
G1 X130.54 Y122.482 E1.36815
G1 X130.256 Y123.187 E1.39596
G1 X129.783 Y124.147 E1.43511
G1 X129.483 Y124.674 E1.4573
G1 X128.899 Y125.57 E1.49643
G1 X128.536 Y126.06 E1.51874
G1 X127.847 Y126.881 E1.55795
G1 X127.375 Y127.372 E1.58287
G1 X126.384 Y128.273 E1.63187
G1 X125.839 Y128.704 E1.65729
G1 X124.947 Y129.315 E1.69685
G1 X124.424 Y129.628 E1.71915
G1 X123.473 Y130.123 E1.75837
G1 X122.707 Y130.445 E1.78877
G1 X120.933 Y131.024 E1.85705
G1 X120.317 Y131.183 E1.88032
G1 X119.973 Y131.237 E1.89306
G1 X118.375 Y131.431 E1.95196
G1 X117.61 Y131.466 E1.97997
G1 X116.532 Y131.433 E2.01943
G1 X115.772 Y131.352 E2.04739
G1 X114.194 Y131.062 E2.10609
G1 X113.463 Y130.87 E2.13375
G1 X112.454 Y130.523 E2.17278
G1 X111.888 Y130.289 E2.19519
G1 X110.927 Y129.822 E2.23428
G1 X110.406 Y129.53 E2.25613
G1 X109.51 Y128.955 E2.29508
G1 X109.018 Y128.595 E2.31739
G1 X108.186 Y127.907 E2.35689
G1 X107.733 Y127.483 E2.37959
G1 X106.994 Y126.701 E2.41895
G1 X106.609 Y126.242 E2.44087
G1 X105.97 Y125.381 E2.4801
G1 X105.529 Y124.67 E2.51071
G1 X104.682 Y123.015 E2.57873
G1 X104.366 Y122.249 E2.60904
G1 X104.041 Y121.231 E2.64814
G1 X103.903 Y120.703 E2.66811
G1 X103.74 Y119.904 E2.69794
G1 X103.655 Y119.312 E2.71982
G1 X103.545 Y117.989 E2.76839
G1 X103.535 Y117.309 E2.79327
G1 X103.59 Y116.245 E2.83225
G1 X103.686 Y115.492 E2.86003
G1 X104.008 Y113.917 E2.91884
G1 X104.217 Y113.181 E2.94683
G1 X104.587 Y112.177 E2.98598
G1 X104.834 Y111.616 E3.00841
G1 X105.329 Y110.652 E3.04805
G1 X105.63 Y110.141 E3.06975
G1 X106.228 Y109.251 E3.10898
G1 X106.763 Y108.584 E3.14026
G1 X107.553 Y107.754 E3.18219
G0 F810 X108.054 Y107.228
M204 S5000
M205 X30 Y30
G0 F7200 X108.373 Y107.531
M204 S500
M205 X20 Y20
G1 F6000 E3.20879
G1 F900 X109.052 Y106.944 E3.24162
G1 X110.362 Y106.018 E3.30032
G1 X110.88 Y105.701 E3.32254
G1 X111.206 Y105.546 E3.33574
G1 X113.174 Y104.701 E3.4141
G1 X113.747 Y104.498 E3.43634
G1 X114.104 Y104.413 E3.44977
G1 X115.678 Y104.103 E3.50846
G1 X116.333 Y104.022 E3.53261
G1 X117.265 Y103.974 E3.56675
G1 X117.815 Y103.979 E3.58687
G1 X119.01 Y104.06 E3.63069
G1 X119.522 Y104.123 E3.64957
G1 X120.322 Y104.268 E3.67931
G1 X120.935 Y104.423 E3.70245
G1 X122.463 Y104.923 E3.76127
G1 X123.226 Y105.251 E3.79165
G1 X124.624 Y106.008 E3.84982
G1 X125.315 Y106.468 E3.88019
G1 X126.575 Y107.479 E3.93929
G1 X127.079 Y107.949 E3.9645
G1 X127.797 Y108.727 E4.00324
G1 X128.149 Y109.157 E4.02357
G1 X128.776 Y110.026 E4.06277
G1 X129.109 Y110.561 E4.08583
G1 X129.742 Y111.752 E4.13517
G1 X130.042 Y112.45 E4.16297
G1 X130.554 Y113.975 E4.22182
G1 X130.714 Y114.587 E4.24497
G1 X130.861 Y115.365 E4.27394
G1 X130.935 Y115.979 E4.29656
G1 X131.02 Y117.585 E4.3554
G1 X130.988 Y118.419 E4.38594
G1 X130.782 Y120.019 E4.44496
G1 X130.604 Y120.826 E4.47519
G1 X130.121 Y122.348 E4.53361
G1 X129.861 Y122.993 E4.55906
G1 X129.388 Y123.953 E4.59821
G1 X129.114 Y124.434 E4.61846
G1 X128.53 Y125.33 E4.65759
G1 X128.199 Y125.777 E4.67794
G1 X127.51 Y126.598 E4.71716
G1 X127.079 Y127.046 E4.7399
G1 X126.088 Y127.947 E4.7889
G1 X125.591 Y128.341 E4.81211
G1 X124.699 Y128.952 E4.85166
G1 X124.221 Y129.238 E4.87204
G1 X123.27 Y129.733 E4.91127
G1 X122.57 Y130.027 E4.93904
G1 X120.796 Y130.606 E5.00732
G1 X119.92 Y130.8 E5.04014
G1 X118.322 Y130.994 E5.09904
G1 X117.624 Y131.026 E5.1246
G1 X116.546 Y130.993 E5.16406
G1 X115.852 Y130.919 E5.18959
G1 X114.274 Y130.629 E5.24829
G1 X113.607 Y130.454 E5.27352
G1 X112.598 Y130.107 E5.31256
G1 X112.081 Y129.893 E5.33303
G1 X111.12 Y129.426 E5.37212
G1 X110.644 Y129.159 E5.39209
G1 X109.748 Y128.584 E5.43104
G1 X109.299 Y128.256 E5.45139
G1 X108.467 Y127.568 E5.49088
G1 X108.053 Y127.181 E5.51162
G1 X107.314 Y126.399 E5.55098
G1 X106.962 Y125.979 E5.57103
G1 X106.323 Y125.118 E5.61026
G1 X105.92 Y124.47 E5.63818
G1 X105.073 Y122.815 E5.7062
G1 X104.785 Y122.115 E5.73389
G1 X104.46 Y121.097 E5.77299
G1 X104.334 Y120.615 E5.79121
G1 X104.171 Y119.816 E5.82105
G1 X104.094 Y119.276 E5.84101
G1 X103.984 Y117.953 E5.88958
G1 X103.974 Y117.332 E5.9123
G1 X104.029 Y116.268 E5.95128
G1 X104.117 Y115.581 E5.97662
G1 X104.439 Y114.006 E6.03543
G1 X104.63 Y113.333 E6.06103
G1 X105 Y112.329 E6.10018
G1 X105.225 Y111.817 E6.12064
G1 X105.72 Y110.853 E6.16028
G1 X105.995 Y110.386 E6.18011
G1 X106.593 Y109.496 E6.21934
G1 X107.082 Y108.887 E6.24792
G1 X107.872 Y108.057 E6.28984
G0 F810 X108.373 Y107.531
M204 S5000
M205 X30 Y30
G0 F7200 X108.692 Y107.835
M204 S500
M205 X20 Y20
G1 F6000 E6.31644
G1 F900 X109.306 Y107.304 E6.34614
G1 X110.616 Y106.378 E6.40483
G1 X111.11 Y106.077 E6.42599
G1 X111.38 Y105.95 E6.43691
G1 X113.348 Y105.105 E6.51527
G1 X113.893 Y104.914 E6.5364
G1 X114.189 Y104.845 E6.54752
G1 X115.763 Y104.535 E6.60621
G1 X116.356 Y104.462 E6.62807
G1 X117.288 Y104.414 E6.66221
G1 X117.786 Y104.418 E6.68043
G1 X118.981 Y104.499 E6.72425
G1 X119.443 Y104.556 E6.74128
G1 X120.243 Y104.701 E6.77103
G1 X120.798 Y104.841 E6.79197
G1 X122.326 Y105.341 E6.85079
G1 X123.016 Y105.638 E6.87828
G1 X124.414 Y106.395 E6.93644
G1 X125.04 Y106.811 E6.96394
G1 X126.3 Y107.822 E7.02304
G1 X126.756 Y108.247 E7.04585
G1 X127.474 Y109.025 E7.08458
G1 X127.792 Y109.414 E7.10296
G1 X128.419 Y110.283 E7.14217
G1 X128.72 Y110.767 E7.16302
G1 X129.353 Y111.958 E7.21237
G1 X129.625 Y112.59 E7.23754
G1 X130.137 Y114.115 E7.2964
G1 X130.281 Y114.669 E7.31734
G1 X130.428 Y115.447 E7.3463
G1 X130.495 Y116.002 E7.36676
G1 X130.58 Y117.608 E7.4256
G1 X130.552 Y118.363 E7.45324
G1 X130.346 Y119.963 E7.51226
G1 X130.184 Y120.693 E7.53962
G1 X129.701 Y122.215 E7.59804
G1 X129.467 Y122.798 E7.62102
G1 X128.994 Y123.758 E7.66018
G1 X128.746 Y124.193 E7.6785
G1 X128.162 Y125.089 E7.71763
G1 X127.862 Y125.494 E7.73607
G1 X127.173 Y126.315 E7.77528
G1 X126.783 Y126.721 E7.79588
G1 X125.792 Y127.622 E7.84488
G1 X125.342 Y127.978 E7.86587
G1 X124.45 Y128.589 E7.90543
G1 X124.018 Y128.848 E7.92386
G1 X123.067 Y129.343 E7.96308
G1 X122.434 Y129.609 E7.9882
G1 X120.66 Y130.188 E8.05647
G1 X119.867 Y130.364 E8.08619
G1 X118.269 Y130.558 E8.14509
G1 X117.637 Y130.586 E8.16823
G1 X116.559 Y130.553 E8.20769
G1 X115.931 Y130.486 E8.2308
G1 X114.353 Y130.196 E8.2895
G1 X113.75 Y130.038 E8.3123
G1 X112.741 Y129.691 E8.35134
G1 X112.273 Y129.498 E8.36986
G1 X111.312 Y129.031 E8.40895
G1 X110.881 Y128.789 E8.42704
G1 X109.985 Y128.214 E8.46599
G1 X109.579 Y127.917 E8.48439
G1 X108.747 Y127.229 E8.52389
G1 X108.373 Y126.879 E8.54263
G1 X107.634 Y126.097 E8.582
G1 X107.315 Y125.717 E8.60015
G1 X106.676 Y124.856 E8.63938
G1 X106.312 Y124.269 E8.66465
G1 X105.465 Y122.614 E8.73266
G1 X105.204 Y121.981 E8.75771
G1 X104.879 Y120.963 E8.79681
G1 X104.765 Y120.528 E8.81326
G1 X104.602 Y119.729 E8.8431
G1 X104.532 Y119.239 E8.86121
G1 X104.422 Y117.916 E8.90978
G1 X104.414 Y117.354 E8.93034
G1 X104.469 Y116.29 E8.96932
G1 X104.548 Y115.669 E8.99222
G1 X104.87 Y114.094 E9.05104
G1 X105.043 Y113.486 E9.07417
G1 X105.413 Y112.482 E9.11331
G1 X105.617 Y112.018 E9.13186
G1 X106.112 Y111.054 E9.17151
G1 X106.36 Y110.632 E9.18941
G1 X106.958 Y109.742 E9.22864
G1 X107.401 Y109.191 E9.25451
G1 X108.191 Y108.361 E9.29643
G0 F810 X108.692 Y107.835
M204 S5000
M205 X30 Y30
G0 F7200 X109.01 Y108.138
M204 S500
M205 X20 Y20
G1 F6000 E9.32303
G1 F900 X109.56 Y107.663 E9.34962
G1 X110.87 Y106.737 E9.40831
G1 X111.553 Y106.354 E9.43696
G1 X113.521 Y105.509 E9.51532
G1 X114.274 Y105.276 E9.54416
G1 X115.848 Y104.966 E9.60285
G1 X116.379 Y104.901 E9.62242
G1 X117.311 Y104.853 E9.65656
G1 X117.756 Y104.857 E9.67285
G1 X118.951 Y104.938 E9.71667
G1 X119.365 Y104.989 E9.73193
G1 X120.165 Y105.134 E9.76167
G1 X120.661 Y105.259 E9.78039
G1 X122.189 Y105.759 E9.83921
G1 X122.807 Y106.025 E9.86382
G1 X124.205 Y106.782 E9.92199
G1 X124.765 Y107.154 E9.94659
G1 X126.025 Y108.165 E10.00569
G1 X126.432 Y108.546 E10.02609
G1 X127.15 Y109.324 E10.06482
G1 X127.435 Y109.672 E10.08128
G1 X128.062 Y110.541 E10.12048
G1 X128.332 Y110.974 E10.13915
G1 X128.965 Y112.165 E10.1885
G1 X129.208 Y112.73 E10.211
G1 X129.72 Y114.255 E10.26985
G1 X129.849 Y114.751 E10.2886
G1 X129.996 Y115.529 E10.31757
G1 X130.056 Y116.025 E10.33585
G1 X130.141 Y117.631 E10.39469
G1 X130.115 Y118.307 E10.41944
G1 X129.909 Y119.907 E10.47846
G1 X129.765 Y120.56 E10.50293
G1 X129.282 Y122.082 E10.56135
G1 X129.072 Y122.604 E10.58193
G1 X128.599 Y123.564 E10.62109
G1 X128.377 Y123.953 E10.63747
G1 X127.793 Y124.849 E10.6766
G1 X127.525 Y125.211 E10.69308
G1 X126.836 Y126.032 E10.73229
G1 X126.487 Y126.395 E10.75072
G1 X125.496 Y127.296 E10.79972
G1 X125.094 Y127.615 E10.8185
G1 X124.202 Y128.226 E10.85805
G1 X123.815 Y128.458 E10.87456
G1 X122.864 Y128.953 E10.91378
G1 X122.297 Y129.19 E10.93627
G1 X120.523 Y129.769 E11.00454
G1 X119.814 Y129.927 E11.03112
G1 X118.216 Y130.121 E11.09001
G1 X117.651 Y130.146 E11.1107
G1 X116.573 Y130.113 E11.15016
G1 X116.011 Y130.053 E11.17084
G1 X114.433 Y129.763 E11.22954
G1 X113.893 Y129.622 E11.24996
G1 X112.884 Y129.275 E11.289
G1 X112.465 Y129.102 E11.30558
G1 X111.504 Y128.635 E11.34467
G1 X111.119 Y128.419 E11.36082
G1 X110.223 Y127.844 E11.39977
G1 X109.86 Y127.578 E11.41624
G1 X109.028 Y126.89 E11.45574
G1 X108.693 Y126.577 E11.47251
G1 X107.954 Y125.795 E11.51188
G1 X107.669 Y125.455 E11.52811
G1 X107.03 Y124.594 E11.56733
G1 X106.704 Y124.069 E11.58994
G1 X105.857 Y122.414 E11.65796
G1 X105.623 Y121.847 E11.6804
G1 X105.298 Y120.829 E11.7195
G1 X105.196 Y120.44 E11.73421
G1 X105.033 Y119.641 E11.76405
G1 X104.971 Y119.203 E11.78023
G1 X104.861 Y117.88 E11.8288
G1 X104.853 Y117.377 E11.84721
G1 X104.908 Y116.313 E11.88619
G1 X104.979 Y115.757 E11.9067
G1 X105.301 Y114.182 E11.96551
G1 X105.456 Y113.638 E11.98621
G1 X105.826 Y112.634 E12.02535
G1 X106.008 Y112.219 E12.04193
G1 X106.503 Y111.255 E12.08158
G1 X106.726 Y110.877 E12.09764
G1 X107.324 Y109.987 E12.13687
G1 X107.719 Y109.494 E12.15998
G1 X108.509 Y108.664 E12.2019
G0 F810 X109.01 Y108.138
M204 S5000
M205 X30 Y30
G0 F7200 X109.329 Y108.442
M204 S500
M205 X20 Y20
G1 F6000 E12.2285
G1 F900 X109.814 Y108.022 E12.25197
G1 X111.124 Y107.096 E12.31066
G1 X111.727 Y106.759 E12.33594
G1 X113.695 Y105.914 E12.4143
G1 X114.359 Y105.708 E12.43973
G1 X115.933 Y105.398 E12.49842
G1 X116.401 Y105.34 E12.51568
G1 X117.333 Y105.292 E12.54982
G1 X117.726 Y105.296 E12.5642
G1 X118.921 Y105.377 E12.60802
G1 X119.287 Y105.422 E12.62151
G1 X120.087 Y105.567 E12.65126
G1 X120.524 Y105.678 E12.66775
G1 X122.052 Y106.178 E12.72657
G1 X122.597 Y106.412 E12.74827
G1 X123.995 Y107.169 E12.80644
G1 X124.489 Y107.497 E12.82813
G1 X125.749 Y108.508 E12.88724
G1 X126.109 Y108.844 E12.90525
G1 X126.827 Y109.622 E12.94399
G1 X127.078 Y109.929 E12.95849
G1 X127.705 Y110.798 E12.9977
G1 X127.943 Y111.18 E13.01417
G1 X128.576 Y112.371 E13.06351
G1 X128.79 Y112.87 E13.08338
G1 X129.302 Y114.395 E13.14223
G1 X129.417 Y114.832 E13.15876
G1 X129.564 Y115.61 E13.18773
G1 X129.616 Y116.049 E13.2039
G1 X129.701 Y117.655 E13.26274
G1 X129.679 Y118.25 E13.28453
G1 X129.473 Y119.85 E13.34355
G1 X129.345 Y120.427 E13.36517
G1 X128.862 Y121.949 E13.42359
G1 X128.677 Y122.41 E13.44177
G1 X128.204 Y123.37 E13.48092
G1 X128.009 Y123.713 E13.49536
G1 X127.425 Y124.609 E13.53449
G1 X127.188 Y124.928 E13.54903
G1 X126.499 Y125.749 E13.58824
G1 X126.191 Y126.07 E13.60451
G1 X125.2 Y126.971 E13.65352
G1 X124.845 Y127.252 E13.67008
G1 X123.953 Y127.863 E13.70964
G1 X123.612 Y128.067 E13.72418
G1 X122.661 Y128.562 E13.7634
G1 X122.161 Y128.772 E13.78324
G1 X120.387 Y129.351 E13.85151
G1 X119.761 Y129.49 E13.87498
G1 X118.163 Y129.684 E13.93387
G1 X117.664 Y129.706 E13.95214
G1 X116.586 Y129.673 E13.9916
G1 X116.091 Y129.621 E14.00981
G1 X114.513 Y129.331 E14.06851
G1 X114.036 Y129.206 E14.08655
G1 X113.027 Y128.859 E14.12559
G1 X112.658 Y128.706 E14.1402
G1 X111.697 Y128.239 E14.1793
G1 X111.357 Y128.048 E14.19356
G1 X110.461 Y127.473 E14.23251
G1 X110.14 Y127.239 E14.24705
G1 X109.308 Y126.551 E14.28655
G1 X109.013 Y126.275 E14.30133
G1 X108.274 Y125.493 E14.34069
G1 X108.022 Y125.193 E14.35503
G1 X107.383 Y124.332 E14.39425
G1 X107.095 Y123.868 E14.41423
G1 X106.248 Y122.213 E14.48225
G1 X106.042 Y121.714 E14.502
G1 X105.717 Y120.696 E14.5411
G1 X105.628 Y120.352 E14.5541
G1 X105.465 Y119.553 E14.58393
G1 X105.409 Y119.166 E14.59824
G1 X105.299 Y117.843 E14.64681
G1 X105.292 Y117.4 E14.66302
G1 X105.347 Y116.336 E14.702
G1 X105.41 Y115.845 E14.72011
G1 X105.732 Y114.27 E14.77893
G1 X105.869 Y113.79 E14.79719
G1 X106.239 Y112.786 E14.83634
G1 X106.399 Y112.42 E14.85095
G1 X106.894 Y111.456 E14.8906
G1 X107.091 Y111.123 E14.90475
G1 X107.689 Y110.233 E14.94398
G1 X108.038 Y109.798 E14.96439
G1 X108.828 Y108.968 E15.00631
G0 F810 X109.329 Y108.442
M204 S5000
M205 X30 Y30
G0 F7200 X109.648 Y108.745
M204 S500
M205 X20 Y20
G1 F6000 E15.03291
G1 F900 X110.068 Y108.382 E15.05322
G1 X111.378 Y107.456 E15.11191
G1 X111.901 Y107.163 E15.13384
G1 X113.869 Y106.318 E15.2122
G1 X114.444 Y106.14 E15.23422
G1 X116.018 Y105.83 E15.29292
G1 X116.424 Y105.78 E15.30788
G1 X117.356 Y105.732 E15.34203
G1 X117.696 Y105.735 E15.35447
G1 X118.891 Y105.816 E15.39829
G1 X119.208 Y105.855 E15.40997
G1 X120.008 Y106 E15.43972
G1 X120.387 Y106.096 E15.45402
G1 X121.915 Y106.596 E15.51284
G1 X122.388 Y106.799 E15.53167
G1 X123.786 Y107.556 E15.58984
G1 X124.214 Y107.84 E15.60863
G1 X125.474 Y108.851 E15.66773
G1 X125.786 Y109.142 E15.68334
G1 X126.504 Y109.92 E15.72208
G1 X126.721 Y110.187 E15.73466
G1 X127.348 Y111.056 E15.77387
G1 X127.554 Y111.387 E15.78813
G1 X128.187 Y112.578 E15.83748
G1 X128.373 Y113.01 E15.85469
G1 X128.885 Y114.535 E15.91354
G1 X128.984 Y114.914 E15.92787
G1 X129.131 Y115.692 E15.95684
G1 X129.177 Y116.072 E15.97085
G1 X129.262 Y117.678 E16.02969
G1 X129.243 Y118.194 E16.04858
G1 X129.037 Y119.794 E16.1076
G1 X128.926 Y120.294 E16.12634
G1 X128.443 Y121.816 E16.18476
G1 X128.283 Y122.215 E16.20048
G1 X127.81 Y123.175 E16.23964
G1 X127.64 Y123.473 E16.25219
G1 X127.056 Y124.369 E16.29132
G1 X126.851 Y124.646 E16.30393
G1 X126.162 Y125.467 E16.34314
G1 X125.895 Y125.744 E16.35722
G1 X124.904 Y126.645 E16.40622
G1 X124.596 Y126.889 E16.4206
G1 X123.704 Y127.5 E16.46015
G1 X123.408 Y127.677 E16.47277
G1 X122.457 Y128.172 E16.51199
G1 X122.024 Y128.354 E16.52918
