;FLAVOR:Marlin
;TIME:15095
;Filament used: 8.95987m
;Layer height: 0.16
;Generated with Cura_SteamEngine 3.6.0
M140 S70
M105
M190 S70
M104 S215
M105
M109 S215
M82 ;absolute extrusion mode
G28 ; home all axes
M117 Purge extruder
G92 E0 ; reset extruder
G1 Z1.0 F3000 ; move z up little to prevent scratching of surface
G1 X0.1 Y20 Z0.3 F5000.0 ; move to start-line position G1 X0.1 Y200.0 Z0.3 F1500.0 E15 ; draw 1st line
G1 X0.4 Y200.0 Z0.3 F5000.0 ; move to side a little
G1 X0.4 Y20 Z0.3 F1500.0 E30 ; draw 2nd line
G92 E0 ; reset extruder
G1 Z1.0 F3000 ; move z up little to prevent scratching of surface
M117 All systems go!
G92 E0
G1 F6000 E-5
;LAYER_COUNT:226
;LAYER:0
M107
M204 S5000
M205 X30 Y30
G0 F7200 X87.408 Y60.653 Z0.2
M204 S500
M205 X20 Y20
;TYPE:SKIRT
G1 F6000 E0
G1 F900 X87.922 Y60.051 E0.02896
G1 X88.051 Y59.922 E0.03564
G1 X88.528 Y59.502 E0.05889
G1 X89.054 Y59.144 E0.08217
G1 X89.621 Y58.856 E0.10543
G1 X90.219 Y58.64 E0.1287
G1 X90.84 Y58.502 E0.15197
G1 X91.629 Y58.44 E0.18093
G1 X143.371 Y58.44 E2.07397
G1 X144.006 Y58.48 E2.09724
G1 X144.63 Y58.599 E2.12049
G1 X145.235 Y58.796 E2.14376
G1 X145.81 Y59.067 E2.16702
G1 X146.347 Y59.408 E2.19029
G1 X146.949 Y59.922 E2.21925
G1 X147.078 Y60.051 E2.22593
G1 X147.498 Y60.528 E2.24918
G1 X147.856 Y61.054 E2.27246
G1 X148.144 Y61.621 E2.29573
G1 X148.36 Y62.219 E2.31899
G1 X148.498 Y62.84 E2.34226
G1 X148.56 Y63.629 E2.37122
G1 X148.56 Y171.371 E6.31308
G1 X148.52 Y172.006 E6.33636
G1 X148.401 Y172.63 E6.3596
G1 X148.204 Y173.235 E6.38288
G1 X147.933 Y173.81 E6.40614
G1 X147.592 Y174.347 E6.42941
G1 X147.078 Y174.949 E6.45837
G1 X146.949 Y175.078 E6.46505
G1 X146.472 Y175.498 E6.4883
G1 X145.946 Y175.856 E6.51158
G1 X145.379 Y176.144 E6.53484
G1 X144.781 Y176.36 E6.55811
G1 X144.16 Y176.498 E6.58138
G1 X143.371 Y176.56 E6.61034
G1 X91.629 Y176.56 E8.50338
G1 X90.994 Y176.52 E8.52666
G1 X90.37 Y176.401 E8.5499
G1 X89.765 Y176.204 E8.57317
G1 X89.19 Y175.933 E8.59643
G1 X88.653 Y175.592 E8.6197
G1 X88.051 Y175.078 E8.64867
G1 X87.922 Y174.949 E8.65534
G1 X87.502 Y174.472 E8.67859
G1 X87.144 Y173.946 E8.70187
G1 X86.856 Y173.379 E8.72514
G1 X86.64 Y172.781 E8.7484
G1 X86.502 Y172.16 E8.77167
G1 X86.44 Y171.371 E8.80063
G1 X86.44 Y63.629 E12.74249
G1 X86.48 Y62.994 E12.76577
G1 X86.599 Y62.37 E12.78901
G1 X86.796 Y61.765 E12.81229
G1 X87.029 Y61.272 E12.83224
G0 F810 X87.067 Y61.19
G0 X87.408 Y60.653
M204 S5000
M205 X30 Y30
G0 F7200 X87.845 Y60.803
M204 S500
M205 X20 Y20
G1 F6000 E12.85884
G1 F900 X88.233 Y60.362 E12.88033
G1 X88.362 Y60.233 E12.88701
G1 X88.819 Y59.833 E12.90923
G1 X89.325 Y59.496 E12.93147
G1 X89.87 Y59.228 E12.95369
G1 X90.446 Y59.034 E12.97592
G1 X91.042 Y58.917 E12.99815
G1 X91.629 Y58.88 E13.01966
G1 X143.371 Y58.88 E14.91271
G1 X143.977 Y58.92 E14.93492
G1 X144.573 Y59.039 E14.95716
G1 X145.148 Y59.235 E14.97939
G1 X145.692 Y59.506 E15.00162
G1 X146.197 Y59.845 E15.02387
G1 X146.638 Y60.233 E15.04536
G1 X146.767 Y60.362 E15.05204
G1 X147.167 Y60.819 E15.07426
G1 X147.504 Y61.325 E15.0965
G1 X147.772 Y61.87 E15.11872
G1 X147.966 Y62.446 E15.14096
G1 X148.083 Y63.042 E15.16318
G1 X148.12 Y63.629 E15.1847
G1 X148.12 Y171.371 E19.12656
G1 X148.08 Y171.977 E19.14878
G1 X147.961 Y172.573 E19.17102
G1 X147.765 Y173.148 E19.19324
G1 X147.494 Y173.692 E19.21548
G1 X147.155 Y174.197 E19.23773
G1 X146.767 Y174.638 E19.25922
G1 X146.638 Y174.767 E19.2659
G1 X146.181 Y175.167 E19.28812
G1 X145.675 Y175.504 E19.31036
G1 X145.13 Y175.772 E19.33258
G1 X144.554 Y175.966 E19.35482
G1 X143.958 Y176.083 E19.37704
G1 X143.371 Y176.12 E19.39856
G1 X91.629 Y176.12 E21.2916
G1 X91.023 Y176.08 E21.31382
G1 X90.427 Y175.961 E21.33605
G1 X89.852 Y175.765 E21.35828
G1 X89.308 Y175.494 E21.38051
G1 X88.803 Y175.155 E21.40277
G1 X88.362 Y174.767 E21.42426
G1 X88.233 Y174.638 E21.43093
G1 X87.833 Y174.181 E21.45315
G1 X87.496 Y173.675 E21.47539
G1 X87.228 Y173.13 E21.49761
G1 X87.034 Y172.554 E21.51985
G1 X86.917 Y171.958 E21.54207
G1 X86.88 Y171.371 E21.56359
G1 X86.88 Y63.629 E25.50546
G1 X86.92 Y63.023 E25.52768
G1 X87.039 Y62.427 E25.54991
G1 X87.235 Y61.852 E25.57214
G1 X87.453 Y61.414 E25.59004
G0 F810 X87.506 Y61.308
G0 X87.845 Y60.803
M204 S5000
M205 X30 Y30
G0 F7200 X88.281 Y60.962
M204 S500
M205 X20 Y20
G1 F6000 E25.61663
G1 F900 X88.544 Y60.673 E25.63093
G1 X88.673 Y60.544 E25.63761
G1 X89.109 Y60.165 E25.65874
G1 X89.593 Y59.849 E25.67989
G1 X90.116 Y59.603 E25.70103
G1 X90.668 Y59.432 E25.72218
G1 X91.239 Y59.338 E25.74335
G1 X91.629 Y59.32 E25.75763
G1 X143.371 Y59.32 E27.65067
G1 X143.948 Y59.36 E27.67183
G1 X144.513 Y59.479 E27.69296
G1 X145.057 Y59.675 E27.71411
G1 X145.568 Y59.944 E27.73524
G1 X146.038 Y60.281 E27.7564
G1 X146.327 Y60.544 E27.7707
G1 X146.456 Y60.673 E27.77737
G1 X146.835 Y61.109 E27.79851
G1 X147.151 Y61.593 E27.81965
G1 X147.397 Y62.116 E27.8408
G1 X147.568 Y62.668 E27.86194
G1 X147.662 Y63.239 E27.88311
G1 X147.68 Y63.629 E27.8974
G1 X147.68 Y171.371 E31.83926
G1 X147.64 Y171.948 E31.86042
G1 X147.521 Y172.513 E31.88155
G1 X147.325 Y173.057 E31.9027
G1 X147.056 Y173.568 E31.92383
G1 X146.719 Y174.038 E31.94499
G1 X146.456 Y174.327 E31.95929
G1 X146.327 Y174.456 E31.96596
G1 X145.891 Y174.835 E31.9871
G1 X145.407 Y175.151 E32.00825
G1 X144.884 Y175.397 E32.02939
G1 X144.332 Y175.568 E32.05053
G1 X143.761 Y175.662 E32.0717
G1 X143.371 Y175.68 E32.08599
G1 X91.629 Y175.68 E33.97903
G1 X91.052 Y175.64 E34.00019
G1 X90.487 Y175.521 E34.02131
G1 X89.943 Y175.325 E34.04247
G1 X89.432 Y175.056 E34.0636
G1 X88.962 Y174.719 E34.08476
G1 X88.673 Y174.456 E34.09905
G1 X88.544 Y174.327 E34.10573
G1 X88.165 Y173.891 E34.12686
G1 X87.849 Y173.407 E34.14801
G1 X87.603 Y172.884 E34.16916
G1 X87.432 Y172.332 E34.1903
G1 X87.338 Y171.761 E34.21147
G1 X87.32 Y171.371 E34.22575
G1 X87.32 Y63.629 E38.16762
G1 X87.36 Y63.052 E38.18878
G1 X87.479 Y62.487 E38.20991
G1 X87.675 Y61.943 E38.23106
G1 X87.875 Y61.563 E38.24677
G0 F810 X87.944 Y61.432
G0 X88.281 Y60.962
M204 S5000
M205 X30 Y30
G0 F7200 X88.382 Y61.563
M204 S500
M205 X20 Y20
G1 F6000 E38.27337
G1 F900 X88.855 Y60.984 E38.30072
G1 X88.984 Y60.855 E38.3074
G1 X89.398 Y60.498 E38.3274
G1 X89.86 Y60.205 E38.34741
G1 X90.359 Y59.982 E38.36741
G1 X90.885 Y59.835 E38.38739
G1 X91.629 Y59.76 E38.41475
G1 X143.371 Y59.76 E40.30779
G1 X143.916 Y59.8 E40.32778
G1 X144.45 Y59.919 E40.3478
G1 X144.96 Y60.114 E40.36778
G1 X145.437 Y60.382 E40.38779
G1 X146.016 Y60.855 E40.41515
G1 X146.145 Y60.984 E40.42182
G1 X146.502 Y61.398 E40.44182
G1 X146.795 Y61.86 E40.46184
G1 X147.018 Y62.359 E40.48183
G1 X147.165 Y62.885 E40.50182
G1 X147.24 Y63.629 E40.52917
G1 X147.24 Y171.371 E44.47104
G1 X147.2 Y171.916 E44.49103
G1 X147.081 Y172.45 E44.51105
G1 X146.886 Y172.96 E44.53102
G1 X146.618 Y173.437 E44.55104
G1 X146.145 Y174.016 E44.57839
G1 X146.016 Y174.145 E44.58507
G1 X145.602 Y174.502 E44.60507
G1 X145.14 Y174.795 E44.62508
G1 X144.641 Y175.018 E44.64508
G1 X144.115 Y175.165 E44.66506
G1 X143.371 Y175.24 E44.69242
G1 X91.629 Y175.24 E46.58546
G1 X91.084 Y175.2 E46.60545
G1 X90.55 Y175.081 E46.62547
G1 X90.04 Y174.886 E46.64545
G1 X89.563 Y174.618 E46.66546
G1 X88.984 Y174.145 E46.69282
G1 X88.855 Y174.016 E46.69949
G1 X88.498 Y173.602 E46.71949
G1 X88.205 Y173.14 E46.73951
G1 X87.982 Y172.641 E46.75951
G1 X87.835 Y172.115 E46.77949
G1 X87.76 Y171.371 E46.80684
G1 X87.76 Y63.629 E50.74871
G1 X87.8 Y63.084 E50.7687
G1 X87.919 Y62.55 E50.78872
G1 X88.05 Y62.208 E50.80212
G0 F810 X88.114 Y62.04
G0 X88.382 Y61.563
M204 S5000
M205 X30 Y30
G0 F7200 X88.82 Y61.704
M204 S500
M205 X20 Y20
G1 F6000 E50.82872
G1 F900 X89.167 Y61.296 E50.84831
G1 X89.296 Y61.167 E50.85499
G1 X89.686 Y60.833 E50.87377
G1 X90.123 Y60.564 E50.89255
G1 X90.597 Y60.366 E50.91134
G1 X91.095 Y60.243 E50.93011
G1 X91.629 Y60.2 E50.94971
G1 X143.371 Y60.2 E52.84275
G1 X143.883 Y60.24 E52.86154
G1 X144.382 Y60.359 E52.88031
G1 X144.857 Y60.554 E52.89909
G1 X145.296 Y60.82 E52.91787
G1 X145.704 Y61.167 E52.93747
G1 X145.833 Y61.296 E52.94414
G1 X146.167 Y61.686 E52.96293
G1 X146.436 Y62.123 E52.9817
G1 X146.634 Y62.597 E53.0005
G1 X146.757 Y63.095 E53.01926
G1 X146.8 Y63.629 E53.03886
G1 X146.8 Y171.371 E56.98073
G1 X146.76 Y171.883 E56.99952
G1 X146.641 Y172.382 E57.01829
G1 X146.446 Y172.857 E57.03707
G1 X146.18 Y173.296 E57.05585
G1 X145.833 Y173.704 E57.07545
G1 X145.704 Y173.833 E57.08212
G1 X145.314 Y174.167 E57.10091
G1 X144.877 Y174.436 E57.11968
G1 X144.403 Y174.634 E57.13848
G1 X143.905 Y174.757 E57.15724
G1 X143.371 Y174.8 E57.17685
G1 X91.629 Y174.8 E59.06989
G1 X91.117 Y174.76 E59.08867
G1 X90.618 Y174.641 E59.10744
G1 X90.143 Y174.446 E59.12623
G1 X89.704 Y174.18 E59.14501
G1 X89.296 Y173.833 E59.1646
G1 X89.167 Y173.704 E59.17128
G1 X88.833 Y173.314 E59.19007
G1 X88.564 Y172.877 E59.20884
G1 X88.366 Y172.403 E59.22763
G1 X88.243 Y171.905 E59.2464
G1 X88.2 Y171.371 E59.266
G1 X88.2 Y63.629 E63.20787
G1 X88.24 Y63.117 E63.22666
G1 X88.359 Y62.618 E63.24542
G1 X88.473 Y62.341 E63.25638
G0 F810 X88.554 Y62.143
G0 X88.82 Y61.704
M204 S5000
M205 X30 Y30
G0 F7200 X89.257 Y61.855
M204 S500
M205 X20 Y20
G1 F6000 E63.28298
G1 F900 X89.478 Y61.607 E63.29513
G1 X89.607 Y61.478 E63.30181
G1 X89.972 Y61.169 E63.31931
G1 X90.383 Y60.926 E63.33677
G1 X90.829 Y60.754 E63.35426
G1 X91.297 Y60.659 E63.37173
G1 X91.629 Y60.64 E63.3839
G1 X143.371 Y60.64 E65.27694
G1 X143.847 Y60.68 E65.29442
G1 X144.31 Y60.799 E65.31191
G1 X144.747 Y60.993 E65.3294
G1 X145.145 Y61.257 E65.34687
G1 X145.393 Y61.478 E65.35903
G1 X145.522 Y61.607 E65.3657
G1 X145.831 Y61.972 E65.3832
G1 X146.074 Y62.383 E65.40067
G1 X146.246 Y62.829 E65.41816
G1 X146.341 Y63.297 E65.43563
G1 X146.36 Y63.629 E65.44779
G1 X146.36 Y171.371 E69.38966
G1 X146.32 Y171.847 E69.40713
G1 X146.201 Y172.31 E69.42462
G1 X146.007 Y172.747 E69.44212
G1 X145.743 Y173.145 E69.45959
G1 X145.522 Y173.393 E69.47174
G1 X145.393 Y173.522 E69.47842
G1 X145.028 Y173.831 E69.49592
G1 X144.617 Y174.074 E69.51338
G1 X144.171 Y174.246 E69.53087
G1 X143.703 Y174.341 E69.54834
G1 X143.371 Y174.36 E69.56051
G1 X91.629 Y174.36 E71.45355
G1 X91.153 Y174.32 E71.47103
G1 X90.69 Y174.201 E71.48852
G1 X90.253 Y174.007 E71.50601
G1 X89.855 Y173.743 E71.52348
G1 X89.607 Y173.522 E71.53564
G1 X89.478 Y173.393 E71.54231
G1 X89.169 Y173.028 E71.55981
G1 X88.926 Y172.617 E71.57728
G1 X88.754 Y172.171 E71.59477
G1 X88.659 Y171.703 E71.61224
G1 X88.64 Y171.371 E71.6244
G1 X88.64 Y63.629 E75.56627
G1 X88.68 Y63.153 E75.58374
G1 X88.799 Y62.69 E75.60123
G1 X88.892 Y62.481 E75.6096
G0 F810 X88.993 Y62.253
G0 X89.257 Y61.855
M204 S5000
M205 X30 Y30
G0 F7200 X89.431 Y62.373
M204 S500
M205 X20 Y20
G1 F6000 E75.6362
G1 F900 X89.789 Y61.918 E75.65738
G1 X89.918 Y61.789 E75.66406
G1 X90.256 Y61.508 E75.68014
G1 X90.639 Y61.292 E75.69623
G1 X91.054 Y61.149 E75.71229
G1 X91.629 Y61.08 E75.73347
G1 X143.371 Y61.08 E77.62652
G1 X143.809 Y61.12 E77.64261
G1 X144.232 Y61.238 E77.65867
G1 X144.627 Y61.431 E77.67476
G1 X145.082 Y61.789 E77.69594
G1 X145.211 Y61.918 E77.70261
G1 X145.492 Y62.256 E77.7187
G1 X145.708 Y62.639 E77.73478
G1 X145.851 Y63.054 E77.75084
G1 X145.92 Y63.629 E77.77203
G1 X145.92 Y171.371 E81.71389
G1 X145.88 Y171.809 E81.72999
G1 X145.762 Y172.232 E81.74605
G1 X145.569 Y172.627 E81.76214
G1 X145.211 Y173.082 E81.78332
G1 X145.082 Y173.211 E81.78999
G1 X144.744 Y173.492 E81.80608
G1 X144.361 Y173.708 E81.82216
G1 X143.946 Y173.851 E81.83822
G1 X143.371 Y173.92 E81.85941
G1 X91.629 Y173.92 E83.75245
G1 X91.191 Y173.88 E83.76854
G1 X90.768 Y173.762 E83.78461
G1 X90.373 Y173.569 E83.80069
G1 X89.918 Y173.211 E83.82187
G1 X89.789 Y173.082 E83.82855
G1 X89.508 Y172.744 E83.84463
G1 X89.292 Y172.361 E83.86072
G1 X89.149 Y171.946 E83.87678
G1 X89.08 Y171.371 E83.89797
G1 X89.08 Y63.629 E87.83983
G1 X89.12 Y63.191 E87.85592
G1 X89.161 Y63.045 E87.86147
G0 F810 X89.238 Y62.768
G0 X89.431 Y62.373
M204 S5000
M205 X30 Y30
G0 F7200 X89.87 Y62.506
M204 S500
M205 X20 Y20
G1 F6000 E87.88807
G1 F900 X90.1 Y62.229 E87.90124
G1 X90.229 Y62.1 E87.90791
G1 X90.537 Y61.848 E87.92247
G1 X90.889 Y61.664 E87.93701
G1 X91.27 Y61.553 E87.95152
G1 X91.629 Y61.52 E87.96471
G1 X143.371 Y61.52 E89.85776
G1 X143.766 Y61.56 E89.87228
G1 X144.146 Y61.678 E89.88684
G1 X144.494 Y61.87 E89.90138
G1 X144.771 Y62.1 E89.91455
G1 X144.9 Y62.229 E89.92123
G1 X145.152 Y62.537 E89.93579
G1 X145.336 Y62.889 E89.95032
G1 X145.447 Y63.27 E89.96484
G1 X145.48 Y63.629 E89.97803
G1 X145.48 Y171.371 E93.91989
G1 X145.44 Y171.766 E93.93442
G1 X145.322 Y172.146 E93.94897
G1 X145.13 Y172.494 E93.96352
G1 X144.9 Y172.771 E93.97669
G1 X144.771 Y172.9 E93.98336
G1 X144.463 Y173.152 E93.99792
G1 X144.111 Y173.336 E94.01245
G1 X143.73 Y173.447 E94.02697
G1 X143.371 Y173.48 E94.04016
G1 X91.629 Y173.48 E95.9332
G1 X91.234 Y173.44 E95.94773
G1 X90.854 Y173.322 E95.96229
G1 X90.506 Y173.13 E95.97683
G1 X90.229 Y172.9 E95.99
G1 X90.1 Y172.771 E95.99667
G1 X89.848 Y172.463 E96.01123
G1 X89.664 Y172.111 E96.02577
G1 X89.553 Y171.73 E96.04028
G1 X89.52 Y171.371 E96.05347
G1 X89.52 Y63.629 E99.99534
G1 X89.56 Y63.234 E100.00986
G1 X89.58 Y63.169 E100.01235
G0 F810 X89.678 Y62.854
G0 X89.87 Y62.506
M204 S5000
M205 X30 Y30
G0 F7200 X90.411 Y62.54
M204 S500
M205 X20 Y20
G1 F6000 E100.03895
G1 F900 X90.54 Y62.411 E100.04563
G1 X90.814 Y62.193 E100.05844
G1 X91.131 Y62.043 E100.07127
G1 X91.629 Y61.96 E100.08974
G1 X143.371 Y61.96 E101.98278
G1 X143.719 Y62 E101.99559
G1 X144.049 Y62.117 E102.0084
G1 X144.46 Y62.411 E102.02689
G1 X144.589 Y62.54 E102.03357
G1 X144.807 Y62.814 E102.04638
G1 X144.957 Y63.131 E102.05921
G1 X145.04 Y63.629 E102.07768
G1 X145.04 Y171.371 E106.01954
G1 X145 Y171.719 E106.03236
G1 X144.883 Y172.049 E106.04517
G1 X144.589 Y172.46 E106.06366
G1 X144.46 Y172.589 E106.07033
G1 X144.186 Y172.807 E106.08314
G1 X143.869 Y172.957 E106.09597
G1 X143.371 Y173.04 E106.11444
G1 X91.629 Y173.04 E108.00748
G1 X91.281 Y173 E108.0203
G1 X90.951 Y172.883 E108.03311
G1 X90.54 Y172.589 E108.0516
G1 X90.411 Y172.46 E108.05827
G1 X90.193 Y172.186 E108.07108
G1 X90.043 Y171.869 E108.08391
G1 X89.96 Y171.371 E108.10238
G1 X89.96 Y63.629 E112.04425
G1 X90 Y63.281 E112.05707
G1 X90.043 Y63.16 E112.06176
G0 F810 X90.117 Y62.951
G0 X90.411 Y62.54
M204 S5000
M205 X30 Y30
G0 F7200 X90.556 Y63.064
M204 S500
M205 X20 Y20
G1 F6000 E112.08836
G1 F900 X90.722 Y62.851 E112.09824
G1 X90.851 Y62.722 E112.10492
G1 X91.087 Y62.543 E112.11575
G1 X91.362 Y62.433 E112.12659
G1 X91.629 Y62.4 E112.13643
G1 X143.371 Y62.4 E114.02947
G1 X143.664 Y62.44 E114.04029
G1 X143.936 Y62.556 E114.05111
G1 X144.149 Y62.722 E114.06099
G1 X144.278 Y62.851 E114.06767
G1 X144.457 Y63.087 E114.0785
G1 X144.567 Y63.362 E114.08934
G1 X144.6 Y63.629 E114.09918
G1 X144.6 Y171.371 E118.04105
G1 X144.56 Y171.664 E118.05187
G1 X144.444 Y171.936 E118.06268
G1 X144.278 Y172.149 E118.07256
G1 X144.149 Y172.278 E118.07924
G1 X143.913 Y172.457 E118.09008
G1 X143.638 Y172.567 E118.10091
G1 X143.371 Y172.6 E118.11075
G1 X91.629 Y172.6 E120.00379
G1 X91.336 Y172.56 E120.01461
G1 X91.064 Y172.444 E120.02543
G1 X90.851 Y172.278 E120.03531
G1 X90.722 Y172.149 E120.04199
G1 X90.543 Y171.913 E120.05282
G1 X90.433 Y171.638 E120.06366
G1 X90.4 Y171.371 E120.0735
G1 X90.4 Y63.766 E124.01036
G0 F810 X90.4 Y63.629
G0 X90.44 Y63.336
G0 X90.556 Y63.064
M204 S5000
M205 X30 Y30
G0 F7200 X91.033 Y63.162
M204 S500
M205 X20 Y20
G1 F6000 E124.03695
G1 F900 X91.162 Y63.033 E124.04363
G1 X91.35 Y62.902 E124.05201
G1 X91.629 Y62.84 E124.06247
G1 X143.371 Y62.84 E125.95551
G1 X143.596 Y62.88 E125.96387
G1 X143.838 Y63.033 E125.97434
G1 X143.967 Y63.162 E125.98102
G1 X144.098 Y63.35 E125.9894
G1 X144.16 Y63.629 E125.99986
G1 X144.16 Y171.371 E129.94172
G1 X144.12 Y171.596 E129.95008
G1 X143.967 Y171.838 E129.96056
G1 X143.838 Y171.967 E129.96723
G1 X143.65 Y172.098 E129.97562
G1 X143.371 Y172.16 E129.98607
G1 X91.629 Y172.16 E131.87911
G1 X91.404 Y172.12 E131.88748
G1 X91.162 Y171.967 E131.89795
G1 X91.033 Y171.838 E131.90463
G1 X90.902 Y171.65 E131.91301
G1 X90.84 Y171.371 E131.92346
G1 X90.84 Y63.842 E135.85754
G0 F810 X90.84 Y63.629
