;FLAVOR:RepRap
;TIME:3785
;Generated with Cura_SteamEngine 2.3.1
M190 S70
M104 S210
M109 S210
G28 ; home all axes
M117 Purge extruder
G92 E0 ; reset extruder
G1 Z1.0 F3000 ; move z up little to prevent scratching of surface
G1 X0.1 Y20 Z0.3 F5000.0 ; move to start-line position G1 X0.1 Y200.0 Z0.3 F1500.0 E15 ; draw 1st line
G1 X0.4 Y200.0 Z0.3 F5000.0 ; move to side a little
G1 X0.4 Y20 Z0.3 F1500.0 E30 ; draw 2nd line
G92 E0 ; reset extruder
G1 Z1.0 F3000 ; move z up little to prevent scratching of surface

M117 All systems go!
;LAYER_COUNT:213
;LAYER:0
M107
G1 F4200 E-5
G0 F1800 X85.632 Y85.473 Z.16
G0 X85.276 Y85.894
;TYPE:SKIRT
G1 F4200 E0
G1 F1200 X85.632 Y85.473 E0.01467
G1 X86.115 Y85.056 E0.03165
G1 X87.003 Y84.411 E0.06085
G1 X87.471 Y84.121 E0.0755
G1 X88.065 Y83.871 E0.09265
G1 X89.105 Y83.534 E0.12174
G1 X89.64 Y83.403 E0.13639
G1 X90.272 Y83.349 E0.15327
G1 X129.178 Y83.306 E1.18849
G1 X129.773 Y83.352 E1.20437
G1 X130.846 Y83.521 E1.23327
G1 X131.383 Y83.646 E1.24794
G1 X131.981 Y83.889 E1.26512
G1 X132.962 Y84.389 E1.29441
G1 X133.433 Y84.675 E1.30907
G1 X133.925 Y85.09 E1.3262
G1 X134.699 Y85.865 E1.35534
G1 X135.059 Y86.282 E1.37
G1 X135.397 Y86.827 E1.38707
G1 X135.894 Y87.804 E1.41623
G1 X136.108 Y88.312 E1.4309
G1 X136.26 Y88.931 E1.44786
G1 X136.43 Y90.001 E1.47669
G1 X136.477 Y90.597 E1.4926
G1 X136.477 Y98.724 E1.70884
G1 X137.1 Y99.175 E1.7293
G1 X137.693 Y99.707 E1.7505
G1 X138.047 Y100.099 E1.76456
G1 X138.386 Y100.534 E1.77923
G1 X138.658 Y101.013 E1.79389
G1 X138.791 Y101.327 E1.80296
G1 X138.995 Y101.878 E1.81859
G1 X139.31 Y102.001 E1.82759
G1 X139.486 Y102.101 E1.83298
G1 X139.515 Y102.108 E1.83377
G1 X140.039 Y102.278 E1.84843
G1 X140.595 Y102.561 E1.86503
G1 X140.96 Y102.786 E1.87644
G1 X141.407 Y103.109 E1.89111
G1 X141.953 Y103.672 E1.91198
G1 X142.424 Y104.271 E1.93226
G1 X142.795 Y104.842 E1.95038
G1 X143.19 Y105.588 E1.97284
G1 X143.412 Y106.092 E1.98749
G1 X143.559 Y106.623 E2.00215
G1 X143.614 Y106.998 E2.01223
G1 X143.669 Y107.565 E2.02739
G1 X143.843 Y107.843 E2.03612
G1 X144.065 Y108.347 E2.05077
G1 X144.199 Y108.82 E2.06385
G1 X144.394 Y109.727 E2.08854
G1 X144.477 Y110.41 E2.10685
G1 X144.504 Y111.292 E2.13033
G1 X144.468 Y111.943 E2.14767
G1 X144.436 Y112.165 E2.15364
G1 X144.478 Y112.373 E2.15929
G1 X144.547 Y112.919 E2.17393
G1 X144.538 Y113.448 E2.18801
G1 X144.446 Y114.502 E2.21616
G1 X144.375 Y114.969 E2.22873
G1 X144.149 Y116.022 E2.25739
G1 X144.008 Y116.517 E2.27108
G1 X143.861 Y116.923 E2.28257
G1 X143.801 Y117.473 E2.29729
G1 X143.776 Y117.584 E2.30032
G1 X143.79 Y117.62 E2.30135
G1 X143.912 Y118.157 E2.316
G1 X143.954 Y118.686 E2.33012
G1 X143.965 Y119.806 E2.35992
G1 X143.966 Y119.811 E2.36006
G1 X144.054 Y120.355 E2.37472
G1 X144.063 Y120.906 E2.38938
G1 X143.992 Y121.452 E2.40403
G1 X143.842 Y121.982 E2.41869
G1 X143.618 Y122.486 E2.43337
G1 X143.323 Y122.951 E2.44802
G1 X142.963 Y123.369 E2.4627
G1 X142.351 Y123.868 E2.48371
G1 X141.98 Y124.111 E2.49551
G1 X141.498 Y124.379 E2.51018
G1 X140.983 Y124.574 E2.52483
G1 X140.445 Y124.692 E2.53949
G1 X139.896 Y124.732 E2.55414
G1 X139.346 Y124.692 E2.56881
G1 X138.808 Y124.572 E2.58348
G1 X138.742 Y124.547 E2.58535
G1 X138.689 Y124.788 E2.59192
G1 X138.493 Y125.303 E2.60658
G1 X138.279 Y125.699 E2.61856
G1 X138.094 Y125.998 E2.62792
G1 X137.771 Y126.445 E2.64259
G1 X137.258 Y126.949 E2.66172
G1 X136.459 Y127.598 E2.68911
G1 X136.436 Y129.97 E2.75223
G1 X136.391 Y130.519 E2.76689
G1 X136.253 Y131.099 E2.78275
G1 X135.916 Y132.145 E2.81199
G1 X135.709 Y132.656 E2.82666
G1 X135.372 Y133.215 E2.84403
G1 X134.729 Y134.099 E2.87312
G1 X134.373 Y134.52 E2.88779
G1 X133.896 Y134.933 E2.90457
G1 X133.011 Y135.579 E2.93373
G1 X132.544 Y135.871 E2.94838
G1 X131.95 Y136.123 E2.96555
G1 X130.908 Y136.463 E2.99472
G1 X130.373 Y136.595 E3.00938
G1 X129.733 Y136.65 E3.02647
G1 X90.822 Y136.694 E4.06182
G1 X90.227 Y136.648 E4.0777
G1 X89.154 Y136.479 E4.1066
G1 X88.617 Y136.354 E4.12127
G1 X88.018 Y136.11 E4.13848
G1 X87.036 Y135.609 E4.16782
G1 X86.565 Y135.324 E4.18246
G1 X86.074 Y134.909 E4.19957
G1 X85.301 Y134.135 E4.22868
G1 X84.941 Y133.718 E4.24333
G1 X84.602 Y133.171 E4.26046
G1 X84.104 Y132.191 E4.28971
G1 X83.891 Y131.683 E4.30436
G1 X83.739 Y131.064 E4.32132
G1 X83.57 Y129.997 E4.35007
G1 X83.523 Y129.403 E4.36592
G1 X83.523 Y111.024 E4.85495
G1 X81.908 Y110.488 E4.90023
G1 X81.249 Y110.198 E4.91939
G1 X78.895 Y108.88 E4.99117
G1 X78.435 Y108.576 E5.00584
G1 X78.075 Y108.262 E5.01855
G1 X76.978 Y107.174 E5.05967
G1 X76.616 Y106.759 E5.07432
G1 X76.387 Y106.417 E5.08527
G1 X76.207 Y106.114 E5.09465
G1 X75.961 Y105.621 E5.10931
G1 X75.908 Y105.461 E5.11379
G1 X75.802 Y105.27 E5.1196
G1 X75.606 Y104.754 E5.13429
G1 X75.488 Y104.216 E5.14895
G1 X75.449 Y103.597 E5.16545
G1 X75.458 Y103.12 E5.17814
G1 X75.508 Y102.572 E5.19279
G1 X75.637 Y102.036 E5.20746
G1 X75.842 Y101.525 E5.22211
G1 X76.119 Y101.048 E5.23678
G1 X76.462 Y100.617 E5.25144
G1 X76.864 Y100.24 E5.2661
G1 X77.524 Y99.81 E5.28706
G1 X77.805 Y99.666 E5.29546
G1 X78.312 Y99.451 E5.31012
G1 X78.845 Y99.312 E5.32477
G1 X79.393 Y99.251 E5.33945
G1 X79.944 Y99.27 E5.35412
G1 X80.486 Y99.368 E5.36877
G1 X81.008 Y99.544 E5.38343
G1 X81.711 Y99.931 E5.40478
G1 X82.731 Y100.642 E5.43786
G1 X82.875 Y100.765 E5.4429
G1 X82.926 Y100.508 E5.44987
G1 X83.111 Y99.989 E5.46454
G1 X83.369 Y99.502 E5.4792
G1 X83.531 Y99.288 E5.48634
G1 X83.566 Y90.042 E5.73236
G1 X83.608 Y89.492 E5.74704
G1 X83.752 Y88.88 E5.76377
G1 X84.091 Y87.838 E5.79292
G1 X84.299 Y87.328 E5.80758
G1 X84.633 Y86.777 E5.82472
G1 X85.276 Y85.894 E5.85379
G0 F1800 X85.6 Y86.13
G1 F1200 X85.938 Y85.733 E5.86766
G1 X86.35 Y85.38 E5.8821
G1 X87.238 Y84.735 E5.9113
G1 X87.682 Y84.462 E5.92517
G1 X88.188 Y84.252 E5.93975
G1 X89.228 Y83.915 E5.96883
G1 X89.735 Y83.792 E5.98272
G1 X90.272 Y83.749 E5.99705
G1 X129.178 Y83.706 E7.03227
G1 X129.711 Y83.747 E7.04649
G1 X130.784 Y83.916 E7.07539
G1 X131.291 Y84.037 E7.08926
G1 X131.799 Y84.246 E7.10388
G1 X132.78 Y84.746 E7.13318
G1 X133.225 Y85.017 E7.14704
G1 X133.642 Y85.372 E7.16161
G1 X134.416 Y86.147 E7.19076
G1 X134.755 Y86.543 E7.20463
G1 X135.04 Y87.008 E7.21914
G1 X135.537 Y87.985 E7.2483
G1 X135.737 Y88.467 E7.26219
G1 X135.865 Y88.994 E7.27662
G1 X136.035 Y90.064 E7.30545
G1 X136.077 Y90.597 E7.31967
G1 X136.077 Y98.933 E7.54148
G1 X136.121 Y98.96 E7.54285
G1 X136.866 Y99.499 E7.56732
G1 X137.396 Y99.975 E7.58627
G1 X137.75 Y100.367 E7.60033
G1 X138.069 Y100.78 E7.61421
G1 X138.416 Y101.466 E7.63467
G1 X138.683 Y102.187 E7.65513
G1 X138.705 Y102.192 E7.65573
G1 X139.189 Y102.387 E7.66961
G1 X139.338 Y102.476 E7.67423
G1 X139.419 Y102.496 E7.67645
G1 X139.913 Y102.66 E7.6903
G1 X140.385 Y102.902 E7.70441
G1 X140.75 Y103.127 E7.71582
G1 X141.172 Y103.433 E7.72969
G1 X141.639 Y103.919 E7.74763
G1 X142.11 Y104.518 E7.7679
G1 X142.442 Y105.029 E7.78412
G1 X142.837 Y105.775 E7.80658
G1 X143.045 Y106.253 E7.82045
G1 X143.177 Y106.757 E7.83431
G1 X143.216 Y107.036 E7.8418
G1 X143.28 Y107.696 E7.85945
G1 X143.503 Y108.055 E7.87069
G1 X143.706 Y108.535 E7.88456
G1 X143.808 Y108.904 E7.89475
G1 X144.003 Y109.811 E7.91943
G1 X144.077 Y110.422 E7.93581
G1 X144.104 Y111.304 E7.95929
G1 X144.072 Y111.887 E7.97482
G1 X144.031 Y112.176 E7.98259
G1 X144.086 Y112.451 E7.99005
G1 X144.149 Y112.969 E8.00394
G1 X144.139 Y113.414 E8.01578
G1 X144.047 Y114.468 E8.04393
G1 X143.984 Y114.885 E8.05515
G1 X143.758 Y115.938 E8.08381
G1 X143.632 Y116.381 E8.09607
G1 X143.47 Y116.83 E8.10877
G1 X143.404 Y117.43 E8.12483
G1 X143.366 Y117.6 E8.12946
G1 X143.371 Y117.645 E8.13067
G1 X143.416 Y117.763 E8.13403
G1 X143.524 Y118.273 E8.1479
G1 X143.554 Y118.69 E8.15902
G1 X143.565 Y119.854 E8.19
G1 X143.577 Y119.903 E8.19134
G1 X143.658 Y120.418 E8.20521
G1 X143.66 Y120.939 E8.21907
G1 X143.582 Y121.454 E8.23293
G1 X143.426 Y121.952 E8.24682
G1 X143.196 Y122.419 E8.26067
G1 X142.897 Y122.846 E8.27454
G1 X142.536 Y123.223 E8.28843
G1 X142.132 Y123.533 E8.30198
G1 X141.761 Y123.776 E8.31378
G1 X141.304 Y124.028 E8.32766
G1 X140.815 Y124.206 E8.34151
G1 X140.304 Y124.308 E8.35538
G1 X139.783 Y124.33 E8.36925
G1 X139.265 Y124.273 E8.38312
G1 X138.762 Y124.137 E8.39698
G1 X138.464 Y124.015 E8.40555
G1 X138.425 Y123.997 E8.40669
G1 X138.408 Y124.22 E8.41264
G1 X138.289 Y124.727 E8.4265
G1 X138.094 Y125.21 E8.44036
G1 X137.939 Y125.489 E8.44885
G1 X137.754 Y125.788 E8.45821
G1 X137.447 Y126.209 E8.47207
G1 X137.006 Y126.638 E8.48844
G1 X136.06 Y127.406 E8.52086
G1 X136.036 Y129.966 E8.58898
G1 X135.991 Y130.486 E8.60287
G1 X135.872 Y130.977 E8.61632
G1 X135.535 Y132.023 E8.64556
G1 X135.338 Y132.505 E8.65941
G1 X135.049 Y132.98 E8.67421
G1 X134.406 Y133.864 E8.70329
G1 X134.068 Y134.261 E8.71716
G1 X133.661 Y134.61 E8.73143
G1 X132.776 Y135.256 E8.76058
G1 X132.332 Y135.53 E8.77447
G1 X131.826 Y135.742 E8.78906
G1 X130.784 Y136.082 E8.81823
G1 X130.277 Y136.205 E8.83211
G1 X129.733 Y136.25 E8.84663
G1 X90.822 Y136.294 E9.88198
G1 X90.289 Y136.253 E9.89621
G1 X89.216 Y136.084 E9.92511
G1 X88.709 Y135.963 E9.93898
G1 X88.2 Y135.754 E9.95362
G1 X87.218 Y135.253 E9.98295
G1 X86.773 Y134.981 E9.99683
G1 X86.357 Y134.627 E10.01136
G1 X85.584 Y133.853 E10.04047
G1 X85.245 Y133.457 E10.05434
G1 X84.959 Y132.99 E10.06891
G1 X84.461 Y132.01 E10.09816
G1 X84.261 Y131.529 E10.11202
G1 X84.134 Y131.002 E10.12645
G1 X83.965 Y129.935 E10.15519
G1 X83.923 Y129.403 E10.16939
G1 X83.923 Y110.736 E10.66608
G1 X82.034 Y110.109 E10.71904
G1 X81.444 Y109.849 E10.7362
G1 X79.09 Y108.531 E10.80798
G1 X78.656 Y108.242 E10.82186
G1 X78.357 Y107.978 E10.83247
G1 X77.26 Y106.89 E10.87358
G1 X76.919 Y106.496 E10.88745
G1 X76.731 Y106.213 E10.89649
G1 X76.551 Y105.91 E10.90586
G1 X76.32 Y105.442 E10.91975
G1 X76.274 Y105.295 E10.92385
G1 X76.153 Y105.076 E10.93051
G1 X75.974 Y104.586 E10.94439
G1 X75.872 Y104.075 E10.95825
G1 X75.849 Y103.605 E10.97077
G1 X75.858 Y103.128 E10.98347
G1 X75.907 Y102.609 E10.99734
G1 X76.036 Y102.104 E11.01121
G1 X76.24 Y101.624 E11.02509
G1 X76.515 Y101.182 E11.03894
G1 X76.854 Y100.786 E11.05281
G1 X77.25 Y100.447 E11.06668
G1 X77.706 Y100.166 E11.08093
G1 X77.987 Y100.022 E11.08933
G1 X78.468 Y99.821 E11.1032
G1 X78.974 Y99.695 E11.11708
G1 X79.493 Y99.648 E11.13094
G1 X80.013 Y99.681 E11.14481
G1 X80.522 Y99.793 E11.15867
G1 X81.008 Y99.982 E11.17255
G1 X81.482 Y100.259 E11.18716
G1 X82.502 Y100.97 E11.22024
G1 X82.802 Y101.226 E11.23073
G1 X83.199 Y101.424 E11.24254
G1 X83.219 Y101.07 E11.25197
G1 X83.327 Y100.56 E11.26584
G1 X83.512 Y100.073 E11.27971
G1 X83.769 Y99.62 E11.29356
G1 X83.931 Y99.415 E11.30052
G1 X83.966 Y90.043 E11.54989
G1 X84.008 Y89.524 E11.56374
G1 X84.133 Y89.004 E11.57797
G1 X84.472 Y87.962 E11.60713
G1 X84.671 Y87.48 E11.62101
G1 X84.957 Y87.013 E11.63558
G1 X85.6 Y86.13 E11.66464
G0 F1800 X85.923 Y86.365
G1 F1200 X86.242 Y85.994 E11.67766
G1 X86.585 Y85.704 E11.68961
G1 X87.473 Y85.059 E11.71881
G1 X87.891 Y84.804 E11.73184
G1 X88.311 Y84.632 E11.74392
G1 X89.351 Y84.295 E11.77301
G1 X89.828 Y84.183 E11.78605
G1 X90.273 Y84.149 E11.79792
G1 X129.179 Y84.106 E12.83314
G1 X129.649 Y84.143 E12.84568
G1 X130.722 Y84.312 E12.87458
G1 X131.197 Y84.427 E12.88759
G1 X131.617 Y84.602 E12.89969
G1 X132.598 Y85.102 E12.92899
G1 X133.015 Y85.359 E12.94202
G1 X133.359 Y85.655 E12.9541
G1 X134.133 Y86.43 E12.98324
G1 X134.449 Y86.803 E12.99625
G1 X134.684 Y87.19 E13.0083
G1 X135.181 Y88.167 E13.03747
G1 X135.367 Y88.62 E13.0505
G1 X135.47 Y89.056 E13.06242
G1 X135.64 Y90.126 E13.09124
G1 X135.677 Y90.597 E13.10381
G1 X135.677 Y99.154 E13.3315
G1 X135.886 Y99.284 E13.33805
G1 X136.631 Y99.823 E13.36252
G1 X137.099 Y100.243 E13.37925
G1 X137.453 Y100.635 E13.3933
G1 X137.751 Y101.024 E13.40634
G1 X138.04 Y101.605 E13.42361
G1 X138.355 Y102.456 E13.44775
G1 X138.376 Y102.525 E13.44967
G1 X138.613 Y102.582 E13.45616
G1 X139.064 Y102.772 E13.46918
G1 X139.19 Y102.851 E13.47314
G1 X139.322 Y102.884 E13.47676
G1 X139.786 Y103.04 E13.48978
G1 X140.175 Y103.242 E13.50144
G1 X140.54 Y103.467 E13.51285
G1 X140.935 Y103.757 E13.52589
G1 X141.324 Y104.167 E13.54093
G1 X141.795 Y104.766 E13.56121
G1 X142.088 Y105.216 E13.57549
G1 X142.483 Y105.962 E13.59795
G1 X142.676 Y106.412 E13.61098
G1 X142.818 Y107.075 E13.62902
G1 X142.891 Y107.828 E13.64915
G1 X142.906 Y107.848 E13.64982
G1 X143.161 Y108.265 E13.66282
G1 X143.346 Y108.719 E13.67587
G1 X143.417 Y108.988 E13.68327
G1 X143.612 Y109.895 E13.70796
G1 X143.678 Y110.434 E13.72241
G1 X143.705 Y111.316 E13.74589
G1 X143.676 Y111.83 E13.75958
G1 X143.625 Y112.187 E13.76918
G1 X143.694 Y112.53 E13.77849
G1 X143.75 Y113.016 E13.79151
G1 X143.741 Y113.379 E13.80117
G1 X143.649 Y114.433 E13.82932
G1 X143.593 Y114.802 E13.83925
G1 X143.367 Y115.855 E13.86791
G1 X143.255 Y116.245 E13.8787
G1 X143.077 Y116.738 E13.89265
G1 X143.006 Y117.386 E13.90999
G1 X142.962 Y117.585 E13.91542
G1 X142.979 Y117.741 E13.91959
G1 X143.04 Y117.905 E13.92425
G1 X143.135 Y118.385 E13.93727
G1 X143.154 Y118.694 E13.94551
G1 X143.166 Y119.902 E13.97765
G1 X143.188 Y119.996 E13.98022
G1 X143.262 Y120.48 E13.99325
G1 X143.256 Y120.969 E14.00626
G1 X143.171 Y121.451 E14.01928
G1 X143.008 Y121.913 E14.03232
G1 X142.773 Y122.342 E14.04533
G1 X142.47 Y122.727 E14.05837
G1 X141.913 Y123.199 E14.0778
G1 X141.542 Y123.442 E14.0896
G1 X141.112 Y123.675 E14.10261
G1 X140.649 Y123.836 E14.11565
G1 X140.167 Y123.92 E14.12867
G1 X139.678 Y123.924 E14.14168
G1 X139.194 Y123.848 E14.15472
G1 X138.633 Y123.652 E14.17053
G1 X138.048 Y123.38 E14.1877
G1 X138.048 Y123.7 E14.19621
G1 X138.008 Y124.188 E14.20924
G1 X137.889 Y124.663 E14.22227
G1 X137.599 Y125.278 E14.24036
G1 X137.414 Y125.577 E14.24972
G1 X137.124 Y125.971 E14.26273
G1 X136.754 Y126.328 E14.27641
G1 X135.662 Y127.215 E14.31385
G1 X135.636 Y129.963 E14.38697
G1 X135.591 Y130.45 E14.39998
G1 X135.491 Y130.854 E14.41106
G1 X135.154 Y131.9 E14.4403
G1 X134.967 Y132.352 E14.45331
G1 X134.725 Y132.745 E14.46559
G1 X134.082 Y133.629 E14.49468
G1 X133.763 Y134 E14.5077
G1 X133.425 Y134.287 E14.5195
G1 X132.54 Y134.933 E14.54865
G1 X132.122 Y135.189 E14.56169
G1 X131.702 Y135.362 E14.57378
G1 X130.66 Y135.702 E14.60294
G1 X130.183 Y135.815 E14.61599
G1 X129.732 Y135.85 E14.62802
G1 X90.821 Y135.894 E15.66337
G1 X90.351 Y135.857 E15.67592
G1 X89.278 Y135.688 E15.70482
G1 X88.803 Y135.573 E15.71782
G1 X88.382 Y135.397 E15.72997
G1 X87.4 Y134.896 E15.7593
G1 X86.983 Y134.639 E15.77233
G1 X86.64 Y134.344 E15.78437
G1 X85.867 Y133.57 E15.81348
G1 X85.551 Y133.197 E15.82648
G1 X85.316 Y132.809 E15.83855
G1 X84.818 Y131.829 E15.8678
G1 X84.632 Y131.376 E15.88083
G1 X84.529 Y130.939 E15.89278
G1 X84.36 Y129.872 E15.92153
G1 X84.323 Y129.403 E15.93404
G1 X84.323 Y110.447 E16.43843
G1 X82.16 Y109.729 E16.49907
G1 X81.639 Y109.5 E16.51421
G1 X79.285 Y108.182 E16.586
G1 X78.879 Y107.908 E16.59903
G1 X78.638 Y107.694 E16.6076
G1 X77.541 Y106.606 E16.64871
G1 X77.223 Y106.234 E16.66174
G1 X77.075 Y106.008 E16.66892
G1 X76.895 Y105.705 E16.6783
G1 X76.68 Y105.265 E16.69133
G1 X76.64 Y105.131 E16.69505
G1 X76.505 Y104.883 E16.70257
G1 X76.344 Y104.421 E16.71559
G1 X76.26 Y103.938 E16.72863
G1 X76.249 Y103.612 E16.73731
G1 X76.258 Y103.135 E16.75
G1 X76.307 Y102.648 E16.76303
G1 X76.434 Y102.176 E16.77603
G1 X76.637 Y101.73 E16.78907
G1 X76.91 Y101.324 E16.80209
G1 X77.245 Y100.967 E16.81512
G1 X77.633 Y100.669 E16.82813
G1 X77.889 Y100.522 E16.83599
G1 X78.17 Y100.378 E16.84439
G1 X78.622 Y100.191 E16.8574
G1 X79.099 Y100.08 E16.87044
G1 X79.587 Y100.048 E16.88345
G1 X80.075 Y100.096 E16.8965
G1 X80.547 Y100.223 E16.9095
G1 X80.993 Y100.425 E16.92253
G1 X81.254 Y100.587 E16.9307
G1 X82.274 Y101.298 E16.96379
G1 X82.588 Y101.566 E16.97477
G1 X83.239 Y101.891 E16.99413
G1 X83.603 Y102.015 E17.00436
G1 X83.598 Y101.968 E17.00562
G1 X83.59 Y101.582 E17.01589
G1 X83.619 Y101.094 E17.0289
G1 X83.728 Y100.616 E17.04195
G1 X83.913 Y100.163 E17.05497
G1 X84.17 Y99.746 E17.068
G1 X84.33 Y99.55 E17.07473
G1 X84.366 Y90.045 E17.32764
G1 X84.408 Y89.557 E17.34068
G1 X84.513 Y89.128 E17.35243
G1 X84.852 Y88.086 E17.38158
