;FLAVOR:Marlin
;TIME:2078
;Filament used: 0.702688m
;Layer height: 0.16
;Generated with Cura_SteamEngine 3.6.0
M140 S70
M105
M190 S70
M104 S215
M105
M109 S215
M82 ;absolute extrusion mode
G28 ; home all axes
M117 Purge extruder
G92 E0 ; reset extruder
G1 Z1.0 F3000 ; move z up little to prevent scratching of surface
G1 X0.1 Y20 Z0.3 F5000.0 ; move to start-line position G1 X0.1 Y200.0 Z0.3 F1500.0 E15 ; draw 1st line
G1 X0.4 Y200.0 Z0.3 F5000.0 ; move to side a little
G1 X0.4 Y20 Z0.3 F1500.0 E30 ; draw 2nd line
G92 E0 ; reset extruder
G1 Z1.0 F3000 ; move z up little to prevent scratching of surface
M117 All systems go!
G92 E0
G1 F6000 E-5
;LAYER_COUNT:313
;LAYER:0
M107
M204 S5000
M205 X30 Y30
G0 F7200 X109.211 Y111.421 Z0.2
M204 S500
M205 X20 Y20
;TYPE:SKIRT
G1 F6000 E0
G1 F900 X109.688 Y111.001 E0.02325
G1 X110.214 Y110.643 E0.04653
G1 X110.781 Y110.355 E0.0698
G1 X111.379 Y110.139 E0.09306
G1 X112 Y110.001 E0.11633
G1 X112.789 Y109.939 E0.14529
G1 X122.211 Y109.939 E0.49
G1 X122.846 Y109.979 E0.51328
G1 X123.47 Y110.098 E0.53652
G1 X124.075 Y110.295 E0.5598
G1 X124.65 Y110.566 E0.58306
G1 X125.187 Y110.907 E0.60633
G1 X125.789 Y111.421 E0.63529
G1 X125.918 Y111.55 E0.64197
G1 X126.338 Y112.027 E0.66522
G1 X126.696 Y112.553 E0.6885
G1 X126.984 Y113.12 E0.71177
G1 X127.2 Y113.718 E0.73503
G1 X127.338 Y114.339 E0.7583
G1 X127.4 Y115.128 E0.78726
G1 X127.4 Y115.87 E0.8144
G1 X127.36 Y116.505 E0.83768
G1 X127.241 Y117.129 E0.86092
G1 X127.044 Y117.734 E0.8842
G1 X126.773 Y118.309 E0.90746
G1 X126.432 Y118.846 E0.93073
G1 X126.278 Y119.027 E0.93943
G1 X126.329 Y119.57 E0.95938
G1 X126.308 Y120.206 E0.98266
G1 X126.209 Y120.834 E1.00592
G1 X125.938 Y121.685 E1.0386
G1 X125.824 Y121.957 E1.04939
G1 X125.542 Y122.527 E1.07265
G1 X125.19 Y123.057 E1.09593
G1 X124.775 Y123.539 E1.1192
G1 X124.303 Y123.964 E1.14244
G1 X123.781 Y124.328 E1.16572
G1 X123.217 Y124.623 E1.18901
G1 X122.621 Y124.844 E1.21226
G1 X122.002 Y124.99 E1.23553
G1 X121.157 Y125.061 E1.26656
G1 X113.843 Y125.061 E1.53415
G1 X113.208 Y125.021 E1.55743
G1 X112.584 Y124.902 E1.58067
G1 X111.979 Y124.705 E1.60395
G1 X111.404 Y124.434 E1.6272
G1 X110.867 Y124.093 E1.65048
G1 X110.377 Y123.688 E1.67373
G1 X109.942 Y123.224 E1.697
G1 X109.569 Y122.709 E1.72027
G1 X109.176 Y121.957 E1.75131
G1 X109.062 Y121.685 E1.7621
G1 X108.854 Y121.084 E1.78537
G1 X108.722 Y120.462 E1.80863
G1 X108.67 Y119.828 E1.83191
G1 X108.697 Y119.193 E1.85516
G1 X108.723 Y119.04 E1.86084
G1 X108.662 Y118.971 E1.86421
G1 X108.304 Y118.445 E1.88749
G1 X108.016 Y117.878 E1.91075
G1 X107.8 Y117.28 E1.93401
G1 X107.662 Y116.659 E1.95729
G1 X107.6 Y115.87 E1.98624
G1 X107.6 Y115.128 E2.01339
G1 X107.64 Y114.493 E2.03667
G1 X107.759 Y113.869 E2.05991
G1 X107.956 Y113.264 E2.08319
G1 X108.227 Y112.689 E2.10645
G1 X108.568 Y112.152 E2.12972
G1 X108.728 Y111.964 E2.13875
G0 F810 X109.082 Y111.55
G0 X109.211 Y111.421
M204 S5000
M205 X30 Y30
G0 F7200 X109.522 Y111.732
M204 S500
M205 X20 Y20
G1 F6000 E2.16535
G1 F900 X109.979 Y111.332 E2.18757
G1 X110.485 Y110.995 E2.20981
G1 X111.03 Y110.727 E2.23203
G1 X111.606 Y110.533 E2.25427
G1 X112.202 Y110.416 E2.27649
G1 X112.789 Y110.379 E2.29801
G1 X122.211 Y110.379 E2.64272
G1 X122.817 Y110.419 E2.66494
G1 X123.413 Y110.538 E2.68718
G1 X123.988 Y110.734 E2.7094
G1 X124.532 Y111.005 E2.73164
G1 X125.037 Y111.344 E2.75389
G1 X125.478 Y111.732 E2.77538
G1 X125.607 Y111.861 E2.78206
G1 X126.007 Y112.318 E2.80428
G1 X126.344 Y112.824 E2.82652
G1 X126.612 Y113.369 E2.84874
G1 X126.806 Y113.945 E2.87098
G1 X126.923 Y114.541 E2.8932
G1 X126.96 Y115.128 E2.91472
G1 X126.96 Y115.87 E2.94186
G1 X126.92 Y116.476 E2.96408
G1 X126.801 Y117.072 E2.98632
G1 X126.605 Y117.647 E3.00854
G1 X126.334 Y118.191 E3.03078
G1 X125.995 Y118.696 E3.05303
G1 X125.808 Y118.909 E3.0634
G1 X125.853 Y119.14 E3.07201
G1 X125.891 Y119.746 E3.09423
G1 X125.849 Y120.352 E3.11645
G1 X125.727 Y120.948 E3.13871
G1 X125.532 Y121.515 E3.16065
G1 X125.418 Y121.787 E3.17144
G1 X125.147 Y122.331 E3.19367
G1 X124.806 Y122.834 E3.21591
G1 X124.403 Y123.288 E3.23812
G1 X123.944 Y123.686 E3.26034
G1 X123.436 Y124.02 E3.28259
G1 X122.889 Y124.284 E3.30481
G1 X122.312 Y124.474 E3.32703
G1 X121.715 Y124.587 E3.34926
G1 X121.157 Y124.621 E3.36972
G1 X113.843 Y124.621 E3.63731
G1 X113.237 Y124.581 E3.65953
G1 X112.641 Y124.462 E3.68176
G1 X112.066 Y124.266 E3.70399
G1 X111.522 Y123.995 E3.72622
G1 X111.017 Y123.656 E3.74848
G1 X110.562 Y123.254 E3.77069
G1 X110.164 Y122.795 E3.79292
G1 X109.829 Y122.288 E3.81515
G1 X109.582 Y121.787 E3.83558
G1 X109.468 Y121.515 E3.84638
G1 X109.271 Y120.94 E3.86861
G1 X109.15 Y120.345 E3.89083
G1 X109.109 Y119.738 E3.91309
G1 X109.148 Y119.132 E3.9353
G1 X109.192 Y118.908 E3.94365
G1 X108.993 Y118.68 E3.95473
G1 X108.656 Y118.174 E3.97697
G1 X108.388 Y117.629 E3.99919
G1 X108.194 Y117.053 E4.02143
G1 X108.077 Y116.457 E4.04365
G1 X108.04 Y115.87 E4.06517
G1 X108.04 Y115.128 E4.09231
G1 X108.08 Y114.522 E4.11453
G1 X108.199 Y113.926 E4.13677
G1 X108.395 Y113.351 E4.15899
G1 X108.666 Y112.807 E4.18123
G1 X109.005 Y112.302 E4.20348
G1 X109.033 Y112.27 E4.20504
G0 F810 X109.393 Y111.861
G0 X109.522 Y111.732
M204 S5000
M205 X30 Y30
G0 F7200 X109.833 Y112.043
M204 S500
M205 X20 Y20
G1 F6000 E4.23164
G1 F900 X110.269 Y111.664 E4.25277
G1 X110.753 Y111.348 E4.27392
G1 X111.276 Y111.102 E4.29506
G1 X111.828 Y110.931 E4.31621
G1 X112.399 Y110.837 E4.33738
G1 X112.789 Y110.819 E4.35166
G1 X122.211 Y110.819 E4.69638
G1 X122.788 Y110.859 E4.71754
G1 X123.353 Y110.978 E4.73866
G1 X123.897 Y111.174 E4.75982
G1 X124.408 Y111.443 E4.78095
G1 X124.878 Y111.78 E4.80211
G1 X125.167 Y112.043 E4.8164
G1 X125.296 Y112.172 E4.82308
G1 X125.675 Y112.608 E4.84421
G1 X125.991 Y113.092 E4.86536
G1 X126.237 Y113.615 E4.88651
G1 X126.408 Y114.167 E4.90765
G1 X126.502 Y114.738 E4.92882
G1 X126.52 Y115.128 E4.9431
G1 X126.52 Y115.87 E4.97025
G1 X126.48 Y116.447 E4.99141
G1 X126.361 Y117.012 E5.01254
G1 X126.165 Y117.556 E5.03369
G1 X125.896 Y118.067 E5.05482
G1 X125.559 Y118.537 E5.07598
G1 X125.341 Y118.777 E5.08784
G1 X125.433 Y119.336 E5.10857
G1 X125.447 Y119.914 E5.12972
G1 X125.381 Y120.488 E5.15086
G1 X125.237 Y121.048 E5.17201
G1 X125.126 Y121.345 E5.18361
G1 X125.012 Y121.617 E5.1944
G1 X124.752 Y122.133 E5.21554
G1 X124.424 Y122.609 E5.23669
G1 X124.033 Y123.034 E5.25782
G1 X123.587 Y123.402 E5.27898
G1 X123.095 Y123.705 E5.30012
G1 X122.566 Y123.937 E5.32125
G1 X122.009 Y124.093 E5.34241
G1 X121.157 Y124.181 E5.37375
G1 X113.843 Y124.181 E5.64134
G1 X113.266 Y124.141 E5.6625
G1 X112.701 Y124.022 E5.68363
G1 X112.157 Y123.826 E5.70478
G1 X111.646 Y123.557 E5.72591
G1 X111.176 Y123.22 E5.74707
G1 X110.758 Y122.821 E5.76821
G1 X110.398 Y122.369 E5.78935
G1 X109.988 Y121.617 E5.82069
G1 X109.874 Y121.345 E5.83148
G1 X109.688 Y120.798 E5.85262
G1 X109.579 Y120.23 E5.87378
G1 X109.55 Y119.653 E5.89491
G1 X109.6 Y119.077 E5.91606
G1 X109.668 Y118.784 E5.92707
G1 X109.325 Y118.39 E5.94618
G1 X109.009 Y117.906 E5.96733
G1 X108.763 Y117.383 E5.98847
G1 X108.592 Y116.831 E6.00962
G1 X108.498 Y116.26 E6.03079
G1 X108.48 Y115.87 E6.04507
G1 X108.48 Y115.128 E6.07222
G1 X108.52 Y114.551 E6.09338
G1 X108.639 Y113.986 E6.11451
G1 X108.835 Y113.442 E6.13566
G1 X109.104 Y112.931 E6.15679
G1 X109.351 Y112.587 E6.17228
G0 F810 X109.441 Y112.461
G0 X109.704 Y112.172
G0 X109.833 Y112.043
M204 S5000
M205 X30 Y30
G0 F7200 X110.144 Y112.354
M204 S500
M205 X20 Y20
G1 F6000 E6.19888
G1 F900 X110.558 Y111.997 E6.21888
G1 X111.02 Y111.704 E6.2389
G1 X111.519 Y111.481 E6.25889
G1 X112.045 Y111.334 E6.27887
G1 X112.789 Y111.259 E6.30623
G1 X122.211 Y111.259 E6.65095
G1 X122.756 Y111.299 E6.67094
G1 X123.29 Y111.418 E6.69096
G1 X123.8 Y111.613 E6.71093
G1 X124.277 Y111.881 E6.73095
G1 X124.856 Y112.354 E6.7583
G1 X124.985 Y112.483 E6.76498
G1 X125.342 Y112.897 E6.78498
G1 X125.635 Y113.359 E6.80499
G1 X125.858 Y113.858 E6.82499
G1 X126.005 Y114.384 E6.84497
G1 X126.08 Y115.128 E6.87233
G1 X126.08 Y115.87 E6.89948
G1 X126.04 Y116.415 E6.91947
G1 X125.921 Y116.949 E6.93949
G1 X125.726 Y117.459 E6.95946
G1 X125.458 Y117.936 E6.97948
G1 X124.985 Y118.515 E7.00683
G1 X124.856 Y118.644 E7.01351
G1 X124.844 Y118.655 E7.0141
G1 X124.936 Y118.983 E7.02657
G1 X125.005 Y119.525 E7.04656
G1 X124.995 Y120.072 E7.06657
G1 X124.906 Y120.611 E7.08656
G1 X124.72 Y121.175 E7.10829
G1 X124.606 Y121.447 E7.11908
G1 X124.359 Y121.934 E7.13906
G1 X124.043 Y122.38 E7.15905
G1 X123.665 Y122.775 E7.17906
G1 X123.234 Y123.111 E7.19905
G1 X122.758 Y123.381 E7.21907
G1 X122.249 Y123.578 E7.23904
G1 X121.716 Y123.699 E7.25904
G1 X121.157 Y123.741 E7.27955
G1 X113.843 Y123.741 E7.54714
G1 X113.298 Y123.701 E7.56713
G1 X112.764 Y123.582 E7.58715
G1 X112.254 Y123.387 E7.60712
G1 X111.777 Y123.119 E7.62714
G1 X111.345 Y122.784 E7.64714
G1 X110.966 Y122.391 E7.66712
G1 X110.648 Y121.946 E7.68713
G1 X110.394 Y121.447 E7.70761
G1 X110.28 Y121.175 E7.7184
G1 X110.106 Y120.656 E7.73843
G1 X110.009 Y120.118 E7.75843
G1 X109.992 Y119.572 E7.77842
G1 X110.055 Y119.029 E7.79842
G1 X110.155 Y118.653 E7.81265
G1 X110.144 Y118.644 E7.81317
G1 X110.015 Y118.515 E7.81985
G1 X109.658 Y118.101 E7.83985
G1 X109.365 Y117.639 E7.85986
G1 X109.142 Y117.14 E7.87986
G1 X108.995 Y116.614 E7.89984
G1 X108.92 Y115.87 E7.9272
G1 X108.92 Y115.128 E7.95434
G1 X108.96 Y114.583 E7.97434
G1 X109.079 Y114.049 E7.99435
G1 X109.274 Y113.539 E8.01433
G1 X109.542 Y113.062 E8.03435
G1 X109.67 Y112.905 E8.04176
G0 F810 X110.015 Y112.483
G0 X110.144 Y112.354
M204 S5000
M205 X30 Y30
G0 F7200 X110.456 Y112.666
M204 S500
M205 X20 Y20
G1 F6000 E8.06836
G1 F900 X110.846 Y112.332 E8.08714
G1 X111.283 Y112.063 E8.10592
G1 X111.757 Y111.865 E8.12471
G1 X112.255 Y111.742 E8.14348
G1 X112.789 Y111.699 E8.16308
G1 X122.211 Y111.699 E8.50779
G1 X122.723 Y111.739 E8.52658
G1 X123.222 Y111.858 E8.54535
G1 X123.697 Y112.053 E8.56414
G1 X124.136 Y112.319 E8.58292
G1 X124.544 Y112.666 E8.60251
G1 X124.673 Y112.795 E8.60919
G1 X125.007 Y113.185 E8.62797
G1 X125.276 Y113.622 E8.64675
G1 X125.474 Y114.096 E8.66554
G1 X125.597 Y114.594 E8.68431
G1 X125.64 Y115.128 E8.70391
G1 X125.64 Y115.87 E8.73106
G1 X125.6 Y116.382 E8.74985
G1 X125.481 Y116.881 E8.76861
G1 X125.286 Y117.356 E8.7874
G1 X125.02 Y117.795 E8.80618
G1 X124.673 Y118.203 E8.82577
G1 X124.544 Y118.332 E8.83245
G1 X124.33 Y118.516 E8.84277
G1 X124.405 Y118.695 E8.84988
G1 X124.527 Y119.194 E8.86867
G1 X124.571 Y119.705 E8.88743
G1 X124.535 Y120.217 E8.90621
G1 X124.419 Y120.718 E8.92503
G1 X124.314 Y121.005 E8.93621
G1 X124.2 Y121.277 E8.947
G1 X123.966 Y121.733 E8.96575
G1 X123.663 Y122.148 E8.98455
G1 X123.3 Y122.511 E9.00333
G1 X122.885 Y122.813 E9.02211
G1 X122.428 Y123.047 E9.04089
G1 X121.94 Y123.207 E9.05968
G1 X121.433 Y123.289 E9.07847
G1 X121.157 Y123.301 E9.08858
G1 X113.843 Y123.301 E9.35617
G1 X113.331 Y123.261 E9.37496
G1 X112.832 Y123.142 E9.39373
G1 X112.357 Y122.947 E9.41251
G1 X111.918 Y122.681 E9.43129
G1 X111.525 Y122.35 E9.45009
G1 X111.189 Y121.962 E9.46887
G1 X110.917 Y121.527 E9.48764
G1 X110.8 Y121.277 E9.49774
G1 X110.686 Y121.005 E9.50853
G1 X110.524 Y120.517 E9.52734
G1 X110.441 Y120.01 E9.54614
G1 X110.437 Y119.497 E9.56491
G1 X110.513 Y118.989 E9.5837
G1 X110.664 Y118.509 E9.60211
G1 X110.456 Y118.332 E9.6121
G1 X110.327 Y118.203 E9.61878
G1 X109.993 Y117.813 E9.63756
G1 X109.724 Y117.376 E9.65634
G1 X109.526 Y116.902 E9.67513
G1 X109.403 Y116.404 E9.6939
G1 X109.36 Y115.87 E9.7135
G1 X109.36 Y115.128 E9.74065
G1 X109.4 Y114.616 E9.75944
G1 X109.519 Y114.117 E9.7782
G1 X109.714 Y113.642 E9.79699
G1 X109.975 Y113.211 E9.81542
G0 F810 X109.98 Y113.203
G0 X110.327 Y112.795
G0 X110.456 Y112.666
M204 S5000
M205 X30 Y30
G0 F7200 X110.767 Y112.977
M204 S500
M205 X20 Y20
G1 F6000 E9.84202
G1 F900 X111.132 Y112.668 E9.85952
G1 X111.543 Y112.425 E9.87699
G1 X111.989 Y112.253 E9.89448
G1 X112.457 Y112.158 E9.91195
G1 X112.789 Y112.139 E9.92411
G1 X122.211 Y112.139 E10.26883
G1 X122.687 Y112.179 E10.28631
G1 X123.15 Y112.298 E10.3038
G1 X123.587 Y112.492 E10.32129
G1 X123.985 Y112.756 E10.33876
G1 X124.233 Y112.977 E10.35091
G1 X124.362 Y113.106 E10.35759
G1 X124.671 Y113.471 E10.37509
G1 X124.914 Y113.882 E10.39255
G1 X125.086 Y114.328 E10.41004
G1 X125.181 Y114.796 E10.42751
G1 X125.2 Y115.128 E10.43968
G1 X125.2 Y115.87 E10.46683
G1 X125.16 Y116.346 E10.4843
G1 X125.041 Y116.809 E10.50179
G1 X124.847 Y117.246 E10.51929
G1 X124.583 Y117.644 E10.53676
G1 X124.362 Y117.892 E10.54891
G1 X124.233 Y118.021 E10.55559
G1 X123.868 Y118.33 E10.57309
G1 X123.784 Y118.379 E10.57664
G1 X123.845 Y118.482 E10.58102
G1 X124.016 Y118.928 E10.5985
G1 X124.112 Y119.396 E10.61598
G1 X124.127 Y119.874 E10.63347
G1 X124.063 Y120.347 E10.65094
G1 X123.909 Y120.835 E10.66966
G1 X123.795 Y121.107 E10.68045
G1 X123.574 Y121.53 E10.69791
G1 X123.285 Y121.911 E10.71541
G1 X122.938 Y122.239 E10.73288
G1 X122.54 Y122.504 E10.75037
G1 X122.104 Y122.7 E10.76786
G1 X121.641 Y122.82 E10.78536
G1 X121.157 Y122.861 E10.80313
G1 X113.843 Y122.861 E11.07072
G1 X113.367 Y122.821 E11.0882
G1 X112.904 Y122.702 E11.10569
G1 X112.467 Y122.508 E11.12318
G1 X112.069 Y122.244 E11.14065
G1 X111.72 Y121.917 E11.15815
G1 X111.431 Y121.537 E11.17562
G1 X111.205 Y121.107 E11.19339
G1 X111.091 Y120.835 E11.20418
G1 X110.944 Y120.38 E11.22167
G1 X110.875 Y119.907 E11.23916
G1 X110.885 Y119.429 E11.25665
G1 X110.974 Y118.96 E11.27412
G1 X111.141 Y118.512 E11.29161
G1 X111.219 Y118.377 E11.29732
G1 X111.015 Y118.242 E11.30626
G1 X110.767 Y118.021 E11.31842
G1 X110.638 Y117.892 E11.32509
G1 X110.329 Y117.527 E11.34259
G1 X110.086 Y117.116 E11.36006
G1 X109.914 Y116.67 E11.37755
G1 X109.819 Y116.202 E11.39502
G1 X109.8 Y115.87 E11.40718
G1 X109.8 Y115.128 E11.43433
G1 X109.84 Y114.652 E11.45181
G1 X109.959 Y114.189 E11.4693
G1 X110.153 Y113.752 E11.48679
G1 X110.3 Y113.531 E11.4965
G0 F810 X110.417 Y113.354
G0 X110.638 Y113.106
G0 X110.767 Y112.977
M204 S5000
M205 X30 Y30
G0 F7200 X111.078 Y113.288
M204 S500
M205 X20 Y20
G1 F6000 E11.5231
G1 F900 X111.416 Y113.007 E11.53918
G1 X111.799 Y112.791 E11.55527
G1 X112.214 Y112.648 E11.57133
G1 X112.789 Y112.579 E11.59252
G1 X122.211 Y112.579 E11.93723
G1 X122.649 Y112.619 E11.95332
G1 X123.072 Y112.737 E11.96939
G1 X123.467 Y112.93 E11.98547
G1 X123.922 Y113.288 E12.00665
G1 X124.051 Y113.417 E12.01333
G1 X124.332 Y113.755 E12.02941
G1 X124.548 Y114.138 E12.0455
G1 X124.691 Y114.553 E12.06156
G1 X124.76 Y115.128 E12.08275
G1 X124.76 Y115.87 E12.10989
G1 X124.72 Y116.308 E12.12598
G1 X124.602 Y116.731 E12.14205
G1 X124.409 Y117.126 E12.15814
G1 X124.051 Y117.581 E12.17932
G1 X123.922 Y117.71 E12.18599
G1 X123.584 Y117.991 E12.20207
G1 X123.201 Y118.207 E12.21816
G1 X123.154 Y118.223 E12.21998
G1 X123.263 Y118.354 E12.22621
G1 X123.479 Y118.737 E12.2423
G1 X123.621 Y119.153 E12.25838
G1 X123.687 Y119.588 E12.27448
G1 X123.673 Y120.027 E12.29055
G1 X123.579 Y120.457 E12.30665
G1 X123.503 Y120.664 E12.31472
G1 X123.389 Y120.936 E12.32551
G1 X123.183 Y121.325 E12.34161
G1 X122.91 Y121.669 E12.35768
G1 X122.579 Y121.959 E12.37378
G1 X122.202 Y122.184 E12.38984
G1 X121.79 Y122.337 E12.40592
G1 X121.157 Y122.421 E12.42928
G1 X113.843 Y122.421 E12.69688
G1 X113.405 Y122.381 E12.71297
G1 X112.982 Y122.263 E12.72903
G1 X112.587 Y122.07 E12.74512
G1 X112.234 Y121.808 E12.7612
G1 X111.933 Y121.487 E12.7773
G1 X111.611 Y120.936 E12.80065
G1 X111.497 Y120.664 E12.81144
G1 X111.365 Y120.245 E12.82751
G1 X111.31 Y119.809 E12.84359
G1 X111.336 Y119.37 E12.85968
G1 X111.44 Y118.943 E12.87576
G1 X111.62 Y118.542 E12.89184
G1 X111.842 Y118.219 E12.90618
G1 X111.533 Y118.068 E12.91876
G1 X111.078 Y117.71 E12.93994
G1 X110.949 Y117.581 E12.94662
G1 X110.668 Y117.243 E12.9627
G1 X110.452 Y116.86 E12.97879
G1 X110.309 Y116.445 E12.99485
G1 X110.24 Y115.87 E13.01604
G1 X110.24 Y115.128 E13.04318
G1 X110.28 Y114.69 E13.05927
G1 X110.398 Y114.267 E13.07534
G1 X110.591 Y113.872 E13.09142
G1 X110.612 Y113.846 E13.09265
G0 F810 X110.949 Y113.417
G0 X111.078 Y113.288
M204 S5000
M205 X30 Y30
G0 F7200 X111.389 Y113.599
M204 S500
M205 X20 Y20
