;FLAVOR:Marlin
;TIME:12376
;Filament used: 14.9624m
;Layer height: 0.2
;Generated with Cura_SteamEngine 3.6.0
M140 S70
M105
M190 S70
M104 S210
M105
M109 S210
M82 ;absolute extrusion mode
G28 ; home all axes
M117 Purge extruder
G92 E0 ; reset extruder
G1 Z1.0 F3000 ; move z up little to prevent scratching of surface
G1 X0.1 Y20 Z0.3 F5000.0 ; move to start-line position G1 X0.1 Y200.0 Z0.3 F1500.0 E15 ; draw 1st line
G1 X0.4 Y200.0 Z0.3 F5000.0 ; move to side a little
G1 X0.4 Y20 Z0.3 F1500.0 E30 ; draw 2nd line
G92 E0 ; reset extruder
G1 Z1.0 F3000 ; move z up little to prevent scratching of surface
M117 All systems go!
G92 E0
G1 F6000 E-5
;LAYER_COUNT:111
;LAYER:0
M107
M204 S5000
M205 X30 Y30
G0 F7200 X55.255 Y100.839 Z0.2
M204 S500
M205 X20 Y20
;TYPE:SKIRT
G1 F6000 E0
G1 F900 X56.052 Y100.443 E0.03256
G1 X56.881 Y100.121 E0.0651
G1 X57.736 Y99.874 E0.09766
G1 X58.609 Y99.705 E0.13019
G1 X59.494 Y99.616 E0.16273
G1 X60.05 Y99.6 E0.18308
G1 X90.169 Y99.6 E1.28502
G1 X91.058 Y99.64 E1.31758
G1 X91.939 Y99.76 E1.35011
G1 X92.807 Y99.958 E1.38268
G1 X93.636 Y100.228 E1.41458
G1 X93.88 Y100.132 E1.42417
G1 X94.734 Y99.882 E1.45673
G1 X95.607 Y99.71 E1.48928
G1 X96.491 Y99.618 E1.5218
G1 X97.089 Y99.6 E1.54369
G1 X145.236 Y99.641 E3.3052
G1 X145.776 Y99.666 E3.32498
G1 X146.298 Y99.614 E3.34417
G1 X146.843 Y99.6 E3.36412
G1 X175.046 Y99.634 E4.39596
G1 X175.935 Y99.675 E4.42852
G1 X176.816 Y99.796 E4.46105
G1 X177.683 Y99.995 E4.4936
G1 X178.529 Y100.271 E4.52615
G1 X179.346 Y100.623 E4.5587
G1 X180.129 Y101.046 E4.59126
G1 X180.871 Y101.538 E4.62383
G1 X181.565 Y102.094 E4.65637
G1 X182.104 Y102.604 E4.68352
G1 X184.57 Y105.12 E4.81241
G1 X185.164 Y105.783 E4.84498
G1 X185.696 Y106.496 E4.87752
G1 X186.161 Y107.255 E4.91009
G1 X186.557 Y108.052 E4.94265
G1 X186.879 Y108.881 E4.97519
G1 X187.126 Y109.736 E5.00775
G1 X187.295 Y110.609 E5.04028
G1 X187.384 Y111.494 E5.07282
G1 X187.4 Y112.081 E5.09431
G1 X187.366 Y123.065 E5.49617
G1 X187.323 Y123.953 E5.5287
G1 X187.201 Y124.835 E5.56127
G1 X187 Y125.701 E5.5938
G1 X186.722 Y126.547 E5.62638
G1 X186.369 Y127.363 E5.65891
G1 X185.945 Y128.145 E5.69145
G1 X185.451 Y128.886 E5.72404
G1 X184.894 Y129.579 E5.75656
G1 X184.396 Y130.104 E5.78304
G1 X181.88 Y132.57 E5.91193
G1 X181.217 Y133.164 E5.9445
G1 X180.504 Y133.696 E5.97705
G1 X179.745 Y134.161 E6.00961
G1 X178.948 Y134.557 E6.04217
G1 X178.119 Y134.879 E6.07471
G1 X177.264 Y135.126 E6.10727
G1 X176.391 Y135.295 E6.1398
G1 X175.506 Y135.384 E6.17235
G1 X174.947 Y135.4 E6.19281
G1 X59.963 Y135.366 E10.39963
G1 X59.074 Y135.326 E10.43219
G1 X58.193 Y135.206 E10.46472
G1 X57.325 Y135.007 E10.4973
G1 X56.479 Y134.732 E10.52984
G1 X55.662 Y134.381 E10.56237
G1 X54.879 Y133.959 E10.59492
G1 X54.137 Y133.468 E10.62747
G1 X53.442 Y132.912 E10.66003
G1 X52.896 Y132.396 E10.68752
G1 X50.43 Y129.88 E10.81641
G1 X49.836 Y129.217 E10.84898
G1 X49.304 Y128.504 E10.88153
G1 X48.839 Y127.745 E10.91409
G1 X48.443 Y126.948 E10.94665
G1 X48.121 Y126.119 E10.97919
G1 X47.874 Y125.264 E11.01175
G1 X47.705 Y124.391 E11.04428
G1 X47.616 Y123.506 E11.07682
G1 X47.6 Y122.919 E11.09831
G1 X47.634 Y111.935 E11.50017
G1 X47.677 Y111.047 E11.5327
G1 X47.799 Y110.165 E11.56527
G1 X48 Y109.299 E11.5978
G1 X48.278 Y108.453 E11.63038
G1 X48.631 Y107.637 E11.66291
G1 X49.055 Y106.855 E11.69545
G1 X49.549 Y106.114 E11.72804
G1 X50.106 Y105.421 E11.76057
G1 X50.604 Y104.896 E11.78704
G1 X53.12 Y102.43 E11.91593
G1 X53.783 Y101.836 E11.9485
G1 X54.496 Y101.304 E11.98105
G1 X54.636 Y101.218 E11.98706
G0 F810 X55.255 Y100.839
M204 S5000
M205 X30 Y30
G0 F7200 X55.519 Y101.196
M204 S500
M205 X20 Y20
G1 F6000 E12.01366
G1 F900 X56.301 Y100.815 E12.04548
G1 X57.114 Y100.507 E12.07729
G1 X57.953 Y100.275 E12.10914
G1 X58.809 Y100.122 E12.14095
G1 X60.05 Y100.04 E12.18645
G1 X90.169 Y100.04 E13.28839
G1 X91.038 Y100.08 E13.32022
G1 X91.899 Y100.2 E13.35202
G1 X92.746 Y100.398 E13.38385
G1 X93.571 Y100.673 E13.41566
G1 X93.634 Y100.701 E13.41819
G1 X94.133 Y100.511 E13.43772
G1 X94.971 Y100.278 E13.46954
G1 X95.827 Y100.123 E13.50137
G1 X97.089 Y100.04 E13.54764
G1 X145.236 Y100.081 E15.30916
G1 X145.751 Y100.105 E15.32802
G1 X146.842 Y100.04 E15.36801
G1 X175.045 Y100.074 E16.39985
G1 X175.914 Y100.115 E16.43167
G1 X176.775 Y100.236 E16.46348
G1 X177.622 Y100.435 E16.49532
G1 X178.447 Y100.711 E16.52714
G1 X179.243 Y101.062 E16.55897
G1 X180.003 Y101.484 E16.59078
G1 X180.721 Y101.974 E16.62258
G1 X181.391 Y102.529 E16.65441
G1 X181.79 Y102.912 E16.67465
G1 X184.256 Y105.428 E16.80354
G1 X184.836 Y106.077 E16.83538
G1 X185.353 Y106.776 E16.86719
G1 X185.804 Y107.519 E16.89899
G1 X186.185 Y108.301 E16.93082
G1 X186.493 Y109.114 E16.96262
G1 X186.725 Y109.953 E16.99447
G1 X186.878 Y110.809 E17.02629
G1 X186.96 Y112.079 E17.07285
G1 X186.926 Y123.063 E17.47471
G1 X186.883 Y123.932 E17.50654
G1 X186.761 Y124.793 E17.53836
G1 X186.56 Y125.639 E17.57017
G1 X186.283 Y126.463 E17.60198
G1 X185.93 Y127.259 E17.63383
G1 X185.507 Y128.018 E17.66562
G1 X185.015 Y128.735 E17.69744
G1 X184.459 Y129.405 E17.72929
G1 X184.088 Y129.79 E17.74885
G1 X181.572 Y132.256 E17.87775
G1 X180.923 Y132.836 E17.90959
G1 X180.224 Y133.353 E17.9414
G1 X179.481 Y133.804 E17.9732
G1 X178.699 Y134.185 E18.00502
G1 X177.886 Y134.493 E18.03683
G1 X177.047 Y134.725 E18.06868
G1 X176.191 Y134.878 E18.10049
G1 X174.947 Y134.96 E18.14611
G1 X59.963 Y134.926 E22.35293
G1 X59.094 Y134.886 E22.38475
G1 X58.233 Y134.766 E22.41656
G1 X57.386 Y134.567 E22.44839
G1 X56.561 Y134.292 E22.48021
G1 X55.765 Y133.942 E22.51202
G1 X55.004 Y133.52 E22.54386
G1 X54.286 Y133.031 E22.57564
G1 X53.615 Y132.477 E22.60748
G1 X53.21 Y132.088 E22.62802
G1 X50.744 Y129.572 E22.75691
G1 X50.164 Y128.923 E22.78876
G1 X49.647 Y128.224 E22.82057
G1 X49.196 Y127.481 E22.85237
G1 X48.815 Y126.699 E22.88419
G1 X48.507 Y125.886 E22.916
G1 X48.275 Y125.047 E22.94785
G1 X48.122 Y124.191 E22.97966
G1 X48.04 Y122.921 E23.02622
G1 X48.074 Y111.937 E23.42809
G1 X48.117 Y111.068 E23.45992
G1 X48.239 Y110.207 E23.49173
G1 X48.44 Y109.361 E23.52355
G1 X48.717 Y108.537 E23.55535
G1 X49.07 Y107.741 E23.58721
G1 X49.493 Y106.982 E23.619
G1 X49.985 Y106.265 E23.65081
G1 X50.541 Y105.595 E23.68267
G1 X50.912 Y105.21 E23.70223
G1 X53.428 Y102.744 E23.83112
G1 X54.077 Y102.164 E23.86297
G1 X54.776 Y101.647 E23.89478
G1 X54.898 Y101.573 E23.9
G0 F810 X55.519 Y101.196
M204 S5000
M205 X30 Y30
G0 F7200 X55.783 Y101.553
M204 S500
M205 X20 Y20
G1 F6000 E23.92659
G1 F900 X56.549 Y101.187 E23.95765
G1 X57.346 Y100.895 E23.98871
G1 X58.167 Y100.679 E24.01977
G1 X59.005 Y100.541 E24.05084
G1 X60.05 Y100.48 E24.08914
G1 X90.169 Y100.48 E25.19108
G1 X91.017 Y100.52 E25.22214
G1 X91.858 Y100.64 E25.25322
G1 X92.684 Y100.838 E25.28429
G1 X93.487 Y101.113 E25.31535
G1 X93.619 Y101.172 E25.32064
G1 X94.384 Y100.892 E25.35044
G1 X95.206 Y100.677 E25.38153
G1 X96.044 Y100.54 E25.41259
G1 X97.089 Y100.48 E25.45089
G1 X145.236 Y100.521 E27.2124
G1 X145.785 Y100.548 E27.23251
G1 X145.961 Y100.522 E27.23902
G1 X146.842 Y100.48 E27.27129
G1 X175.045 Y100.514 E28.30313
G1 X175.893 Y100.555 E28.33419
G1 X176.734 Y100.676 E28.36528
G1 X177.559 Y100.875 E28.39633
G1 X178.362 Y101.151 E28.42739
G1 X179.136 Y101.501 E28.45847
G1 X179.873 Y101.922 E28.48952
G1 X180.568 Y102.411 E28.52061
G1 X181.476 Y103.22 E28.56511
G1 X183.942 Y105.736 E28.694
G1 X184.507 Y106.37 E28.72507
G1 X185.01 Y107.054 E28.75613
G1 X185.447 Y107.783 E28.78723
G1 X185.813 Y108.549 E28.81829
G1 X186.105 Y109.346 E28.84934
G1 X186.321 Y110.167 E28.8804
G1 X186.459 Y111.005 E28.91147
G1 X186.52 Y112.078 E28.95079
G1 X186.486 Y123.062 E29.35266
G1 X186.443 Y123.91 E29.38372
G1 X186.321 Y124.75 E29.41478
G1 X186.12 Y125.576 E29.44588
G1 X185.843 Y126.378 E29.47692
G1 X185.491 Y127.151 E29.508
G1 X185.069 Y127.888 E29.53907
G1 X184.578 Y128.581 E29.57014
G1 X183.78 Y129.476 E29.61401
G1 X181.264 Y131.942 E29.74291
G1 X180.63 Y132.507 E29.77397
G1 X179.946 Y133.01 E29.80504
G1 X179.217 Y133.447 E29.83613
G1 X178.451 Y133.813 E29.86719
G1 X177.654 Y134.105 E29.89825
G1 X176.833 Y134.321 E29.92931
G1 X175.995 Y134.459 E29.96038
G1 X174.947 Y134.52 E29.99879
G1 X59.963 Y134.486 E34.20561
G1 X59.115 Y134.446 E34.23667
G1 X58.274 Y134.326 E34.26775
G1 X57.449 Y134.128 E34.29879
G1 X56.645 Y133.852 E34.32989
G1 X55.871 Y133.503 E34.36095
G1 X55.133 Y133.082 E34.39204
G1 X54.439 Y132.594 E34.42308
G1 X53.524 Y131.78 E34.46788
G1 X51.058 Y129.264 E34.59678
G1 X50.493 Y128.63 E34.62785
G1 X49.99 Y127.946 E34.65891
G1 X49.553 Y127.217 E34.69001
G1 X49.187 Y126.451 E34.72107
G1 X48.895 Y125.654 E34.75212
G1 X48.679 Y124.833 E34.78318
G1 X48.541 Y123.995 E34.81425
G1 X48.48 Y122.922 E34.85357
G1 X48.514 Y111.938 E35.25544
G1 X48.557 Y111.09 E35.2865
G1 X48.679 Y110.25 E35.31756
G1 X48.88 Y109.424 E35.34866
G1 X49.157 Y108.622 E35.3797
G1 X49.509 Y107.849 E35.41078
G1 X49.931 Y107.112 E35.44185
G1 X50.422 Y106.419 E35.47292
G1 X51.22 Y105.524 E35.51679
G1 X53.736 Y103.058 E35.64568
G1 X54.37 Y102.493 E35.67675
G1 X55.054 Y101.99 E35.70782
G1 X55.159 Y101.927 E35.7123
G0 F810 X55.783 Y101.553
M204 S5000
M205 X30 Y30
G0 F7200 X56.045 Y101.912
M204 S500
M205 X20 Y20
G1 F6000 E35.73889
G1 F900 X56.795 Y101.561 E35.76919
G1 X57.576 Y101.284 E35.79951
G1 X58.38 Y101.084 E35.82982
G1 X59.199 Y100.962 E35.86011
G1 X60.05 Y100.92 E35.89129
G1 X90.169 Y100.92 E36.99322
G1 X90.996 Y100.96 E37.02352
G1 X91.816 Y101.08 E37.05384
G1 X92.62 Y101.278 E37.08413
G1 X93.401 Y101.552 E37.11441
G1 X93.625 Y101.656 E37.12345
G1 X93.852 Y101.551 E37.1326
G1 X94.633 Y101.277 E37.16288
G1 X95.438 Y101.079 E37.19321
G1 X96.257 Y100.96 E37.22349
G1 X97.088 Y100.92 E37.25393
G1 X145.235 Y100.961 E39.01544
G1 X145.818 Y100.99 E39.0368
G1 X146.228 Y100.941 E39.0519
G1 X146.841 Y100.92 E39.07434
G1 X175.044 Y100.954 E40.10618
G1 X175.872 Y100.995 E40.13651
G1 X176.691 Y101.116 E40.1668
G1 X177.495 Y101.315 E40.19711
G1 X178.276 Y101.59 E40.2274
G1 X179.027 Y101.94 E40.25771
G1 X179.741 Y102.36 E40.28802
G1 X180.41 Y102.847 E40.31829
G1 X181.162 Y103.528 E40.35541
G1 X183.628 Y106.044 E40.4843
G1 X184.178 Y106.663 E40.5146
G1 X184.666 Y107.332 E40.5449
G1 X185.088 Y108.045 E40.57521
G1 X185.439 Y108.795 E40.6055
G1 X185.716 Y109.576 E40.63582
G1 X185.916 Y110.38 E40.66613
G1 X186.038 Y111.199 E40.69643
G1 X186.08 Y112.077 E40.72859
G1 X186.046 Y123.061 E41.13045
G1 X186.003 Y123.888 E41.16075
G1 X185.881 Y124.707 E41.19104
G1 X185.681 Y125.511 E41.22136
G1 X185.404 Y126.291 E41.25164
G1 X185.053 Y127.041 E41.28194
G1 X184.631 Y127.754 E41.31225
G1 X184.142 Y128.423 E41.34257
G1 X183.472 Y129.162 E41.37906
G1 X180.956 Y131.628 E41.50795
G1 X180.337 Y132.178 E41.53825
G1 X179.668 Y132.666 E41.56854
G1 X178.955 Y133.088 E41.59886
G1 X178.205 Y133.439 E41.62915
G1 X177.424 Y133.716 E41.65947
G1 X176.62 Y133.916 E41.68978
G1 X175.801 Y134.038 E41.72008
G1 X174.947 Y134.08 E41.75136
G1 X59.963 Y134.046 E45.95818
G1 X59.136 Y134.006 E45.98847
G1 X58.317 Y133.886 E46.01876
G1 X57.512 Y133.688 E46.04909
G1 X56.731 Y133.413 E46.07938
G1 X55.98 Y133.064 E46.10968
G1 X55.266 Y132.644 E46.13998
G1 X54.596 Y132.158 E46.17027
G1 X53.838 Y131.472 E46.20767
G1 X51.372 Y128.956 E46.33656
G1 X50.822 Y128.337 E46.36686
G1 X50.334 Y127.668 E46.39715
G1 X49.912 Y126.955 E46.42747
G1 X49.561 Y126.205 E46.45776
G1 X49.284 Y125.424 E46.48808
G1 X49.084 Y124.62 E46.51839
G1 X48.962 Y123.801 E46.54869
G1 X48.92 Y122.923 E46.58085
G1 X48.954 Y111.939 E46.98271
G1 X48.997 Y111.112 E47.01301
G1 X49.119 Y110.293 E47.0433
G1 X49.319 Y109.489 E47.07361
G1 X49.596 Y108.709 E47.1039
G1 X49.947 Y107.959 E47.13419
G1 X50.369 Y107.246 E47.16451
G1 X50.858 Y106.577 E47.19482
G1 X51.528 Y105.838 E47.23132
G1 X54.044 Y103.372 E47.36021
G1 X54.663 Y102.822 E47.39051
G1 X55.332 Y102.334 E47.4208
G1 X55.419 Y102.282 E47.42451
G0 F810 X56.045 Y101.912
M204 S5000
M205 X30 Y30
G0 F7200 X56.306 Y102.272
M204 S500
M205 X20 Y20
G1 F6000 E47.45111
G1 F900 X57.04 Y101.937 E47.48063
G1 X57.803 Y101.676 E47.51013
G1 X58.589 Y101.492 E47.53966
G1 X59.389 Y101.387 E47.56918
G1 X60.05 Y101.36 E47.59339
G1 X90.169 Y101.36 E48.69533
G1 X90.975 Y101.4 E48.72485
G1 X91.773 Y101.52 E48.75437
G1 X92.555 Y101.717 E48.78388
G1 X93.313 Y101.992 E48.81338
G1 X93.623 Y102.14 E48.82595
G1 X94.115 Y101.92 E48.84567
G1 X94.88 Y101.663 E48.87519
G1 X95.666 Y101.484 E48.90468
G1 X96.467 Y101.383 E48.93422
G1 X97.088 Y101.36 E48.95696
G1 X145.235 Y101.401 E50.71847
G1 X145.826 Y101.431 E50.74012
G1 X146.841 Y101.36 E50.77735
G1 X175.044 Y101.394 E51.80919
G1 X175.849 Y101.435 E51.83868
G1 X176.647 Y101.555 E51.8682
G1 X177.429 Y101.754 E51.89772
G1 X178.187 Y102.03 E51.92724
G1 X178.915 Y102.379 E51.95677
G1 X179.604 Y102.798 E51.98628
G1 X180.248 Y103.283 E52.01577
G1 X180.847 Y103.836 E52.0456
G1 X183.313 Y106.352 E52.17449
G1 X183.849 Y106.956 E52.20404
G1 X184.322 Y107.609 E52.23354
G1 X184.728 Y108.306 E52.26305
G1 X185.063 Y109.04 E52.29257
G1 X185.324 Y109.803 E52.32207
G1 X185.508 Y110.589 E52.3516
G1 X185.613 Y111.389 E52.38112
G1 X185.64 Y112.075 E52.40624
G1 X185.606 Y123.059 E52.80811
G1 X185.563 Y123.865 E52.83764
G1 X185.441 Y124.662 E52.86714
G1 X185.241 Y125.444 E52.89667
G1 X184.964 Y126.201 E52.92616
G1 X184.614 Y126.928 E52.95568
G1 X184.194 Y127.617 E52.9852
G1 X183.707 Y128.26 E53.01471
G1 X183.164 Y128.847 E53.04397
G1 X180.648 Y131.313 E53.17286
G1 X180.044 Y131.849 E53.2024
G1 X179.391 Y132.322 E53.2319
G1 X178.694 Y132.728 E53.26141
G1 X177.96 Y133.063 E53.29093
G1 X177.197 Y133.324 E53.32044
G1 X176.411 Y133.508 E53.34997
G1 X175.611 Y133.613 E53.37949
G1 X174.948 Y133.64 E53.40377
G1 X59.964 Y133.606 E57.61059
G1 X59.158 Y133.566 E57.64011
G1 X58.36 Y133.446 E57.66964
G1 X57.578 Y133.248 E57.69915
G1 X56.82 Y132.973 E57.72865
G1 X56.092 Y132.625 E57.75817
G1 X55.402 Y132.206 E57.78771
G1 X54.758 Y131.721 E57.8172
G1 X54.153 Y131.164 E57.84729
G1 X51.687 Y128.648 E57.97618
G1 X51.151 Y128.044 E58.00573
G1 X50.678 Y127.391 E58.03523
G1 X50.272 Y126.694 E58.06474
G1 X49.937 Y125.96 E58.09426
G1 X49.676 Y125.197 E58.12376
G1 X49.492 Y124.411 E58.1533
G1 X49.387 Y123.611 E58.18282
G1 X49.36 Y122.925 E58.20793
G1 X49.394 Y111.941 E58.6098
G1 X49.437 Y111.135 E58.63933
G1 X49.559 Y110.338 E58.66883
G1 X49.759 Y109.556 E58.69836
G1 X50.036 Y108.799 E58.72785
G1 X50.386 Y108.072 E58.75737
G1 X50.806 Y107.383 E58.78689
G1 X51.293 Y106.74 E58.8164
G1 X51.836 Y106.153 E58.84566
G1 X54.352 Y103.687 E58.97455
G1 X54.956 Y103.151 E59.00409
G1 X55.609 Y102.678 E59.03359
G1 X55.678 Y102.638 E59.03651
G0 F810 X56.306 Y102.272
M204 S5000
M205 X30 Y30
G0 F7200 X56.566 Y102.633
M204 S500
M205 X20 Y20
G1 F6000 E59.06311
G1 F900 X57.283 Y102.314 E59.09182
G1 X58.028 Y102.07 E59.1205
G1 X58.795 Y101.903 E59.14922
G1 X59.575 Y101.815 E59.17794
G1 X60.05 Y101.8 E59.19533
G1 X90.169 Y101.8 E60.29727
G1 X90.953 Y101.84 E60.32599
G1 X91.728 Y101.959 E60.35467
G1 X92.487 Y102.157 E60.38337
G1 X93.222 Y102.431 E60.41207
G1 X93.617 Y102.626 E60.42819
G1 X93.656 Y102.604 E60.42982
G1 X94.376 Y102.291 E60.45855
G1 X95.123 Y102.053 E60.48723
G1 X95.891 Y101.892 E60.51594
G1 X96.672 Y101.811 E60.54467
G1 X97.088 Y101.8 E60.55989
G1 X145.235 Y101.841 E62.32141
G1 X145.824 Y101.872 E62.34299
G1 X145.961 Y101.849 E62.34807
G1 X146.84 Y101.8 E62.38028
G1 X175.043 Y101.834 E63.41212
G1 X175.827 Y101.875 E63.44084
G1 X176.602 Y101.995 E63.46953
G1 X177.361 Y102.194 E63.49824
G1 X178.096 Y102.469 E63.52695
G1 X178.799 Y102.817 E63.55565
G1 X179.463 Y103.235 E63.58436
G1 X180.081 Y103.719 E63.61308
G1 X180.533 Y104.144 E63.63577
G1 X182.999 Y106.66 E63.76467
G1 X183.519 Y107.248 E63.79338
G1 X183.976 Y107.885 E63.82207
G1 X184.367 Y108.566 E63.8508
G1 X184.686 Y109.283 E63.87951
G1 X184.93 Y110.028 E63.90819
G1 X185.097 Y110.795 E63.93691
G1 X185.185 Y111.575 E63.96563
G1 X185.2 Y112.074 E63.98389
G1 X185.166 Y123.058 E64.38576
G1 X185.124 Y123.841 E64.41444
G1 X185.002 Y124.616 E64.44315
G1 X184.802 Y125.375 E64.47186
G1 X184.525 Y126.109 E64.50057
G1 X184.176 Y126.812 E64.52928
G1 X183.756 Y127.475 E64.558
