;FLAVOR:Marlin
;TIME:3846
;Filament used: 3.69861m
;Layer height: 0.2
;Generated with Cura_SteamEngine 3.6.0
M140 S70
M105
M190 S70
M104 S210
M105
M109 S210
M82 ;absolute extrusion mode
G28 ; home all axes
M117 Purge extruder
G92 E0 ; reset extruder
G1 Z1.0 F3000 ; move z up little to prevent scratching of surface
G1 X0.1 Y20 Z0.3 F5000.0 ; move to start-line position G1 X0.1 Y200.0 Z0.3 F1500.0 E15 ; draw 1st line
G1 X0.4 Y200.0 Z0.3 F5000.0 ; move to side a little
G1 X0.4 Y20 Z0.3 F1500.0 E30 ; draw 2nd line
G92 E0 ; reset extruder
G1 Z1.0 F3000 ; move z up little to prevent scratching of surface
M117 All systems go!
G92 E0
G1 F6000 E-5
;LAYER_COUNT:111
;LAYER:0
M107
M204 S5000
M205 X30 Y30
G0 F7200 X82.089 Y99.646 Z0.2
M204 S500
M205 X20 Y20
;TYPE:SKIRT
G1 F6000 E0
G1 F900 X82.818 Y99.137 E0.03253
G1 X83.591 Y98.695 E0.06511
G1 X84.399 Y98.324 E0.09764
G1 X85.238 Y98.027 E0.1302
G1 X86.1 Y97.807 E0.16275
G1 X86.979 Y97.666 E0.19532
G1 X88.116 Y97.6 E0.23699
G1 X90.884 Y97.6 E0.33826
G1 X91.773 Y97.64 E0.37081
G1 X92.654 Y97.76 E0.40334
G1 X93.522 Y97.958 E0.43592
G1 X94.368 Y98.233 E0.46846
G1 X95.186 Y98.583 E0.50101
G1 X95.969 Y99.006 E0.53357
G1 X96.502 Y99.358 E0.55694
G1 X96.818 Y99.137 E0.57105
G1 X97.591 Y98.695 E0.60363
G1 X98.399 Y98.324 E0.63616
G1 X99.238 Y98.027 E0.66872
G1 X100.1 Y97.807 E0.70127
G1 X100.979 Y97.666 E0.73384
G1 X102.116 Y97.6 E0.77551
G1 X104.884 Y97.6 E0.87678
G1 X105.773 Y97.64 E0.90934
G1 X106.654 Y97.76 E0.94187
G1 X107.522 Y97.958 E0.97444
G1 X108.368 Y98.233 E1.00698
G1 X109.186 Y98.583 E1.03954
G1 X109.969 Y99.006 E1.0721
G1 X110.502 Y99.358 E1.09547
G1 X110.818 Y99.137 E1.10957
G1 X111.591 Y98.695 E1.14215
G1 X112.399 Y98.324 E1.17468
G1 X113.238 Y98.027 E1.20724
G1 X114.1 Y97.807 E1.23979
G1 X114.979 Y97.666 E1.27236
G1 X116.116 Y97.6 E1.31403
G1 X118.884 Y97.6 E1.4153
G1 X119.773 Y97.64 E1.44786
G1 X120.654 Y97.76 E1.48039
G1 X121.522 Y97.958 E1.51296
G1 X122.368 Y98.233 E1.54551
G1 X123.186 Y98.583 E1.57806
G1 X123.969 Y99.006 E1.61062
G1 X124.502 Y99.358 E1.63399
G1 X124.818 Y99.137 E1.6481
G1 X125.591 Y98.695 E1.68067
G1 X126.399 Y98.324 E1.7132
G1 X127.238 Y98.027 E1.74577
G1 X128.1 Y97.807 E1.77831
G1 X128.979 Y97.666 E1.81088
G1 X130.116 Y97.6 E1.85255
G1 X132.884 Y97.6 E1.95382
G1 X133.773 Y97.64 E1.98638
G1 X134.654 Y97.76 E2.01891
G1 X135.522 Y97.958 E2.05148
G1 X136.368 Y98.233 E2.08403
G1 X137.186 Y98.583 E2.11658
G1 X137.969 Y99.006 E2.14914
G1 X138.711 Y99.496 E2.18167
G1 X139.592 Y100.219 E2.22337
G1 X139.719 Y100.336 E2.22969
G1 X140.345 Y100.967 E2.26221
G1 X140.913 Y101.653 E2.29479
G1 X141.416 Y102.386 E2.32732
G1 X141.852 Y103.162 E2.35988
G1 X142.216 Y103.974 E2.39244
G1 X142.506 Y104.815 E2.42498
G1 X142.719 Y105.679 E2.45754
G1 X142.873 Y106.754 E2.49727
G1 X144.6 Y126.493 E3.22221
G1 X144.638 Y127.382 E3.25476
G1 X144.596 Y128.271 E3.28732
G1 X144.474 Y129.152 E3.31986
G1 X144.273 Y130.019 E3.35242
G1 X143.996 Y130.864 E3.38496
G1 X143.643 Y131.681 E3.41752
G1 X143.219 Y132.463 E3.45006
G1 X142.726 Y133.204 E3.48263
G1 X142.061 Y134.018 E3.52108
G1 X141.93 Y134.162 E3.5282
G1 X141.302 Y134.793 E3.56078
G1 X140.621 Y135.364 E3.59329
G1 X139.89 Y135.872 E3.62586
G1 X139.117 Y136.313 E3.65842
G1 X138.308 Y136.682 E3.69095
G1 X137.469 Y136.977 E3.72349
G1 X136.606 Y137.196 E3.75606
G1 X135.728 Y137.336 E3.78859
G1 X134.607 Y137.4 E3.82967
G1 X128.393 Y137.4 E4.05702
G1 X127.504 Y137.36 E4.08958
G1 X126.623 Y137.24 E4.12211
G1 X125.755 Y137.042 E4.15468
G1 X124.909 Y136.767 E4.18722
G1 X124.503 Y136.593 E4.20338
G1 X124.308 Y136.682 E4.21123
G1 X123.469 Y136.977 E4.24376
G1 X122.606 Y137.196 E4.27634
G1 X121.728 Y137.336 E4.30887
G1 X120.607 Y137.4 E4.34995
G1 X114.393 Y137.4 E4.57729
G1 X113.504 Y137.36 E4.60985
G1 X112.623 Y137.24 E4.64238
G1 X111.755 Y137.042 E4.67495
G1 X110.909 Y136.767 E4.7075
G1 X110.503 Y136.593 E4.72366
G1 X110.308 Y136.682 E4.7315
G1 X109.469 Y136.977 E4.76404
G1 X108.606 Y137.196 E4.79662
G1 X107.728 Y137.336 E4.82914
G1 X106.607 Y137.4 E4.87022
G1 X100.393 Y137.4 E5.09757
G1 X99.504 Y137.36 E5.13013
G1 X98.623 Y137.24 E5.16266
G1 X97.755 Y137.042 E5.19523
G1 X96.909 Y136.767 E5.22778
G1 X96.503 Y136.593 E5.24394
G1 X96.308 Y136.682 E5.25178
G1 X95.469 Y136.977 E5.28432
G1 X94.606 Y137.196 E5.31689
G1 X93.728 Y137.336 E5.34942
G1 X92.607 Y137.4 E5.3905
G1 X86.393 Y137.4 E5.61785
G1 X85.504 Y137.36 E5.65041
G1 X84.623 Y137.24 E5.68294
G1 X83.755 Y137.042 E5.71551
G1 X82.909 Y136.767 E5.74805
G1 X82.091 Y136.417 E5.78061
G1 X81.308 Y135.994 E5.81317
G1 X80.566 Y135.504 E5.8457
G1 X79.871 Y134.948 E5.87826
G1 X79.07 Y134.162 E5.91932
G1 X78.939 Y134.018 E5.92644
G1 X78.37 Y133.334 E5.95899
G1 X77.866 Y132.601 E5.99154
G1 X77.429 Y131.826 E6.02409
G1 X77.063 Y131.015 E6.05664
G1 X76.772 Y130.174 E6.0892
G1 X76.557 Y129.311 E6.12174
G1 X76.421 Y128.432 E6.15428
G1 X76.364 Y127.544 E6.18684
G1 X76.4 Y126.493 E6.22531
G1 X78.127 Y106.754 E6.95024
G1 X78.244 Y105.872 E6.9828
G1 X78.44 Y105.004 E7.01535
G1 X78.713 Y104.158 E7.04788
G1 X79.061 Y103.339 E7.08043
G1 X79.481 Y102.554 E7.11301
G1 X79.97 Y101.811 E7.14555
G1 X80.524 Y101.115 E7.17809
G1 X81.281 Y100.336 E7.21783
G1 X81.408 Y100.219 E7.22415
G1 X81.533 Y100.114 E7.23013
G0 F810 X82.089 Y99.646
M204 S5000
M205 X30 Y30
G0 F7200 X82.372 Y99.983
M204 S500
M205 X20 Y20
G1 F6000 E7.25672
G1 F900 X83.087 Y99.487 E7.28856
G1 X83.844 Y99.059 E7.32038
G1 X84.637 Y98.703 E7.35218
G1 X85.46 Y98.421 E7.38401
G1 X86.305 Y98.215 E7.41583
G1 X87.165 Y98.088 E7.44763
G1 X88.116 Y98.04 E7.48247
G1 X90.884 Y98.04 E7.58374
G1 X91.753 Y98.08 E7.61557
G1 X92.614 Y98.2 E7.64737
G1 X93.461 Y98.398 E7.6792
G1 X94.286 Y98.673 E7.71101
G1 X95.082 Y99.023 E7.74283
G1 X95.843 Y99.444 E7.77465
G1 X96.502 Y99.893 E7.80382
G1 X97.087 Y99.487 E7.82987
G1 X97.844 Y99.059 E7.86169
G1 X98.637 Y98.703 E7.89349
G1 X99.46 Y98.421 E7.92532
G1 X100.305 Y98.215 E7.95714
G1 X101.165 Y98.088 E7.98895
G1 X102.116 Y98.04 E8.02378
G1 X104.884 Y98.04 E8.12505
G1 X105.753 Y98.08 E8.15688
G1 X106.614 Y98.2 E8.18869
G1 X107.461 Y98.398 E8.22051
G1 X108.286 Y98.673 E8.25233
G1 X109.082 Y99.023 E8.28414
G1 X109.843 Y99.444 E8.31596
G1 X110.502 Y99.893 E8.34513
G1 X111.087 Y99.487 E8.37119
G1 X111.844 Y99.059 E8.403
G1 X112.637 Y98.703 E8.4348
G1 X113.46 Y98.421 E8.46663
G1 X114.305 Y98.215 E8.49845
G1 X115.165 Y98.088 E8.53026
G1 X116.116 Y98.04 E8.5651
G1 X118.884 Y98.04 E8.66637
G1 X119.753 Y98.08 E8.69819
G1 X120.614 Y98.2 E8.73
G1 X121.461 Y98.398 E8.76182
G1 X122.286 Y98.673 E8.79364
G1 X123.082 Y99.023 E8.82545
G1 X123.843 Y99.444 E8.85727
G1 X124.502 Y99.893 E8.88645
G1 X125.087 Y99.487 E8.9125
G1 X125.844 Y99.059 E8.94431
G1 X126.637 Y98.703 E8.97612
G1 X127.46 Y98.421 E9.00795
G1 X128.305 Y98.215 E9.03977
G1 X129.165 Y98.088 E9.07157
G1 X130.116 Y98.04 E9.10641
G1 X132.884 Y98.04 E9.20768
G1 X133.753 Y98.08 E9.23951
G1 X134.614 Y98.2 E9.27131
G1 X135.461 Y98.398 E9.30314
G1 X136.286 Y98.673 E9.33495
G1 X137.082 Y99.023 E9.36677
G1 X137.843 Y99.444 E9.39858
G1 X138.562 Y99.934 E9.43042
G1 X139.294 Y100.542 E9.46523
G1 X139.421 Y100.659 E9.47155
G1 X140.033 Y101.278 E9.5034
G1 X140.585 Y101.949 E9.53519
G1 X141.074 Y102.669 E9.56703
G1 X141.494 Y103.43 E9.59883
G1 X141.843 Y104.227 E9.63066
G1 X142.117 Y105.052 E9.66247
G1 X142.314 Y105.899 E9.69428
G1 X142.435 Y106.792 E9.72725
G1 X144.162 Y126.531 E10.45218
G1 X144.198 Y127.4 E10.48401
G1 X144.154 Y128.269 E10.51584
G1 X144.03 Y129.13 E10.54767
G1 X143.828 Y129.976 E10.57949
G1 X143.549 Y130.8 E10.61132
G1 X143.196 Y131.594 E10.64311
G1 X142.771 Y132.353 E10.67493
G1 X142.278 Y133.07 E10.70677
G1 X141.736 Y133.722 E10.73779
G1 X141.605 Y133.866 E10.74491
G1 X140.99 Y134.482 E10.77676
G1 X140.322 Y135.038 E10.80855
G1 X139.606 Y135.531 E10.84036
G1 X138.847 Y135.957 E10.8722
G1 X138.053 Y136.31 E10.90399
G1 X137.229 Y136.589 E10.93582
G1 X136.383 Y136.792 E10.96765
G1 X135.522 Y136.916 E10.99948
G1 X134.607 Y136.96 E11.03299
G1 X128.393 Y136.96 E11.26034
G1 X127.524 Y136.92 E11.29217
G1 X126.663 Y136.8 E11.32397
G1 X125.816 Y136.602 E11.35579
G1 X124.991 Y136.327 E11.38761
G1 X124.5 Y136.111 E11.40724
G1 X124.053 Y136.31 E11.42514
G1 X123.229 Y136.589 E11.45697
G1 X122.383 Y136.792 E11.4888
G1 X121.522 Y136.916 E11.52062
G1 X120.607 Y136.96 E11.55414
G1 X114.393 Y136.96 E11.78148
G1 X113.524 Y136.92 E11.81331
G1 X112.663 Y136.8 E11.84512
G1 X111.816 Y136.602 E11.87694
G1 X110.991 Y136.327 E11.90876
G1 X110.5 Y136.111 E11.92838
G1 X110.053 Y136.31 E11.94628
G1 X109.229 Y136.589 E11.97811
G1 X108.383 Y136.792 E12.00994
G1 X107.522 Y136.916 E12.04177
G1 X106.607 Y136.96 E12.07528
G1 X100.393 Y136.96 E12.30263
G1 X99.524 Y136.92 E12.33446
G1 X98.663 Y136.8 E12.36626
G1 X97.816 Y136.602 E12.39808
G1 X96.991 Y136.327 E12.4299
G1 X96.5 Y136.111 E12.44953
G1 X96.053 Y136.31 E12.46743
G1 X95.229 Y136.589 E12.49926
G1 X94.383 Y136.792 E12.53109
G1 X93.522 Y136.916 E12.56291
G1 X92.607 Y136.96 E12.59643
G1 X86.393 Y136.96 E12.82377
G1 X85.524 Y136.92 E12.8556
G1 X84.663 Y136.8 E12.8874
G1 X83.816 Y136.602 E12.91923
G1 X82.991 Y136.327 E12.95105
G1 X82.195 Y135.977 E12.98286
G1 X81.434 Y135.556 E13.01468
G1 X80.715 Y135.066 E13.04651
G1 X80.044 Y134.513 E13.07832
G1 X79.395 Y133.866 E13.11185
G1 X79.264 Y133.722 E13.11897
G1 X78.709 Y133.052 E13.1508
G1 X78.218 Y132.335 E13.1826
G1 X77.795 Y131.575 E13.21442
G1 X77.443 Y130.779 E13.24626
G1 X77.166 Y129.955 E13.27807
G1 X76.966 Y129.109 E13.30987
G1 X76.844 Y128.248 E13.34169
G1 X76.802 Y127.379 E13.37352
G1 X76.838 Y126.531 E13.40457
G1 X78.565 Y106.792 E14.1295
G1 X78.681 Y105.93 E14.16133
G1 X78.875 Y105.083 E14.19312
G1 X79.146 Y104.256 E14.22496
G1 X79.492 Y103.458 E14.25678
G1 X79.91 Y102.696 E14.28858
G1 X80.396 Y101.975 E14.32039
G1 X80.946 Y101.301 E14.35221
G1 X81.579 Y100.659 E14.3852
G1 X81.706 Y100.542 E14.39152
G1 X81.815 Y100.45 E14.39674
G0 F810 X82.372 Y99.983
M204 S5000
M205 X30 Y30
G0 F7200 X82.655 Y100.321
M204 S500
M205 X20 Y20
G1 F6000 E14.42333
G1 F900 X83.355 Y99.839 E14.45443
G1 X84.096 Y99.425 E14.48548
G1 X84.874 Y99.083 E14.51658
G1 X85.68 Y98.815 E14.54765
G1 X86.507 Y98.625 E14.5787
G1 X87.349 Y98.513 E14.60977
G1 X88.116 Y98.48 E14.63786
G1 X90.884 Y98.48 E14.73913
G1 X91.732 Y98.52 E14.77019
G1 X92.573 Y98.64 E14.80127
G1 X93.399 Y98.838 E14.83235
G1 X94.202 Y99.113 E14.8634
G1 X94.976 Y99.462 E14.89447
G1 X95.714 Y99.882 E14.92553
G1 X96.409 Y100.37 E14.9566
G1 X96.502 Y100.449 E14.96107
G1 X96.655 Y100.321 E14.96836
G1 X97.355 Y99.839 E14.99946
G1 X98.096 Y99.425 E15.03051
G1 X98.874 Y99.083 E15.06161
G1 X99.68 Y98.815 E15.09268
G1 X100.507 Y98.625 E15.12373
G1 X101.349 Y98.513 E15.1548
G1 X102.116 Y98.48 E15.18289
G1 X104.884 Y98.48 E15.28416
G1 X105.732 Y98.52 E15.31522
G1 X106.573 Y98.64 E15.3463
G1 X107.399 Y98.838 E15.37738
G1 X108.202 Y99.113 E15.40843
G1 X108.976 Y99.462 E15.4395
G1 X109.714 Y99.882 E15.47056
G1 X110.409 Y100.37 E15.50163
G1 X110.502 Y100.449 E15.5061
G1 X110.655 Y100.321 E15.51339
G1 X111.355 Y99.839 E15.54449
G1 X112.096 Y99.425 E15.57554
G1 X112.874 Y99.083 E15.60664
G1 X113.68 Y98.815 E15.63771
G1 X114.507 Y98.625 E15.66876
G1 X115.349 Y98.513 E15.69983
G1 X116.116 Y98.48 E15.72792
G1 X118.884 Y98.48 E15.82919
G1 X119.732 Y98.52 E15.86025
G1 X120.573 Y98.64 E15.89133
G1 X121.399 Y98.838 E15.92241
G1 X122.202 Y99.113 E15.95346
G1 X122.976 Y99.462 E15.98453
G1 X123.714 Y99.882 E16.01559
G1 X124.409 Y100.37 E16.04666
G1 X124.502 Y100.449 E16.05113
G1 X124.655 Y100.321 E16.05842
G1 X125.355 Y99.839 E16.08952
G1 X126.096 Y99.425 E16.12057
G1 X126.874 Y99.083 E16.15167
G1 X127.68 Y98.815 E16.18274
G1 X128.507 Y98.625 E16.21379
G1 X129.349 Y98.513 E16.24486
G1 X130.116 Y98.48 E16.27295
G1 X132.884 Y98.48 E16.37422
G1 X133.732 Y98.52 E16.40528
G1 X134.573 Y98.64 E16.43636
G1 X135.399 Y98.838 E16.46744
G1 X136.202 Y99.113 E16.49849
G1 X136.976 Y99.462 E16.52956
G1 X137.714 Y99.882 E16.56062
G1 X138.409 Y100.37 E16.59169
G1 X138.996 Y100.866 E16.61981
G1 X139.123 Y100.983 E16.62613
G1 X139.719 Y101.587 E16.65717
G1 X140.257 Y102.245 E16.68827
G1 X140.73 Y102.95 E16.71933
G1 X141.135 Y103.697 E16.75042
G1 X141.467 Y104.478 E16.78146
G1 X141.725 Y105.287 E16.81253
G1 X141.905 Y106.117 E16.8436
G1 X141.997 Y106.831 E16.86994
G1 X143.724 Y126.57 E17.59488
G1 X143.758 Y127.418 E17.62593
G1 X143.712 Y128.266 E17.657
G1 X143.587 Y129.106 E17.68807
G1 X143.383 Y129.931 E17.71916
G1 X143.102 Y130.732 E17.75022
G1 X142.748 Y131.504 E17.78129
G1 X142.322 Y132.239 E17.81237
G1 X141.829 Y132.93 E17.84343
G1 X141.41 Y133.426 E17.86718
G1 X141.279 Y133.57 E17.8743
G1 X140.679 Y134.17 E17.90535
G1 X140.025 Y134.712 E17.93642
G1 X139.322 Y135.189 E17.9675
G1 X138.578 Y135.599 E17.99858
G1 X137.799 Y135.936 E18.02964
G1 X136.991 Y136.199 E18.06073
G1 X136.163 Y136.385 E18.09177
G1 X135.32 Y136.492 E18.12286
G1 X134.607 Y136.52 E18.14897
G1 X128.393 Y136.52 E18.37632
G1 X127.545 Y136.48 E18.40738
G1 X126.704 Y136.36 E18.43846
G1 X125.878 Y136.162 E18.46953
G1 X125.075 Y135.887 E18.50059
G1 X124.506 Y135.63 E18.52343
G1 X123.799 Y135.936 E18.55161
G1 X122.991 Y136.199 E18.5827
G1 X122.163 Y136.385 E18.61375
G1 X121.32 Y136.492 E18.64484
G1 X120.607 Y136.52 E18.67095
G1 X114.393 Y136.52 E18.89829
G1 X113.545 Y136.48 E18.92935
G1 X112.704 Y136.36 E18.96043
G1 X111.878 Y136.162 E18.99151
G1 X111.075 Y135.887 E19.02256
G1 X110.506 Y135.63 E19.0454
G1 X109.799 Y135.936 E19.07359
G1 X108.991 Y136.199 E19.10468
G1 X108.163 Y136.385 E19.13573
G1 X107.32 Y136.492 E19.16682
G1 X106.607 Y136.52 E19.19292
G1 X100.393 Y136.52 E19.42027
G1 X99.545 Y136.48 E19.45133
G1 X98.704 Y136.36 E19.48241
G1 X97.878 Y136.162 E19.51348
G1 X97.075 Y135.887 E19.54454
G1 X96.506 Y135.63 E19.56738
G1 X95.799 Y135.936 E19.59557
G1 X94.991 Y136.199 E19.62665
G1 X94.163 Y136.385 E19.6577
G1 X93.32 Y136.492 E19.68879
G1 X92.607 Y136.52 E19.7149
G1 X86.393 Y136.52 E19.94224
G1 X85.545 Y136.48 E19.9733
G1 X84.704 Y136.36 E20.00438
G1 X83.878 Y136.162 E20.03546
G1 X83.075 Y135.887 E20.06651
G1 X82.301 Y135.538 E20.09758
G1 X81.563 Y135.118 E20.12864
G1 X80.868 Y134.63 E20.15971
G1 X80.222 Y134.078 E20.1908
G1 X79.721 Y133.57 E20.21691
G1 X79.59 Y133.426 E20.22403
G1 X79.049 Y132.771 E20.25511
G1 X78.571 Y132.069 E20.28618
G1 X78.162 Y131.325 E20.31724
G1 X77.825 Y130.546 E20.3483
G1 X77.562 Y129.738 E20.37939
G1 X77.377 Y128.909 E20.41046
G1 X77.27 Y128.067 E20.44151
G1 X77.243 Y127.218 E20.47259
G1 X77.276 Y126.57 E20.49633
G1 X79.003 Y106.831 E21.22126
G1 X79.117 Y105.989 E21.25235
G1 X79.309 Y105.162 E21.28341
G1 X79.579 Y104.357 E21.31448
G1 X79.923 Y103.58 E21.34556
G1 X80.338 Y102.84 E21.3766
G1 X80.821 Y102.141 E21.40769
G1 X81.368 Y101.491 E21.43877
G1 X81.877 Y100.983 E21.46508
G1 X82.004 Y100.866 E21.4714
G1 X82.098 Y100.787 E21.47589
G0 F810 X82.655 Y100.321
M204 S5000
M205 X30 Y30
G0 F7200 X82.938 Y100.659
M204 S500
M205 X20 Y20
G1 F6000 E21.50249
G1 F900 X83.622 Y100.191 E21.53281
G1 X84.348 Y99.792 E21.56312
G1 X85.108 Y99.464 E21.5934
G1 X85.897 Y99.212 E21.62371
G1 X86.707 Y99.037 E21.65403
G1 X87.529 Y98.94 E21.68431
G1 X88.116 Y98.92 E21.7058
G1 X90.884 Y98.92 E21.80707
G1 X91.711 Y98.96 E21.83736
G1 X92.531 Y99.08 E21.86768
G1 X93.335 Y99.278 E21.89797
G1 X94.116 Y99.552 E21.92826
G1 X94.868 Y99.901 E21.95859
G1 X95.582 Y100.32 E21.98887
G1 X96.252 Y100.807 E22.01918
G1 X96.503 Y101.023 E22.03129
G1 X96.938 Y100.659 E22.05205
G1 X97.622 Y100.191 E22.08237
G1 X98.348 Y99.792 E22.11268
G1 X99.108 Y99.464 E22.14296
G1 X99.897 Y99.212 E22.17326
G1 X100.707 Y99.037 E22.20358
G1 X101.529 Y98.94 E22.23387
G1 X102.116 Y98.92 E22.25535
G1 X104.884 Y98.92 E22.35662
G1 X105.711 Y98.96 E22.38692
G1 X106.531 Y99.08 E22.41724
G1 X107.335 Y99.278 E22.44753
G1 X108.116 Y99.552 E22.47781
G1 X108.868 Y99.901 E22.50814
G1 X109.582 Y100.32 E22.53843
G1 X110.252 Y100.807 E22.56874
G1 X110.503 Y101.023 E22.58085
G1 X110.938 Y100.659 E22.6016
G1 X111.622 Y100.191 E22.63192
G1 X112.348 Y99.792 E22.66223
G1 X113.108 Y99.464 E22.69252
G1 X113.897 Y99.212 E22.72282
G1 X114.707 Y99.037 E22.75314
