;FLAVOR:Marlin
;TIME:4628
;Filament used: 4.60773m
;Layer height: 0.2
;Generated with Cura_SteamEngine 3.6.0
M140 S70
M105
M190 S70
M104 S215
M105
M109 S215
M82 ;absolute extrusion mode
G28 ; home all axes
M117 Purge extruder
G92 E0 ; reset extruder
G1 Z1.0 F3000 ; move z up little to prevent scratching of surface
G1 X0.1 Y20 Z0.3 F5000.0 ; move to start-line position G1 X0.1 Y200.0 Z0.3 F1500.0 E15 ; draw 1st line
G1 X0.4 Y200.0 Z0.3 F5000.0 ; move to side a little
G1 X0.4 Y20 Z0.3 F1500.0 E30 ; draw 2nd line
G92 E0 ; reset extruder
G1 Z1.0 F3000 ; move z up little to prevent scratching of surface
M117 All systems go!
G92 E0
G1 F6000 E-5
;LAYER_COUNT:101
;LAYER:0
M107
M204 S5000
M205 X30 Y30
G0 F7200 X86.259 Y93.069 Z0.2
M204 S500
M205 X20 Y20
;TYPE:SKIRT
G1 F6000 E0
G1 F900 X87.207 Y92.242 E0.04184
G1 X88.207 Y91.477 E0.08372
G1 X89.253 Y90.777 E0.12558
G1 X90.063 Y90.297 E0.1569
G1 X90.681 Y89.951 E0.18045
G1 X91.798 Y89.372 E0.2223
G1 X92.95 Y88.864 E0.26417
G1 X94.131 Y88.431 E0.30601
G1 X95.008 Y88.163 E0.33651
G1 X95.682 Y87.974 E0.35979
G1 X96.904 Y87.673 E0.40165
G1 X98.142 Y87.45 E0.44349
G1 X99.393 Y87.307 E0.48537
G1 X101.027 Y87.239 E0.53977
G1 X133.972 Y87.238 E1.63552
G1 X135.23 Y87.278 E1.67738
G1 X136.483 Y87.398 E1.71925
G1 X137.725 Y87.597 E1.76108
G1 X138.581 Y87.782 E1.79021
G1 X139.024 Y87.888 E1.80536
G1 X140.238 Y88.219 E1.84721
G1 X141.428 Y88.627 E1.88906
G1 X142.59 Y89.11 E1.93091
G1 X143.362 Y89.48 E1.95938
G1 X144.209 Y89.909 E1.99096
G1 X145.313 Y90.513 E2.03282
G1 X146.377 Y91.186 E2.07469
G1 X147.395 Y91.925 E2.11653
G1 X148.74 Y93.068 E2.17524
G1 X149.262 Y93.553 E2.19894
G1 X150.156 Y94.438 E2.24078
G1 X150.993 Y95.379 E2.28266
G1 X151.767 Y96.37 E2.32449
G1 X152.671 Y97.719 E2.3785
G1 X153.159 Y98.516 E2.40958
G1 X153.782 Y99.609 E2.45142
G1 X154.334 Y100.74 E2.49328
G1 X154.813 Y101.904 E2.53515
G1 X155.217 Y103.096 E2.57701
G1 X155.535 Y104.271 E2.6175
G1 X155.753 Y105.187 E2.64881
G1 X156.005 Y106.42 E2.69067
G1 X156.179 Y107.666 E2.73251
G1 X156.273 Y108.921 E2.77437
G1 X156.291 Y109.761 E2.80232
G1 X156.3 Y126.873 E3.37146
G1 X156.261 Y128.13 E3.41329
G1 X156.142 Y129.383 E3.45516
G1 X155.943 Y130.626 E3.49702
G1 X155.666 Y131.853 E3.53886
G1 X155.312 Y133.061 E3.58073
G1 X154.881 Y134.243 E3.62257
G1 X154.376 Y135.396 E3.66444
G1 X153.8 Y136.514 E3.70627
G1 X153.153 Y137.594 E3.74814
G1 X152.439 Y138.63 E3.78999
G1 X151.66 Y139.619 E3.83187
G1 X150.501 Y140.884 E3.88893
G1 X150.384 Y141.001 E3.89443
G1 X149.466 Y141.862 E3.93629
G1 X148.496 Y142.663 E3.97813
G1 X147.476 Y143.401 E4.02001
G1 X146.412 Y144.072 E4.06185
G1 X145.307 Y144.675 E4.10371
G1 X144.166 Y145.206 E4.14557
G1 X142.994 Y145.664 E4.18742
G1 X141.795 Y146.046 E4.22928
G1 X140.574 Y146.351 E4.27114
G1 X139.337 Y146.578 E4.31297
G1 X138.087 Y146.727 E4.35484
G1 X136.383 Y146.8 E4.41156
G1 X98.617 Y146.8 E5.66767
G1 X97.359 Y146.76 E5.70953
G1 X96.107 Y146.64 E5.75136
G1 X94.864 Y146.441 E5.79323
G1 X93.637 Y146.163 E5.83507
G1 X92.429 Y145.808 E5.87695
G1 X91.247 Y145.377 E5.9188
G1 X90.095 Y144.872 E5.96063
G1 X88.976 Y144.294 E6.00252
G1 X87.897 Y143.647 E6.04437
G1 X86.861 Y142.933 E6.08621
G1 X85.873 Y142.154 E6.12806
G1 X84.616 Y141.001 E6.18479
G1 X84.499 Y140.884 E6.1903
G1 X83.638 Y139.966 E6.23216
G1 X82.837 Y138.996 E6.274
G1 X82.099 Y137.976 E6.31587
G1 X81.428 Y136.912 E6.35771
G1 X80.825 Y135.807 E6.39958
G1 X80.294 Y134.666 E6.44144
G1 X79.836 Y133.494 E6.48329
G1 X79.454 Y132.295 E6.52514
G1 X79.149 Y131.074 E6.567
G1 X78.922 Y129.837 E6.60883
G1 X78.773 Y128.587 E6.6507
G1 X78.7 Y126.875 E6.70769
G1 X78.707 Y109.776 E7.27641
G1 X78.748 Y108.518 E7.31827
G1 X78.868 Y107.265 E7.36014
G1 X79.067 Y106.023 E7.40197
G1 X79.236 Y105.236 E7.42875
G1 X79.455 Y104.308 E7.46046
G1 X79.783 Y103.093 E7.50232
G1 X80.187 Y101.902 E7.54415
G1 X80.667 Y100.738 E7.58602
G1 X81.219 Y99.607 E7.62788
G1 X81.84 Y98.517 E7.66961
G1 X82.328 Y97.72 E7.70069
G1 X83.019 Y96.668 E7.74255
G1 X83.775 Y95.662 E7.78441
G1 X84.594 Y94.706 E7.82628
G1 X85.675 Y93.616 E7.87734
G0 F810 X85.737 Y93.554
G0 X86.259 Y93.069
M204 S5000
M205 X30 Y30
G0 F7200 X86.531 Y93.362
M204 S500
M205 X20 Y20
G1 F6000 E7.90394
G1 F900 X87.47 Y92.544 E7.94536
G1 X88.46 Y91.787 E7.98681
G1 X89.497 Y91.096 E8.02826
G1 X90.259 Y90.646 E8.05769
G1 X90.877 Y90.3 E8.08125
G1 X91.983 Y89.727 E8.12268
G1 X93.123 Y89.226 E8.1641
G1 X94.293 Y88.799 E8.20552
G1 X95.116 Y88.549 E8.23413
G1 X95.79 Y88.36 E8.25741
G1 X97 Y88.062 E8.29886
G1 X98.226 Y87.842 E8.34029
G1 X99.463 Y87.702 E8.38169
G1 X101.027 Y87.639 E8.43375
G1 X133.972 Y87.638 E9.52951
G1 X135.217 Y87.678 E9.57094
G1 X136.457 Y87.798 E9.61238
G1 X137.687 Y87.997 E9.65382
G1 X138.488 Y88.171 E9.68108
G1 X138.931 Y88.277 E9.69623
G1 X140.132 Y88.605 E9.73764
G1 X141.31 Y89.01 E9.77907
G1 X142.46 Y89.49 E9.82052
G1 X143.182 Y89.837 E9.84716
G1 X144.029 Y90.266 E9.87874
G1 X145.121 Y90.865 E9.92016
G1 X146.173 Y91.532 E9.96159
G1 X147.18 Y92.265 E10.00302
G1 X148.468 Y93.361 E10.05927
G1 X148.99 Y93.846 E10.08297
G1 X149.875 Y94.722 E10.12439
G1 X150.702 Y95.654 E10.16583
G1 X151.467 Y96.637 E10.20726
G1 X152.33 Y97.928 E10.25891
G1 X152.818 Y98.725 E10.28999
G1 X153.434 Y99.807 E10.3314
G1 X153.979 Y100.927 E10.37283
G1 X154.451 Y102.08 E10.41427
G1 X154.849 Y103.26 E10.45568
G1 X155.146 Y104.363 E10.49368
G1 X155.364 Y105.279 E10.52499
G1 X155.613 Y106.5 E10.56644
G1 X155.784 Y107.734 E10.60788
G1 X155.875 Y108.976 E10.6493
G1 X155.891 Y109.761 E10.67541
G1 X155.9 Y126.873 E11.24456
G1 X155.861 Y128.118 E11.28599
G1 X155.742 Y129.358 E11.32742
G1 X155.543 Y130.587 E11.36883
G1 X155.266 Y131.802 E11.41028
G1 X154.912 Y132.996 E11.4517
G1 X154.481 Y134.165 E11.49314
G1 X153.977 Y135.304 E11.53456
G1 X153.401 Y136.408 E11.57598
G1 X152.754 Y137.473 E11.61743
G1 X152.041 Y138.494 E11.65885
G1 X151.264 Y139.468 E11.70029
G1 X150.218 Y140.601 E11.75157
G1 X150.101 Y140.718 E11.75708
G1 X149.192 Y141.57 E11.79852
G1 X148.231 Y142.362 E11.83993
G1 X147.221 Y143.091 E11.88136
G1 X146.166 Y143.753 E11.92279
G1 X145.07 Y144.346 E11.96424
G1 X143.939 Y144.868 E12.00567
G1 X142.777 Y145.316 E12.04709
G1 X141.588 Y145.689 E12.08853
G1 X140.378 Y145.984 E12.12996
G1 X139.152 Y146.201 E12.17137
G1 X137.914 Y146.34 E12.2128
G1 X136.383 Y146.4 E12.26376
G1 X98.617 Y146.4 E13.51987
G1 X97.372 Y146.36 E13.5613
G1 X96.132 Y146.24 E13.60273
G1 X94.903 Y146.041 E13.64414
G1 X93.688 Y145.763 E13.6856
G1 X92.494 Y145.408 E13.72703
G1 X91.326 Y144.978 E13.76842
G1 X90.187 Y144.473 E13.80986
G1 X89.083 Y143.896 E13.85129
G1 X88.018 Y143.249 E13.89274
G1 X86.997 Y142.535 E13.93418
G1 X86.024 Y141.758 E13.97559
G1 X84.899 Y140.718 E14.02655
G1 X84.782 Y140.601 E14.03205
G1 X83.93 Y139.692 E14.07349
G1 X83.138 Y138.731 E14.11491
G1 X82.409 Y137.721 E14.15634
G1 X81.747 Y136.666 E14.19777
G1 X81.154 Y135.57 E14.23921
G1 X80.632 Y134.439 E14.28064
G1 X80.184 Y133.277 E14.32206
G1 X79.811 Y132.088 E14.36351
G1 X79.516 Y130.878 E14.40493
G1 X79.299 Y129.652 E14.44634
G1 X79.16 Y128.414 E14.48778
G1 X79.1 Y126.875 E14.53901
G1 X79.107 Y109.776 E15.10772
G1 X79.148 Y108.531 E15.14915
G1 X79.268 Y107.291 E15.19059
G1 X79.467 Y106.062 E15.232
G1 X79.626 Y105.328 E15.25698
G1 X79.845 Y104.4 E15.28869
G1 X80.17 Y103.198 E15.3301
G1 X80.571 Y102.018 E15.37155
G1 X81.047 Y100.867 E15.41298
G1 X81.596 Y99.749 E15.45441
G1 X82.181 Y98.726 E15.4936
G1 X82.669 Y97.929 E15.52469
G1 X83.353 Y96.888 E15.56611
G1 X84.103 Y95.893 E15.60756
G1 X84.915 Y94.948 E15.649
G1 X85.947 Y93.909 E15.6977
G0 F810 X86.009 Y93.847
G0 X86.531 Y93.362
M204 S5000
M205 X30 Y30
G0 F7200 X86.803 Y93.655
M204 S500
M205 X20 Y20
G1 F6000 E15.72431
G1 F900 X87.733 Y92.845 E15.76533
G1 X88.714 Y92.098 E15.80634
G1 X89.74 Y91.416 E15.84732
G1 X90.454 Y90.995 E15.87489
G1 X91.072 Y90.649 E15.89844
G1 X92.167 Y90.082 E15.93946
G1 X93.296 Y89.588 E15.98045
G1 X94.455 Y89.167 E16.02146
G1 X95.224 Y88.934 E16.04818
G1 X95.898 Y88.745 E16.07147
G1 X97.095 Y88.451 E16.11246
G1 X98.309 Y88.235 E16.15347
G1 X99.534 Y88.098 E16.19447
G1 X101.027 Y88.039 E16.24417
G1 X133.972 Y88.038 E17.33992
G1 X135.204 Y88.078 E17.38092
G1 X136.431 Y88.198 E17.42192
G1 X137.648 Y88.397 E17.46294
G1 X138.394 Y88.56 E17.48834
G1 X138.837 Y88.666 E17.50349
G1 X140.026 Y88.991 E17.54448
G1 X141.192 Y89.393 E17.58551
G1 X142.329 Y89.87 E17.62652
G1 X143.001 Y90.194 E17.65133
G1 X143.848 Y90.623 E17.68291
G1 X144.929 Y91.216 E17.72392
G1 X145.969 Y91.877 E17.7649
G1 X146.965 Y92.604 E17.80592
G1 X148.196 Y93.654 E17.85973
G1 X148.718 Y94.139 E17.88343
G1 X149.593 Y95.007 E17.92442
G1 X150.41 Y95.93 E17.96542
G1 X151.166 Y96.903 E18.0064
G1 X151.989 Y98.136 E18.05571
G1 X152.477 Y98.933 E18.08679
G1 X153.086 Y100.005 E18.1278
G1 X153.625 Y101.114 E18.16881
G1 X154.09 Y102.255 E18.20979
G1 X154.48 Y103.425 E18.25081
G1 X154.757 Y104.456 E18.28632
G1 X154.975 Y105.372 E18.31763
G1 X155.221 Y106.58 E18.35864
G1 X155.389 Y107.801 E18.39963
G1 X155.477 Y109.031 E18.44064
G1 X155.491 Y109.761 E18.46493
G1 X155.5 Y126.873 E19.03408
G1 X155.461 Y128.105 E19.07507
G1 X155.342 Y129.332 E19.11607
G1 X155.143 Y130.549 E19.15709
G1 X154.866 Y131.75 E19.19808
G1 X154.512 Y132.931 E19.23909
G1 X154.082 Y134.086 E19.28008
G1 X153.578 Y135.211 E19.32108
G1 X153.002 Y136.301 E19.36209
G1 X152.356 Y137.351 E19.40309
G1 X151.644 Y138.357 E19.44408
G1 X150.868 Y139.315 E19.48509
G1 X149.935 Y140.318 E19.53065
G1 X149.818 Y140.435 E19.53615
G1 X148.919 Y141.278 E19.57714
G1 X147.966 Y142.061 E19.61817
G1 X146.965 Y142.78 E19.65916
G1 X145.92 Y143.433 E19.70014
G1 X144.834 Y144.017 E19.74115
G1 X143.713 Y144.529 E19.78214
G1 X142.561 Y144.968 E19.82315
G1 X141.383 Y145.33 E19.86414
G1 X140.183 Y145.616 E19.90517
G1 X138.968 Y145.823 E19.94616
G1 X137.742 Y145.951 E19.98716
G1 X136.383 Y146 E20.03239
G1 X98.617 Y146 E21.28849
G1 X97.385 Y145.96 E21.32949
G1 X96.158 Y145.84 E21.37049
G1 X94.942 Y145.641 E21.41148
G1 X93.74 Y145.364 E21.4525
G1 X92.56 Y145.009 E21.49349
G1 X91.405 Y144.578 E21.53449
G1 X90.28 Y144.073 E21.5755
G1 X89.191 Y143.497 E21.61648
G1 X88.141 Y142.851 E21.65748
G1 X87.135 Y142.138 E21.69849
G1 X86.177 Y141.362 E21.7395
G1 X85.182 Y140.435 E21.78473
G1 X85.065 Y140.318 E21.79023
G1 X84.222 Y139.419 E21.83122
G1 X83.439 Y138.466 E21.87225
G1 X82.72 Y137.465 E21.91324
G1 X82.067 Y136.42 E21.95422
G1 X81.483 Y135.334 E21.99524
G1 X80.971 Y134.213 E22.03622
G1 X80.532 Y133.061 E22.07723
G1 X80.17 Y131.883 E22.11822
G1 X79.884 Y130.683 E22.15925
G1 X79.677 Y129.468 E22.20024
G1 X79.549 Y128.242 E22.24124
G1 X79.5 Y126.875 E22.28673
G1 X79.507 Y109.776 E22.85545
G1 X79.547 Y108.544 E22.89645
G1 X79.668 Y107.317 E22.93746
G1 X79.867 Y106.101 E22.97844
G1 X80.015 Y105.42 E23.00162
G1 X80.234 Y104.492 E23.03333
G1 X80.556 Y103.302 E23.07433
G1 X80.954 Y102.136 E23.11531
G1 X81.427 Y100.997 E23.15633
G1 X81.973 Y99.892 E23.19733
G1 X82.522 Y98.934 E23.23405
G1 X83.01 Y98.137 E23.26513
G1 X83.688 Y97.108 E23.30612
G1 X84.431 Y96.124 E23.34713
G1 X85.236 Y95.19 E23.38814
G1 X86.219 Y94.202 E23.4345
G0 F810 X86.281 Y94.14
G0 X86.803 Y93.655
M204 S5000
M205 X30 Y30
G0 F7200 X87.076 Y93.948
M204 S500
M205 X20 Y20
G1 F6000 E23.4611
G1 F900 X87.996 Y93.147 E23.50168
G1 X88.967 Y92.409 E23.54224
G1 X89.984 Y91.736 E23.5828
G1 X90.65 Y91.344 E23.6085
G1 X91.268 Y90.998 E23.63206
G1 X92.351 Y90.438 E23.67261
G1 X93.468 Y89.949 E23.71317
G1 X94.616 Y89.535 E23.75376
G1 X95.332 Y89.319 E23.77863
G1 X96.006 Y89.13 E23.80191
G1 X97.191 Y88.839 E23.8425
G1 X98.392 Y88.627 E23.88306
G1 X99.604 Y88.494 E23.92362
G1 X101.027 Y88.439 E23.97098
G1 X133.972 Y88.438 E25.06673
G1 X135.191 Y88.478 E25.1073
G1 X136.405 Y88.598 E25.14788
G1 X137.609 Y88.797 E25.18846
G1 X138.301 Y88.949 E25.21203
G1 X138.744 Y89.055 E25.22718
G1 X139.921 Y89.377 E25.26776
G1 X141.073 Y89.776 E25.30831
G1 X142.197 Y90.25 E25.34889
G1 X142.82 Y90.551 E25.3719
G1 X143.667 Y90.98 E25.40348
G1 X144.737 Y91.566 E25.44405
G1 X145.765 Y92.222 E25.48461
G1 X146.749 Y92.943 E25.52519
G1 X147.923 Y93.947 E25.57657
G1 X148.445 Y94.432 E25.60026
G1 X149.311 Y95.291 E25.64083
G1 X150.119 Y96.205 E25.68141
G1 X150.865 Y97.17 E25.72198
G1 X151.648 Y98.345 E25.76894
G1 X152.136 Y99.142 E25.80002
G1 X152.738 Y100.203 E25.8406
G1 X153.27 Y101.301 E25.88118
G1 X153.728 Y102.431 E25.92173
G1 X154.112 Y103.589 E25.96231
G1 X154.368 Y104.549 E25.99535
G1 X154.586 Y105.465 E26.02667
G1 X154.829 Y106.66 E26.06723
G1 X154.993 Y107.868 E26.10778
G1 X155.078 Y109.085 E26.14835
G1 X155.091 Y109.761 E26.17084
G1 X155.1 Y126.873 E26.73999
G1 X155.061 Y128.092 E26.78055
G1 X154.941 Y129.306 E26.82113
G1 X154.743 Y130.51 E26.86171
G1 X154.466 Y131.697 E26.90225
G1 X154.112 Y132.864 E26.94281
G1 X153.682 Y134.006 E26.9834
G1 X153.178 Y135.117 E27.02398
G1 X152.603 Y136.192 E27.06452
G1 X151.958 Y137.227 E27.10509
G1 X151.247 Y138.218 E27.14565
G1 X150.472 Y139.16 E27.18622
G1 X149.652 Y140.035 E27.22611
G1 X149.535 Y140.152 E27.23161
G1 X148.645 Y140.986 E27.27218
G1 X147.702 Y141.759 E27.31274
G1 X146.71 Y142.47 E27.35333
G1 X145.674 Y143.113 E27.39388
G1 X144.598 Y143.687 E27.43445
G1 X143.487 Y144.19 E27.47501
G1 X142.345 Y144.619 E27.51558
G1 X141.178 Y144.971 E27.55612
G1 X139.989 Y145.247 E27.59672
G1 X138.786 Y145.444 E27.63727
G1 X137.572 Y145.562 E27.67784
G1 X136.383 Y145.6 E27.7174
G1 X98.617 Y145.6 E28.9735
G1 X97.398 Y145.56 E29.01407
G1 X96.184 Y145.44 E29.05464
G1 X94.981 Y145.241 E29.0952
G1 X93.793 Y144.964 E29.13577
G1 X92.626 Y144.609 E29.17634
G1 X91.485 Y144.178 E29.21691
G1 X90.375 Y143.674 E29.25746
G1 X89.3 Y143.098 E29.29802
G1 X88.265 Y142.453 E29.33858
G1 X87.274 Y141.741 E29.37917
G1 X86.332 Y140.966 E29.41974
G1 X85.465 Y140.152 E29.45929
G1 X85.348 Y140.035 E29.4648
G1 X84.514 Y139.145 E29.50536
G1 X83.741 Y138.202 E29.54592
G1 X83.03 Y137.21 E29.58651
G1 X82.387 Y136.174 E29.62707
G1 X81.813 Y135.098 E29.66763
G1 X81.31 Y133.987 E29.70819
G1 X80.881 Y132.845 E29.74877
G1 X80.529 Y131.678 E29.78931
G1 X80.253 Y130.489 E29.82991
G1 X80.056 Y129.286 E29.87045
G1 X79.938 Y128.072 E29.91102
G1 X79.9 Y126.875 E29.95085
G1 X79.907 Y109.776 E30.51957
G1 X79.947 Y108.557 E30.56013
G1 X80.068 Y107.344 E30.60068
G1 X80.267 Y106.14 E30.64127
G1 X80.404 Y105.512 E30.66265
G1 X80.623 Y104.584 E30.69436
G1 X80.942 Y103.407 E30.73492
G1 X81.338 Y102.253 E30.7755
G1 X81.808 Y101.127 E30.81608
G1 X82.351 Y100.035 E30.85664
G1 X82.863 Y99.143 E30.89085
G1 X83.351 Y98.346 E30.92193
G1 X84.022 Y97.328 E30.96249
G1 X84.758 Y96.355 E31.00306
G1 X85.556 Y95.433 E31.04362
G1 X86.492 Y94.495 E31.08769
G0 F810 X86.554 Y94.433
G0 X87.076 Y93.948
M204 S5000
M205 X30 Y30
G0 F7200 X87.348 Y94.241
M204 S500
M205 X20 Y20
G1 F6000 E31.1143
G1 F900 X88.258 Y93.449 E31.15443
G1 X89.219 Y92.72 E31.19455
G1 X90.227 Y92.056 E31.23469
G1 X90.845 Y91.694 E31.25851
G1 X91.463 Y91.348 E31.28207
G1 X92.535 Y90.793 E31.32222
G1 X93.641 Y90.311 E31.36235
G1 X94.776 Y89.904 E31.40245
G1 X95.44 Y89.704 E31.42552
G1 X96.114 Y89.515 E31.4488
G1 X97.286 Y89.228 E31.48893
G1 X98.474 Y89.019 E31.52905
G1 X99.674 Y88.889 E31.5692
G1 X101.027 Y88.839 E31.61423
G1 X133.972 Y88.838 E32.70998
G1 X135.178 Y88.878 E32.75012
G1 X136.379 Y88.998 E32.79026
G1 X137.569 Y89.197 E32.83039
G1 X138.208 Y89.338 E32.85216
G1 X138.651 Y89.444 E32.86731
G1 X139.815 Y89.763 E32.90745
G1 X140.954 Y90.159 E32.94756
G1 X142.065 Y90.63 E32.98769
G1 X142.64 Y90.908 E33.00893
G1 X143.487 Y91.337 E33.04051
G1 X144.544 Y91.917 E33.08061
G1 X145.561 Y92.567 E33.12076
G1 X146.533 Y93.282 E33.16089
G1 X147.651 Y94.24 E33.20986
G1 X148.173 Y94.725 E33.23356
G1 X149.029 Y95.575 E33.27368
G1 X149.827 Y96.48 E33.31381
G1 X150.563 Y97.436 E33.35394
G1 X151.307 Y98.554 E33.39861
G1 X151.795 Y99.351 E33.42969
G1 X152.39 Y100.4 E33.4698
G1 X152.915 Y101.487 E33.50995
G1 X153.366 Y102.606 E33.55008
G1 X153.743 Y103.752 E33.5902
G1 X153.978 Y104.641 E33.62079
G1 X154.196 Y105.557 E33.6521
G1 X154.437 Y106.74 E33.69226
G1 X154.598 Y107.935 E33.73236
G1 X154.68 Y109.139 E33.7725
G1 X154.691 Y109.761 E33.79319
