;FLAVOR:Marlin
;TIME:694
;Filament used: 0.204812m
;Layer height: 0.1
;Generated with Cura_SteamEngine 3.6.0
M140 S70
M105
M190 S70
M104 S215
M105
M109 S215
M82 ;absolute extrusion mode
G28 ; home all axes
M117 Purge extruder
G92 E0 ; reset extruder
G1 Z1.0 F3000 ; move z up little to prevent scratching of surface
G1 X0.1 Y20 Z0.3 F5000.0 ; move to start-line position G1 X0.1 Y200.0 Z0.3 F1500.0 E15 ; draw 1st line
G1 X0.4 Y200.0 Z0.3 F5000.0 ; move to side a little
G1 X0.4 Y20 Z0.3 F1500.0 E30 ; draw 2nd line
G92 E0 ; reset extruder
G1 Z1.0 F3000 ; move z up little to prevent scratching of surface
M117 All systems go!
G92 E0
G1 F6000 E-5
;LAYER_COUNT:66
;LAYER:0
M107
M204 S5000
M205 X30 Y30
G0 F7200 X91.691 Y111.453 Z0.2
M204 S500
M205 X20 Y20
;TYPE:SKIRT
G1 F6000 E0
G1 F900 X92.194 Y111.063 E0.01164
G1 X92.741 Y110.74 E0.02326
G1 X93.325 Y110.488 E0.0349
G1 X93.936 Y110.312 E0.04653
G1 X94.564 Y110.213 E0.05816
G1 X95.041 Y110.191 E0.0669
G1 X103.638 Y110.202 E0.22416
G1 X103.977 Y110.136 E0.23048
G1 X104.649 Y110.092 E0.2428
G1 X105.822 Y110.094 E0.26426
G1 X106.456 Y110.135 E0.27588
G1 X106.726 Y110.184 E0.2809
G1 X110.691 Y110.108 E0.35344
G1 X111.842 Y109.982 E0.37462
G1 X112.694 Y109.961 E0.39021
G1 X114.145 Y110.047 E0.4168
G1 X114.777 Y110.124 E0.42845
G1 X115.112 Y110.211 E0.43478
G1 X115.875 Y110.245 E0.44875
G1 X120.8 Y110.191 E0.53885
G1 X121.435 Y110.224 E0.55049
G1 X122.061 Y110.337 E0.56212
G1 X122.668 Y110.527 E0.57376
G1 X123.246 Y110.792 E0.58539
G1 X123.786 Y111.127 E0.59701
G1 X124.281 Y111.527 E0.60866
G1 X124.721 Y111.986 E0.62029
G1 X125.1 Y112.497 E0.63192
G1 X125.378 Y112.991 E0.64229
G1 X125.492 Y112.986 E0.64438
G1 X125.653 Y112.989 E0.64733
G1 X125.755 Y112.782 E0.65155
G1 X126.104 Y112.251 E0.66317
G1 X126.518 Y111.768 E0.67481
G1 X126.989 Y111.341 E0.68644
G1 X127.51 Y110.976 E0.69808
G1 X128.072 Y110.679 E0.7097
G1 X128.667 Y110.455 E0.72133
G1 X129.286 Y110.308 E0.73297
G1 X130.125 Y110.234 E0.74838
G1 X139.932 Y110.191 E0.92778
G1 X140.567 Y110.228 E0.93942
G1 X141.192 Y110.345 E0.95105
G1 X141.797 Y110.539 E0.96267
G1 X142.374 Y110.807 E0.97431
G1 X142.912 Y111.146 E0.98594
G1 X143.532 Y111.673 E1.00083
G1 X143.778 Y111.919 E1.00719
G1 X144.198 Y112.396 E1.01882
G1 X144.556 Y112.922 E1.03046
G1 X144.844 Y113.489 E1.04209
G1 X145.06 Y114.087 E1.05372
G1 X145.198 Y114.708 E1.06536
G1 X145.26 Y115.497 E1.07984
G1 X145.26 Y116.215 E1.09297
G1 X145.22 Y116.85 E1.10461
G1 X145.101 Y117.474 E1.11623
G1 X144.904 Y118.079 E1.12787
G1 X144.633 Y118.654 E1.1395
G1 X144.292 Y119.191 E1.15114
G1 X143.887 Y119.681 E1.16276
G1 X143.423 Y120.116 E1.1744
G1 X142.908 Y120.489 E1.18603
G1 X142.35 Y120.795 E1.19767
G1 X141.833 Y121.004 E1.20787
G1 X136.831 Y122.71 E1.30455
G1 X136.218 Y122.877 E1.31617
G1 X135.759 Y122.95 E1.32468
G1 X135.212 Y123.011 E1.33474
G1 X134.577 Y123.041 E1.34637
G1 X133.943 Y122.992 E1.35801
G1 X133.47 Y122.902 E1.36681
G1 X133.12 Y122.818 E1.3734
G1 X132.787 Y122.797 E1.3795
G1 X132.163 Y122.678 E1.39112
G1 X131.558 Y122.481 E1.40276
G1 X131.329 Y122.373 E1.40739
G1 X130.714 Y122.347 E1.41865
G1 X130.082 Y122.281 E1.43028
G1 X129.463 Y122.135 E1.44191
G1 X129.291 Y122.071 E1.44527
G1 X129.159 Y122.214 E1.44883
G1 X128.672 Y122.623 E1.46046
G1 X128.138 Y122.967 E1.47208
G1 X127.731 Y123.171 E1.48041
G1 X127.563 Y123.246 E1.48378
G1 X126.967 Y123.469 E1.49542
G1 X126.348 Y123.614 E1.50705
G1 X125.715 Y123.681 E1.51869
G1 X125.08 Y123.669 E1.53031
G1 X124.148 Y123.502 E1.54763
G1 X123.964 Y123.451 E1.55112
G1 X123.49 Y123.287 E1.5603
G1 X123.325 Y123.444 E1.56446
G1 X122.813 Y123.821 E1.5761
G1 X122.259 Y124.132 E1.58772
G1 X121.669 Y124.371 E1.59936
G1 X121.054 Y124.534 E1.611
G1 X120.424 Y124.618 E1.62263
G1 X120.126 Y124.62 E1.62808
G1 X119.754 Y124.717 E1.63511
G1 X119.123 Y124.799 E1.64675
G1 X118.487 Y124.801 E1.65839
G1 X117.856 Y124.723 E1.67002
G1 X117.354 Y124.602 E1.67946
G1 X116.292 Y124.288 E1.69972
G1 X115.695 Y124.07 E1.71135
G1 X115.136 Y123.782 E1.72285
G1 X114.959 Y123.776 E1.72609
G1 X113.052 Y124.471 E1.76322
G1 X112.442 Y124.651 E1.77486
G1 X111.814 Y124.753 E1.78649
G1 X110.978 Y124.766 E1.80179
G1 X110.741 Y124.75 E1.80613
G1 X110.111 Y124.667 E1.81776
G1 X109.495 Y124.506 E1.82941
G1 X109.073 Y124.337 E1.83772
G1 X108.565 Y124.521 E1.8476
G1 X107.945 Y124.661 E1.85923
G1 X107.312 Y124.722 E1.87086
G1 X106.676 Y124.703 E1.8825
G1 X106.048 Y124.605 E1.89413
G1 X105.437 Y124.429 E1.90576
G1 X104.853 Y124.177 E1.9174
G1 X104.67 Y124.075 E1.92123
G1 X104.542 Y124.053 E1.92361
G1 X103.923 Y123.906 E1.93525
G1 X103.328 Y123.683 E1.94687
G1 X103.325 Y123.682 E1.94693
G1 X101.749 Y123.845 E1.97591
G1 X99.725 Y124.451 E2.01456
G1 X98.95 Y124.619 E2.02907
G1 X97.614 Y124.799 E2.05373
G1 X96.979 Y124.844 E2.06537
G1 X96.344 Y124.809 E2.07701
G1 X95.719 Y124.695 E2.08863
G1 X95.112 Y124.503 E2.10027
G1 X94.535 Y124.237 E2.1119
G1 X93.995 Y123.9 E2.12354
G1 X93.502 Y123.499 E2.13517
G1 X93.063 Y123.038 E2.14681
G1 X92.686 Y122.527 E2.15843
G1 X92.506 Y122.206 E2.16516
G1 X92.15 Y121.944 E2.17324
G1 X91.69 Y121.505 E2.18488
G1 X91.521 Y121.297 E2.18978
G1 X91.305 Y121.137 E2.1947
G1 X90.846 Y120.697 E2.20633
G1 X90.445 Y120.203 E2.21797
G1 X90.11 Y119.663 E2.22959
G1 X89.844 Y119.085 E2.24123
G1 X89.654 Y118.478 E2.25287
G1 X89.541 Y117.853 E2.26448
G1 X89.508 Y117.168 E2.27703
G1 X89.538 Y115.646 E2.30488
G1 X89.59 Y115.013 E2.3165
G1 X89.722 Y114.39 E2.32815
G1 X89.931 Y113.79 E2.33977
G1 X90.213 Y113.22 E2.3514
G1 X90.564 Y112.69 E2.36303
G1 X90.704 Y112.52 E2.36706
G0 F810 X90.804 Y112.397
G0 X91.241 Y111.902
G0 X91.691 Y111.453
M204 S5000
M205 X30 Y30
G0 F7200 X92.002 Y111.765
M204 S500
M205 X20 Y20
G1 F6000 E2.39366
G1 F900 X92.485 Y111.398 E2.40475
G1 X93.013 Y111.096 E2.41588
G1 X93.576 Y110.867 E2.427
G1 X94.164 Y110.714 E2.43811
G1 X95.04 Y110.631 E2.45421
G1 X103.679 Y110.642 E2.61224
G1 X104.061 Y110.568 E2.61936
G1 X104.648 Y110.532 E2.63012
G1 X105.821 Y110.534 E2.65158
G1 X106.427 Y110.575 E2.66269
G1 X106.698 Y110.625 E2.66773
G1 X110.726 Y110.548 E2.74143
G1 X111.89 Y110.42 E2.76285
G1 X112.668 Y110.4 E2.77709
G1 X114.119 Y110.486 E2.80368
G1 X114.722 Y110.562 E2.81479
G1 X115.053 Y110.648 E2.82105
G1 X115.879 Y110.685 E2.83618
G1 X120.805 Y110.631 E2.92629
G1 X121.411 Y110.665 E2.9374
G1 X122.009 Y110.777 E2.94853
G1 X122.586 Y110.967 E2.95964
G1 X123.133 Y111.232 E2.97076
G1 X123.641 Y111.565 E2.98187
G1 X124.1 Y111.963 E2.99298
G1 X124.504 Y112.417 E3.0041
G1 X124.844 Y112.92 E3.01521
G1 X125.101 Y113.436 E3.02575
G1 X125.484 Y113.426 E3.03276
G1 X125.688 Y113.43 E3.03649
G1 X125.918 Y113.45 E3.04071
G1 X125.957 Y113.348 E3.04271
G1 X126.248 Y112.815 E3.05382
G1 X126.607 Y112.325 E3.06493
G1 X127.028 Y111.886 E3.07606
G1 X127.502 Y111.506 E3.08717
G1 X128.022 Y111.192 E3.09829
G1 X128.578 Y110.948 E3.10939
G1 X129.162 Y110.78 E3.12051
G1 X129.763 Y110.69 E3.13163
G1 X130.127 Y110.674 E3.13829
G1 X139.934 Y110.631 E3.31769
G1 X140.54 Y110.668 E3.3288
G1 X141.137 Y110.785 E3.33993
G1 X141.712 Y110.979 E3.35103
G1 X142.258 Y111.246 E3.36215
G1 X142.763 Y111.583 E3.37325
G1 X143.221 Y111.984 E3.38439
G1 X143.467 Y112.23 E3.39075
G1 X143.867 Y112.687 E3.40186
G1 X144.204 Y113.193 E3.41298
G1 X144.472 Y113.738 E3.42409
G1 X144.666 Y114.314 E3.43521
G1 X144.783 Y114.91 E3.44632
G1 X144.82 Y115.497 E3.45708
G1 X144.82 Y116.215 E3.47022
G1 X144.78 Y116.821 E3.48133
G1 X144.661 Y117.417 E3.49244
G1 X144.465 Y117.992 E3.50356
G1 X144.194 Y118.536 E3.51468
G1 X143.855 Y119.041 E3.5258
G1 X143.453 Y119.496 E3.53691
G1 X142.994 Y119.894 E3.54802
G1 X142.487 Y120.229 E3.55914
G1 X141.691 Y120.588 E3.57511
G1 X136.689 Y122.294 E3.67179
G1 X136.103 Y122.452 E3.68289
G1 X135.71 Y122.513 E3.69017
G1 X135.163 Y122.574 E3.70024
G1 X134.556 Y122.601 E3.71135
G1 X133.951 Y122.549 E3.72246
G1 X133.573 Y122.474 E3.72951
G1 X133.188 Y122.382 E3.73675
G1 X132.816 Y122.357 E3.74357
G1 X132.22 Y122.238 E3.75469
G1 X131.645 Y122.042 E3.7658
G1 X131.456 Y121.948 E3.76966
G1 X131.418 Y121.937 E3.77039
G1 X130.733 Y121.908 E3.78293
G1 X130.129 Y121.842 E3.79404
G1 X129.539 Y121.698 E3.80515
G1 X129.173 Y121.555 E3.81234
G1 X128.796 Y121.951 E3.82234
G1 X128.323 Y122.332 E3.83345
G1 X127.551 Y122.77 E3.84969
G1 X127.383 Y122.845 E3.85305
G1 X126.813 Y123.055 E3.86417
G1 X126.221 Y123.189 E3.87527
G1 X125.616 Y123.245 E3.88639
G1 X125.009 Y123.22 E3.8975
G1 X124.266 Y123.078 E3.91134
G1 X124.082 Y123.027 E3.91483
G1 X123.508 Y122.827 E3.92595
G1 X123.394 Y122.769 E3.92829
G1 X123.33 Y122.842 E3.93006
G1 X122.873 Y123.242 E3.94117
G1 X122.367 Y123.578 E3.95229
G1 X121.821 Y123.845 E3.9634
G1 X121.245 Y124.039 E3.97452
G1 X120.648 Y124.154 E3.98564
G1 X120.042 Y124.191 E3.99675
G1 X120.032 Y124.19 E3.99693
G1 X119.643 Y124.29 E4.00428
G1 X119.04 Y124.363 E4.01539
G1 X118.432 Y124.356 E4.02652
G1 X117.831 Y124.27 E4.03762
G1 X117.479 Y124.18 E4.04427
G1 X116.417 Y123.866 E4.06453
G1 X115.847 Y123.656 E4.07564
G1 X115.309 Y123.373 E4.08676
G1 X115.271 Y123.346 E4.08761
G1 X114.89 Y123.333 E4.09459
G1 X112.901 Y124.058 E4.13331
G1 X112.318 Y124.228 E4.14442
G1 X111.717 Y124.32 E4.15554
G1 X111.008 Y124.327 E4.16851
G1 X110.771 Y124.311 E4.17286
G1 X110.169 Y124.23 E4.18397
G1 X109.582 Y124.071 E4.1951
G1 X109.066 Y123.854 E4.20534
G1 X108.812 Y123.973 E4.21047
G1 X108.232 Y124.155 E4.22159
G1 X107.634 Y124.259 E4.23269
G1 X107.026 Y124.284 E4.24382
G1 X106.421 Y124.228 E4.25494
G1 X105.829 Y124.094 E4.26604
G1 X105.259 Y123.884 E4.27715
G1 X104.821 Y123.654 E4.2862
G1 X104.616 Y123.619 E4.29001
G1 X104.025 Y123.477 E4.30113
G1 X103.458 Y123.259 E4.31224
G1 X103.406 Y123.231 E4.31332
G1 X101.667 Y123.411 E4.3453
G1 X99.599 Y124.03 E4.38479
G1 X98.891 Y124.183 E4.39804
G1 X97.555 Y124.363 E4.4227
G1 X96.949 Y124.404 E4.43381
G1 X96.342 Y124.365 E4.44494
G1 X95.746 Y124.248 E4.45605
G1 X95.171 Y124.053 E4.46715
G1 X94.626 Y123.784 E4.47827
G1 X94.121 Y123.446 E4.48939
G1 X93.665 Y123.044 E4.50051
G1 X93.265 Y122.587 E4.51162
G1 X92.929 Y122.08 E4.52274
G1 X92.847 Y121.911 E4.52618
G1 X92.412 Y121.589 E4.53608
G1 X91.976 Y121.166 E4.54719
G1 X91.818 Y120.969 E4.55181
G1 X91.548 Y120.765 E4.558
G1 X91.115 Y120.339 E4.56912
G1 X90.742 Y119.859 E4.58024
G1 X90.435 Y119.335 E4.59135
G1 X90.2 Y118.775 E4.60246
G1 X90.04 Y118.188 E4.61358
G1 X89.958 Y117.586 E4.6247
G1 X89.948 Y117.177 E4.63218
G1 X89.978 Y115.655 E4.66003
G1 X90.03 Y115.05 E4.67114
G1 X90.161 Y114.456 E4.68227
G1 X90.368 Y113.885 E4.69338
G1 X90.649 Y113.346 E4.7045
G1 X91.023 Y112.838 E4.71604
G0 F810 X91.134 Y112.688
G0 X91.571 Y112.193
G0 X92.002 Y111.765
M204 S5000
M205 X30 Y30
G0 F7200 X92.312 Y112.079
M204 S500
M205 X20 Y20
G1 F6000 E4.74263
G1 F900 X92.775 Y111.734 E4.7532
G1 X93.282 Y111.456 E4.76377
G1 X93.822 Y111.25 E4.77435
G1 X94.386 Y111.122 E4.78493
G1 X95.039 Y111.071 E4.79691
G1 X103.721 Y111.082 E4.95573
G1 X104.144 Y111.001 E4.96361
G1 X104.647 Y110.972 E4.97282
G1 X105.82 Y110.974 E4.99428
G1 X106.397 Y111.015 E5.00486
G1 X106.665 Y111.065 E5.00985
G1 X110.749 Y110.988 E5.08457
G1 X111.938 Y110.857 E5.10645
G1 X112.642 Y110.839 E5.11934
G1 X114.093 Y110.925 E5.14593
G1 X114.666 Y110.999 E5.1565
G1 X114.995 Y111.087 E5.16273
G1 X115.864 Y111.125 E5.17864
G1 X120.81 Y111.071 E5.26912
G1 X121.386 Y111.105 E5.27968
G1 X121.953 Y111.218 E5.29025
G1 X122.499 Y111.408 E5.30083
G1 X123.013 Y111.671 E5.31139
G1 X123.487 Y112.003 E5.32198
G1 X123.909 Y112.397 E5.33254
G1 X124.274 Y112.846 E5.34312
G1 X124.573 Y113.34 E5.35369
G1 X124.801 Y113.871 E5.36426
G1 X124.814 Y113.919 E5.36517
G1 X125.475 Y113.866 E5.3773
G1 X125.679 Y113.87 E5.38103
G1 X126.202 Y113.916 E5.39063
G1 X126.211 Y113.886 E5.39121
G1 X126.443 Y113.356 E5.40179
G1 X126.746 Y112.864 E5.41236
G1 X127.114 Y112.418 E5.42294
G1 X127.539 Y112.027 E5.4335
G1 X128.015 Y111.699 E5.44408
G1 X128.531 Y111.439 E5.45465
G1 X129.078 Y111.253 E5.46522
G1 X129.646 Y111.144 E5.4758
G1 X130.129 Y111.114 E5.48465
G1 X139.936 Y111.071 E5.66405
G1 X140.512 Y111.108 E5.67461
G1 X141.078 Y111.225 E5.68518
G1 X141.623 Y111.419 E5.69576
G1 X142.136 Y111.685 E5.70633
G1 X142.607 Y112.02 E5.71691
G1 X142.91 Y112.295 E5.72439
G1 X143.156 Y112.541 E5.73076
G1 X143.535 Y112.977 E5.74132
G1 X143.851 Y113.461 E5.7519
G1 X144.097 Y113.984 E5.76247
G1 X144.268 Y114.536 E5.77304
G1 X144.362 Y115.107 E5.78363
G1 X144.38 Y115.497 E5.79077
G1 X144.38 Y116.215 E5.8039
G1 X144.34 Y116.792 E5.81449
G1 X144.221 Y117.357 E5.82505
G1 X144.025 Y117.901 E5.83563
G1 X143.756 Y118.412 E5.84619
G1 X143.419 Y118.882 E5.85677
G1 X143.02 Y119.3 E5.86734
G1 X142.568 Y119.66 E5.87791
G1 X142.07 Y119.953 E5.88848
G1 X141.549 Y120.171 E5.89881
G1 X136.547 Y121.877 E5.99549
G1 X135.989 Y122.026 E6.00605
G1 X135.661 Y122.075 E6.01212
G1 X135.114 Y122.136 E6.02219
G1 X134.537 Y122.16 E6.03275
G1 X133.962 Y122.105 E6.04332
G1 X133.675 Y122.047 E6.04868
G1 X133.251 Y121.945 E6.05665
G1 X132.845 Y121.917 E6.0641
G1 X132.28 Y121.798 E6.07466
G1 X131.736 Y121.602 E6.08524
G1 X131.605 Y121.533 E6.08795
G1 X131.485 Y121.499 E6.09023
G1 X130.752 Y121.468 E6.10365
G1 X130.177 Y121.404 E6.11423
G1 X129.617 Y121.261 E6.12481
G1 X129.082 Y121.042 E6.13538
G1 X129.033 Y121.014 E6.13641
G1 X128.841 Y121.272 E6.1423
G1 X128.435 Y121.684 E6.15288
G1 X127.977 Y122.035 E6.16343
G1 X127.372 Y122.368 E6.17607
G1 X127.204 Y122.443 E6.17943
G1 X126.661 Y122.641 E6.19
G1 X126.096 Y122.763 E6.20058
G1 X125.52 Y122.806 E6.21114
G1 X124.943 Y122.769 E6.22172
G1 X124.384 Y122.654 E6.23216
G1 X124.2 Y122.603 E6.23565
G1 X123.655 Y122.411 E6.24622
G1 X123.295 Y122.225 E6.25364
G1 X123.277 Y122.25 E6.2542
G1 X122.876 Y122.667 E6.26478
G1 X122.423 Y123.025 E6.27535
G1 X121.924 Y123.317 E6.28592
G1 X121.389 Y123.537 E6.2965
G1 X120.83 Y123.681 E6.30706
G1 X120.256 Y123.747 E6.31763
G1 X120.015 Y123.741 E6.32204
G1 X119.534 Y123.863 E6.33112
G1 X118.96 Y123.927 E6.34169
G1 X118.382 Y123.91 E6.35226
G1 X117.604 Y123.758 E6.36676
G1 X116.542 Y123.444 E6.38702
G1 X116 Y123.243 E6.3976
G1 X115.492 Y122.968 E6.40816
G1 X115.429 Y122.922 E6.40959
G1 X115.405 Y122.914 E6.41005
G1 X115.398 Y122.91 E6.4102
G1 X114.819 Y122.89 E6.4208
G1 X112.75 Y123.644 E6.46108
G1 X112.195 Y123.804 E6.47165
G1 X111.623 Y123.886 E6.48222
G1 X111.037 Y123.888 E6.49294
G1 X110.8 Y123.872 E6.49729
G1 X110.228 Y123.793 E6.50785
G1 X109.672 Y123.636 E6.51842
G1 X109.089 Y123.357 E6.53024
G1 X109.001 Y123.409 E6.53211
G1 X108.467 Y123.629 E6.54267
G1 X107.907 Y123.774 E6.55326
G1 X107.333 Y123.841 E6.56383
G1 X106.756 Y123.827 E6.57439
G1 X106.185 Y123.734 E6.58497
G1 X105.633 Y123.563 E6.59554
G1 X104.966 Y123.234 E6.60915
G1 X104.964 Y123.233 E6.60919
G1 X104.691 Y123.186 E6.61425
G1 X104.129 Y123.049 E6.62484
G1 X103.592 Y122.836 E6.6354
G1 X103.491 Y122.78 E6.63752
G1 X101.575 Y122.979 E6.67275
G1 X99.473 Y123.608 E6.71289
G1 X98.832 Y123.747 E6.72489
G1 X97.496 Y123.927 E6.74955
G1 X96.919 Y123.964 E6.76013
G1 X96.343 Y123.921 E6.77069
G1 X95.778 Y123.8 E6.78126
G1 X95.235 Y123.601 E6.79184
G1 X94.725 Y123.33 E6.80241
G1 X94.257 Y122.991 E6.81298
G1 X93.84 Y122.591 E6.82355
G1 X93.483 Y122.136 E6.83413
G1 X93.191 Y121.637 E6.8447
G1 X93.178 Y121.606 E6.84532
G1 X93.139 Y121.581 E6.84617
G1 X92.676 Y121.235 E6.85674
G1 X92.265 Y120.829 E6.86731
G1 X92.122 Y120.649 E6.87151
G1 X91.793 Y120.395 E6.87912
G1 X91.388 Y119.982 E6.8897
G1 X91.044 Y119.518 E6.90026
G1 X90.768 Y119.011 E6.91082
G1 X90.563 Y118.47 E6.92141
G1 X90.436 Y117.906 E6.93198
G1 X90.388 Y117.186 E6.94518
G1 X90.418 Y115.664 E6.97303
G1 X90.469 Y115.088 E6.98361
G1 X90.599 Y114.525 E6.99418
G1 X90.806 Y113.985 E7.00476
G1 X91.085 Y113.479 E7.01533
G1 X91.333 Y113.152 E7.02284
G0 F810 X91.463 Y112.98
G0 X91.9 Y112.485
G0 X92.312 Y112.079
M204 S5000
M205 X30 Y30
G0 F7200 X92.621 Y112.394
M204 S500
M205 X20 Y20
G1 F6000 E7.04943
G1 F900 X93.063 Y112.072 E7.05944
G1 X93.548 Y111.819 E7.06944
G1 X94.064 Y111.639 E7.07944
G1 X94.601 Y111.536 E7.08944
G1 X95.039 Y111.511 E7.09747
G1 X103.757 Y111.522 E7.25695
G1 X104.226 Y111.435 E7.26567
G1 X104.646 Y111.412 E7.27337
