;FLAVOR:Marlin
;TIME:1531
;Filament used: 0.670787m
;Layer height: 0.1
;Generated with Cura_SteamEngine 3.6.0
M140 S70
M105
M190 S70
M104 S215
M105
M109 S215
M82 ;absolute extrusion mode
G28 ; home all axes
M117 Purge extruder
G92 E0 ; reset extruder
G1 Z1.0 F3000 ; move z up little to prevent scratching of surface
G1 X0.1 Y20 Z0.3 F5000.0 ; move to start-line position G1 X0.1 Y200.0 Z0.3 F1500.0 E15 ; draw 1st line
G1 X0.4 Y200.0 Z0.3 F5000.0 ; move to side a little
G1 X0.4 Y20 Z0.3 F1500.0 E30 ; draw 2nd line
G92 E0 ; reset extruder
G1 Z1.0 F3000 ; move z up little to prevent scratching of surface
M117 All systems go!
G92 E0
G1 F6000 E-5
;LAYER_COUNT:20
;LAYER:0
M107
M204 S5000
M205 X30 Y30
G0 F7200 X94.943 Y105.889 Z0.2
M204 S500
M205 X20 Y20
;TYPE:SKIRT
G1 F6000 E0
G1 F900 X96.355 Y104.678 E0.06806
G1 X97.046 Y104.18 E0.09922
G1 X98.643 Y103.222 E0.16735
G1 X99.21 Y102.929 E0.1907
G1 X100.061 Y102.555 E0.22471
G1 X100.764 Y102.306 E0.252
G1 X103.009 Y101.693 E0.33714
G1 X103.738 Y101.55 E0.36432
G1 X104.661 Y101.439 E0.39833
G1 X105.262 Y101.403 E0.42036
G1 X139.815 Y101.384 E1.68452
G1 X140.45 Y101.424 E1.7078
G1 X141.075 Y101.543 E1.73108
G1 X141.679 Y101.739 E1.75431
G1 X142.255 Y102.009 E1.77758
G1 X142.792 Y102.35 E1.80086
G1 X143.396 Y102.866 E1.82992
G1 X143.525 Y102.995 E1.8366
G1 X143.945 Y103.472 E1.85985
G1 X144.303 Y103.998 E1.88313
G1 X144.591 Y104.565 E1.90639
G1 X144.807 Y105.163 E1.92966
G1 X144.945 Y105.784 E1.95293
G1 X145.007 Y106.573 E1.98189
G1 X145.007 Y128.427 E2.78144
G1 X144.967 Y129.062 E2.80472
G1 X144.848 Y129.686 E2.82796
G1 X144.651 Y130.291 E2.85124
G1 X144.38 Y130.866 E2.87449
G1 X144.039 Y131.403 E2.89777
G1 X143.525 Y132.005 E2.92673
G1 X143.396 Y132.134 E2.9334
G1 X142.919 Y132.554 E2.95666
G1 X142.393 Y132.912 E2.97993
G1 X141.826 Y133.2 E3.0032
G1 X141.228 Y133.416 E3.02646
G1 X140.607 Y133.554 E3.04974
G1 X139.82 Y133.616 E3.07862
G1 X106.197 Y133.629 E4.30876
G1 X105.912 Y133.621 E4.31919
G1 X104.522 Y133.543 E4.37012
G1 X103.784 Y133.447 E4.39735
G1 X101.963 Y133.072 E4.46537
G1 X101.246 Y132.868 E4.49264
G1 X99.936 Y132.389 E4.54368
G1 X99.349 Y132.131 E4.56713
G1 X98.1 Y131.485 E4.61858
G1 X97.558 Y131.161 E4.64168
G1 X96.406 Y130.369 E4.69283
G1 X95.896 Y129.967 E4.71659
G1 X94.857 Y129.036 E4.76763
G1 X94.343 Y128.503 E4.79472
G1 X93.153 Y127.072 E4.86281
G1 X92.72 Y126.465 E4.89009
G1 X91.995 Y125.272 E4.94117
G1 X91.702 Y124.714 E4.96423
G1 X91.134 Y123.447 E5.01503
G1 X90.879 Y122.742 E5.04245
G1 X90.375 Y120.943 E5.11081
G1 X90.227 Y120.212 E5.13809
G1 X90.053 Y118.835 E5.18887
G1 X90.014 Y118.31 E5.20813
G1 X89.994 Y117.378 E5.24224
G1 X90.021 Y116.739 E5.26564
G1 X90.216 Y114.887 E5.33377
G1 X90.324 Y114.252 E5.35734
G1 X90.54 Y113.339 E5.39166
G1 X90.725 Y112.731 E5.41491
G1 X91.374 Y110.996 E5.48269
G1 X91.737 Y110.229 E5.51373
G1 X92.671 Y108.62 E5.5818
G1 X93.158 Y107.923 E5.61291
G1 X94.348 Y106.493 E5.68097
G1 X94.433 Y106.407 E5.68539
G0 F810 X94.943 Y105.889
M204 S5000
M205 X30 Y30
G0 F7200 X95.229 Y106.223
M204 S500
M205 X20 Y20
G1 F6000 E5.71199
G1 F900 X96.641 Y105.012 E5.78005
G1 X97.272 Y104.557 E5.80851
G1 X98.869 Y103.599 E5.87665
G1 X99.387 Y103.331 E5.89798
G1 X100.238 Y102.957 E5.93199
G1 X100.88 Y102.73 E5.95691
G1 X103.125 Y102.117 E6.04205
G1 X103.79 Y101.987 E6.06684
G1 X104.713 Y101.876 E6.10085
G1 X105.262 Y101.843 E6.12097
G1 X139.815 Y101.824 E7.38514
G1 X140.422 Y101.864 E7.40739
G1 X141.018 Y101.982 E7.42962
G1 X141.593 Y102.178 E7.45185
G1 X142.137 Y102.448 E7.47406
G1 X142.642 Y102.787 E7.49632
G1 X143.085 Y103.177 E7.51791
G1 X143.214 Y103.306 E7.52459
G1 X143.614 Y103.763 E7.54681
G1 X143.951 Y104.269 E7.56905
G1 X144.219 Y104.814 E7.59127
G1 X144.413 Y105.39 E7.6135
G1 X144.53 Y105.986 E7.63573
G1 X144.567 Y106.573 E7.65724
G1 X144.567 Y128.427 E8.4568
G1 X144.527 Y129.033 E8.47902
G1 X144.408 Y129.629 E8.50125
G1 X144.212 Y130.204 E8.52348
G1 X143.941 Y130.748 E8.54572
G1 X143.602 Y131.253 E8.56797
G1 X143.214 Y131.694 E8.58946
G1 X143.085 Y131.823 E8.59613
G1 X142.628 Y132.223 E8.61835
G1 X142.122 Y132.56 E8.6406
G1 X141.577 Y132.828 E8.66282
G1 X141.001 Y133.022 E8.68505
G1 X140.405 Y133.139 E8.70727
G1 X139.82 Y133.176 E8.72872
G1 X106.197 Y133.189 E9.95886
G1 X105.936 Y133.182 E9.96841
G1 X104.546 Y133.104 E10.01934
G1 X103.873 Y133.016 E10.04417
G1 X102.052 Y132.641 E10.1122
G1 X101.397 Y132.455 E10.13711
G1 X100.087 Y131.976 E10.18814
G1 X99.552 Y131.741 E10.20952
G1 X98.303 Y131.095 E10.26096
G1 X97.808 Y130.798 E10.28208
G1 X96.656 Y130.006 E10.33323
G1 X96.19 Y129.64 E10.35491
G1 X95.151 Y128.709 E10.40595
G1 X94.682 Y128.222 E10.43069
G1 X93.492 Y126.791 E10.49878
G1 X93.096 Y126.236 E10.52372
G1 X92.371 Y125.043 E10.5748
G1 X92.103 Y124.534 E10.59584
G1 X91.535 Y123.267 E10.64664
G1 X91.302 Y122.623 E10.6717
G1 X90.798 Y120.824 E10.74005
G1 X90.663 Y120.157 E10.76495
G1 X90.489 Y118.78 E10.81573
G1 X90.454 Y118.3 E10.83334
G1 X90.434 Y117.368 E10.86744
G1 X90.458 Y116.785 E10.88879
G1 X90.653 Y114.933 E10.95692
G1 X90.752 Y114.353 E10.97845
G1 X90.968 Y113.44 E11.01278
G1 X91.137 Y112.885 E11.034
G1 X91.786 Y111.15 E11.10177
G1 X92.117 Y110.45 E11.1301
G1 X93.051 Y108.841 E11.19817
G1 X93.496 Y108.205 E11.22657
G1 X94.686 Y106.775 E11.29463
G1 X94.719 Y106.741 E11.29637
G0 F810 X95.229 Y106.223
M204 S5000
M205 X30 Y30
G0 F7200 X95.516 Y106.557
M204 S500
M205 X20 Y20
G1 F6000 E11.32296
G1 F900 X96.928 Y105.346 E11.39102
G1 X97.499 Y104.934 E11.41678
G1 X99.096 Y103.976 E11.48492
G1 X99.564 Y103.734 E11.50419
G1 X100.415 Y103.36 E11.5382
G1 X100.996 Y103.155 E11.56074
G1 X103.241 Y102.542 E11.64589
G1 X103.843 Y102.424 E11.66833
G1 X104.766 Y102.313 E11.70234
G1 X105.263 Y102.283 E11.72056
G1 X139.816 Y102.264 E12.98472
G1 X140.392 Y102.304 E13.00584
G1 X140.958 Y102.422 E13.027
G1 X141.502 Y102.618 E13.04815
G1 X142.013 Y102.887 E13.06928
G1 X142.483 Y103.224 E13.09044
G1 X142.774 Y103.488 E13.10481
G1 X142.903 Y103.617 E13.11149
G1 X143.282 Y104.053 E13.13262
G1 X143.598 Y104.537 E13.15377
G1 X143.844 Y105.06 E13.17492
G1 X144.015 Y105.612 E13.19606
G1 X144.109 Y106.183 E13.21723
G1 X144.127 Y106.573 E13.23152
G1 X144.127 Y128.427 E14.03107
G1 X144.087 Y129.004 E14.05223
G1 X143.968 Y129.569 E14.07336
G1 X143.772 Y130.113 E14.09451
G1 X143.503 Y130.624 E14.11564
G1 X143.166 Y131.094 E14.1368
G1 X142.903 Y131.383 E14.15109
G1 X142.774 Y131.512 E14.15777
G1 X142.338 Y131.891 E14.1789
G1 X141.854 Y132.207 E14.20005
G1 X141.331 Y132.453 E14.2212
G1 X140.779 Y132.624 E14.24234
G1 X140.208 Y132.718 E14.26351
G1 X139.82 Y132.736 E14.27772
G1 X106.197 Y132.749 E15.50786
G1 X105.961 Y132.742 E15.5165
G1 X104.571 Y132.664 E15.56743
G1 X103.962 Y132.585 E15.5899
G1 X102.141 Y132.21 E15.65792
G1 X101.549 Y132.042 E15.68043
G1 X100.239 Y131.563 E15.73147
G1 X99.754 Y131.35 E15.75085
G1 X98.505 Y130.704 E15.80229
G1 X98.057 Y130.435 E15.82141
G1 X96.905 Y129.643 E15.87256
G1 X96.484 Y129.312 E15.89215
G1 X95.445 Y128.381 E15.94319
G1 X95.02 Y127.941 E15.96557
G1 X93.83 Y126.51 E16.03366
G1 X93.472 Y126.008 E16.05622
G1 X92.747 Y124.815 E16.1073
G1 X92.505 Y124.354 E16.12635
G1 X91.937 Y123.087 E16.17715
G1 X91.726 Y122.505 E16.1998
G1 X91.222 Y120.706 E16.26815
G1 X91.1 Y120.102 E16.29069
G1 X90.926 Y118.725 E16.34147
G1 X90.894 Y118.291 E16.35739
G1 X90.874 Y117.359 E16.3915
G1 X90.896 Y116.831 E16.41083
G1 X91.091 Y114.979 E16.47897
G1 X91.18 Y114.455 E16.49841
G1 X91.396 Y113.542 E16.53274
G1 X91.549 Y113.04 E16.55194
G1 X92.198 Y111.305 E16.61971
G1 X92.498 Y110.671 E16.64537
G1 X93.432 Y109.062 E16.71344
G1 X93.834 Y108.486 E16.73914
G1 X95.007 Y107.076 E16.80624
G0 F810 X95.024 Y107.056
G0 X95.516 Y106.557
M204 S5000
M205 X30 Y30
G0 F7200 X95.802 Y106.891
M204 S500
M205 X20 Y20
G1 F6000 E16.83284
G1 F900 X97.214 Y105.68 E16.9009
G1 X97.725 Y105.312 E16.92393
G1 X99.322 Y104.354 E16.99207
G1 X99.741 Y104.137 E17.00933
G1 X100.592 Y103.763 E17.04334
G1 X101.112 Y103.579 E17.06352
G1 X103.357 Y102.966 E17.14866
G1 X103.895 Y102.861 E17.16872
G1 X104.818 Y102.75 E17.20273
G1 X105.263 Y102.723 E17.21904
G1 X139.816 Y102.704 E18.4832
G1 X140.361 Y102.744 E18.5032
G1 X140.895 Y102.862 E18.52321
G1 X141.405 Y103.058 E18.54319
G1 X141.882 Y103.325 E18.56319
G1 X142.463 Y103.799 E18.59063
G1 X142.592 Y103.928 E18.5973
G1 X142.949 Y104.342 E18.6173
G1 X143.242 Y104.804 E18.63732
G1 X143.465 Y105.303 E18.65731
G1 X143.612 Y105.829 E18.6773
G1 X143.687 Y106.573 E18.70465
G1 X143.687 Y128.427 E19.50421
G1 X143.647 Y128.972 E19.5242
G1 X143.528 Y129.506 E19.54422
G1 X143.333 Y130.016 E19.56419
G1 X143.065 Y130.493 E19.58421
G1 X142.592 Y131.072 E19.61156
G1 X142.463 Y131.201 E19.61824
G1 X142.049 Y131.558 E19.63824
G1 X141.587 Y131.851 E19.65825
G1 X141.088 Y132.074 E19.67825
G1 X140.562 Y132.221 E19.69823
G1 X139.819 Y132.296 E19.72555
G1 X106.196 Y132.309 E20.95569
G1 X105.985 Y132.303 E20.96341
G1 X104.595 Y132.225 E21.01435
G1 X104.051 Y132.154 E21.03442
G1 X102.23 Y131.779 E21.10244
G1 X101.7 Y131.629 E21.12259
G1 X100.39 Y131.15 E21.17363
G1 X99.956 Y130.959 E21.19097
G1 X98.707 Y130.313 E21.24242
G1 X98.306 Y130.073 E21.25952
G1 X97.154 Y129.281 E21.31066
G1 X96.777 Y128.984 E21.32822
G1 X95.738 Y128.053 E21.37926
G1 X95.358 Y127.659 E21.39929
G1 X94.168 Y126.228 E21.46738
G1 X93.848 Y125.779 E21.48756
G1 X93.123 Y124.586 E21.53863
G1 X92.906 Y124.174 E21.55567
G1 X92.338 Y122.907 E21.60647
G1 X92.15 Y122.386 E21.62673
G1 X91.646 Y120.587 E21.69508
G1 X91.537 Y120.047 E21.71524
G1 X91.363 Y118.67 E21.76602
G1 X91.334 Y118.281 E21.78029
G1 X91.314 Y117.349 E21.8144
G1 X91.334 Y116.877 E21.83168
G1 X91.529 Y115.025 E21.89981
G1 X91.608 Y114.556 E21.91721
G1 X91.824 Y113.643 E21.95154
G1 X91.961 Y113.194 E21.96871
G1 X92.61 Y111.459 E22.03649
G1 X92.878 Y110.891 E22.05946
G1 X93.812 Y109.282 E22.12753
G1 X94.172 Y108.768 E22.15049
G1 X95.299 Y107.414 E22.21494
G0 F810 X95.362 Y107.338
G0 X95.802 Y106.891
M204 S5000
M205 X30 Y30
G0 F7200 X96.089 Y107.225
M204 S500
M205 X20 Y20
G1 F6000 E22.24154
G1 F900 X97.501 Y106.014 E22.3096
G1 X97.951 Y105.689 E22.3299
G1 X99.548 Y104.731 E22.39804
G1 X99.918 Y104.54 E22.41327
G1 X100.769 Y104.166 E22.44728
G1 X101.228 Y104.004 E22.46509
G1 X103.473 Y103.391 E22.55023
G1 X103.948 Y103.298 E22.56794
G1 X104.871 Y103.187 E22.60195
G1 X105.263 Y103.163 E22.61632
G1 X139.816 Y103.144 E23.88048
G1 X140.328 Y103.184 E23.89927
G1 X140.828 Y103.302 E23.91807
G1 X141.303 Y103.497 E23.93685
G1 X141.742 Y103.763 E23.95563
G1 X142.151 Y104.111 E23.97528
G1 X142.28 Y104.24 E23.98196
G1 X142.614 Y104.63 E24.00074
G1 X142.883 Y105.067 E24.01952
G1 X143.081 Y105.541 E24.03831
G1 X143.204 Y106.039 E24.05708
G1 X143.247 Y106.573 E24.07668
G1 X143.247 Y128.427 E24.87623
G1 X143.207 Y128.939 E24.89502
G1 X143.088 Y129.438 E24.91379
G1 X142.893 Y129.913 E24.93258
G1 X142.627 Y130.352 E24.95136
G1 X142.28 Y130.76 E24.97095
G1 X142.151 Y130.889 E24.97763
G1 X141.761 Y131.223 E24.99641
G1 X141.324 Y131.492 E25.01519
G1 X140.85 Y131.69 E25.03398
G1 X140.352 Y131.813 E25.05275
G1 X139.819 Y131.856 E25.07231
G1 X106.196 Y131.869 E26.30245
G1 X106.01 Y131.864 E26.30926
G1 X104.62 Y131.786 E26.36019
G1 X104.139 Y131.723 E26.37794
G1 X102.318 Y131.348 E26.44596
G1 X101.851 Y131.215 E26.46372
G1 X100.541 Y130.736 E26.51476
G1 X100.158 Y130.568 E26.53006
G1 X98.909 Y129.922 E26.5815
G1 X98.555 Y129.71 E26.5966
G1 X97.403 Y128.918 E26.64775
G1 X97.071 Y128.657 E26.6632
G1 X96.032 Y127.726 E26.71424
G1 X95.697 Y127.378 E26.73191
G1 X94.507 Y125.947 E26.8
G1 X94.224 Y125.551 E26.81781
G1 X93.499 Y124.358 E26.86889
G1 X93.308 Y123.994 E26.88393
G1 X92.74 Y122.727 E26.93472
G1 X92.573 Y122.267 E26.95263
G1 X92.069 Y120.468 E27.02098
G1 X91.973 Y119.992 E27.03875
G1 X91.799 Y118.615 E27.08953
G1 X91.774 Y118.272 E27.10211
G1 X91.754 Y117.34 E27.13622
G1 X91.771 Y116.923 E27.15148
G1 X91.966 Y115.071 E27.21962
G1 X92.037 Y114.657 E27.23498
G1 X92.253 Y113.744 E27.26931
G1 X92.373 Y113.348 E27.28445
G1 X93.022 Y111.613 E27.35222
G1 X93.259 Y111.112 E27.3725
G1 X94.193 Y109.503 E27.44056
G1 X94.51 Y109.049 E27.46082
G1 X95.589 Y107.752 E27.52255
G0 F810 X95.7 Y107.619
G0 X96.089 Y107.225
M204 S5000
M205 X30 Y30
G0 F7200 X96.375 Y107.559
M204 S500
M205 X20 Y20
G1 F6000 E27.54915
G1 F900 X97.787 Y106.348 E27.6172
G1 X98.178 Y106.066 E27.63484
G1 X99.775 Y105.108 E27.70298
G1 X100.095 Y104.943 E27.71615
G1 X100.946 Y104.569 E27.75016
G1 X101.344 Y104.428 E27.76561
G1 X103.589 Y103.815 E27.85075
G1 X104.001 Y103.734 E27.86611
G1 X104.924 Y103.623 E27.90012
G1 X105.263 Y103.603 E27.91255
G1 X139.816 Y103.584 E29.17671
G1 X140.293 Y103.624 E29.19422
G1 X140.756 Y103.742 E29.2117
G1 X141.193 Y103.936 E29.22919
G1 X141.591 Y104.2 E29.24667
G1 X141.84 Y104.422 E29.25887
G1 X141.969 Y104.551 E29.26555
G1 X142.278 Y104.916 E29.28304
G1 X142.521 Y105.327 E29.30051
G1 X142.693 Y105.773 E29.318
G1 X142.788 Y106.241 E29.33547
G1 X142.807 Y106.573 E29.34764
G1 X142.807 Y128.427 E30.14719
G1 X142.767 Y128.903 E30.16467
G1 X142.648 Y129.366 E30.18216
G1 X142.454 Y129.803 E30.19965
G1 X142.19 Y130.201 E30.21713
G1 X141.969 Y130.449 E30.22928
G1 X141.84 Y130.578 E30.23595
G1 X141.475 Y130.887 E30.25345
G1 X141.064 Y131.13 E30.27092
G1 X140.618 Y131.302 E30.28841
G1 X140.15 Y131.397 E30.30588
G1 X139.819 Y131.416 E30.31801
G1 X106.196 Y131.429 E31.54815
G1 X106.035 Y131.425 E31.55404
G1 X104.645 Y131.347 E31.60497
G1 X104.228 Y131.292 E31.62036
G1 X102.407 Y130.917 E31.68838
G1 X102.002 Y130.802 E31.70379
G1 X100.692 Y130.323 E31.75482
G1 X100.36 Y130.177 E31.76809
G1 X99.111 Y129.531 E31.81953
G1 X98.805 Y129.348 E31.83258
G1 X97.653 Y128.556 E31.88372
G1 X97.364 Y128.329 E31.89717
G1 X96.325 Y127.398 E31.94821
G1 X96.035 Y127.097 E31.9635
G1 X94.845 Y125.666 E32.03159
G1 X94.6 Y125.322 E32.04705
G1 X93.875 Y124.129 E32.09812
G1 X93.709 Y123.814 E32.11115
G1 X93.141 Y122.547 E32.16195
G1 X92.997 Y122.149 E32.17743
G1 X92.493 Y120.35 E32.24579
G1 X92.41 Y119.937 E32.2612
G1 X92.236 Y118.56 E32.31198
G1 X92.214 Y118.262 E32.32291
G1 X92.194 Y117.33 E32.35702
G1 X92.209 Y116.97 E32.3702
G1 X92.404 Y115.118 E32.43833
G1 X92.465 Y114.759 E32.45165
G1 X92.681 Y113.846 E32.48598
G1 X92.785 Y113.502 E32.49913
G1 X93.434 Y111.767 E32.5669
G1 X93.64 Y111.333 E32.58448
G1 X94.574 Y109.724 E32.65254
G1 X94.849 Y109.331 E32.67009
G1 X95.881 Y108.091 E32.72911
G0 F810 X96.039 Y107.901
G0 X96.375 Y107.559
M204 S5000
M205 X30 Y30
G0 F7200 X96.662 Y107.893
M204 S500
M205 X20 Y20
G1 F6000 E32.75571
G1 F900 X98.074 Y106.682 E32.82377
G1 X98.404 Y106.444 E32.83865
G1 X100.001 Y105.486 E32.90679
G1 X100.272 Y105.346 E32.91795
G1 X101.123 Y104.972 E32.95196
G1 X101.46 Y104.852 E32.96505
G1 X103.705 Y104.239 E33.05019
G1 X104.053 Y104.171 E33.06316
G1 X104.976 Y104.06 E33.09717
G1 X105.264 Y104.043 E33.10773
G1 X139.817 Y104.024 E34.37189
G1 X140.254 Y104.064 E34.38794
G1 X140.678 Y104.182 E34.40405
G1 X141.073 Y104.375 E34.42013
G1 X141.529 Y104.733 E34.44134
G1 X141.658 Y104.862 E34.44802
G1 X141.939 Y105.2 E34.4641
G1 X142.155 Y105.583 E34.48018
G1 X142.298 Y105.998 E34.49624
G1 X142.367 Y106.573 E34.51743
G1 X142.367 Y128.427 E35.31699
G1 X142.327 Y128.865 E35.33308
G1 X142.209 Y129.288 E35.34914
G1 X142.016 Y129.683 E35.36523
G1 X141.658 Y130.138 E35.38641
G1 X141.529 Y130.267 E35.39308
G1 X141.191 Y130.548 E35.40917
G1 X140.808 Y130.764 E35.42525
G1 X140.393 Y130.907 E35.44131
G1 X139.819 Y130.976 E35.46246
G1 X106.196 Y130.989 E36.6926
G1 X106.059 Y130.985 E36.69762
G1 X104.669 Y130.907 E36.74855
G1 X104.317 Y130.861 E36.76154
G1 X102.496 Y130.486 E36.82956
G1 X102.153 Y130.389 E36.8426
G1 X100.843 Y129.91 E36.89363
G1 X100.562 Y129.787 E36.90485
G1 X99.313 Y129.141 E36.9563
G1 X99.054 Y128.985 E36.96736
G1 X97.902 Y128.193 E37.01851
G1 X97.658 Y128.001 E37.02987
G1 X96.619 Y127.07 E37.08091
G1 X96.373 Y126.815 E37.09387
G1 X95.183 Y125.384 E37.16196
G1 X94.976 Y125.094 E37.175
G1 X94.251 Y123.901 E37.22608
G1 X94.111 Y123.634 E37.23711
G1 X93.543 Y122.367 E37.28791
G1 X93.421 Y122.03 E37.30102
G1 X92.917 Y120.231 E37.36937
