;FLAVOR:Marlin
;TIME:1916
;Filament used: 1.39245m
;Layer height: 0.16
;Generated with Cura_SteamEngine 3.6.0
M140 S70
M105
M190 S70
M104 S215
M105
M109 S215
M82 ;absolute extrusion mode
G28 ; home all axes
M117 Purge extruder
G92 E0 ; reset extruder
G1 Z1.0 F3000 ; move z up little to prevent scratching of surface
G1 X0.1 Y20 Z0.3 F5000.0 ; move to start-line position G1 X0.1 Y200.0 Z0.3 F1500.0 E15 ; draw 1st line
G1 X0.4 Y200.0 Z0.3 F5000.0 ; move to side a little
G1 X0.4 Y20 Z0.3 F1500.0 E30 ; draw 2nd line
G92 E0 ; reset extruder
G1 Z1.0 F3000 ; move z up little to prevent scratching of surface
M117 All systems go!
G92 E0
G1 F6000 E-5
;LAYER_COUNT:125
;LAYER:0
M107
M204 S5000
M205 X30 Y30
G0 F7200 X103.813 Y104.034 Z0.2
M204 S500
M205 X20 Y20
;TYPE:SKIRT
G1 F6000 E0
G1 F900 X104.277 Y103.599 E0.02327
G1 X104.792 Y103.226 E0.04653
G1 X105.35 Y102.92 E0.06982
G1 X105.941 Y102.686 E0.09307
G1 X106.557 Y102.529 E0.11633
G1 X107.5 Y102.44 E0.15098
G1 X127.5 Y102.44 E0.88271
G1 X128.135 Y102.48 E0.90599
G1 X128.759 Y102.599 E0.92923
G1 X129.364 Y102.796 E0.95251
G1 X129.939 Y103.067 E0.97576
G1 X130.476 Y103.408 E0.99904
G1 X130.966 Y103.813 E1.02229
G1 X131.401 Y104.277 E1.04556
G1 X131.774 Y104.792 E1.06883
G1 X132.08 Y105.35 E1.09211
G1 X132.314 Y105.941 E1.11537
G1 X132.471 Y106.557 E1.13862
G1 X132.56 Y107.5 E1.17328
G1 X132.56 Y127.5 E1.905
G1 X132.52 Y128.135 E1.92828
G1 X132.401 Y128.759 E1.95152
G1 X132.204 Y129.364 E1.9748
G1 X131.933 Y129.939 E1.99806
G1 X131.592 Y130.476 E2.02133
G1 X131.187 Y130.966 E2.04459
G1 X130.723 Y131.401 E2.06786
G1 X130.208 Y131.774 E2.09112
G1 X129.65 Y132.08 E2.1144
G1 X129.059 Y132.314 E2.13766
G1 X128.443 Y132.471 E2.16092
G1 X127.5 Y132.56 E2.19557
G1 X107.5 Y132.56 E2.92729
G1 X106.865 Y132.52 E2.95057
G1 X106.241 Y132.401 E2.97381
G1 X105.636 Y132.204 E2.99709
G1 X105.061 Y131.933 E3.02035
G1 X104.524 Y131.592 E3.04362
G1 X104.034 Y131.187 E3.06688
G1 X103.599 Y130.723 E3.09015
G1 X103.226 Y130.208 E3.11341
G1 X102.92 Y129.65 E3.1367
G1 X102.686 Y129.059 E3.15995
G1 X102.529 Y128.443 E3.18321
G1 X102.44 Y127.5 E3.21786
G1 X102.44 Y107.5 E3.94959
G1 X102.48 Y106.865 E3.97287
G1 X102.599 Y106.241 E3.99611
G1 X102.796 Y105.636 E4.01939
G1 X103.067 Y105.061 E4.04264
G1 X103.408 Y104.524 E4.06592
G1 X103.813 Y104.034 E4.08917
M204 S5000
M205 X30 Y30
G0 F7200 X104.247 Y104.219
M204 S500
M205 X20 Y20
G1 F900 X104.706 Y103.821 E4.1114
G1 X105.213 Y103.486 E4.13363
G1 X105.759 Y103.22 E4.15585
G1 X106.336 Y103.029 E4.17809
G1 X106.933 Y102.915 E4.20033
G1 X107.5 Y102.88 E4.22111
G1 X127.5 Y102.88 E4.95283
G1 X128.106 Y102.92 E4.97505
G1 X128.702 Y103.039 E4.99729
G1 X129.277 Y103.235 E5.01951
G1 X129.821 Y103.506 E5.04175
G1 X130.326 Y103.845 E5.064
G1 X130.781 Y104.247 E5.08622
G1 X131.179 Y104.706 E5.10844
G1 X131.514 Y105.213 E5.13068
G1 X131.78 Y105.759 E5.1529
G1 X131.971 Y106.336 E5.17513
G1 X132.085 Y106.933 E5.19737
G1 X132.12 Y107.5 E5.21815
G1 X132.12 Y127.5 E5.94988
G1 X132.08 Y128.106 E5.9721
G1 X131.961 Y128.702 E5.99433
G1 X131.765 Y129.277 E6.01656
G1 X131.494 Y129.821 E6.03879
G1 X131.155 Y130.326 E6.06105
G1 X130.753 Y130.781 E6.08326
G1 X130.294 Y131.179 E6.10549
G1 X129.787 Y131.514 E6.12772
G1 X129.241 Y131.78 E6.14994
G1 X128.664 Y131.971 E6.17218
G1 X128.067 Y132.085 E6.19441
G1 X127.5 Y132.12 E6.2152
G1 X107.5 Y132.12 E6.94692
G1 X106.894 Y132.08 E6.96914
G1 X106.298 Y131.961 E6.99137
G1 X105.723 Y131.765 E7.0136
G1 X105.179 Y131.494 E7.03584
G1 X104.674 Y131.155 E7.05809
G1 X104.219 Y130.753 E7.0803
G1 X103.821 Y130.294 E7.10253
G1 X103.486 Y129.787 E7.12476
G1 X103.22 Y129.241 E7.14698
G1 X103.029 Y128.664 E7.16922
G1 X102.915 Y128.067 E7.19146
G1 X102.88 Y127.5 E7.21224
G1 X102.88 Y107.5 E7.94396
G1 X102.92 Y106.894 E7.96618
G1 X103.039 Y106.298 E7.98842
G1 X103.235 Y105.723 E8.01064
G1 X103.506 Y105.179 E8.03288
G1 X103.845 Y104.674 E8.05513
G1 X104.247 Y104.219 E8.07734
M204 S5000
M205 X30 Y30
G0 F7200 X104.281 Y104.833
M204 S500
M205 X20 Y20
G1 F900 X104.68 Y104.415 E8.09849
G1 X105.132 Y104.055 E8.11963
G1 X105.63 Y103.762 E8.14077
G1 X106.163 Y103.539 E8.16191
G1 X106.723 Y103.393 E8.18308
G1 X107.5 Y103.32 E8.21163
G1 X127.5 Y103.32 E8.94335
G1 X128.077 Y103.36 E8.96452
G1 X128.642 Y103.479 E8.98564
G1 X129.186 Y103.675 E9.0068
G1 X129.697 Y103.944 E9.02792
G1 X130.167 Y104.281 E9.04908
G1 X130.585 Y104.68 E9.07022
G1 X130.945 Y105.132 E9.09136
G1 X131.238 Y105.63 E9.1125
G1 X131.461 Y106.163 E9.13364
G1 X131.607 Y106.723 E9.15482
G1 X131.68 Y107.5 E9.18337
G1 X131.68 Y127.5 E9.91509
G1 X131.64 Y128.077 E9.93625
G1 X131.521 Y128.642 E9.95738
G1 X131.325 Y129.186 E9.97853
G1 X131.056 Y129.697 E9.99966
G1 X130.719 Y130.167 E10.02082
G1 X130.32 Y130.585 E10.04196
G1 X129.868 Y130.945 E10.0631
G1 X129.37 Y131.238 E10.08424
G1 X128.837 Y131.461 E10.10538
G1 X128.277 Y131.607 E10.12655
G1 X127.5 Y131.68 E10.15511
G1 X107.5 Y131.68 E10.88683
G1 X106.923 Y131.64 E10.90799
G1 X106.358 Y131.521 E10.92911
G1 X105.814 Y131.325 E10.95027
G1 X105.303 Y131.056 E10.9714
G1 X104.833 Y130.719 E10.99256
G1 X104.415 Y130.32 E11.0137
G1 X104.055 Y129.868 E11.03484
G1 X103.762 Y129.37 E11.05598
G1 X103.539 Y128.837 E11.07712
G1 X103.393 Y128.277 E11.09829
G1 X103.32 Y127.5 E11.12684
G1 X103.32 Y107.5 E11.85857
G1 X103.36 Y106.923 E11.87973
G1 X103.479 Y106.358 E11.90085
G1 X103.675 Y105.814 E11.92201
G1 X103.944 Y105.303 E11.94313
G1 X104.281 Y104.833 E11.96429
M204 S5000
M205 X30 Y30
G0 F7200 X104.717 Y105.002
M204 S500
M205 X20 Y20
G1 F900 X105.11 Y104.623 E11.98427
G1 X105.555 Y104.305 E12.00428
G1 X106.042 Y104.056 E12.02429
G1 X106.559 Y103.88 E12.04427
G1 X107.097 Y103.782 E12.06428
G1 X107.5 Y103.76 E12.07904
G1 X127.5 Y103.76 E12.81077
G1 X128.045 Y103.8 E12.83076
G1 X128.579 Y103.919 E12.85078
G1 X129.089 Y104.114 E12.87075
G1 X129.566 Y104.382 E12.89077
G1 X129.998 Y104.717 E12.91077
G1 X130.377 Y105.11 E12.93075
G1 X130.695 Y105.555 E12.95076
G1 X130.944 Y106.042 E12.97077
G1 X131.12 Y106.559 E12.99075
G1 X131.218 Y107.097 E13.01076
G1 X131.24 Y107.5 E13.02552
G1 X131.24 Y127.5 E13.75725
G1 X131.2 Y128.045 E13.77724
G1 X131.081 Y128.579 E13.79725
G1 X130.886 Y129.089 E13.81723
G1 X130.618 Y129.566 E13.83725
G1 X130.283 Y129.998 E13.85725
G1 X129.89 Y130.377 E13.87722
G1 X129.445 Y130.695 E13.89723
G1 X128.958 Y130.944 E13.91725
G1 X128.441 Y131.12 E13.93723
G1 X127.903 Y131.218 E13.95723
G1 X127.5 Y131.24 E13.972
G1 X107.5 Y131.24 E14.70372
G1 X106.955 Y131.2 E14.72372
G1 X106.421 Y131.081 E14.74373
G1 X105.911 Y130.886 E14.76371
G1 X105.434 Y130.618 E14.78373
G1 X105.002 Y130.283 E14.80373
G1 X104.623 Y129.89 E14.8237
G1 X104.305 Y129.445 E14.84371
G1 X104.056 Y128.958 E14.86372
G1 X103.88 Y128.441 E14.88371
G1 X103.782 Y127.903 E14.90371
G1 X103.76 Y127.5 E14.91848
G1 X103.76 Y107.5 E15.6502
G1 X103.8 Y106.955 E15.67019
G1 X103.919 Y106.421 E15.69021
G1 X104.114 Y105.911 E15.71019
G1 X104.382 Y105.434 E15.73021
G1 X104.717 Y105.002 E15.75021
M204 S5000
M205 X30 Y30
G0 F7200 X105.151 Y105.182
M204 S500
M205 X20 Y20
G1 F900 X105.539 Y104.846 E15.76898
G1 X105.974 Y104.574 E15.78775
G1 X106.447 Y104.373 E15.80656
G1 X106.944 Y104.247 E15.82532
G1 X107.5 Y104.2 E15.84573
G1 X127.5 Y104.2 E16.57745
G1 X128.012 Y104.24 E16.59624
G1 X128.511 Y104.359 E16.61501
G1 X128.986 Y104.554 E16.6338
G1 X129.425 Y104.82 E16.65258
G1 X129.818 Y105.151 E16.67137
G1 X130.154 Y105.539 E16.69015
G1 X130.426 Y105.974 E16.70892
G1 X130.627 Y106.447 E16.72773
G1 X130.753 Y106.944 E16.74648
G1 X130.8 Y107.5 E16.7669
G1 X130.8 Y127.5 E17.49862
G1 X130.76 Y128.012 E17.51741
G1 X130.641 Y128.511 E17.53618
G1 X130.446 Y128.986 E17.55497
G1 X130.18 Y129.425 E17.57375
G1 X129.849 Y129.818 E17.59254
G1 X129.461 Y130.154 E17.61132
G1 X129.026 Y130.426 E17.63009
G1 X128.553 Y130.627 E17.6489
G1 X128.056 Y130.753 E17.66765
G1 X127.5 Y130.8 E17.68807
G1 X107.5 Y130.8 E18.41979
G1 X106.988 Y130.76 E18.43858
G1 X106.489 Y130.641 E18.45735
G1 X106.014 Y130.446 E18.47613
G1 X105.575 Y130.18 E18.49491
G1 X105.182 Y129.849 E18.51371
G1 X104.846 Y129.461 E18.53249
G1 X104.574 Y129.026 E18.55126
G1 X104.373 Y128.553 E18.57006
G1 X104.247 Y128.056 E18.58882
G1 X104.2 Y127.5 E18.60924
G1 X104.2 Y107.5 E19.34096
G1 X104.24 Y106.988 E19.35975
G1 X104.359 Y106.489 E19.37852
G1 X104.554 Y106.014 E19.3973
G1 X104.82 Y105.575 E19.41608
G1 X105.151 Y105.182 E19.43488
M204 S5000
M205 X30 Y30
G0 F7200 X105.584 Y105.377
M204 S500
M205 X20 Y20
G1 F900 X105.964 Y105.088 E19.45235
G1 X106.387 Y104.865 E19.46984
G1 X106.841 Y104.717 E19.48731
G1 X107.5 Y104.64 E19.51159
G1 X127.5 Y104.64 E20.24331
G1 X127.976 Y104.68 E20.26079
G1 X128.439 Y104.799 E20.27828
G1 X128.876 Y104.993 E20.29577
G1 X129.274 Y105.257 E20.31324
G1 X129.623 Y105.584 E20.33074
G1 X129.912 Y105.964 E20.34821
G1 X130.135 Y106.387 E20.3657
G1 X130.283 Y106.841 E20.38317
G1 X130.36 Y107.5 E20.40745
G1 X130.36 Y127.5 E21.13917
G1 X130.32 Y127.976 E21.15665
G1 X130.201 Y128.439 E21.17414
G1 X130.007 Y128.876 E21.19163
G1 X129.743 Y129.274 E21.2091
G1 X129.416 Y129.623 E21.2266
G1 X129.036 Y129.912 E21.24407
G1 X128.613 Y130.135 E21.26156
G1 X128.159 Y130.283 E21.27903
G1 X127.5 Y130.36 E21.30331
G1 X107.5 Y130.36 E22.03503
G1 X107.024 Y130.32 E22.05251
G1 X106.561 Y130.201 E22.07
G1 X106.124 Y130.007 E22.08749
G1 X105.726 Y129.743 E22.10496
G1 X105.377 Y129.416 E22.12246
G1 X105.088 Y129.036 E22.13993
G1 X104.865 Y128.613 E22.15742
G1 X104.717 Y128.159 E22.17489
G1 X104.64 Y127.5 E22.19917
G1 X104.64 Y107.5 E22.93089
G1 X104.68 Y107.024 E22.94837
G1 X104.799 Y106.561 E22.96586
G1 X104.993 Y106.124 E22.98335
G1 X105.257 Y105.726 E23.00082
G1 X105.584 Y105.377 E23.01832
M204 S5000
M205 X30 Y30
G0 F7200 X105.693 Y105.891
M204 S500
M205 X20 Y20
G1 F900 X106.014 Y105.59 E23.03442
G1 X106.384 Y105.353 E23.0505
G1 X106.79 Y105.186 E23.06656
G1 X107.221 Y105.096 E23.08267
G1 X107.5 Y105.08 E23.09289
G1 X127.5 Y105.08 E23.82461
G1 X127.938 Y105.12 E23.8407
G1 X128.361 Y105.238 E23.85677
G1 X128.756 Y105.431 E23.87286
G1 X129.109 Y105.693 E23.88894
G1 X129.41 Y106.014 E23.90504
G1 X129.647 Y106.384 E23.92111
G1 X129.814 Y106.79 E23.93718
G1 X129.904 Y107.221 E23.95328
G1 X129.92 Y107.5 E23.96351
G1 X129.92 Y127.5 E24.69523
G1 X129.88 Y127.938 E24.71132
G1 X129.762 Y128.361 E24.72739
G1 X129.569 Y128.756 E24.74347
G1 X129.307 Y129.109 E24.75956
G1 X128.986 Y129.41 E24.77566
G1 X128.616 Y129.647 E24.79173
G1 X128.21 Y129.814 E24.80779
G1 X127.779 Y129.904 E24.8239
G1 X127.5 Y129.92 E24.83413
G1 X107.5 Y129.92 E25.56585
G1 X107.062 Y129.88 E25.58194
G1 X106.639 Y129.762 E25.59801
G1 X106.244 Y129.569 E25.61409
G1 X105.891 Y129.307 E25.63018
G1 X105.59 Y128.986 E25.64628
G1 X105.353 Y128.616 E25.66235
G1 X105.186 Y128.21 E25.67841
G1 X105.096 Y127.779 E25.69452
G1 X105.08 Y127.5 E25.70475
G1 X105.08 Y107.5 E26.43647
G1 X105.12 Y107.062 E26.45256
G1 X105.238 Y106.639 E26.46863
G1 X105.431 Y106.244 E26.48471
G1 X105.693 Y105.891 E26.5008
M204 S5000
M205 X30 Y30
G0 F7200 X106.127 Y106.074
M204 S500
M205 X20 Y20
G1 F900 X106.439 Y105.828 E26.51533
G1 X106.795 Y105.65 E26.52989
G1 X107.178 Y105.546 E26.54441
G1 X107.5 Y105.52 E26.55623
G1 X127.5 Y105.52 E27.28796
G1 X127.895 Y105.56 E27.30248
G1 X128.275 Y105.678 E27.31704
G1 X128.623 Y105.87 E27.33158
G1 X128.926 Y106.127 E27.34612
G1 X129.172 Y106.439 E27.36065
G1 X129.35 Y106.795 E27.37521
G1 X129.454 Y107.178 E27.38973
G1 X129.48 Y107.5 E27.40155
G1 X129.48 Y127.5 E28.13328
G1 X129.44 Y127.895 E28.1478
G1 X129.322 Y128.275 E28.16236
G1 X129.13 Y128.623 E28.1769
G1 X128.873 Y128.926 E28.19144
G1 X128.561 Y129.172 E28.20597
G1 X128.205 Y129.35 E28.22054
G1 X127.822 Y129.454 E28.23506
G1 X127.5 Y129.48 E28.24687
G1 X107.5 Y129.48 E28.9786
G1 X107.105 Y129.44 E28.99312
G1 X106.725 Y129.322 E29.00768
G1 X106.377 Y129.13 E29.02222
G1 X106.074 Y128.873 E29.03676
G1 X105.828 Y128.561 E29.05129
G1 X105.65 Y128.205 E29.06586
G1 X105.546 Y127.822 E29.08038
G1 X105.52 Y127.5 E29.0922
G1 X105.52 Y107.5 E29.82392
G1 X105.56 Y107.105 E29.83844
G1 X105.678 Y106.725 E29.853
G1 X105.87 Y106.377 E29.86754
G1 X106.127 Y106.074 E29.88208
M204 S5000
M205 X30 Y30
G0 F7200 X106.307 Y106.527
M204 S500
M205 X20 Y20
G1 F900 X106.557 Y106.282 E29.89489
G1 X106.857 Y106.101 E29.9077
G1 X107.19 Y105.991 E29.92053
G1 X107.5 Y105.96 E29.93193
G1 X127.5 Y105.96 E30.66366
G1 X127.848 Y106 E30.67647
G1 X128.178 Y106.117 E30.68928
G1 X128.473 Y106.307 E30.70212
G1 X128.718 Y106.557 E30.71493
G1 X128.899 Y106.857 E30.72774
G1 X129.009 Y107.19 E30.74058
G1 X129.04 Y107.5 E30.75197
G1 X129.04 Y127.5 E31.4837
G1 X129 Y127.848 E31.49651
G1 X128.883 Y128.178 E31.50932
G1 X128.693 Y128.473 E31.52216
G1 X128.443 Y128.718 E31.53497
G1 X128.143 Y128.899 E31.54779
G1 X127.81 Y129.009 E31.56062
G1 X127.5 Y129.04 E31.57201
G1 X107.5 Y129.04 E32.30374
G1 X107.152 Y129 E32.31655
G1 X106.822 Y128.883 E32.32936
G1 X106.527 Y128.693 E32.3422
G1 X106.282 Y128.443 E32.35501
G1 X106.101 Y128.143 E32.36783
G1 X105.991 Y127.81 E32.38066
G1 X105.96 Y127.5 E32.39205
G1 X105.96 Y107.5 E33.12378
G1 X106 Y107.152 E33.13659
G1 X106.117 Y106.822 E33.1494
G1 X106.307 Y106.527 E33.16224
M204 S5000
M205 X30 Y30
G0 F7200 X106.741 Y106.704
M204 S500
M205 X20 Y20
G1 F900 X106.981 Y106.53 E33.17309
G1 X107.258 Y106.427 E33.1839
G1 X107.5 Y106.4 E33.19281
G1 X127.5 Y106.4 E33.92453
G1 X127.793 Y106.44 E33.93535
G1 X128.065 Y106.556 E33.94617
G1 X128.296 Y106.741 E33.957
G1 X128.47 Y106.981 E33.96784
G1 X128.573 Y107.258 E33.97865
G1 X128.6 Y107.5 E33.98756
G1 X128.6 Y127.5 E34.71929
G1 X128.56 Y127.793 E34.7301
G1 X128.444 Y128.065 E34.74092
G1 X128.259 Y128.296 E34.75175
G1 X128.019 Y128.47 E34.7626
G1 X127.742 Y128.573 E34.77341
G1 X127.5 Y128.6 E34.78232
G1 X107.5 Y128.6 E35.51404
G1 X107.207 Y128.56 E35.52486
G1 X106.935 Y128.444 E35.53568
G1 X106.704 Y128.259 E35.54651
G1 X106.53 Y128.019 E35.55735
G1 X106.427 Y127.742 E35.56816
G1 X106.4 Y127.5 E35.57707
G1 X106.4 Y107.5 E36.3088
G1 X106.44 Y107.207 E36.31961
G1 X106.556 Y106.935 E36.33043
G1 X106.741 Y106.704 E36.34126
M204 S5000
M205 X30 Y30
G0 F7200 X106.994 Y107.076
M204 S500
M205 X20 Y20
G1 F900 X107.169 Y106.929 E36.34962
G1 X107.384 Y106.85 E36.358
G1 X107.5 Y106.84 E36.36226
G1 X127.5 Y106.84 E37.09399
G1 X127.725 Y106.88 E37.10235
G1 X127.924 Y106.994 E37.11074
G1 X128.071 Y107.169 E37.1191
G1 X128.15 Y107.384 E37.12748
G1 X128.16 Y107.5 E37.13174
G1 X128.16 Y127.5 E37.86346
G1 X128.12 Y127.725 E37.87182
G1 X128.006 Y127.924 E37.88021
G1 X127.831 Y128.071 E37.88858
G1 X127.616 Y128.15 E37.89696
G1 X127.5 Y128.16 E37.90122
G1 X107.5 Y128.16 E38.63294
G1 X107.275 Y128.12 E38.6413
G1 X107.076 Y128.006 E38.64969
G1 X106.929 Y127.831 E38.65805
G1 X106.85 Y127.616 E38.66643
G1 X106.84 Y127.5 E38.67069
G1 X106.84 Y107.5 E39.40241
G1 X106.88 Y107.275 E39.41078
G1 X106.994 Y107.076 E39.41917
M204 S5000
M205 X30 Y30
G0 F7200 X107.319 Y107.375
M204 S500
M205 X20 Y20
G1 F900 X107.422 Y107.294 E39.42396
G1 X107.5 Y107.28 E39.42686
G1 X127.5 Y107.28 E40.15858
G1 X127.625 Y107.319 E40.16337
G1 X127.706 Y107.422 E40.16817
G1 X127.72 Y107.5 E40.17107
G1 X127.72 Y127.5 E40.90279
G1 X127.681 Y127.625 E40.90758
G1 X127.578 Y127.706 E40.91237
G1 X127.5 Y127.72 E40.91527
G1 X107.5 Y127.72 E41.647
G1 X107.375 Y127.681 E41.65179
G1 X107.294 Y127.578 E41.65658
G1 X107.28 Y127.5 E41.65948
G1 X107.28 Y107.5 E42.3912
G1 X107.319 Y107.375 E42.39599
M204 S5000
M205 X30 Y30
G1 F6000 E37.39599
;MESH:20mm_calibration_cube.stl
G0 F7200 X108.174 Y108.174
G0 X126.77 Y126.77
G0 X127.28 Y127.28
M204 S500
M205 X20 Y20
;TYPE:WALL-OUTER
G1 F6000 E42.39599
G1 F900 X107.72 Y127.28 E43.11162
G1 X107.72 Y107.72 E43.82724
G1 X127.28 Y107.72 E44.54287
G1 X127.28 Y127.28 E45.25849
M204 S5000
M205 X30 Y30
G0 F7200 X127.08 Y127.28
G0 X126.796 Y126.796
G0 X126.84 Y126.84
M204 S500
M205 X20 Y20
;TYPE:WALL-INNER
G1 F900 X108.16 Y126.84 E45.94192
G1 X108.16 Y108.16 E46.62535
G1 X126.84 Y108.16 E47.30878
G1 X126.84 Y126.84 E47.99221
M204 S5000
M205 X30 Y30
G0 F7200 X126.41 Y126.41
M204 S500
M205 X20 Y20
;TYPE:SKIN
G1 F900 X108.59 Y126.41 E48.64418
