;FLAVOR:RepRap
;TIME:955
;Generated with Cura_SteamEngine 2.3.1
M190 S70
M104 S200
M109 S200
G28 ; home all axes
M117 Purge extruder
G92 E0 ; reset extruder
G1 Z1.0 F3000 ; move z up little to prevent scratching of surface
G1 X0.1 Y20 Z0.3 F5000.0 ; move to start-line position G1 X0.1 Y200.0 Z0.3 F1500.0 E15 ; draw 1st line
G1 X0.4 Y200.0 Z0.3 F5000.0 ; move to side a little
G1 X0.4 Y20 Z0.3 F1500.0 E30 ; draw 2nd line
G92 E0 ; reset extruder
G1 Z1.0 F3000 ; move z up little to prevent scratching of surface
M117 All systems go!
;LAYER_COUNT:1
;LAYER:0
M117 INDICATOR-Layer0
M107
G1 F4200 E-5
G0 F1800 X166.24 Y19.451 Z.16
G0 X166.2 Y20.001
;TYPE:SKIRT
G1 F4200 E0
G1 F1200 X166.24 Y19.451 E0.01614
G1 X166.359 Y18.913 E0.03227
G1 X166.555 Y18.398 E0.0484
G1 X166.823 Y17.917 E0.06451
G1 X167.157 Y17.479 E0.08063
G1 X167.552 Y17.095 E0.09676
G1 X167.998 Y16.771 E0.11289
G1 X168.486 Y16.516 E0.12901
G1 X169.006 Y16.333 E0.14514
G1 X169.547 Y16.228 E0.16127
G1 X170 Y16.201 E0.17456
G1 X200 Y16.2 E1.05262
G1 X200.549 Y16.24 E1.06873
G1 X201.087 Y16.359 E1.08486
G1 X201.603 Y16.554 E1.10101
G1 X202.084 Y16.822 E1.11712
G1 X202.522 Y17.157 E1.13326
G1 X202.906 Y17.552 E1.14939
G1 X203.23 Y17.998 E1.16552
G1 X203.485 Y18.486 E1.18164
G1 X203.668 Y19.006 E1.19777
G1 X203.773 Y19.547 E1.2139
G1 X203.8 Y20 E1.22718
G1 X203.8 Y50 E2.10525
G1 X203.76 Y50.55 E2.12139
G1 X203.641 Y51.088 E2.13752
G1 X203.445 Y51.603 E2.15365
G1 X203.177 Y52.084 E2.16976
G1 X202.843 Y52.522 E2.18589
G1 X202.448 Y52.906 E2.20201
G1 X202.002 Y53.23 E2.21814
G1 X201.514 Y53.485 E2.23426
G1 X200.994 Y53.668 E2.2504
G1 X200.453 Y53.773 E2.26653
G1 X200 Y53.8 E2.27981
G1 X170 Y53.8 E3.15788
G1 X169.45 Y53.76 E3.17402
G1 X168.912 Y53.641 E3.19014
G1 X168.397 Y53.445 E3.20627
G1 X167.916 Y53.177 E3.22239
G1 X167.478 Y52.843 E3.23851
G1 X167.094 Y52.448 E3.25463
G1 X166.77 Y52.002 E3.27077
G1 X166.515 Y51.514 E3.28688
G1 X166.332 Y50.994 E3.30302
G1 X166.227 Y50.453 E3.31915
G1 X166.2 Y50 E3.33243
G1 X166.2 Y20.001 E4.21047
G0 F1800 X166.6 Y20.001
G1 F1200 X166.64 Y19.481 E4.22573
G1 X166.759 Y18.974 E4.24098
G1 X166.954 Y18.491 E4.25622
G1 X167.22 Y18.043 E4.27147
G1 X167.552 Y17.641 E4.28673
G1 X167.942 Y17.295 E4.30199
G1 X168.38 Y17.012 E4.31725
G1 X168.855 Y16.799 E4.33249
G1 X169.358 Y16.662 E4.34775
G1 X170 Y16.601 E4.36662
G1 X200 Y16.6 E5.24469
G1 X200.52 Y16.64 E5.25996
G1 X201.027 Y16.759 E5.2752
G1 X201.51 Y16.954 E5.29045
G1 X201.958 Y17.22 E5.30569
G1 X202.36 Y17.552 E5.32095
G1 X202.706 Y17.942 E5.33621
G1 X202.989 Y18.379 E5.35145
G1 X203.202 Y18.855 E5.36672
G1 X203.339 Y19.358 E5.38197
G1 X203.4 Y20 E5.40085
G1 X203.4 Y50 E6.27892
G1 X203.36 Y50.52 E6.29418
G1 X203.241 Y51.027 E6.30942
G1 X203.046 Y51.51 E6.32467
G1 X202.78 Y51.958 E6.33992
G1 X202.448 Y52.36 E6.35518
G1 X202.058 Y52.706 E6.37044
G1 X201.62 Y52.989 E6.3857
G1 X201.145 Y53.202 E6.40094
G1 X200.642 Y53.339 E6.4162
G1 X200 Y53.4 E6.43507
G1 X170 Y53.4 E7.31314
G1 X169.48 Y53.36 E7.32841
G1 X168.973 Y53.241 E7.34365
G1 X168.49 Y53.046 E7.35889
G1 X168.042 Y52.78 E7.37414
G1 X167.64 Y52.448 E7.3894
G1 X167.294 Y52.058 E7.40466
G1 X167.011 Y51.62 E7.41993
G1 X166.798 Y51.145 E7.43516
G1 X166.661 Y50.642 E7.45042
G1 X166.6 Y50 E7.4693
G1 X166.6 Y20.001 E8.34733
G0 F1800 X167 Y20.001
G1 F1200 X167.04 Y19.513 E8.36167
G1 X167.159 Y19.038 E8.376
G1 X167.353 Y18.589 E8.39031
G1 X167.618 Y18.177 E8.40465
G1 X167.946 Y17.814 E8.41897
G1 X168.329 Y17.509 E8.4333
G1 X168.757 Y17.271 E8.44763
G1 X169.217 Y17.105 E8.46195
G1 X169.698 Y17.016 E8.47627
G1 X170 Y17.001 E8.48512
G1 X200 Y17 E9.36318
G1 X200.488 Y17.04 E9.37751
G1 X200.963 Y17.159 E9.39185
G1 X201.412 Y17.353 E9.40616
G1 X201.824 Y17.618 E9.4205
G1 X202.187 Y17.946 E9.43482
G1 X202.492 Y18.329 E9.44915
G1 X202.73 Y18.756 E9.46346
G1 X202.896 Y19.217 E9.4778
G1 X202.985 Y19.698 E9.49212
G1 X203 Y20 E9.50097
G1 X203 Y50 E10.37903
G1 X202.96 Y50.488 E10.39337
G1 X202.841 Y50.963 E10.4077
G1 X202.647 Y51.412 E10.42201
G1 X202.382 Y51.824 E10.43635
G1 X202.054 Y52.187 E10.45067
G1 X201.671 Y52.492 E10.465
G1 X201.243 Y52.73 E10.47934
G1 X200.783 Y52.896 E10.49365
G1 X200.302 Y52.985 E10.50797
G1 X200 Y53 E10.51682
G1 X170 Y53 E11.39488
G1 X169.512 Y52.96 E11.40921
G1 X169.037 Y52.841 E11.42355
G1 X168.588 Y52.647 E11.43786
G1 X168.176 Y52.382 E11.4522
G1 X167.813 Y52.054 E11.46652
G1 X167.508 Y51.671 E11.48085
G1 X167.27 Y51.243 E11.49518
G1 X167.104 Y50.783 E11.5095
G1 X167.015 Y50.302 E11.52382
G1 X167 Y50 E11.53267
G1 X167 Y20.001 E12.4107
G0 F1800 X167.4 Y20.001
G1 F1200 X167.44 Y19.547 E12.42404
G1 X167.558 Y19.107 E12.43738
G1 X167.752 Y18.695 E12.45071
G1 X168.015 Y18.322 E12.46406
G1 X168.338 Y18.001 E12.47739
G1 X168.713 Y17.742 E12.49073
G1 X169.127 Y17.552 E12.50406
G1 X169.568 Y17.437 E12.5174
G1 X170 Y17.401 E12.53009
G1 X200 Y17.4 E13.40816
G1 X200.454 Y17.44 E13.4215
G1 X200.894 Y17.558 E13.43483
G1 X201.306 Y17.752 E13.44816
G1 X201.679 Y18.014 E13.4615
G1 X201.999 Y18.338 E13.47483
G1 X202.259 Y18.713 E13.48819
G1 X202.449 Y19.127 E13.50152
G1 X202.564 Y19.568 E13.51486
G1 X202.6 Y20 E13.52755
G1 X202.6 Y50 E14.40561
G1 X202.56 Y50.454 E14.41895
G1 X202.442 Y50.894 E14.43229
G1 X202.248 Y51.306 E14.44562
G1 X201.985 Y51.679 E14.45897
G1 X201.662 Y52 E14.4723
G1 X201.287 Y52.259 E14.48564
G1 X200.873 Y52.449 E14.49897
G1 X200.432 Y52.564 E14.51231
G1 X200 Y52.6 E14.525
G1 X170 Y52.6 E15.40307
G1 X169.546 Y52.56 E15.41641
G1 X169.106 Y52.442 E15.42974
G1 X168.694 Y52.248 E15.44307
G1 X168.321 Y51.985 E15.45643
G1 X168 Y51.662 E15.46976
G1 X167.741 Y51.287 E15.4831
G1 X167.551 Y50.873 E15.49643
G1 X167.436 Y50.432 E15.50977
G1 X167.4 Y50 E15.52246
G1 X167.4 Y20.001 E16.40049
G0 F1800 X167.8 Y20.001
G1 F1200 X167.84 Y19.584 E16.41276
G1 X167.958 Y19.182 E16.42502
G1 X168.151 Y18.81 E16.43728
G1 X168.41 Y18.481 E16.44954
G1 X168.727 Y18.207 E16.4618
G1 X169.09 Y17.998 E16.47406
G1 X169.487 Y17.862 E16.48635
G1 X170 Y17.801 E16.50147
G1 X200 Y17.8 E17.37953
G1 X200.417 Y17.84 E17.3918
G1 X200.819 Y17.958 E17.40406
G1 X201.191 Y18.151 E17.41632
G1 X201.52 Y18.41 E17.42858
G1 X201.794 Y18.727 E17.44084
G1 X202.003 Y19.09 E17.4531
G1 X202.139 Y19.487 E17.46539
G1 X202.2 Y20 E17.48051
G1 X202.2 Y50 E18.35857
G1 X202.16 Y50.417 E18.37084
G1 X202.042 Y50.819 E18.3831
G1 X201.849 Y51.191 E18.39536
G1 X201.59 Y51.52 E18.40762
G1 X201.273 Y51.794 E18.41988
G1 X200.91 Y52.003 E18.43214
G1 X200.513 Y52.139 E18.44443
G1 X200 Y52.2 E18.45955
G1 X170 Y52.2 E19.33761
G1 X169.583 Y52.16 E19.34987
G1 X169.181 Y52.042 E19.36214
G1 X168.809 Y51.849 E19.3744
G1 X168.48 Y51.59 E19.38666
G1 X168.206 Y51.273 E19.39892
G1 X167.997 Y50.91 E19.41118
G1 X167.861 Y50.513 E19.42347
G1 X167.8 Y50 E19.43859
G1 X167.8 Y20.001 E20.31662
G0 F1800 X168.2 Y20.001
G1 F1200 X168.24 Y19.624 E20.32772
G1 X168.358 Y19.264 E20.33881
G1 X168.548 Y18.937 E20.34988
G1 X168.803 Y18.656 E20.36098
G1 X169.112 Y18.436 E20.37209
G1 X169.459 Y18.284 E20.38317
G1 X170 Y18.201 E20.39919
G1 X200 Y18.2 E21.27726
G1 X200.377 Y18.24 E21.28836
G1 X200.737 Y18.358 E21.29945
G1 X201.064 Y18.548 E21.31052
G1 X201.345 Y18.803 E21.32162
G1 X201.565 Y19.111 E21.3327
G1 X201.717 Y19.459 E21.34382
G1 X201.8 Y20 E21.35984
G1 X201.8 Y50 E22.2379
G1 X201.76 Y50.377 E22.249
G1 X201.642 Y50.737 E22.26009
G1 X201.452 Y51.064 E22.27116
G1 X201.197 Y51.345 E22.28226
G1 X200.888 Y51.565 E22.29337
G1 X200.541 Y51.717 E22.30445
G1 X200 Y51.8 E22.32047
G1 X170 Y51.8 E23.19854
G1 X169.623 Y51.76 E23.20964
G1 X169.263 Y51.642 E23.22073
G1 X168.936 Y51.452 E23.23179
G1 X168.655 Y51.197 E23.2429
G1 X168.435 Y50.888 E23.254
G1 X168.283 Y50.541 E23.26509
G1 X168.2 Y50 E23.28111
G1 X168.2 Y20.001 E24.15915
G0 F1800 X168.6 Y20.001
G1 F1200 X168.64 Y19.669 E24.16894
G1 X168.757 Y19.357 E24.17869
G1 X168.945 Y19.08 E24.18849
G1 X169.193 Y18.857 E24.19825
G1 X169.487 Y18.698 E24.20803
G1 X169.811 Y18.614 E24.21783
G1 X170 Y18.601 E24.22337
G1 X200 Y18.6 E25.10144
G1 X200.332 Y18.64 E25.11123
G1 X200.644 Y18.757 E25.12098
G1 X200.921 Y18.945 E25.13078
G1 X201.144 Y19.193 E25.14054
G1 X201.303 Y19.487 E25.15032
G1 X201.387 Y19.811 E25.16012
G1 X201.4 Y20 E25.16567
G1 X201.4 Y50 E26.04373
G1 X201.36 Y50.332 E26.05352
G1 X201.243 Y50.644 E26.06327
G1 X201.055 Y50.921 E26.07307
G1 X200.807 Y51.144 E26.08283
G1 X200.513 Y51.303 E26.09262
G1 X200.189 Y51.387 E26.10241
G1 X200 Y51.4 E26.10796
G1 X170 Y51.4 E26.98603
G1 X169.668 Y51.36 E26.99581
G1 X169.356 Y51.243 E27.00557
G1 X169.079 Y51.055 E27.01537
G1 X168.856 Y50.807 E27.02513
G1 X168.697 Y50.513 E27.03491
G1 X168.613 Y50.189 E27.04471
G1 X168.6 Y50 E27.05025
G1 X168.6 Y20.001 E27.92829
G0 F1800 X169 Y20.001
G1 F1200 X169.04 Y19.722 E27.93654
G1 X169.156 Y19.465 E27.94479
G1 X169.339 Y19.25 E27.95306
G1 X169.575 Y19.096 E27.9613
G1 X169.845 Y19.013 E27.96957
G1 X170 Y19.001 E27.97412
G1 X200 Y19 E28.85219
G1 X200.279 Y19.04 E28.86044
G1 X200.536 Y19.156 E28.86869
G1 X200.751 Y19.339 E28.87696
G1 X200.905 Y19.575 E28.8852
G1 X200.988 Y19.845 E28.89347
G1 X201 Y20 E28.89802
G1 X201 Y50 E29.77609
G1 X200.96 Y50.279 E29.78434
G1 X200.844 Y50.536 E29.79259
G1 X200.661 Y50.751 E29.80085
G1 X200.425 Y50.905 E29.8091
G1 X200.155 Y50.988 E29.81737
G1 X200 Y51 E29.82192
G1 X170 Y51 E30.69999
G1 X169.721 Y50.96 E30.70824
G1 X169.464 Y50.844 E30.71649
G1 X169.249 Y50.661 E30.72475
G1 X169.095 Y50.425 E30.733
G1 X169.012 Y50.155 E30.74127
G1 X169 Y50 E30.74582
G1 X169 Y20.001 E31.62386
G0 F1800 X169.4 Y20.001
G1 F1200 X169.44 Y19.786 E31.63026
G1 X169.553 Y19.6 E31.63663
G1 X169.726 Y19.467 E31.64302
G1 X170 Y19.401 E31.65126
G1 X200 Y19.4 E32.52933
G1 X200.215 Y19.44 E32.53573
G1 X200.401 Y19.553 E32.5421
G1 X200.534 Y19.726 E32.54849
G1 X200.6 Y20 E32.55674
G1 X200.6 Y50 E33.43481
G1 X200.56 Y50.215 E33.44121
G1 X200.447 Y50.401 E33.44758
G1 X200.274 Y50.534 E33.45396
G1 X200 Y50.6 E33.46221
G1 X170 Y50.6 E34.34028
G1 X169.785 Y50.56 E34.34668
G1 X169.599 Y50.447 E34.35305
G1 X169.466 Y50.274 E34.35944
G1 X169.4 Y50 E34.36769
G1 X169.4 Y20.001 E35.24573
G0 F1800 X169.8 Y20.001
G1 F1200 X169.839 Y19.882 E35.24939
G1 X170 Y19.801 E35.25467
G1 X200 Y19.8 E36.13273
G1 X200.119 Y19.839 E36.1364
G1 X200.2 Y20 E36.14167
G1 X200.2 Y50 E37.01974
G1 X200.161 Y50.119 E37.02341
G1 X200 Y50.2 E37.02868
G1 X170 Y50.2 E37.90675
G1 X169.881 Y50.161 E37.91042
G1 X169.8 Y50 E37.91569
G1 X169.8 Y20.001 E38.79373
G1 F4200 E33.79373
G0 F1800 X169.335 Y20.001
G0 X127.084 Y91.822
G1 F4200 E38.79373
G1 F1200 X127.522 Y92.157 E38.80987
G1 X127.906 Y92.552 E38.82599
G1 X128.23 Y92.998 E38.84213
G1 X128.485 Y93.486 E38.85824
G1 X128.668 Y94.006 E38.87438
G1 X128.773 Y94.547 E38.89051
G1 X128.8 Y95 E38.90379
G1 X128.8 Y124.999 E39.78183
G1 X128.76 Y125.549 E39.79797
G1 X128.641 Y126.087 E39.8141
G1 X128.445 Y126.602 E39.83022
G1 X128.177 Y127.083 E39.84634
G1 X127.843 Y127.521 E39.86246
G1 X127.448 Y127.905 E39.87859
G1 X127.002 Y128.229 E39.89472
G1 X126.514 Y128.484 E39.91084
G1 X125.994 Y128.667 E39.92697
G1 X125.453 Y128.772 E39.9431
G1 X125 Y128.799 E39.95638
G1 X95.001 Y128.8 E40.83442
G1 X94.452 Y128.76 E40.85053
G1 X93.914 Y128.641 E40.86666
G1 X93.398 Y128.446 E40.88281
G1 X92.917 Y128.178 E40.89892
G1 X92.479 Y127.843 E40.91506
G1 X92.095 Y127.448 E40.93119
G1 X91.771 Y127.002 E40.94732
G1 X91.516 Y126.514 E40.96344
G1 X91.333 Y125.994 E40.97957
G1 X91.228 Y125.453 E40.9957
G1 X91.201 Y125 E41.00898
G1 X91.201 Y95.001 E41.88702
G1 X91.241 Y94.451 E41.90316
G1 X91.36 Y93.913 E41.91929
G1 X91.556 Y93.398 E41.93542
G1 X91.824 Y92.917 E41.95153
G1 X92.158 Y92.479 E41.96766
G1 X92.553 Y92.095 E41.98378
G1 X92.999 Y91.771 E41.99991
G1 X93.487 Y91.516 E42.01603
G1 X94.007 Y91.333 E42.03216
G1 X94.548 Y91.228 E42.04829
G1 X95.001 Y91.201 E42.06158
G1 X125 Y91.2 E42.93962
G1 X125.549 Y91.24 E42.95573
G1 X126.087 Y91.359 E42.97185
G1 X126.603 Y91.554 E42.988
G1 X127.084 Y91.822 E43.00412
G0 F1800 X126.958 Y92.22
G1 F1200 X127.36 Y92.552 E43.01938
G1 X127.706 Y92.942 E43.03463
G1 X127.989 Y93.379 E43.04987
G1 X128.202 Y93.855 E43.06514
G1 X128.339 Y94.358 E43.0804
G1 X128.4 Y95 E43.09927
G1 X128.4 Y124.999 E43.97731
G1 X128.36 Y125.519 E43.99257
G1 X128.241 Y126.026 E44.00782
G1 X128.046 Y126.509 E44.02306
G1 X127.78 Y126.957 E44.03831
G1 X127.448 Y127.359 E44.05357
G1 X127.058 Y127.705 E44.06883
G1 X126.62 Y127.988 E44.08409
G1 X126.145 Y128.201 E44.09933
G1 X125.642 Y128.338 E44.11459
G1 X125 Y128.399 E44.13346
G1 X95.001 Y128.4 E45.0115
G1 X94.481 Y128.36 E45.02677
G1 X93.974 Y128.241 E45.04201
G1 X93.491 Y128.046 E45.05726
G1 X93.043 Y127.78 E45.07251
G1 X92.641 Y127.448 E45.08777
G1 X92.295 Y127.058 E45.10302
G1 X92.012 Y126.621 E45.11826
G1 X91.799 Y126.145 E45.13353
G1 X91.662 Y125.642 E45.14878
G1 X91.601 Y125 E45.16766
G1 X91.601 Y95.001 E46.0457
G1 X91.641 Y94.481 E46.06096
G1 X91.76 Y93.974 E46.07621
G1 X91.955 Y93.491 E46.09145
G1 X92.221 Y93.043 E46.1067
G1 X92.553 Y92.641 E46.12196
G1 X92.943 Y92.295 E46.13722
G1 X93.381 Y92.012 E46.15248
G1 X93.856 Y91.799 E46.16772
G1 X94.359 Y91.662 E46.18298
G1 X95.001 Y91.601 E46.20185
G1 X125 Y91.6 E47.07989
G1 X125.52 Y91.64 E47.09516
G1 X126.027 Y91.759 E47.1104
G1 X126.51 Y91.954 E47.12565
G1 X126.958 Y92.22 E47.14089
G0 F1800 X126.824 Y92.618
G1 F1200 X127.187 Y92.946 E47.15521
G1 X127.492 Y93.329 E47.16954
G1 X127.73 Y93.756 E47.18385
G1 X127.896 Y94.217 E47.19819
G1 X127.985 Y94.698 E47.21251
G1 X128 Y95 E47.22136
G1 X128 Y124.999 E48.0994
G1 X127.96 Y125.487 E48.11373
G1 X127.841 Y125.962 E48.12806
G1 X127.647 Y126.411 E48.14238
G1 X127.382 Y126.823 E48.15672
G1 X127.054 Y127.186 E48.17104
G1 X126.671 Y127.491 E48.18537
G1 X126.243 Y127.729 E48.1997
G1 X125.783 Y127.895 E48.21401
G1 X125.302 Y127.984 E48.22833
G1 X125 Y127.999 E48.23718
G1 X95.001 Y128 E49.11522
G1 X94.513 Y127.96 E49.12955
G1 X94.038 Y127.841 E49.14388
G1 X93.589 Y127.647 E49.1582
G1 X93.177 Y127.382 E49.17254
G1 X92.814 Y127.054 E49.18686
G1 X92.509 Y126.671 E49.20119
G1 X92.271 Y126.244 E49.21549
G1 X92.105 Y125.783 E49.22984
G1 X92.016 Y125.302 E49.24415
G1 X92.001 Y125 E49.253
G1 X92.001 Y95.001 E50.13104
G1 X92.041 Y94.513 E50.14537
G1 X92.16 Y94.038 E50.1597
G1 X92.354 Y93.589 E50.17402
G1 X92.619 Y93.177 E50.18836
G1 X92.947 Y92.814 E50.20268
G1 X93.33 Y92.509 E50.21701
G1 X93.758 Y92.271 E50.23134
G1 X94.218 Y92.105 E50.24566
G1 X94.699 Y92.016 E50.25997
G1 X95.001 Y92.001 E50.26882
G1 X125 Y92 E51.14686
G1 X125.488 Y92.04 E51.16119
G1 X125.963 Y92.159 E51.17552
G1 X126.412 Y92.353 E51.18984
G1 X126.824 Y92.618 E51.20418
G0 F1800 X126.679 Y93.014
G1 F1200 X126.999 Y93.338 E51.21751
G1 X127.259 Y93.713 E51.23086
G1 X127.449 Y94.127 E51.2442
G1 X127.564 Y94.568 E51.25753
G1 X127.6 Y95 E51.27022
G1 X127.6 Y124.999 E52.14826
G1 X127.56 Y125.453 E52.1616
G1 X127.442 Y125.893 E52.17493
G1 X127.248 Y126.305 E52.18826
G1 X126.985 Y126.678 E52.20162
G1 X126.662 Y126.999 E52.21495
G1 X126.287 Y127.258 E52.22829
G1 X125.873 Y127.448 E52.24162
G1 X125.432 Y127.563 E52.25496
G1 X125 Y127.599 E52.26765
G1 X95.001 Y127.6 E53.14569
G1 X94.547 Y127.56 E53.15903
G1 X94.107 Y127.442 E53.17236
G1 X93.695 Y127.248 E53.18569
G1 X93.322 Y126.986 E53.19903
G1 X93.002 Y126.662 E53.21236
G1 X92.742 Y126.287 E53.22571
G1 X92.552 Y125.873 E53.23905
G1 X92.437 Y125.432 E53.25239
G1 X92.401 Y125 E53.26507
G1 X92.401 Y95.001 E54.14311
G1 X92.441 Y94.547 E54.15645
G1 X92.559 Y94.107 E54.16979
G1 X92.753 Y93.695 E54.18311
G1 X93.016 Y93.322 E54.19647
G1 X93.339 Y93.001 E54.2098
G1 X93.714 Y92.742 E54.22314
G1 X94.128 Y92.552 E54.23647
G1 X94.569 Y92.437 E54.24981
G1 X95.001 Y92.401 E54.2625
G1 X125 Y92.4 E55.14054
G1 X125.454 Y92.44 E55.15388
G1 X125.894 Y92.558 E55.16721
G1 X126.306 Y92.752 E55.18054
G1 X126.679 Y93.014 E55.19388
G0 F1800 X126.52 Y93.41
G1 F1200 X126.794 Y93.727 E55.20615
G1 X127.003 Y94.09 E55.21841
G1 X127.139 Y94.487 E55.23069
G1 X127.2 Y95 E55.24581
G1 X127.2 Y124.999 E56.12385
G1 X127.16 Y125.416 E56.13611
G1 X127.042 Y125.818 E56.14837
G1 X126.849 Y126.19 E56.16064
G1 X126.59 Y126.519 E56.17289
G1 X126.273 Y126.793 E56.18516
