;FLAVOR:Marlin
;TIME:2325
;Filament used: 0.768894m
;Layer height: 0.16
;Generated with Cura_SteamEngine 3.6.0
M140 S70
M105
M190 S70
M104 S215
M105
M109 S215
M82 ;absolute extrusion mode
G28 ; home all axes
M117 Purge extruder
G92 E0 ; reset extruder
G1 Z1.0 F3000 ; move z up little to prevent scratching of surface
G1 X0.1 Y20 Z0.3 F5000.0 ; move to start-line position G1 X0.1 Y200.0 Z0.3 F1500.0 E15 ; draw 1st line
G1 X0.4 Y200.0 Z0.3 F5000.0 ; move to side a little
G1 X0.4 Y20 Z0.3 F1500.0 E30 ; draw 2nd line
G92 E0 ; reset extruder
G1 Z1.0 F3000 ; move z up little to prevent scratching of surface
M117 All systems go!
G92 E0
G1 F6000 E-5
;LAYER_COUNT:275
;LAYER:0
M107
M204 S5000
M205 X30 Y30
G0 F7200 X106.44 Y104.592 Z0.2
M204 S500
M205 X20 Y20
;TYPE:SKIRT
G1 F6000 E0
G1 F900 X106.718 Y104.327 E0.01405
G1 X107.243 Y103.865 E0.03964
G1 X107.746 Y103.476 E0.0629
G1 X108.294 Y103.153 E0.08617
G1 X108.878 Y102.901 E0.10944
G1 X109.569 Y102.707 E0.1357
G1 X110.237 Y102.57 E0.16065
G1 X110.867 Y102.482 E0.18392
G1 X111.503 Y102.473 E0.2072
G1 X112.135 Y102.544 E0.23046
G1 X112.822 Y102.716 E0.25637
G1 X113.488 Y102.933 E0.282
G1 X114.079 Y103.168 E0.30527
G1 X114.636 Y103.474 E0.32852
G1 X115.15 Y103.849 E0.3518
G1 X115.429 Y104.099 E0.36551
G1 X115.805 Y104.461 E0.3846
G1 X116.235 Y104.93 E0.40788
G1 X116.602 Y105.449 E0.43114
G1 X116.937 Y106.091 E0.45763
G1 X117.145 Y106.57 E0.47674
G1 X117.361 Y107.168 E0.5
G1 X117.501 Y107.788 E0.52325
G1 X117.545 Y108.145 E0.53641
G1 X117.575 Y108.489 E0.54905
G1 X117.59 Y109.125 E0.57232
G1 X117.526 Y109.758 E0.5956
G1 X117.455 Y110.109 E0.6087
G1 X117.332 Y110.622 E0.628
G1 X117.289 Y110.763 E0.63339
G1 X117.67 Y111.077 E0.65146
G1 X118.106 Y111.54 E0.67473
G1 X118.155 Y111.607 E0.67776
G1 X118.289 Y111.607 E0.68266
G1 X118.924 Y111.647 E0.70594
G1 X119.548 Y111.766 E0.72918
G1 X120.153 Y111.963 E0.75246
G1 X120.728 Y112.234 E0.77572
G1 X121.266 Y112.575 E0.79902
G1 X121.941 Y113.066 E0.82956
G1 X122.43 Y113.472 E0.85281
G1 X122.865 Y113.936 E0.87608
G1 X123.239 Y114.45 E0.89934
G1 X123.544 Y115.008 E0.92261
G1 X123.778 Y115.599 E0.94586
G1 X123.935 Y116.216 E0.96915
G1 X123.987 Y116.544 E0.98131
G1 X124.175 Y118.083 E1.03803
G1 X124.212 Y118.718 E1.0613
G1 X124.135 Y119.578 E1.09289
G1 X123.928 Y120.749 E1.1364
G1 X123.778 Y121.367 E1.15966
G1 X123.552 Y121.961 E1.18292
G1 X123.302 Y122.441 E1.20272
G1 X122.966 Y123.01 E1.22689
G1 X122.609 Y123.536 E1.25015
G1 X122.189 Y124.013 E1.2734
G1 X121.785 Y124.376 E1.29327
G1 X120.68 Y125.267 E1.34521
G1 X120.161 Y125.634 E1.36846
G1 X119.6 Y125.934 E1.39174
G1 X119.14 Y126.116 E1.40984
G1 X117.416 Y126.705 E1.47649
G1 X116.802 Y126.873 E1.49978
G1 X116.173 Y126.962 E1.52302
G1 X115.512 Y126.97 E1.54721
G1 X114.097 Y126.895 E1.59905
G1 X113.466 Y126.821 E1.62229
G1 X112.848 Y126.669 E1.64558
G1 X112.387 Y126.5 E1.66354
G1 X111.704 Y126.21 E1.69069
G1 X111.136 Y125.925 E1.71394
G1 X110.655 Y125.604 E1.7351
G1 X110.64 Y125.607 E1.73566
G1 X110 Y125.648 E1.75912
G1 X107.366 Y125.648 E1.85549
G1 X106.731 Y125.608 E1.87877
G1 X106.107 Y125.489 E1.90201
G1 X105.502 Y125.292 E1.92529
G1 X104.927 Y125.021 E1.94854
G1 X104.387 Y124.678 E1.97195
G1 X102.256 Y123.126 E2.0684
G1 X101.767 Y122.72 E2.09165
G1 X101.332 Y122.256 E2.11492
G1 X100.959 Y121.741 E2.13819
G1 X100.653 Y121.183 E2.16147
G1 X100.424 Y120.603 E2.18428
G1 X99.609 Y118.101 E2.28056
G1 X99.45 Y117.485 E2.30383
G1 X99.37 Y116.854 E2.3271
G1 X99.37 Y116.219 E2.35033
G1 X99.449 Y115.588 E2.3736
G1 X99.609 Y114.967 E2.39706
G1 X100.424 Y112.465 E2.49333
G1 X100.658 Y111.874 E2.51659
G1 X100.965 Y111.317 E2.53986
G1 X101.34 Y110.803 E2.56314
G1 X101.775 Y110.34 E2.58638
G1 X102.255 Y109.943 E2.60917
G1 X103.269 Y109.204 E2.65508
G1 X103.805 Y108.862 E2.67834
G1 X104.38 Y108.591 E2.70159
G1 X104.804 Y108.452 E2.71792
G1 X104.806 Y108.403 E2.71971
G1 X104.871 Y107.77 E2.74299
G1 X105.015 Y107.151 E2.76624
G1 X105.194 Y106.65 E2.78571
G1 X105.393 Y106.174 E2.80459
G1 X105.674 Y105.604 E2.82784
G1 X106.025 Y105.074 E2.85109
G1 X106.44 Y104.592 E2.87436
M204 S5000
M205 X30 Y30
G0 F7200 X107.009 Y104.658
M204 S500
M205 X20 Y20
G1 F900 X107.534 Y104.196 E2.89995
G1 X108.015 Y103.825 E2.92217
G1 X108.541 Y103.521 E2.9444
G1 X109.103 Y103.289 E2.96665
G1 X109.658 Y103.138 E2.98769
G1 X110.326 Y103.001 E3.01264
G1 X110.928 Y102.919 E3.03487
G1 X111.535 Y102.916 E3.05707
G1 X112.138 Y102.992 E3.07931
G1 X112.685 Y103.134 E3.09999
G1 X113.351 Y103.351 E3.12561
G1 X113.915 Y103.577 E3.14784
G1 X114.445 Y103.875 E3.17009
G1 X115.124 Y104.416 E3.20185
G1 X115.5 Y104.778 E3.22095
G1 X115.909 Y105.227 E3.24317
G1 X116.256 Y105.726 E3.2654
G1 X116.534 Y106.266 E3.28762
G1 X116.742 Y106.745 E3.30673
G1 X116.947 Y107.317 E3.32896
G1 X117.107 Y108.184 E3.36122
G1 X117.137 Y108.528 E3.37385
G1 X117.149 Y109.135 E3.39606
G1 X117.027 Y110.006 E3.42824
G1 X116.904 Y110.519 E3.44754
G1 X116.774 Y110.937 E3.46356
G1 X117.094 Y111.16 E3.47783
G1 X117.543 Y111.57 E3.50007
G1 X117.934 Y112.034 E3.52227
G1 X117.942 Y112.047 E3.52283
G1 X118.289 Y112.047 E3.53553
G1 X118.895 Y112.087 E3.55774
G1 X119.491 Y112.206 E3.57998
G1 X120.066 Y112.402 E3.60221
G1 X120.61 Y112.673 E3.62444
G1 X121.007 Y112.931 E3.64176
G1 X121.682 Y113.422 E3.6723
G1 X122.148 Y113.811 E3.69451
G1 X122.56 Y114.258 E3.71675
G1 X122.91 Y114.755 E3.73899
G1 X123.191 Y115.293 E3.7612
G1 X123.399 Y115.864 E3.78343
G1 X123.55 Y116.598 E3.81085
G1 X123.738 Y118.137 E3.86757
G1 X123.772 Y118.743 E3.88978
G1 X123.701 Y119.501 E3.91763
G1 X123.494 Y120.672 E3.96114
G1 X123.35 Y121.262 E3.98336
G1 X123.129 Y121.828 E4.00559
G1 X122.923 Y122.217 E4.02169
G1 X122.587 Y122.786 E4.04587
G1 X122.244 Y123.288 E4.06811
G1 X121.839 Y123.74 E4.09032
G1 X121.509 Y124.033 E4.10646
G1 X120.404 Y124.924 E4.1584
G1 X119.907 Y125.274 E4.18064
G1 X119.368 Y125.555 E4.20288
G1 X118.998 Y125.7 E4.21741
G1 X117.274 Y126.289 E4.28407
G1 X116.687 Y126.447 E4.30631
G1 X116.085 Y126.527 E4.32853
G1 X115.535 Y126.531 E4.34865
G1 X114.12 Y126.456 E4.40049
G1 X113.517 Y126.384 E4.42271
G1 X112.928 Y126.233 E4.44496
G1 X112.559 Y126.095 E4.45937
G1 X111.876 Y125.805 E4.48652
G1 X111.334 Y125.531 E4.50874
G1 X110.879 Y125.225 E4.5288
G1 X110.761 Y125.135 E4.53423
G1 X110.477 Y125.183 E4.54477
G1 X110 Y125.208 E4.56224
G1 X107.366 Y125.208 E4.65861
G1 X106.76 Y125.168 E4.68083
G1 X106.164 Y125.049 E4.70306
G1 X105.589 Y124.853 E4.72529
G1 X105.045 Y124.582 E4.74753
G1 X104.646 Y124.323 E4.76493
G1 X102.515 Y122.771 E4.86138
G1 X102.049 Y122.381 E4.88361
G1 X101.637 Y121.934 E4.90585
G1 X101.288 Y121.437 E4.92807
G1 X101.007 Y120.898 E4.95031
G1 X100.842 Y120.467 E4.9672
G1 X100.027 Y117.965 E5.06347
G1 X99.877 Y117.376 E5.08571
G1 X99.806 Y116.773 E5.10792
G1 X99.815 Y116.165 E5.13017
G1 X99.903 Y115.564 E5.15239
G1 X100.027 Y115.103 E5.16985
G1 X100.842 Y112.601 E5.26613
G1 X101.068 Y112.037 E5.28836
G1 X101.366 Y111.507 E5.3106
G1 X101.731 Y111.021 E5.33284
G1 X102.156 Y110.588 E5.35504
G1 X102.514 Y110.298 E5.37189
G1 X103.528 Y109.559 E5.4178
G1 X104.041 Y109.235 E5.44
G1 X104.593 Y108.98 E5.46224
G1 X105.173 Y108.8 E5.48446
G1 X105.231 Y108.79 E5.48661
G1 X105.246 Y108.42 E5.50016
G1 X105.309 Y107.816 E5.52238
G1 X105.452 Y107.225 E5.54463
G1 X105.6 Y106.82 E5.5604
G1 X105.799 Y106.344 E5.57928
G1 X106.069 Y105.8 E5.6015
G1 X106.409 Y105.296 E5.62374
G1 X107.009 Y104.658 E5.65578
M204 S5000
M205 X30 Y30
G0 F7200 X107.3 Y104.988
M204 S500
M205 X20 Y20
G1 F900 X107.825 Y104.526 E5.68137
G1 X108.284 Y104.175 E5.70251
G1 X108.787 Y103.891 E5.72364
G1 X109.325 Y103.679 E5.7448
G1 X109.746 Y103.569 E5.76072
G1 X110.414 Y103.432 E5.78567
G1 X110.987 Y103.356 E5.80682
G1 X111.565 Y103.359 E5.82796
G1 X112.137 Y103.441 E5.8491
G1 X112.549 Y103.553 E5.86472
G1 X113.215 Y103.77 E5.89035
G1 X113.751 Y103.986 E5.91149
G1 X114.252 Y104.275 E5.93265
G1 X114.819 Y104.733 E5.95932
G1 X115.195 Y105.095 E5.97842
G1 X115.583 Y105.523 E5.99955
G1 X115.908 Y106.001 E6.0207
G1 X116.13 Y106.441 E6.03873
G1 X116.338 Y106.92 E6.05784
G1 X116.531 Y107.465 E6.07899
G1 X116.668 Y108.222 E6.10713
G1 X116.698 Y108.566 E6.11977
G1 X116.708 Y109.144 E6.14092
G1 X116.599 Y109.904 E6.16901
G1 X116.476 Y110.417 E6.18831
G1 X116.303 Y110.968 E6.20944
G1 X116.23 Y111.121 E6.21564
G1 X116.535 Y111.296 E6.22851
G1 X116.992 Y111.65 E6.24965
G1 X117.396 Y112.063 E6.27079
G1 X117.709 Y112.487 E6.29007
G1 X118.289 Y112.487 E6.31129
G1 X118.866 Y112.527 E6.33245
G1 X119.431 Y112.646 E6.35358
G1 X119.975 Y112.842 E6.37473
G1 X120.486 Y113.111 E6.39586
G1 X120.748 Y113.287 E6.40741
G1 X121.423 Y113.778 E6.43795
G1 X121.866 Y114.149 E6.45909
G1 X122.253 Y114.578 E6.48023
G1 X122.577 Y115.056 E6.50135
G1 X122.833 Y115.575 E6.52253
G1 X123.014 Y116.124 E6.54368
G1 X123.113 Y116.651 E6.56329
G1 X123.301 Y118.19 E6.62002
G1 X123.331 Y118.767 E6.64116
G1 X123.268 Y119.425 E6.66534
G1 X123.061 Y120.596 E6.70885
G1 X122.921 Y121.156 E6.72997
G1 X122.706 Y121.693 E6.75113
G1 X122.544 Y121.993 E6.7636
G1 X122.208 Y122.562 E6.78778
G1 X121.881 Y123.039 E6.80894
G1 X121.491 Y123.465 E6.83007
G1 X121.233 Y123.691 E6.84262
G1 X120.128 Y124.582 E6.89455
G1 X119.654 Y124.913 E6.9157
G1 X119.139 Y125.175 E6.93684
G1 X118.855 Y125.284 E6.94797
G1 X117.131 Y125.873 E7.01463
G1 X116.573 Y126.021 E7.03575
G1 X115.999 Y126.091 E7.0569
G1 X115.559 Y126.091 E7.073
G1 X114.144 Y126.016 E7.12484
G1 X113.57 Y125.946 E7.146
G1 X113.012 Y125.797 E7.16713
G1 X112.731 Y125.69 E7.17813
G1 X112.048 Y125.4 E7.20528
G1 X111.533 Y125.137 E7.22643
G1 X111.146 Y124.875 E7.24353
G1 X110.882 Y124.673 E7.25569
G1 X110.319 Y124.756 E7.27651
G1 X110 Y124.768 E7.28819
G1 X107.366 Y124.768 E7.38456
G1 X106.789 Y124.728 E7.40572
G1 X106.224 Y124.609 E7.42685
G1 X105.68 Y124.413 E7.448
G1 X105.169 Y124.144 E7.46913
G1 X104.905 Y123.967 E7.48076
G1 X102.774 Y122.415 E7.57721
G1 X102.332 Y122.043 E7.59835
G1 X101.945 Y121.614 E7.61948
G1 X101.621 Y121.135 E7.64064
G1 X101.365 Y120.617 E7.66178
G1 X101.261 Y120.331 E7.67291
G1 X100.446 Y117.829 E7.76919
G1 X100.305 Y117.268 E7.79035
G1 X100.243 Y116.693 E7.81151
G1 X100.261 Y116.116 E7.83263
G1 X100.358 Y115.546 E7.85378
G1 X100.446 Y115.239 E7.86547
G1 X101.261 Y112.737 E7.96174
G1 X101.477 Y112.202 E7.98285
G1 X101.765 Y111.701 E8.00399
G1 X102.12 Y111.244 E8.02516
G1 X102.534 Y110.841 E8.0463
G1 X102.773 Y110.654 E8.0574
G1 X103.787 Y109.915 E8.10331
G1 X104.277 Y109.608 E8.12446
G1 X104.804 Y109.371 E8.14561
G1 X105.359 Y109.209 E8.16676
G1 X105.678 Y109.162 E8.17855
G1 X105.668 Y108.87 E8.18924
G1 X105.685 Y108.438 E8.20506
G1 X105.748 Y107.863 E8.22622
G1 X105.889 Y107.303 E8.24735
G1 X106.005 Y106.99 E8.25956
G1 X106.204 Y106.514 E8.27844
G1 X106.464 Y105.997 E8.29961
G1 X106.792 Y105.521 E8.32076
G1 X107.3 Y104.988 E8.3477
M204 S5000
M205 X30 Y30
G0 F7200 X107.59 Y105.318
M204 S500
M205 X20 Y20
G1 F900 X108.115 Y104.856 E8.37329
G1 X108.551 Y104.526 E8.39329
G1 X109.03 Y104.263 E8.41328
G1 X109.542 Y104.073 E8.43327
G1 X109.835 Y104 E8.44431
G1 X110.503 Y103.863 E8.46926
G1 X111.045 Y103.793 E8.48926
G1 X111.591 Y103.802 E8.50923
G1 X112.131 Y103.891 E8.52926
G1 X112.413 Y103.971 E8.53998
G1 X113.079 Y104.188 E8.56561
G1 X113.585 Y104.395 E8.58561
G1 X114.055 Y104.673 E8.60559
G1 X114.514 Y105.05 E8.62732
G1 X114.89 Y105.412 E8.64642
G1 X115.255 Y105.819 E8.66642
G1 X115.557 Y106.274 E8.6864
G1 X115.727 Y106.616 E8.70037
G1 X115.935 Y107.095 E8.71948
G1 X116.115 Y107.611 E8.73947
G1 X116.23 Y108.26 E8.76358
G1 X116.26 Y108.604 E8.77622
G1 X116.267 Y109.151 E8.79623
G1 X116.171 Y109.801 E8.82027
G1 X116.048 Y110.314 E8.83957
G1 X115.882 Y110.835 E8.85958
G1 X115.643 Y111.324 E8.87949
G1 X116 Y111.486 E8.89383
G1 X116.46 Y111.782 E8.91385
G1 X116.871 Y112.141 E8.93381
G1 X117.226 Y112.557 E8.95382
G1 X117.459 Y112.927 E8.96982
G1 X118.289 Y112.927 E9.00018
G1 X118.834 Y112.967 E9.02018
G1 X119.368 Y113.086 E9.04019
G1 X119.878 Y113.281 E9.06017
G1 X120.489 Y113.643 E9.08615
G1 X121.164 Y114.134 E9.11669
G1 X121.581 Y114.487 E9.13668
G1 X121.943 Y114.897 E9.15669
G1 X122.241 Y115.355 E9.17668
G1 X122.468 Y115.852 E9.19667
G1 X122.621 Y116.377 E9.21668
G1 X122.676 Y116.705 E9.22885
G1 X122.864 Y118.244 E9.28557
G1 X122.891 Y118.789 E9.30553
G1 X122.835 Y119.348 E9.32609
G1 X122.628 Y120.519 E9.36959
G1 X122.494 Y121.049 E9.3896
G1 X122.165 Y121.77 E9.41859
G1 X121.829 Y122.339 E9.44277
G1 X121.518 Y122.788 E9.46275
G1 X120.957 Y123.348 E9.49175
G1 X119.852 Y124.239 E9.54368
G1 X119.402 Y124.551 E9.56372
G1 X118.713 Y124.867 E9.59145
G1 X116.989 Y125.456 E9.6581
G1 X116.46 Y125.595 E9.67812
G1 X115.917 Y125.654 E9.6981
G1 X115.582 Y125.652 E9.71035
G1 X114.167 Y125.577 E9.7622
G1 X113.625 Y125.508 E9.78219
G1 X112.903 Y125.285 E9.80983
G1 X112.22 Y124.995 E9.83698
G1 X111.734 Y124.745 E9.85698
G1 X111.413 Y124.525 E9.87121
G1 X110.973 Y124.189 E9.89147
G1 X110.71 Y124.26 E9.90144
G1 X110 Y124.328 E9.92753
G1 X107.366 Y124.328 E10.0239
G1 X106.821 Y124.288 E10.04389
G1 X106.287 Y124.169 E10.06391
G1 X105.777 Y123.974 E10.08388
G1 X105.164 Y123.611 E10.10995
G1 X103.033 Y122.059 E10.2064
G1 X102.616 Y121.706 E10.22639
G1 X102.255 Y121.296 E10.24637
G1 X101.957 Y120.837 E10.2664
G1 X101.679 Y120.194 E10.29203
G1 X100.864 Y117.692 E10.3883
G1 X100.733 Y117.162 E10.40827
G1 X100.681 Y116.617 E10.4283
G1 X100.709 Y116.072 E10.44827
G1 X100.864 Y115.376 E10.47436
G1 X101.679 Y112.874 E10.57063
G1 X101.886 Y112.368 E10.59063
G1 X102.164 Y111.897 E10.61064
G1 X102.508 Y111.472 E10.63064
G1 X103.032 Y111.01 E10.6562
G1 X104.046 Y110.271 E10.70211
G1 X104.51 Y109.982 E10.72211
G1 X105.012 Y109.764 E10.74213
G1 X105.539 Y109.621 E10.76211
G1 X106.082 Y109.557 E10.78211
G1 X106.15 Y109.559 E10.7846
G1 X106.124 Y109.41 E10.79014
G1 X106.108 Y108.887 E10.80928
G1 X106.125 Y108.455 E10.8251
G1 X106.186 Y107.912 E10.84509
G1 X106.411 Y107.159 E10.87384
G1 X106.61 Y106.683 E10.89272
G1 X106.858 Y106.196 E10.91271
G1 X107.173 Y105.75 E10.93269
G1 X107.59 Y105.318 E10.95466
M204 S5000
M205 X30 Y30
G0 F7200 X107.553 Y105.981
M204 S500
M205 X20 Y20
G1 F900 X107.881 Y105.649 E10.97173
G1 X108.406 Y105.187 E10.99732
G1 X108.817 Y104.878 E11.01613
G1 X109.27 Y104.638 E11.03488
G1 X109.923 Y104.431 E11.05995
G1 X110.591 Y104.294 E11.08489
G1 X111.1 Y104.231 E11.10366
G1 X111.614 Y104.247 E11.12247
G1 X112.276 Y104.389 E11.14724
G1 X112.942 Y104.606 E11.17287
G1 X113.417 Y104.803 E11.19169
G1 X113.855 Y105.071 E11.21047
G1 X114.209 Y105.367 E11.22735
G1 X114.585 Y105.729 E11.24645
G1 X114.926 Y106.112 E11.26521
G1 X115.203 Y106.545 E11.28402
G1 X115.323 Y106.792 E11.29406
G1 X115.531 Y107.271 E11.31317
G1 X115.698 Y107.756 E11.33194
G1 X115.792 Y108.298 E11.35206
G1 X115.822 Y108.642 E11.3647
G1 X115.826 Y109.156 E11.3835
G1 X115.743 Y109.698 E11.40356
G1 X115.62 Y110.211 E11.42286
G1 X115.462 Y110.7 E11.44167
G1 X115.23 Y111.158 E11.46045
G1 X115.08 Y111.382 E11.47031
G1 X114.952 Y111.559 E11.4783
G1 X115.008 Y111.568 E11.48038
G1 X115.495 Y111.731 E11.49917
G1 X115.951 Y111.967 E11.51795
G1 X116.365 Y112.27 E11.53672
G1 X116.727 Y112.634 E11.5555
G1 X117.028 Y113.05 E11.57429
G1 X117.2 Y113.388 E11.58817
G1 X117.457 Y113.367 E11.5976
G1 X118.289 Y113.367 E11.62804
G1 X118.801 Y113.407 E11.64683
G1 X119.3 Y113.526 E11.6656
G1 X119.775 Y113.721 E11.68438
G1 X120.23 Y113.998 E11.70387
G1 X120.905 Y114.489 E11.73441
G1 X121.296 Y114.823 E11.75322
G1 X121.63 Y115.213 E11.77201
G1 X121.899 Y115.65 E11.79078
G1 X122.098 Y116.123 E11.80956
G1 X122.24 Y116.758 E11.83336
G1 X122.428 Y118.297 E11.89009
G1 X122.45 Y118.81 E11.90888
G1 X122.402 Y119.271 E11.92583
G1 X122.195 Y120.442 E11.96934
G1 X122.066 Y120.94 E11.98816
G1 X121.787 Y121.546 E12.01257
G1 X121.451 Y122.115 E12.03674
G1 X121.156 Y122.535 E12.05552
G1 X120.68 Y123.006 E12.08002
G1 X119.575 Y123.897 E12.13196
G1 X119.152 Y124.187 E12.15072
G1 X118.571 Y124.451 E12.17407
G1 X116.847 Y125.04 E12.24072
G1 X116.35 Y125.167 E12.25949
G1 X115.605 Y125.212 E12.28679
G1 X114.19 Y125.137 E12.33864
G1 X113.681 Y125.07 E12.35742
G1 X113.075 Y124.88 E12.38066
