;FLAVOR:Marlin
;TIME:3948
;Filament used: 2.91368m
;Layer height: 0.2
;Generated with Cura_SteamEngine 3.6.0
M140 S70
M105
M190 S70
M104 S215
M105
M109 S215
M82 ;absolute extrusion mode
G28 ; home all axes
M117 Purge extruder
G92 E0 ; reset extruder
G1 Z1.0 F3000 ; move z up little to prevent scratching of surface
G1 X0.1 Y20 Z0.3 F5000.0 ; move to start-line position G1 X0.1 Y200.0 Z0.3 F1500.0 E15 ; draw 1st line
G1 X0.4 Y200.0 Z0.3 F5000.0 ; move to side a little
G1 X0.4 Y20 Z0.3 F1500.0 E30 ; draw 2nd line
G92 E0 ; reset extruder
G1 Z1.0 F3000 ; move z up little to prevent scratching of surface
M117 All systems go!
G92 E0
G1 F6000 E-5
;LAYER_COUNT:15
;LAYER:0
M107
M204 S5000
M205 X30 Y30
G0 F7200 X75.735 Y80.126 Z0.2
M204 S500
M205 X20 Y20
;TYPE:SKIRT
G1 F6000 E0
G1 F900 X78.15 Y77.809 E0.12244
G1 X79.567 Y76.571 E0.19129
G1 X81.938 Y74.69 E0.30201
G1 X83.273 Y73.718 E0.36243
G1 X85.894 Y71.97 E0.47769
G1 X87.197 Y71.172 E0.5336
G1 X90.006 Y69.594 E0.65147
G1 X91.319 Y68.918 E0.7055
G1 X94.276 Y67.533 E0.82497
G1 X95.276 Y67.098 E0.86486
G1 X96.785 Y66.489 E0.9244
G1 X97.883 Y66.083 E0.96723
G1 X100.924 Y65.058 E1.08464
G1 X102.591 Y64.575 E1.14814
G1 X106.003 Y63.746 E1.2766
G1 X107.151 Y63.502 E1.31954
G1 X109.116 Y63.145 E1.39261
G1 X110.52 Y62.942 E1.44451
G1 X112.844 Y62.688 E1.53004
G1 X114.475 Y62.576 E1.58985
G1 X117.53 Y62.493 E1.70166
G1 X118.796 Y62.499 E1.74798
G1 X119.549 Y62.54 E1.77557
G1 X122.555 Y62.762 E1.88585
G1 X124.22 Y62.956 E1.94718
G1 X126.802 Y63.366 E2.04283
G1 X128.131 Y63.623 E2.09235
G1 X129.681 Y63.978 E2.15053
G1 X130.808 Y64.271 E2.19313
G1 X134.813 Y65.437 E2.34574
G1 X135.734 Y65.729 E2.38109
G1 X138.29 Y66.609 E2.47999
G1 X139.109 Y66.911 E2.51193
G1 X141.148 Y67.714 E2.5921
G1 X142.442 Y68.278 E2.64375
G1 X144.374 Y69.201 E2.72209
G1 X145.576 Y69.826 E2.77165
G1 X147.465 Y70.891 E2.85099
G1 X148.565 Y71.558 E2.89806
G1 X150.386 Y72.745 E2.97758
G1 X151.417 Y73.464 E3.02357
G1 X153.144 Y74.751 E3.10237
G1 X154.097 Y75.507 E3.14687
G1 X155.761 Y76.912 E3.22655
G1 X156.691 Y77.749 E3.27233
G1 X158.245 Y79.237 E3.35105
G1 X159.105 Y80.113 E3.39596
G1 X160.558 Y81.686 E3.4743
G1 X161.4 Y82.659 E3.52138
G1 X162.744 Y84.316 E3.59944
G1 X163.516 Y85.331 E3.64609
G1 X164.714 Y87.017 E3.72176
G1 X165.501 Y88.213 E3.77414
G1 X166.568 Y89.968 E3.84929
G1 X167.283 Y91.248 E3.90293
G1 X168.2 Y93.04 E3.97658
G1 X168.85 Y94.44 E4.03305
G1 X169.604 Y96.244 E4.10458
G1 X170.23 Y97.959 E4.17138
G1 X170.901 Y100.093 E4.25322
G1 X171.233 Y101.273 E4.29807
G1 X171.609 Y102.787 E4.35514
G1 X171.875 Y104.024 E4.40144
G1 X172.001 Y104.804 E4.43034
G1 X172.309 Y106.978 E4.51068
G1 X172.447 Y108.236 E4.55698
G1 X172.505 Y109.5 E4.60327
G1 X172.483 Y110.765 E4.64956
G1 X172.381 Y112.026 E4.69584
G1 X172.2 Y113.278 E4.74213
G1 X172.155 Y113.493 E4.75016
G1 X172.339 Y115.27 E4.81552
G1 X172.445 Y117.161 E4.88482
G1 X172.471 Y120.194 E4.99579
G1 X172.442 Y121.459 E5.04208
G1 X172.394 Y122.137 E5.06695
G1 X172.126 Y125.155 E5.1778
G1 X171.974 Y126.411 E5.22409
G1 X171.862 Y127.067 E5.24844
G1 X171.311 Y130.011 E5.35802
G1 X171.039 Y131.247 E5.40432
G1 X170.858 Y131.912 E5.42953
G1 X170.02 Y134.797 E5.53945
G1 X169.629 Y136.001 E5.58576
G1 X169.381 Y136.652 E5.61125
G1 X168.422 Y139.048 E5.70567
G1 X167.645 Y140.755 E5.77429
G1 X166.34 Y143.296 E5.8788
G1 X165.726 Y144.403 E5.92511
G1 X165.044 Y145.469 E5.97141
G1 X164.296 Y146.489 E6.01769
G1 X163.485 Y147.461 E6.064
G1 X162.614 Y148.379 E6.1103
G1 X161.687 Y149.24 E6.15659
G1 X160.708 Y150.041 E6.20287
G1 X160.569 Y150.141 E6.20913
G1 X160.405 Y150.443 E6.2217
G1 X160.058 Y151.015 E6.24618
G1 X158.479 Y153.525 E6.35467
G1 X157.771 Y154.575 E6.401
G1 X157.368 Y155.115 E6.42566
G1 X155.564 Y157.447 E6.53352
G1 X154.615 Y158.584 E6.58771
G1 X153.642 Y159.666 E6.64095
G1 X152.659 Y160.684 E6.69272
G1 X150.853 Y162.427 E6.78455
G1 X149.817 Y163.36 E6.83556
G1 X147.967 Y164.912 E6.9239
G1 X146.972 Y165.694 E6.97021
G1 X146.396 Y166.103 E6.99605
G1 X145.12 Y166.975 E7.05259
G1 X144.053 Y167.656 E7.09891
G1 X142.945 Y168.267 E7.1452
G1 X141.801 Y168.808 E7.1915
G1 X140.625 Y169.275 E7.23779
G1 X139.422 Y169.667 E7.28408
G1 X138.197 Y169.983 E7.33037
G1 X136.954 Y170.22 E7.37666
G1 X135.698 Y170.378 E7.42298
G1 X134.435 Y170.457 E7.46928
G1 X133.17 Y170.455 E7.51556
G1 X131.907 Y170.374 E7.56186
G1 X130.652 Y170.213 E7.60815
G1 X129.41 Y169.973 E7.65443
G1 X128.185 Y169.655 E7.70074
G1 X126.982 Y169.261 E7.74705
G1 X126.264 Y168.974 E7.77534
G1 X125.467 Y169.341 E7.80744
G1 X124.287 Y169.797 E7.85372
G1 X123.08 Y170.177 E7.90002
G1 X121.851 Y170.48 E7.94633
G1 X120.606 Y170.705 E7.99262
G1 X119.349 Y170.851 E8.03892
G1 X117.575 Y170.922 E8.10387
G1 X117.151 Y170.92 E8.11939
G1 X115.886 Y170.874 E8.1657
G1 X114.627 Y170.748 E8.21199
G1 X113.378 Y170.543 E8.2583
G1 X112.145 Y170.26 E8.30458
G1 X110.932 Y169.899 E8.35088
G1 X109.745 Y169.462 E8.39716
G1 X108.587 Y168.951 E8.44347
G1 X108.504 Y168.908 E8.44689
G1 X108.42 Y168.944 E8.45023
G1 X107.226 Y169.365 E8.49655
G1 X106.009 Y169.71 E8.54283
G1 X104.772 Y169.977 E8.58913
G1 X103.521 Y170.165 E8.63542
G1 X102.26 Y170.274 E8.68172
G1 X100.995 Y170.303 E8.72802
G1 X99.731 Y170.252 E8.7743
G1 X98.472 Y170.122 E8.82061
G1 X97.224 Y169.912 E8.86691
G1 X95.992 Y169.623 E8.9132
G1 X94.781 Y169.258 E8.95948
G1 X93.595 Y168.816 E9.00579
G1 X92.439 Y168.301 E9.05209
G1 X91.318 Y167.713 E9.0984
G1 X90.237 Y167.056 E9.14468
G1 X89.199 Y166.332 E9.19098
G1 X88.157 Y165.5 E9.23977
G1 X84.245 Y162.155 E9.42808
G1 X83.31 Y161.303 E9.47436
G1 X82.778 Y160.766 E9.50202
G1 X81.015 Y158.92 E9.59541
G1 X79.84 Y157.574 E9.66077
G1 X78.254 Y155.585 E9.75385
G1 X77.231 Y154.182 E9.81737
G1 X75.816 Y152.052 E9.91093
G1 X74.897 Y150.524 E9.97617
G1 X74.203 Y149.245 E10.0294
G1 X73.981 Y149.087 E10.03937
G1 X73 Y148.288 E10.08566
G1 X72.071 Y147.429 E10.13195
G1 X71.198 Y146.513 E10.17825
G1 X70.384 Y145.544 E10.22455
G1 X69.633 Y144.525 E10.27086
G1 X68.949 Y143.461 E10.31714
G1 X68.333 Y142.356 E10.36343
G1 X67.734 Y141.092 E10.4146
G1 X66.192 Y137.516 E10.55708
G1 X65.74 Y136.372 E10.60208
G1 X65.319 Y135.203 E10.64754
G1 X64.768 Y133.416 E10.71596
G1 X63.88 Y129.97 E10.84615
G1 X63.501 Y128.155 E10.91399
G1 X63.051 Y125.359 E11.0176
G1 X62.89 Y124.104 E11.06389
G1 X62.805 Y122.749 E11.11356
G1 X62.746 Y120.683 E11.18918
G1 X62.741 Y119.778 E11.22229
G1 X62.819 Y115.108 E11.39317
G1 X62.88 Y113.844 E11.43947
G1 X62.921 Y113.495 E11.45233
G1 X62.878 Y113.3 E11.45963
G1 X62.687 Y112.049 E11.50593
G1 X62.575 Y110.789 E11.55221
G1 X62.542 Y109.524 E11.59851
G1 X62.59 Y108.26 E11.64479
G1 X62.741 Y106.834 E11.69725
G1 X62.977 Y105.171 E11.7587
G1 X63.289 Y103.492 E11.82118
G1 X63.747 Y101.503 E11.89586
G1 X64.139 Y100.051 E11.95088
G1 X64.764 Y98.041 E12.02789
G1 X65.234 Y96.7 E12.07988
G1 X65.997 Y94.747 E12.15659
G1 X66.597 Y93.366 E12.21168
G1 X67.483 Y91.521 E12.28656
G1 X68.067 Y90.398 E12.33287
G1 X68.453 Y89.739 E12.36082
G1 X69.903 Y87.369 E12.46247
G1 X70.597 Y86.311 E12.50876
G1 X71.089 Y85.64 E12.5392
G1 X72.899 Y83.278 E12.64807
G1 X73.995 Y81.967 E12.71059
G1 X74.8 Y81.084 E12.7543
G1 X75.227 Y80.646 E12.77668
G0 F810 X75.735 Y80.126
M204 S5000
M205 X30 Y30
G0 F7200 X76.039 Y80.443
M204 S500
M205 X20 Y20
G1 F6000 E12.80328
G1 F900 X78.454 Y78.126 E12.92573
G1 X79.841 Y76.916 E12.99307
G1 X82.212 Y75.035 E13.1038
G1 X83.517 Y74.084 E13.16287
G1 X86.138 Y72.336 E13.27814
G1 X87.412 Y71.555 E13.33281
G1 X90.221 Y69.977 E13.45068
G1 X91.506 Y69.317 E13.50354
G1 X94.463 Y67.932 E13.623
G1 X95.44 Y67.506 E13.66199
G1 X96.949 Y66.897 E13.72153
G1 X98.023 Y66.5 E13.76342
G1 X101.064 Y65.475 E13.88083
G1 X102.695 Y65.003 E13.94295
G1 X106.107 Y64.174 E14.07141
G1 X107.23 Y63.935 E14.11342
G1 X109.195 Y63.578 E14.18649
G1 X110.568 Y63.379 E14.23725
G1 X112.892 Y63.125 E14.32278
G1 X114.487 Y63.016 E14.38127
G1 X117.542 Y62.933 E14.49308
G1 X118.794 Y62.939 E14.53889
G1 X119.516 Y62.979 E14.56534
G1 X122.522 Y63.201 E14.67562
G1 X124.151 Y63.39 E14.73562
G1 X126.733 Y63.8 E14.83127
G1 X128.033 Y64.052 E14.87972
G1 X129.583 Y64.407 E14.93789
G1 X130.685 Y64.694 E14.97956
G1 X134.69 Y65.86 E15.13217
G1 X135.591 Y66.146 E15.16675
G1 X138.147 Y67.026 E15.26565
G1 X138.948 Y67.321 E15.29688
G1 X140.987 Y68.124 E15.37706
G1 X142.252 Y68.675 E15.42754
G1 X144.184 Y69.598 E15.50588
G1 X145.36 Y70.209 E15.55436
G1 X147.249 Y71.274 E15.6337
G1 X148.325 Y71.927 E15.67975
G1 X150.146 Y73.114 E15.75928
G1 X151.154 Y73.817 E15.80424
G1 X152.881 Y75.104 E15.88304
G1 X153.813 Y75.844 E15.92658
G1 X155.477 Y77.249 E16.00626
G1 X156.387 Y78.067 E16.05103
G1 X157.941 Y79.555 E16.12974
G1 X158.782 Y80.411 E16.17364
G1 X160.235 Y81.984 E16.25199
G1 X161.059 Y82.936 E16.29805
G1 X162.403 Y84.593 E16.37611
G1 X163.157 Y85.586 E16.42173
G1 X164.355 Y87.272 E16.4974
G1 X165.125 Y88.441 E16.54861
G1 X166.192 Y90.196 E16.62376
G1 X166.891 Y91.449 E16.67625
G1 X167.808 Y93.241 E16.7499
G1 X168.444 Y94.609 E16.80509
G1 X169.198 Y96.413 E16.87663
G1 X169.81 Y98.091 E16.94197
G1 X170.481 Y100.225 E17.02382
G1 X170.806 Y101.379 E17.06768
G1 X171.182 Y102.893 E17.12476
G1 X171.444 Y104.116 E17.17052
G1 X171.565 Y104.865 E17.19827
G1 X171.873 Y107.039 E17.27861
G1 X172.009 Y108.283 E17.32439
G1 X172.065 Y109.534 E17.37021
G1 X172.042 Y110.785 E17.41598
G1 X171.938 Y112.032 E17.46176
G1 X171.755 Y113.27 E17.50755
G1 X171.711 Y113.474 E17.51518
G1 X171.902 Y115.316 E17.58294
G1 X172.005 Y117.165 E17.65069
G1 X172.031 Y120.198 E17.76166
G1 X172.002 Y121.449 E17.80744
G1 X171.955 Y122.098 E17.83125
G1 X171.687 Y125.116 E17.9421
G1 X171.537 Y126.358 E17.98787
G1 X171.43 Y126.986 E18.01118
G1 X170.879 Y129.93 E18.12076
G1 X170.609 Y131.152 E18.16654
G1 X170.436 Y131.79 E18.19073
G1 X169.598 Y134.675 E18.30064
G1 X169.211 Y135.865 E18.34642
G1 X168.973 Y136.489 E18.37086
G1 X168.014 Y138.885 E18.46528
G1 X167.253 Y140.554 E18.53239
G1 X165.948 Y143.095 E18.6369
G1 X165.341 Y144.189 E18.68267
G1 X164.666 Y145.243 E18.72846
G1 X163.924 Y146.251 E18.77426
G1 X163.12 Y147.209 E18.82001
G1 X162.256 Y148.115 E18.86582
G1 X161.336 Y148.963 E18.91159
G1 X160.363 Y149.751 E18.9574
G1 X160.227 Y149.847 E18.96349
G1 X160.018 Y150.233 E18.97955
G1 X159.685 Y150.781 E19.00301
G1 X158.106 Y153.291 E19.1115
G1 X157.406 Y154.328 E19.15728
G1 X157.02 Y154.845 E19.18088
G1 X155.216 Y157.177 E19.28875
G1 X154.288 Y158.289 E19.34174
G1 X153.315 Y159.371 E19.39498
G1 X152.353 Y160.368 E19.44567
G1 X150.547 Y162.111 E19.5375
G1 X149.534 Y163.022 E19.58734
G1 X147.684 Y164.574 E19.67569
G1 X146.7 Y165.348 E19.72149
G1 X146.147 Y165.74 E19.74629
G1 X144.871 Y166.612 E19.80284
G1 X143.816 Y167.284 E19.8486
G1 X142.72 Y167.888 E19.89438
G1 X141.588 Y168.421 E19.94016
G1 X140.424 Y168.88 E19.98594
G1 X139.233 Y169.264 E20.03172
G1 X138.02 Y169.571 E20.0775
G1 X136.789 Y169.8 E20.12331
G1 X135.547 Y169.95 E20.16908
G1 X134.297 Y170.02 E20.21488
G1 X133.046 Y170.011 E20.26065
G1 X131.798 Y169.921 E20.30643
G1 X130.558 Y169.752 E20.35222
G1 X129.331 Y169.504 E20.39802
G1 X128.123 Y169.178 E20.44379
G1 X126.938 Y168.775 E20.48959
G1 X126.259 Y168.495 E20.51646
G1 X126.209 Y168.521 E20.51852
G1 X125.066 Y169.031 E20.56431
G1 X123.893 Y169.467 E20.6101
G1 X122.694 Y169.826 E20.65589
G1 X121.475 Y170.109 E20.70167
G1 X120.24 Y170.312 E20.74746
G1 X118.995 Y170.437 E20.79324
G1 X117.577 Y170.482 E20.84515
G1 X117.153 Y170.48 E20.86066
G1 X115.902 Y170.434 E20.90646
G1 X114.657 Y170.308 E20.95224
G1 X113.423 Y170.103 E20.99801
G1 X112.204 Y169.82 E21.04379
G1 X111.005 Y169.459 E21.08961
G1 X109.833 Y169.023 E21.13535
G1 X108.69 Y168.512 E21.18116
G1 X108.519 Y168.422 E21.18823
G1 X108.17 Y168.569 E21.20209
G1 X106.988 Y168.979 E21.24786
G1 X105.782 Y169.313 E21.29364
G1 X104.557 Y169.569 E21.33943
G1 X103.318 Y169.746 E21.38522
G1 X102.07 Y169.843 E21.43102
G1 X100.819 Y169.861 E21.47679
G1 X99.569 Y169.799 E21.52258
G1 X98.326 Y169.657 E21.56835
G1 X97.094 Y169.435 E21.61415
G1 X95.879 Y169.136 E21.65993
G1 X94.686 Y168.76 E21.70569
G1 X93.519 Y168.308 E21.75148
G1 X92.383 Y167.782 E21.79728
G1 X91.283 Y167.186 E21.84305
G1 X90.223 Y166.52 E21.88886
G1 X89.209 Y165.787 E21.93463
G1 X88.443 Y165.166 E21.97071
G1 X84.531 Y161.821 E22.15902
G1 X83.607 Y160.977 E22.20481
G1 X83.096 Y160.462 E22.23135
G1 X81.333 Y158.616 E22.32474
G1 X80.184 Y157.3 E22.38866
G1 X78.598 Y155.311 E22.48173
G1 X77.598 Y153.939 E22.54384
G1 X76.183 Y151.809 E22.6374
G1 X75.283 Y150.314 E22.70124
G1 X74.538 Y148.941 E22.7584
G1 X74.073 Y148.602 E22.77945
G1 X73.111 Y147.801 E22.82525
G1 X72.203 Y146.94 E22.87103
G1 X71.352 Y146.023 E22.9168
G1 X70.56 Y145.053 E22.96262
G1 X69.833 Y144.035 E23.00838
G1 X69.172 Y142.973 E23.05415
G1 X68.58 Y141.87 E23.09995
G1 X68.138 Y140.918 E23.13835
G1 X66.596 Y137.342 E23.28083
G1 X66.154 Y136.223 E23.32484
G1 X65.733 Y135.054 E23.3703
G1 X65.194 Y133.306 E23.43723
G1 X64.306 Y129.86 E23.56742
G1 X63.936 Y128.085 E23.63376
G1 X63.486 Y125.289 E23.73737
G1 X63.327 Y124.048 E23.78314
G1 X63.245 Y122.737 E23.8312
G1 X63.186 Y120.671 E23.90682
G1 X63.181 Y119.785 E23.93923
G1 X63.259 Y115.115 E24.11012
G1 X63.32 Y113.865 E24.1559
G1 X63.367 Y113.462 E24.17075
G1 X63.267 Y112.975 E24.18894
G1 X63.094 Y111.736 E24.23471
G1 X63 Y110.488 E24.2805
G1 X62.986 Y109.236 E24.3263
G1 X63.053 Y107.987 E24.37207
G1 X63.176 Y106.896 E24.41223
G1 X63.412 Y105.233 E24.47369
G1 X63.717 Y103.59 E24.53482
G1 X64.175 Y101.601 E24.6095
G1 X64.559 Y100.181 E24.66332
G1 X65.184 Y98.171 E24.74033
G1 X65.643 Y96.86 E24.79115
G1 X66.406 Y94.907 E24.86786
G1 X66.994 Y93.556 E24.92177
G1 X67.88 Y91.711 E24.99665
G1 X68.457 Y90.601 E25.04242
G1 X68.828 Y89.968 E25.06926
G1 X70.278 Y87.598 E25.17091
G1 X70.965 Y86.552 E25.2167
G1 X71.438 Y85.908 E25.24593
G1 X73.248 Y83.546 E25.3548
G1 X74.321 Y82.264 E25.41597
G1 X75.126 Y81.381 E25.45968
G1 X75.532 Y80.964 E25.48097
G0 F810 X76.039 Y80.443
M204 S5000
M205 X30 Y30
G0 F7200 X76.344 Y80.761
M204 S500
M205 X20 Y20
G1 F6000 E25.50757
G1 F900 X78.759 Y78.444 E25.63002
G1 X80.114 Y77.261 E25.69583
G1 X82.485 Y75.38 E25.80655
G1 X83.761 Y74.45 E25.86432
G1 X86.382 Y72.702 E25.97958
G1 X87.628 Y71.939 E26.03304
G1 X90.437 Y70.361 E26.15092
G1 X91.693 Y69.715 E26.20259
G1 X94.65 Y68.33 E26.32205
G1 X95.605 Y67.914 E26.36016
G1 X97.114 Y67.305 E26.4197
G1 X98.164 Y66.917 E26.46065
G1 X101.205 Y65.892 E26.57806
G1 X102.799 Y65.43 E26.63878
G1 X106.211 Y64.601 E26.76724
G1 X107.309 Y64.368 E26.80831
G1 X109.274 Y64.011 E26.88138
G1 X110.615 Y63.816 E26.93096
G1 X112.939 Y63.562 E27.01649
G1 X114.499 Y63.456 E27.0737
G1 X117.554 Y63.373 E27.18551
G1 X118.791 Y63.379 E27.23076
G1 X119.484 Y63.418 E27.25616
G1 X122.49 Y63.64 E27.36644
G1 X124.082 Y63.825 E27.42507
G1 X126.664 Y64.235 E27.52072
G1 X127.935 Y64.481 E27.56809
G1 X129.485 Y64.836 E27.62626
G1 X130.562 Y65.116 E27.66698
G1 X134.567 Y66.282 E27.81959
G1 X135.448 Y66.562 E27.85341
G1 X138.004 Y67.442 E27.95231
G1 X138.786 Y67.73 E27.9828
G1 X140.825 Y68.533 E28.06298
G1 X142.063 Y69.072 E28.11238
G1 X143.995 Y69.995 E28.19071
G1 X145.144 Y70.592 E28.23809
G1 X147.033 Y71.657 E28.31742
G1 X148.085 Y72.296 E28.36246
G1 X149.906 Y73.483 E28.44198
G1 X150.891 Y74.17 E28.48592
G1 X152.618 Y75.457 E28.56472
G1 X153.529 Y76.18 E28.60727
G1 X155.193 Y77.585 E28.68695
G1 X156.082 Y78.385 E28.7307
G1 X157.636 Y79.873 E28.80942
G1 X158.459 Y80.71 E28.85237
G1 X159.912 Y82.283 E28.93071
G1 X160.717 Y83.213 E28.97571
G1 X162.061 Y84.87 E29.05377
G1 X162.798 Y85.841 E29.09837
G1 X163.996 Y87.527 E29.17404
G1 X164.749 Y88.67 E29.22412
G1 X165.816 Y90.425 E29.29926
G1 X166.5 Y91.649 E29.35056
G1 X167.417 Y93.441 E29.42421
G1 X168.038 Y94.779 E29.47818
G1 X168.792 Y96.583 E29.54971
G1 X169.391 Y98.223 E29.61359
G1 X170.062 Y100.357 E29.69543
G1 X170.379 Y101.485 E29.7383
G1 X170.755 Y102.999 E29.79538
G1 X171.014 Y104.209 E29.84065
G1 X171.13 Y104.927 E29.86726
G1 X171.438 Y107.101 E29.94759
G1 X171.572 Y108.331 E29.99286
G1 X171.626 Y109.567 E30.03812
G1 X171.6 Y110.804 E30.08339
G1 X171.494 Y112.037 E30.12866
