;FLAVOR:Marlin
;TIME:4657
;Filament used: 4.02279m
;Layer height: 0.2
;Generated with Cura_SteamEngine 3.6.0
M140 S70
M105
M190 S70
M104 S215
M105
M109 S215
M82 ;absolute extrusion mode
G28 ; home all axes
M117 Purge extruder
G92 E0 ; reset extruder
G1 Z1.0 F3000 ; move z up little to prevent scratching of surface
G1 X0.1 Y20 Z0.3 F5000.0 ; move to start-line position G1 X0.1 Y200.0 Z0.3 F1500.0 E15 ; draw 1st line
G1 X0.4 Y200.0 Z0.3 F5000.0 ; move to side a little
G1 X0.4 Y20 Z0.3 F1500.0 E30 ; draw 2nd line
G92 E0 ; reset extruder
G1 Z1.0 F3000 ; move z up little to prevent scratching of surface
M117 All systems go!
G92 E0
G1 F6000 E-5
;LAYER_COUNT:26
;LAYER:0
M107
M204 S5000
M205 X30 Y30
G0 F7200 X74.395 Y87.478 Z0.2
M204 S500
M205 X20 Y20
;TYPE:SKIRT
G1 F6000 E0
G1 F900 X75.371 Y86.672 E0.04631
G1 X76.395 Y85.929 E0.0926
G1 X77.465 Y85.252 E0.13892
G1 X78.574 Y84.645 E0.18518
G1 X79.721 Y84.108 E0.23151
G1 X80.898 Y83.645 E0.27779
G1 X82.103 Y83.258 E0.32409
G1 X83.329 Y82.947 E0.37037
G1 X84.573 Y82.715 E0.41666
G1 X85.829 Y82.561 E0.46296
G1 X87.629 Y82.48 E0.52888
G1 X147.371 Y82.48 E2.71461
G1 X148.636 Y82.52 E2.76092
G1 X149.895 Y82.64 E2.80719
G1 X151.145 Y82.839 E2.85349
G1 X152.38 Y83.117 E2.89981
G1 X153.594 Y83.472 E2.94609
G1 X154.784 Y83.903 E2.99239
G1 X155.944 Y84.408 E3.03868
G1 X157.07 Y84.986 E3.08498
G1 X158.157 Y85.634 E3.13128
G1 X159.201 Y86.349 E3.17758
G1 X160.197 Y87.128 E3.22384
G1 X161.527 Y88.344 E3.28977
G1 X161.656 Y88.473 E3.29645
G1 X162.522 Y89.395 E3.34273
G1 X163.328 Y90.371 E3.38904
G1 X164.071 Y91.395 E3.43532
G1 X164.748 Y92.465 E3.48165
G1 X165.355 Y93.574 E3.5279
G1 X165.892 Y94.721 E3.57424
G1 X166.355 Y95.898 E3.62051
G1 X166.742 Y97.103 E3.66682
G1 X167.053 Y98.329 E3.71309
G1 X167.285 Y99.573 E3.75939
G1 X167.439 Y100.829 E3.80569
G1 X167.52 Y102.629 E3.87161
G1 X167.52 Y132.371 E4.95975
G1 X167.48 Y133.636 E5.00606
G1 X167.36 Y134.895 E5.05233
G1 X167.161 Y136.145 E5.09864
G1 X166.883 Y137.38 E5.14495
G1 X166.528 Y138.594 E5.19123
G1 X166.097 Y139.784 E5.23753
G1 X165.592 Y140.944 E5.28382
G1 X165.014 Y142.07 E5.33013
G1 X164.366 Y143.157 E5.37642
G1 X163.651 Y144.201 E5.42272
G1 X162.872 Y145.197 E5.46898
G1 X161.656 Y146.527 E5.53491
G1 X161.527 Y146.656 E5.54159
G1 X160.605 Y147.522 E5.58787
G1 X159.629 Y148.328 E5.63418
G1 X158.605 Y149.071 E5.68046
G1 X157.535 Y149.748 E5.72679
G1 X156.426 Y150.355 E5.77304
G1 X155.279 Y150.892 E5.81938
G1 X154.102 Y151.355 E5.86565
G1 X152.897 Y151.742 E5.91196
G1 X151.671 Y152.053 E5.95823
G1 X150.427 Y152.285 E6.00453
G1 X149.171 Y152.439 E6.05083
G1 X147.371 Y152.52 E6.11675
G1 X87.629 Y152.52 E8.30248
G1 X86.364 Y152.48 E8.34878
G1 X85.105 Y152.36 E8.39505
G1 X83.855 Y152.161 E8.44136
G1 X82.62 Y151.883 E8.48768
G1 X81.406 Y151.528 E8.53395
G1 X80.216 Y151.097 E8.58026
G1 X79.056 Y150.592 E8.62654
G1 X77.93 Y150.014 E8.67285
G1 X76.843 Y149.366 E8.71915
G1 X75.799 Y148.651 E8.76545
G1 X74.803 Y147.872 E8.81171
G1 X73.473 Y146.656 E8.87764
G1 X73.344 Y146.527 E8.88431
G1 X72.478 Y145.605 E8.93059
G1 X71.672 Y144.629 E8.9769
G1 X70.929 Y143.605 E9.02319
G1 X70.252 Y142.535 E9.06951
G1 X69.645 Y141.426 E9.11577
G1 X69.108 Y140.279 E9.1621
G1 X68.645 Y139.102 E9.20838
G1 X68.258 Y137.897 E9.25468
G1 X67.947 Y136.671 E9.30096
G1 X67.715 Y135.427 E9.34726
G1 X67.561 Y134.171 E9.39355
G1 X67.48 Y132.371 E9.45947
G1 X67.48 Y102.629 E10.54762
G1 X67.52 Y101.364 E10.59392
G1 X67.64 Y100.105 E10.64019
G1 X67.839 Y98.855 E10.6865
G1 X68.117 Y97.62 E10.73282
G1 X68.472 Y96.406 E10.77909
G1 X68.903 Y95.216 E10.8254
G1 X69.408 Y94.056 E10.87168
G1 X69.986 Y92.93 E10.91799
G1 X70.634 Y91.843 E10.96429
G1 X71.349 Y90.799 E11.01059
G1 X72.128 Y89.803 E11.05685
G1 X73.344 Y88.473 E11.12278
G1 X73.473 Y88.344 E11.12945
G1 X73.865 Y87.976 E11.14913
G0 F810 X74.395 Y87.478
M204 S5000
M205 X30 Y30
G0 F7200 X74.697 Y87.799
M204 S500
M205 X20 Y20
G1 F6000 E11.17572
G1 F900 X75.662 Y87.003 E11.22149
G1 X76.676 Y86.27 E11.26727
G1 X77.736 Y85.603 E11.31309
G1 X78.835 Y85.006 E11.35884
G1 X79.971 Y84.48 E11.40465
G1 X81.137 Y84.027 E11.45041
G1 X82.331 Y83.65 E11.49622
G1 X83.546 Y83.351 E11.542
G1 X84.777 Y83.129 E11.58776
G1 X86.02 Y82.986 E11.63354
G1 X87.629 Y82.92 E11.69246
G1 X147.371 Y82.92 E13.87819
G1 X148.622 Y82.96 E13.92398
G1 X149.867 Y83.08 E13.96974
G1 X151.103 Y83.279 E14.01554
G1 X152.323 Y83.557 E14.06132
G1 X153.523 Y83.912 E14.10711
G1 X154.698 Y84.343 E14.1529
G1 X155.843 Y84.848 E14.19868
G1 X156.953 Y85.425 E14.24445
G1 X158.024 Y86.072 E14.29023
G1 X159.052 Y86.786 E14.33602
G1 X160.032 Y87.564 E14.3818
G1 X161.216 Y88.655 E14.4407
G1 X161.345 Y88.784 E14.44738
G1 X162.201 Y89.697 E14.49317
G1 X162.997 Y90.662 E14.53893
G1 X163.73 Y91.676 E14.58471
G1 X164.397 Y92.736 E14.63053
G1 X164.994 Y93.835 E14.67629
G1 X165.52 Y94.971 E14.72209
G1 X165.973 Y96.137 E14.76786
G1 X166.35 Y97.331 E14.81367
G1 X166.649 Y98.546 E14.85944
G1 X166.871 Y99.777 E14.90521
G1 X167.014 Y101.02 E14.95098
G1 X167.08 Y102.629 E15.0099
G1 X167.08 Y132.371 E16.09805
G1 X167.04 Y133.622 E16.14384
G1 X166.92 Y134.867 E16.1896
G1 X166.721 Y136.103 E16.2354
G1 X166.443 Y137.323 E16.28118
G1 X166.088 Y138.523 E16.32697
G1 X165.657 Y139.698 E16.37276
G1 X165.152 Y140.843 E16.41854
G1 X164.575 Y141.953 E16.46431
G1 X163.928 Y143.024 E16.51009
G1 X163.214 Y144.052 E16.55588
G1 X162.436 Y145.032 E16.60166
G1 X161.345 Y146.216 E16.66056
G1 X161.216 Y146.345 E16.66724
G1 X160.303 Y147.201 E16.71303
G1 X159.338 Y147.997 E16.75879
G1 X158.324 Y148.73 E16.80457
G1 X157.264 Y149.397 E16.85039
G1 X156.165 Y149.994 E16.89615
G1 X155.029 Y150.52 E16.94195
G1 X153.863 Y150.973 E16.98772
G1 X152.669 Y151.35 E17.03352
G1 X151.454 Y151.649 E17.0793
G1 X150.223 Y151.871 E17.12507
G1 X148.98 Y152.014 E17.17084
G1 X147.371 Y152.08 E17.22976
G1 X87.629 Y152.08 E19.41549
G1 X86.378 Y152.04 E19.46128
G1 X85.133 Y151.92 E19.50704
G1 X83.897 Y151.721 E19.55285
G1 X82.677 Y151.443 E19.59863
G1 X81.477 Y151.088 E19.64441
G1 X80.302 Y150.657 E19.6902
G1 X79.157 Y150.152 E19.73598
G1 X78.047 Y149.575 E19.78175
G1 X76.976 Y148.928 E19.82753
G1 X75.948 Y148.214 E19.87332
G1 X74.968 Y147.436 E19.9191
G1 X73.784 Y146.345 E19.97801
G1 X73.655 Y146.216 E19.98468
G1 X72.799 Y145.303 E20.03047
G1 X72.003 Y144.338 E20.07624
G1 X71.27 Y143.324 E20.12201
G1 X70.603 Y142.264 E20.16783
G1 X70.006 Y141.165 E20.21359
G1 X69.48 Y140.029 E20.25939
G1 X69.027 Y138.863 E20.30516
G1 X68.65 Y137.669 E20.35097
G1 X68.351 Y136.454 E20.39675
G1 X68.129 Y135.223 E20.44251
G1 X67.986 Y133.98 E20.48829
G1 X67.92 Y132.371 E20.5472
G1 X67.92 Y102.629 E21.63535
G1 X67.96 Y101.378 E21.68114
G1 X68.08 Y100.133 E21.7269
G1 X68.279 Y98.897 E21.77271
G1 X68.557 Y97.677 E21.81849
G1 X68.912 Y96.477 E21.86427
G1 X69.343 Y95.302 E21.91006
G1 X69.848 Y94.157 E21.95584
G1 X70.425 Y93.047 E22.00161
G1 X71.072 Y91.976 E22.04739
G1 X71.786 Y90.948 E22.09318
G1 X72.564 Y89.968 E22.13896
G1 X73.655 Y88.784 E22.19787
G1 X73.784 Y88.655 E22.20454
G1 X74.167 Y88.296 E22.22375
G0 F810 X74.697 Y87.799
M204 S5000
M205 X30 Y30
G0 F7200 X74.998 Y88.12
M204 S500
M205 X20 Y20
G1 F6000 E22.25035
G1 F900 X75.953 Y87.334 E22.2956
G1 X76.957 Y86.611 E22.34086
G1 X78.006 Y85.955 E22.38613
G1 X79.095 Y85.368 E22.43139
G1 X80.22 Y84.852 E22.47667
G1 X81.376 Y84.41 E22.52195
G1 X82.558 Y84.044 E22.56722
G1 X83.761 Y83.755 E22.61249
G1 X84.98 Y83.544 E22.65775
G1 X86.21 Y83.413 E22.70301
G1 X87.629 Y83.36 E22.75496
G1 X147.371 Y83.36 E24.94069
G1 X148.608 Y83.4 E24.98597
G1 X149.839 Y83.52 E25.03122
G1 X151.06 Y83.719 E25.07648
G1 X152.266 Y83.996 E25.12175
G1 X153.451 Y84.351 E25.16701
G1 X154.611 Y84.782 E25.21229
G1 X155.741 Y85.287 E25.25757
G1 X156.835 Y85.864 E25.30282
G1 X157.89 Y86.51 E25.34808
G1 X158.901 Y87.223 E25.39334
G1 X159.864 Y88 E25.43861
G1 X160.905 Y88.966 E25.49057
G1 X161.034 Y89.095 E25.49724
G1 X161.88 Y89.998 E25.54252
G1 X162.666 Y90.953 E25.58777
G1 X163.389 Y91.957 E25.63303
G1 X164.045 Y93.006 E25.6783
G1 X164.632 Y94.095 E25.72356
G1 X165.148 Y95.22 E25.76884
G1 X165.59 Y96.376 E25.81412
G1 X165.956 Y97.558 E25.85939
G1 X166.245 Y98.761 E25.90466
G1 X166.456 Y99.98 E25.94992
G1 X166.587 Y101.21 E25.99518
G1 X166.64 Y102.629 E26.04713
G1 X166.64 Y132.371 E27.13527
G1 X166.6 Y133.608 E27.18055
G1 X166.48 Y134.839 E27.2258
G1 X166.281 Y136.06 E27.27107
G1 X166.004 Y137.266 E27.31634
G1 X165.649 Y138.451 E27.3616
G1 X165.218 Y139.611 E27.40687
G1 X164.713 Y140.741 E27.45215
G1 X164.136 Y141.835 E27.4974
G1 X163.49 Y142.89 E27.54266
G1 X162.777 Y143.901 E27.58793
G1 X162 Y144.864 E27.6332
G1 X161.034 Y145.905 E27.68515
G1 X160.905 Y146.034 E27.69183
G1 X160.002 Y146.88 E27.7371
G1 X159.047 Y147.666 E27.78235
G1 X158.043 Y148.389 E27.82762
G1 X156.994 Y149.045 E27.87288
G1 X155.905 Y149.632 E27.91815
G1 X154.78 Y150.148 E27.96343
G1 X153.624 Y150.59 E28.00871
G1 X152.442 Y150.956 E28.05398
G1 X151.239 Y151.245 E28.09924
G1 X150.02 Y151.456 E28.1445
G1 X148.79 Y151.587 E28.18976
G1 X147.371 Y151.64 E28.24171
G1 X87.629 Y151.64 E30.42744
G1 X86.392 Y151.6 E30.47272
G1 X85.161 Y151.48 E30.51797
G1 X83.94 Y151.281 E30.56323
G1 X82.734 Y151.004 E30.60851
G1 X81.549 Y150.649 E30.65376
G1 X80.389 Y150.218 E30.69904
G1 X79.259 Y149.713 E30.74432
G1 X78.165 Y149.136 E30.78957
G1 X77.11 Y148.49 E30.83483
G1 X76.099 Y147.777 E30.8801
G1 X75.136 Y147 E30.92537
G1 X74.095 Y146.034 E30.97732
G1 X73.966 Y145.905 E30.984
G1 X73.12 Y145.002 E31.02927
G1 X72.334 Y144.047 E31.07452
G1 X71.611 Y143.043 E31.11979
G1 X70.955 Y141.994 E31.16505
G1 X70.368 Y140.905 E31.21031
G1 X69.852 Y139.78 E31.2556
G1 X69.41 Y138.624 E31.30088
G1 X69.044 Y137.442 E31.34615
G1 X68.755 Y136.239 E31.39141
G1 X68.544 Y135.02 E31.43667
G1 X68.413 Y133.79 E31.48193
G1 X68.36 Y132.371 E31.53388
G1 X68.36 Y102.629 E32.62203
G1 X68.4 Y101.392 E32.66731
G1 X68.52 Y100.161 E32.71256
G1 X68.719 Y98.94 E32.75782
G1 X68.996 Y97.734 E32.80309
G1 X69.351 Y96.549 E32.84835
G1 X69.782 Y95.389 E32.89362
G1 X70.287 Y94.259 E32.93891
G1 X70.864 Y93.165 E32.98416
G1 X71.51 Y92.11 E33.02942
G1 X72.223 Y91.099 E33.07468
G1 X73 Y90.136 E33.11995
G1 X73.966 Y89.095 E33.17191
G1 X74.095 Y88.966 E33.17858
G1 X74.468 Y88.617 E33.19727
G0 F810 X74.998 Y88.12
M204 S5000
M205 X30 Y30
G0 F7200 X75.299 Y88.441
M204 S500
M205 X20 Y20
G1 F6000 E33.22387
G1 F900 X76.244 Y87.665 E33.26861
G1 X77.238 Y86.953 E33.31334
G1 X78.276 Y86.307 E33.35807
G1 X79.355 Y85.73 E33.40284
G1 X80.469 Y85.225 E33.44759
G1 X81.613 Y84.794 E33.49231
G1 X82.783 Y84.439 E33.53705
G1 X83.974 Y84.161 E33.58179
G1 X85.181 Y83.961 E33.62655
G1 X86.398 Y83.841 E33.67129
G1 X87.629 Y83.8 E33.71636
G1 X147.371 Y83.8 E35.90209
G1 X148.593 Y83.84 E35.94682
G1 X149.81 Y83.96 E35.99156
G1 X151.017 Y84.159 E36.03632
G1 X152.208 Y84.436 E36.08105
G1 X153.378 Y84.791 E36.12579
G1 X154.523 Y85.222 E36.17055
G1 X155.637 Y85.726 E36.21528
G1 X156.716 Y86.302 E36.26003
G1 X157.755 Y86.948 E36.30479
G1 X158.749 Y87.66 E36.34952
G1 X159.695 Y88.435 E36.39427
G1 X160.594 Y89.277 E36.43933
G1 X160.723 Y89.406 E36.44601
G1 X161.559 Y90.299 E36.49076
G1 X162.335 Y91.244 E36.5355
G1 X163.047 Y92.238 E36.58023
G1 X163.693 Y93.276 E36.62496
G1 X164.27 Y94.355 E36.66973
G1 X164.775 Y95.469 E36.71448
G1 X165.206 Y96.613 E36.7592
G1 X165.561 Y97.783 E36.80394
G1 X165.839 Y98.974 E36.84868
G1 X166.039 Y100.181 E36.89344
G1 X166.159 Y101.398 E36.93818
G1 X166.2 Y102.629 E36.98325
G1 X166.2 Y132.371 E38.07139
G1 X166.16 Y133.593 E38.11612
G1 X166.04 Y134.81 E38.16086
G1 X165.841 Y136.017 E38.20562
G1 X165.564 Y137.208 E38.25036
G1 X165.209 Y138.378 E38.29509
G1 X164.778 Y139.523 E38.33985
G1 X164.274 Y140.637 E38.38459
G1 X163.698 Y141.716 E38.42933
G1 X163.052 Y142.755 E38.4741
G1 X162.34 Y143.749 E38.51883
G1 X161.565 Y144.695 E38.56357
G1 X160.723 Y145.594 E38.60864
G1 X160.594 Y145.723 E38.61531
G1 X159.701 Y146.559 E38.66006
G1 X158.756 Y147.335 E38.7048
G1 X157.762 Y148.047 E38.74954
G1 X156.724 Y148.693 E38.79427
G1 X155.645 Y149.27 E38.83903
G1 X154.531 Y149.775 E38.88378
G1 X153.387 Y150.206 E38.92851
G1 X152.217 Y150.561 E38.97324
G1 X151.026 Y150.839 E39.01799
G1 X149.819 Y151.039 E39.06275
G1 X148.602 Y151.159 E39.10749
G1 X147.371 Y151.2 E39.15255
G1 X87.629 Y151.2 E41.33828
G1 X86.407 Y151.16 E41.38301
G1 X85.19 Y151.04 E41.42775
G1 X83.983 Y150.841 E41.47251
G1 X82.792 Y150.564 E41.51725
G1 X81.622 Y150.209 E41.56198
G1 X80.477 Y149.778 E41.60674
G1 X79.363 Y149.274 E41.65147
G1 X78.284 Y148.698 E41.69622
G1 X77.245 Y148.052 E41.74099
G1 X76.251 Y147.34 E41.78572
G1 X75.305 Y146.565 E41.83046
G1 X74.406 Y145.723 E41.87553
G1 X74.277 Y145.594 E41.8822
G1 X73.441 Y144.701 E41.92695
G1 X72.665 Y143.756 E41.97169
G1 X71.953 Y142.762 E42.01642
G1 X71.307 Y141.724 E42.06115
G1 X70.73 Y140.645 E42.10592
G1 X70.225 Y139.531 E42.15067
G1 X69.794 Y138.387 E42.1954
G1 X69.439 Y137.217 E42.24013
G1 X69.161 Y136.026 E42.28488
G1 X68.961 Y134.819 E42.32964
G1 X68.841 Y133.602 E42.37438
G1 X68.8 Y132.371 E42.41944
G1 X68.8 Y102.629 E43.50759
G1 X68.84 Y101.407 E43.55232
G1 X68.96 Y100.19 E43.59706
G1 X69.159 Y98.983 E43.64181
G1 X69.436 Y97.792 E43.68655
G1 X69.791 Y96.622 E43.73128
G1 X70.222 Y95.477 E43.77605
G1 X70.726 Y94.363 E43.82078
G1 X71.302 Y93.284 E43.86553
G1 X71.948 Y92.245 E43.91029
G1 X72.66 Y91.251 E43.95502
G1 X73.435 Y90.305 E43.99977
G1 X74.277 Y89.406 E44.04483
G1 X74.406 Y89.277 E44.0515
G1 X74.769 Y88.937 E44.0697
G0 F810 X75.299 Y88.441
M204 S5000
M205 X30 Y30
G0 F7200 X75.6 Y88.762
M204 S500
M205 X20 Y20
G1 F6000 E44.0963
G1 F900 X76.535 Y87.997 E44.1405
G1 X77.518 Y87.295 E44.18469
G1 X78.546 Y86.659 E44.22892
G1 X79.614 Y86.093 E44.27314
G1 X80.717 Y85.599 E44.31736
G1 X81.85 Y85.179 E44.36157
G1 X83.008 Y84.834 E44.40577
G1 X84.187 Y84.567 E44.45
G1 X85.38 Y84.379 E44.49419
G1 X86.584 Y84.27 E44.53842
G1 X87.629 Y84.24 E44.57666
G1 X147.371 Y84.24 E46.76239
G1 X148.579 Y84.28 E46.80661
G1 X149.781 Y84.4 E46.85081
G1 X150.973 Y84.599 E46.89502
G1 X152.149 Y84.876 E46.93923
G1 X153.305 Y85.231 E46.98347
G1 X154.434 Y85.661 E47.02767
G1 X155.532 Y86.165 E47.07187
G1 X156.595 Y86.741 E47.1161
G1 X157.617 Y87.386 E47.16032
G1 X158.594 Y88.096 E47.20451
G1 X159.523 Y88.87 E47.24875
G1 X160.283 Y89.588 E47.287
G1 X160.412 Y89.717 E47.29367
G1 X161.238 Y90.6 E47.33791
G1 X162.003 Y91.535 E47.38211
G1 X162.705 Y92.518 E47.4263
G1 X163.341 Y93.546 E47.47053
G1 X163.907 Y94.614 E47.51475
G1 X164.401 Y95.717 E47.55897
G1 X164.821 Y96.85 E47.60318
G1 X165.166 Y98.008 E47.64738
G1 X165.433 Y99.187 E47.69161
G1 X165.621 Y100.38 E47.7358
G1 X165.73 Y101.584 E47.78003
G1 X165.76 Y102.629 E47.81827
G1 X165.76 Y132.371 E48.90642
G1 X165.72 Y133.579 E48.95064
G1 X165.6 Y134.781 E48.99483
G1 X165.401 Y135.973 E49.03905
G1 X165.124 Y137.149 E49.08325
G1 X164.769 Y138.305 E49.12749
G1 X164.339 Y139.434 E49.17169
G1 X163.835 Y140.532 E49.2159
G1 X163.259 Y141.595 E49.26013
G1 X162.614 Y142.617 E49.30434
G1 X161.904 Y143.594 E49.34853
G1 X161.13 Y144.523 E49.39277
G1 X160.412 Y145.283 E49.43102
G1 X160.283 Y145.412 E49.4377
G1 X159.4 Y146.238 E49.48193
G1 X158.465 Y147.003 E49.52613
G1 X157.482 Y147.705 E49.57033
G1 X156.454 Y148.341 E49.61455
G1 X155.386 Y148.907 E49.65877
G1 X154.283 Y149.401 E49.70299
G1 X153.15 Y149.821 E49.7472
G1 X151.992 Y150.166 E49.79141
G1 X150.813 Y150.433 E49.83563
G1 X149.62 Y150.621 E49.87982
G1 X148.416 Y150.73 E49.92405
G1 X147.371 Y150.76 E49.9623
G1 X87.629 Y150.76 E52.14803
G1 X86.421 Y150.72 E52.19225
G1 X85.219 Y150.6 E52.23644
G1 X84.027 Y150.401 E52.28066
G1 X82.851 Y150.124 E52.32486
G1 X81.695 Y149.769 E52.3691
G1 X80.566 Y149.339 E52.4133
G1 X79.468 Y148.835 E52.45751
G1 X78.405 Y148.259 E52.50174
G1 X77.383 Y147.614 E52.54595
G1 X76.406 Y146.904 E52.59014
G1 X75.477 Y146.13 E52.63438
G1 X74.717 Y145.412 E52.67263
G1 X74.588 Y145.283 E52.67931
G1 X73.762 Y144.4 E52.72354
G1 X72.997 Y143.465 E52.76774
G1 X72.295 Y142.482 E52.81194
G1 X71.659 Y141.454 E52.85616
G1 X71.093 Y140.386 E52.90038
G1 X70.599 Y139.283 E52.9446
G1 X70.179 Y138.15 E52.98881
G1 X69.834 Y136.992 E53.03302
