;FLAVOR:Marlin
;TIME:631
;Filament used: 0.402341m
;Layer height: 0.25
;Generated with Cura_SteamEngine 3.6.0
M140 S70
M105
M190 S70
M104 S215
M105
M109 S215
M82 ;absolute extrusion mode
; Ender 3 Custom Start G-code
G28 ; Home all axes
G92 E0 ; Reset Extruder
G1 Z2.0 F3000 ; Move Z Axis up little to prevent scratching of Heat Bed
G1 X0.1 Y20 Z0.3 F5000.0 ; Move to start position
G1 X0.1 Y200.0 Z0.3 F1500.0 E15 ; Draw the first line
G1 X0.4 Y200.0 Z0.3 F5000.0 ; Move to side a little
G1 X0.4 Y20 Z0.3 F1500.0 E30 ; Draw the second line
G92 E0 ; Reset Extruder
G1 Z2.0 F3000 ; Move Z Axis up little to prevent scratching of Heat Bed
; End of custom start GCode
G92 E0
G1 F6000 E-5
;LAYER_COUNT:25
;LAYER:0
M107
M204 S5000
M205 X30 Y30
G0 F7200 X99.359 Y103.202 Z0.25
M204 S500
M205 X20 Y20
;TYPE:SKIRT
G1 F6000 E0
G1 F900 X100.285 Y102.353 E0.06529
G1 X101.146 Y101.655 E0.12289
G1 X102.871 Y100.334 E0.2358
G1 X103.893 Y99.602 E0.30113
G1 X104.524 Y99.196 E0.34013
G1 X105.276 Y98.733 E0.38602
G1 X106.367 Y98.109 E0.45134
G1 X107.495 Y97.555 E0.51665
G1 X108.656 Y97.074 E0.58196
G1 X109.846 Y96.667 E0.64732
G1 X111.058 Y96.338 E0.71258
G1 X112.29 Y96.086 E0.77793
G1 X113.535 Y95.913 E0.84326
G1 X114.788 Y95.819 E0.90856
G1 X116.045 Y95.805 E0.97389
G1 X116.471 Y95.828 E0.99606
G1 X117.581 Y95.697 E1.05414
G1 X118.836 Y95.63 E1.11946
G1 X119.755 Y95.631 E1.16722
G1 X121.279 Y95.669 E1.24644
G1 X122.534 Y95.74 E1.31177
G1 X123.782 Y95.891 E1.3771
G1 X125.017 Y96.121 E1.44238
G1 X126.236 Y96.43 E1.50774
G1 X127.432 Y96.815 E1.57303
G1 X128.602 Y97.275 E1.63837
G1 X129.74 Y97.809 E1.7037
G1 X130.841 Y98.414 E1.76898
G1 X131.902 Y99.088 E1.83431
G1 X132.918 Y99.828 E1.89963
G1 X133.885 Y100.631 E1.96495
G1 X134.937 Y101.635 E2.04052
G1 X136.9 Y103.651 E2.18675
G1 X137.748 Y104.579 E2.25208
G1 X138.535 Y105.559 E2.3174
G1 X139.258 Y106.587 E2.38272
G1 X139.914 Y107.659 E2.44803
G1 X140.501 Y108.77 E2.51333
G1 X141.015 Y109.917 E2.57865
G1 X141.456 Y111.094 E2.64397
G1 X141.821 Y112.296 E2.70926
G1 X142.109 Y113.52 E2.7746
G1 X142.319 Y114.759 E2.83991
G1 X142.449 Y116.009 E2.90522
G1 X142.5 Y117.429 E2.97907
G1 X142.5 Y118.73 E3.04668
G1 X142.46 Y119.986 E3.11198
G1 X142.34 Y121.237 E3.1773
G1 X142.141 Y122.478 E3.24261
G1 X141.863 Y123.704 E3.30794
G1 X141.508 Y124.91 E3.37328
G1 X141.077 Y126.09 E3.43856
G1 X140.572 Y127.241 E3.50388
G1 X139.995 Y128.357 E3.56917
G1 X139.347 Y129.435 E3.63454
G1 X138.633 Y130.469 E3.69984
G1 X137.854 Y131.455 E3.76515
G1 X136.668 Y132.743 E3.85614
G1 X136.521 Y132.889 E3.8669
G1 X135.601 Y133.746 E3.93225
G1 X135.104 Y134.153 E3.96563
G1 X135.456 Y135.094 E4.01784
G1 X135.821 Y136.296 E4.08312
G1 X136.109 Y137.52 E4.14847
G1 X136.319 Y138.759 E4.21378
G1 X136.449 Y140.009 E4.27909
G1 X136.5 Y141.429 E4.35294
G1 X136.5 Y142.73 E4.42055
G1 X136.46 Y143.986 E4.48585
G1 X136.34 Y145.237 E4.55116
G1 X136.141 Y146.478 E4.61648
G1 X135.863 Y147.704 E4.68181
G1 X135.508 Y148.91 E4.74715
G1 X135.077 Y150.09 E4.81243
G1 X134.572 Y151.241 E4.87775
G1 X133.995 Y152.357 E4.94304
G1 X133.347 Y153.435 E5.00841
G1 X132.633 Y154.469 E5.07371
G1 X131.854 Y155.455 E5.13901
G1 X130.668 Y156.743 E5.23001
G1 X130.521 Y156.889 E5.24077
G1 X129.601 Y157.746 E5.30611
G1 X128.629 Y158.542 E5.37141
G1 X127.608 Y159.276 E5.43675
G1 X126.543 Y159.942 E5.50203
G1 X125.437 Y160.54 E5.56737
G1 X124.296 Y161.066 E5.63267
G1 X123.123 Y161.519 E5.69802
G1 X121.924 Y161.896 E5.76333
G1 X121.68 Y161.956 E5.77639
G1 X120.938 Y162.245 E5.81777
G1 X119.74 Y162.626 E5.88311
G1 X118.521 Y162.93 E5.9484
G1 X117.284 Y163.156 E6.01375
G1 X116.036 Y163.303 E6.07905
G1 X114.354 Y163.375 E6.16654
G1 X110.79 Y163.375 E6.35176
G1 X109.534 Y163.335 E6.41707
G1 X108.283 Y163.215 E6.48238
G1 X107.042 Y163.016 E6.5477
G1 X105.816 Y162.738 E6.61303
G1 X104.951 Y162.483 E6.65989
G1 X104.74 Y162.463 E6.67091
G1 X103.499 Y162.264 E6.73623
G1 X102.273 Y161.986 E6.80156
G1 X101.068 Y161.631 E6.86684
G1 X99.887 Y161.199 E6.93219
G1 X98.737 Y160.694 E6.99747
G1 X97.621 Y160.116 E7.06278
G1 X96.543 Y159.468 E7.12814
G1 X95.51 Y158.753 E7.19343
G1 X94.523 Y157.974 E7.25878
G1 X93.288 Y156.839 E7.34595
G1 X93.142 Y156.693 E7.35668
G1 X92.282 Y155.777 E7.42197
G1 X91.482 Y154.807 E7.48732
G1 X90.745 Y153.789 E7.55263
G1 X90.075 Y152.726 E7.61793
G1 X89.473 Y151.622 E7.68328
G1 X88.943 Y150.483 E7.74857
G1 X88.487 Y149.312 E7.81387
G1 X88.106 Y148.114 E7.87921
G1 X87.802 Y146.895 E7.9445
G1 X87.576 Y145.658 E8.00985
G1 X87.429 Y144.41 E8.07515
G1 X87.362 Y143.155 E8.14047
G1 X87.368 Y142.062 E8.19727
G1 X87.415 Y140.669 E8.2697
G1 X87.498 Y139.415 E8.33501
G1 X87.659 Y138.169 E8.40031
G1 X87.9 Y136.935 E8.46565
G1 X88.219 Y135.719 E8.53098
G1 X88.615 Y134.526 E8.59631
G1 X89.085 Y133.361 E8.66159
G1 X89.629 Y132.228 E8.72691
G1 X90.244 Y131.132 E8.79222
G1 X90.927 Y130.077 E8.85753
G1 X91.676 Y129.067 E8.92288
G1 X92.488 Y128.108 E8.98818
G1 X93.359 Y127.202 E9.0535
G1 X94.285 Y126.353 E9.11879
G1 X94.747 Y125.979 E9.14968
G1 X94.487 Y125.312 E9.18688
G1 X94.106 Y124.114 E9.25221
G1 X93.802 Y122.895 E9.3175
G1 X93.576 Y121.658 E9.38285
G1 X93.429 Y120.41 E9.44816
G1 X93.362 Y119.155 E9.51347
G1 X93.368 Y118.062 E9.57027
G1 X93.415 Y116.669 E9.64271
G1 X93.498 Y115.415 E9.70802
G1 X93.659 Y114.169 E9.77331
G1 X93.9 Y112.935 E9.83865
G1 X94.219 Y111.719 E9.90398
G1 X94.615 Y110.526 E9.96931
G1 X95.085 Y109.361 E10.0346
G1 X95.629 Y108.228 E10.09991
G1 X96.244 Y107.132 E10.16522
G1 X96.927 Y106.077 E10.23054
G1 X97.676 Y105.067 E10.29588
G1 X98.488 Y104.108 E10.36119
G1 X99.004 Y103.571 E10.39989
G0 F810 X99.359 Y103.202
M204 S5000
M205 X30 Y30
G0 F7200 X99.844 Y103.428
M204 S500
M205 X20 Y20
G1 F6000 E10.4265
G1 F900 X100.768 Y102.599 E10.49101
G1 X101.45 Y102.052 E10.53645
G1 X103.175 Y100.731 E10.64936
G1 X104.184 Y100.008 E10.71387
G1 X104.786 Y99.622 E10.75103
G1 X105.538 Y99.159 E10.79693
G1 X106.615 Y98.543 E10.86141
G1 X107.73 Y97.997 E10.92593
G1 X108.877 Y97.525 E10.99038
G1 X110.053 Y97.127 E11.0549
G1 X111.251 Y96.806 E11.11936
G1 X112.468 Y96.563 E11.18385
G1 X113.698 Y96.398 E11.24835
G1 X114.936 Y96.314 E11.31283
G1 X116.176 Y96.309 E11.37728
G1 X116.489 Y96.328 E11.39357
G1 X116.563 Y96.315 E11.39748
G1 X117.797 Y96.181 E11.46198
G1 X119.036 Y96.126 E11.52644
G1 X119.743 Y96.131 E11.56318
G1 X121.267 Y96.169 E11.64241
G1 X122.506 Y96.24 E11.7069
G1 X123.737 Y96.39 E11.77135
G1 X124.957 Y96.62 E11.83587
G1 X126.159 Y96.928 E11.90035
G1 X127.338 Y97.312 E11.96479
G1 X128.491 Y97.772 E12.0293
G1 X129.611 Y98.305 E12.09376
G1 X130.695 Y98.909 E12.15825
G1 X131.738 Y99.581 E12.22273
G1 X132.735 Y100.32 E12.28723
G1 X133.683 Y101.121 E12.35173
G1 X134.579 Y101.984 E12.41638
G1 X136.542 Y104 E12.56261
G1 X137.378 Y104.916 E12.62706
G1 X138.154 Y105.885 E12.69157
G1 X138.866 Y106.901 E12.75605
G1 X139.511 Y107.961 E12.82053
G1 X140.086 Y109.06 E12.88499
G1 X140.589 Y110.195 E12.94951
G1 X141.018 Y111.359 E13.01398
G1 X141.371 Y112.549 E13.07848
G1 X141.647 Y113.758 E13.14293
G1 X141.844 Y114.983 E13.20741
G1 X141.962 Y116.219 E13.27194
G1 X142 Y117.429 E13.33485
G1 X142 Y118.73 E13.40246
G1 X141.96 Y119.97 E13.46694
G1 X141.84 Y121.205 E13.53142
G1 X141.641 Y122.43 E13.59592
G1 X141.363 Y123.639 E13.66039
G1 X141.009 Y124.828 E13.72486
G1 X140.578 Y125.992 E13.78936
G1 X140.073 Y127.125 E13.85383
G1 X139.496 Y128.224 E13.91834
G1 X138.85 Y129.283 E13.9828
G1 X138.136 Y130.298 E14.04729
G1 X137.359 Y131.265 E14.11176
G1 X136.315 Y132.388 E14.19145
G1 X136.168 Y132.534 E14.20221
G1 X135.26 Y133.38 E14.26671
G1 X134.502 Y133.999 E14.31757
G1 X134.589 Y134.195 E14.32871
G1 X135.018 Y135.359 E14.39318
G1 X135.371 Y136.549 E14.45769
G1 X135.647 Y137.758 E14.52214
G1 X135.844 Y138.983 E14.58662
G1 X135.962 Y140.219 E14.65114
G1 X136 Y141.429 E14.71405
G1 X136 Y142.73 E14.78167
G1 X135.96 Y143.97 E14.84614
G1 X135.84 Y145.205 E14.91062
G1 X135.641 Y146.43 E14.97512
G1 X135.363 Y147.639 E15.03959
G1 X135.009 Y148.828 E15.10406
G1 X134.578 Y149.992 E15.16857
G1 X134.073 Y151.125 E15.23303
G1 X133.496 Y152.224 E15.29754
G1 X132.85 Y153.283 E15.36201
G1 X132.136 Y154.298 E15.4265
G1 X131.359 Y155.265 E15.49097
G1 X130.315 Y156.388 E15.57065
G1 X130.168 Y156.534 E15.58142
G1 X129.26 Y157.38 E15.64591
G1 X128.299 Y158.165 E15.7104
G1 X127.29 Y158.887 E15.77488
G1 X126.237 Y159.542 E15.83933
G1 X125.143 Y160.128 E15.90382
G1 X124.014 Y160.642 E15.96829
G1 X122.854 Y161.083 E16.03278
G1 X121.668 Y161.448 E16.09727
G1 X121.518 Y161.484 E16.10529
G1 X120.667 Y161.81 E16.15265
G1 X119.482 Y162.179 E16.21715
G1 X118.276 Y162.471 E16.28163
G1 X117.054 Y162.685 E16.34611
G1 X115.82 Y162.819 E16.41061
G1 X114.354 Y162.875 E16.48685
G1 X110.79 Y162.875 E16.67207
G1 X109.55 Y162.835 E16.73655
G1 X108.315 Y162.715 E16.80103
G1 X107.09 Y162.516 E16.86553
G1 X105.881 Y162.238 E16.93
G1 X105.048 Y161.99 E16.97516
G1 X104.772 Y161.963 E16.98958
G1 X103.548 Y161.764 E17.05402
G1 X102.338 Y161.486 E17.11854
G1 X101.149 Y161.131 E17.18303
G1 X99.986 Y160.7 E17.24749
G1 X98.853 Y160.194 E17.31197
G1 X97.754 Y159.617 E17.37648
G1 X96.695 Y158.97 E17.44097
G1 X95.68 Y158.257 E17.50544
G1 X94.713 Y157.479 E17.56993
G1 X93.641 Y156.486 E17.64587
G1 X93.495 Y156.34 E17.6566
G1 X92.647 Y155.435 E17.72106
G1 X91.858 Y154.477 E17.78555
G1 X91.133 Y153.47 E17.85004
G1 X90.474 Y152.418 E17.91455
G1 X89.884 Y151.327 E17.97901
G1 X89.366 Y150.199 E18.04352
G1 X88.922 Y149.041 E18.10797
G1 X88.553 Y147.856 E18.17247
G1 X88.261 Y146.65 E18.23695
G1 X88.047 Y145.428 E18.30143
G1 X87.913 Y144.194 E18.36593
G1 X87.858 Y142.955 E18.43039
G1 X87.868 Y142.079 E18.47591
G1 X87.915 Y140.686 E18.54835
G1 X87.997 Y139.448 E18.61283
G1 X88.158 Y138.217 E18.67734
G1 X88.398 Y137 E18.74181
G1 X88.717 Y135.801 E18.80629
G1 X89.111 Y134.625 E18.87074
G1 X89.581 Y133.476 E18.93526
G1 X90.124 Y132.36 E18.99975
G1 X90.738 Y131.282 E19.06423
G1 X91.419 Y130.245 E19.1287
G1 X92.167 Y129.254 E19.19323
G1 X92.976 Y128.314 E19.25768
G1 X93.844 Y127.428 E19.32214
G1 X94.768 Y126.599 E19.38665
G1 X95.343 Y126.138 E19.42495
G1 X94.922 Y125.041 E19.48601
G1 X94.553 Y123.856 E19.55051
G1 X94.261 Y122.65 E19.615
G1 X94.047 Y121.428 E19.67947
G1 X93.913 Y120.194 E19.74398
G1 X93.858 Y118.955 E19.80843
G1 X93.868 Y118.079 E19.85396
G1 X93.915 Y116.686 E19.92639
G1 X93.997 Y115.448 E19.99087
G1 X94.158 Y114.217 E20.05539
G1 X94.398 Y113 E20.11985
G1 X94.717 Y111.801 E20.18433
G1 X95.111 Y110.625 E20.24879
G1 X95.581 Y109.476 E20.3133
G1 X96.124 Y108.36 E20.3778
G1 X96.738 Y107.282 E20.44227
G1 X97.419 Y106.245 E20.50675
G1 X98.167 Y105.254 E20.57127
G1 X98.976 Y104.314 E20.63572
G1 X99.486 Y103.793 E20.67361
G0 F810 X99.844 Y103.428
M204 S5000
M205 X30 Y30
G0 F7200 X100.329 Y103.657
M204 S500
M205 X20 Y20
G1 F6000 E20.70022
G1 F900 X101.25 Y102.849 E20.76389
G1 X101.754 Y102.449 E20.79733
G1 X103.479 Y101.128 E20.91024
G1 X104.475 Y100.415 E20.9739
G1 X105.049 Y100.048 E21.00931
G1 X105.801 Y99.585 E21.0552
G1 X106.864 Y98.977 E21.11884
G1 X107.964 Y98.44 E21.18246
G1 X109.098 Y97.976 E21.24613
G1 X110.259 Y97.587 E21.30976
G1 X111.443 Y97.275 E21.3734
G1 X112.645 Y97.04 E21.43705
G1 X113.86 Y96.885 E21.5007
G1 X115.082 Y96.809 E21.56433
G1 X116.306 Y96.813 E21.62794
G1 X116.547 Y96.83 E21.64049
G1 X116.792 Y96.789 E21.6534
G1 X118.011 Y96.667 E21.71707
G1 X119.73 Y96.631 E21.80642
G1 X121.254 Y96.669 E21.88565
G1 X122.477 Y96.739 E21.94931
G1 X123.692 Y96.889 E22.01293
G1 X124.895 Y97.119 E22.07658
G1 X126.081 Y97.426 E22.14025
G1 X127.243 Y97.81 E22.20385
G1 X128.379 Y98.269 E22.26753
G1 X129.482 Y98.801 E22.33117
G1 X130.548 Y99.404 E22.39481
G1 X131.572 Y100.075 E22.45844
G1 X132.55 Y100.812 E22.52208
G1 X133.478 Y101.611 E22.58572
G1 X134.221 Y102.333 E22.63956
G1 X136.184 Y104.349 E22.78579
G1 X137.009 Y105.253 E22.84939
G1 X137.773 Y106.21 E22.91303
G1 X138.474 Y107.215 E22.97671
G1 X139.107 Y108.263 E23.04034
G1 X139.67 Y109.35 E23.10396
G1 X140.161 Y110.472 E23.16761
G1 X140.578 Y111.623 E23.23123
G1 X140.919 Y112.799 E23.29486
G1 X141.183 Y113.995 E23.35851
G1 X141.368 Y115.206 E23.42217
G1 X141.473 Y116.426 E23.48581
G1 X141.5 Y117.429 E23.53796
G1 X141.5 Y118.73 E23.60557
G1 X141.46 Y119.954 E23.66921
G1 X141.34 Y121.173 E23.73287
G1 X141.141 Y122.381 E23.79649
G1 X140.864 Y123.574 E23.86014
G1 X140.509 Y124.746 E23.92378
G1 X140.078 Y125.892 E23.98741
G1 X139.574 Y127.008 E24.05105
G1 X138.998 Y128.088 E24.11466
G1 X138.352 Y129.129 E24.17833
G1 X137.64 Y130.125 E24.24195
G1 X136.864 Y131.073 E24.30562
G1 X135.963 Y132.033 E24.37404
G1 X135.816 Y132.179 E24.38481
G1 X134.919 Y133.014 E24.4485
G1 X133.97 Y133.787 E24.51211
G1 X133.887 Y133.846 E24.5174
G1 X134.161 Y134.472 E24.55291
G1 X134.578 Y135.623 E24.61653
G1 X134.919 Y136.799 E24.68016
G1 X135.183 Y137.995 E24.74382
G1 X135.368 Y139.206 E24.80748
G1 X135.473 Y140.426 E24.87112
G1 X135.5 Y141.429 E24.92326
G1 X135.5 Y142.73 E24.99087
G1 X135.46 Y143.954 E25.05452
G1 X135.34 Y145.173 E25.11817
G1 X135.141 Y146.381 E25.1818
G1 X134.864 Y147.574 E25.24545
G1 X134.509 Y148.746 E25.30909
G1 X134.078 Y149.892 E25.37272
G1 X133.574 Y151.008 E25.43635
G1 X132.998 Y152.088 E25.49996
G1 X132.352 Y153.129 E25.56363
G1 X131.64 Y154.125 E25.62726
G1 X130.864 Y155.073 E25.69093
G1 X129.963 Y156.033 E25.75935
G1 X129.816 Y156.179 E25.77012
G1 X128.919 Y157.014 E25.8338
G1 X127.97 Y157.787 E25.89741
G1 X126.973 Y158.498 E25.96105
G1 X125.931 Y159.141 E26.02468
G1 X124.849 Y159.715 E26.08834
G1 X123.732 Y160.218 E26.152
G1 X122.585 Y160.646 E26.21562
G1 X121.412 Y160.999 E26.27928
G1 X121.361 Y161.011 E26.28201
G1 X120.397 Y161.375 E26.33556
G1 X119.225 Y161.731 E26.39921
G1 X118.033 Y162.011 E26.46284
G1 X116.825 Y162.211 E26.52648
G1 X115.606 Y162.333 E26.59014
G1 X114.354 Y162.375 E26.65525
G1 X110.79 Y162.375 E26.84046
G1 X109.566 Y162.335 E26.90411
G1 X108.347 Y162.215 E26.96776
G1 X107.139 Y162.016 E27.03139
G1 X105.946 Y161.739 E27.09504
G1 X105.147 Y161.497 E27.13842
G1 X104.805 Y161.463 E27.15628
G1 X103.597 Y161.264 E27.21991
G1 X102.404 Y160.986 E27.28357
G1 X101.232 Y160.631 E27.34721
G1 X100.086 Y160.2 E27.41084
G1 X98.97 Y159.695 E27.4745
G1 X97.89 Y159.119 E27.53811
G1 X96.849 Y158.473 E27.60178
G1 X95.853 Y157.761 E27.6654
G1 X94.906 Y156.985 E27.72903
G1 X93.995 Y156.132 E27.79389
G1 X93.849 Y155.986 E27.80462
G1 X93.012 Y155.093 E27.86823
G1 X92.235 Y154.146 E27.93189
G1 X91.521 Y153.151 E27.99553
G1 X90.874 Y152.111 E28.05918
G1 X90.296 Y151.032 E28.1228
G1 X89.79 Y149.917 E28.18643
G1 X89.357 Y148.771 E28.2501
G1 X89.001 Y147.599 E28.31375
G1 X88.721 Y146.407 E28.37738
G1 X88.521 Y145.199 E28.44102
G1 X88.399 Y143.98 E28.50468
G1 X88.357 Y142.757 E28.56828
G1 X88.368 Y142.096 E28.60264
G1 X88.415 Y140.703 E28.67507
G1 X88.496 Y139.481 E28.73871
G1 X88.657 Y138.267 E28.80236
G1 X88.896 Y137.066 E28.866
G1 X89.214 Y135.883 E28.92966
G1 X89.608 Y134.724 E28.99327
G1 X90.077 Y133.593 E29.05691
G1 X90.619 Y132.494 E29.12059
G1 X91.231 Y131.434 E29.1842
G1 X91.912 Y130.416 E29.24785
G1 X92.657 Y129.444 E29.31149
G1 X93.464 Y128.523 E29.37513
G1 X94.329 Y127.657 E29.43874
G1 X95.25 Y126.849 E29.50241
G1 X95.754 Y126.449 E29.53585
G1 X95.96 Y126.291 E29.54934
G1 X95.79 Y125.917 E29.57069
G1 X95.357 Y124.771 E29.63436
G1 X95.001 Y123.599 E29.69801
G1 X94.721 Y122.407 E29.76165
G1 X94.521 Y121.199 E29.82528
G1 X94.399 Y119.98 E29.88895
G1 X94.357 Y118.757 E29.95254
G1 X94.368 Y118.096 E29.9869
G1 X94.415 Y116.703 E30.05933
G1 X94.496 Y115.481 E30.12298
G1 X94.657 Y114.267 E30.18662
G1 X94.896 Y113.066 E30.25026
G1 X95.214 Y111.883 E30.31392
G1 X95.608 Y110.724 E30.37754
G1 X96.077 Y109.593 E30.44117
G1 X96.619 Y108.494 E30.50485
G1 X97.231 Y107.434 E30.56846
G1 X97.912 Y106.416 E30.63211
G1 X98.657 Y105.444 E30.69575
G1 X99.464 Y104.523 E30.75939
G1 X99.968 Y104.019 E30.79643
G0 F810 X100.329 Y103.657
M204 S5000
M205 X30 Y30
G0 F7200 X100.814 Y103.889
M204 S500
M205 X20 Y20
G1 F6000 E30.82304
G1 F900 X102.058 Y102.846 E30.90741
G1 X103.783 Y101.525 E31.02032
G1 X104.766 Y100.822 E31.08313
G1 X105.311 Y100.473 E31.11676
G1 X106.063 Y100.01 E31.16265
