;FLAVOR:Marlin
;TIME:1402
;Filament used: 0.568815m
;Layer height: 0.16
;Generated with Cura_SteamEngine 3.6.0
M140 S70
M105
M190 S70
M104 S215
M105
M109 S215
M82 ;absolute extrusion mode
G28 ; home all axes
M117 Purge extruder
G92 E0 ; reset extruder
G1 Z1.0 F3000 ; move z up little to prevent scratching of surface
G1 X0.1 Y20 Z0.3 F5000.0 ; move to start-line position G1 X0.1 Y200.0 Z0.3 F1500.0 E15 ; draw 1st line
G1 X0.4 Y200.0 Z0.3 F5000.0 ; move to side a little
G1 X0.4 Y20 Z0.3 F1500.0 E30 ; draw 2nd line
G92 E0 ; reset extruder
G1 Z1.0 F3000 ; move z up little to prevent scratching of surface
M117 All systems go!
G92 E0
G1 F6000 E-5
;LAYER_COUNT:38
;LAYER:0
M107
M204 S5000
M205 X30 Y30
G0 F7200 X88.663 Y29.233 Z0.16
M204 S500
M205 X20 Y20
;TYPE:SKIRT
G1 F6000 E0
G1 F900 X89.127 Y28.063 E0.03349
G1 X89.663 Y26.925 E0.06696
G1 X90.271 Y25.823 E0.10045
G1 X90.948 Y24.762 E0.13394
G1 X91.691 Y23.746 E0.16743
G1 X92.497 Y22.78 E0.20091
G1 X93.363 Y21.866 E0.23441
G1 X94.285 Y21.01 E0.26788
G1 X95.305 Y20.178 E0.30291
G1 X96.973 Y18.909 E0.35867
G1 X97.999 Y18.179 E0.39218
G1 X98.769 Y17.692 E0.41642
G1 X99.615 Y17.184 E0.44268
G1 X100.714 Y16.571 E0.47616
G1 X101.85 Y16.029 E0.50965
G1 X103.017 Y15.56 E0.54312
G1 X104.213 Y15.166 E0.57662
G1 X105.43 Y14.849 E0.61009
G1 X106.666 Y14.61 E0.64358
G1 X107.914 Y14.45 E0.67706
G1 X109.17 Y14.369 E0.71055
G1 X110.428 Y14.369 E0.74402
G1 X110.529 Y14.375 E0.74672
G1 X111.647 Y14.242 E0.77667
G1 X112.904 Y14.174 E0.81017
G1 X113.735 Y14.173 E0.83228
G1 X115.283 Y14.203 E0.87348
G1 X116.539 Y14.267 E0.90694
G1 X117.79 Y14.411 E0.94045
G1 X119.028 Y14.634 E0.97392
G1 X120.17 Y14.916 E1.00522
G1 X120.42 Y14.851 E1.01209
G1 X121.656 Y14.612 E1.04559
G1 X122.904 Y14.451 E1.07907
G1 X124.16 Y14.37 E1.11256
G1 X125.418 Y14.368 E1.14603
G1 X125.536 Y14.375 E1.14918
G1 X126.647 Y14.243 E1.17895
G1 X127.904 Y14.175 E1.21244
G1 X128.735 Y14.174 E1.23455
G1 X130.283 Y14.204 E1.27575
G1 X131.539 Y14.268 E1.30921
G1 X132.79 Y14.412 E1.34272
G1 X134.028 Y14.635 E1.37619
G1 X135.25 Y14.937 E1.40968
G1 X136.45 Y15.315 E1.44316
G1 X137.624 Y15.769 E1.47665
G1 X138.766 Y16.297 E1.51013
G1 X139.873 Y16.896 E1.54362
G1 X140.939 Y17.564 E1.57709
G1 X141.961 Y18.298 E1.61057
G1 X142.934 Y19.096 E1.64406
G1 X144.05 Y20.151 E1.68492
G1 X146.018 Y22.162 E1.75979
G1 X146.869 Y23.089 E1.79327
G1 X147.66 Y24.068 E1.82676
G1 X148.387 Y25.096 E1.86026
G1 X149.047 Y26.167 E1.89374
G1 X149.637 Y27.278 E1.92721
G1 X150.156 Y28.425 E1.96071
G1 X150.601 Y29.602 E1.99419
G1 X150.97 Y30.805 E2.02767
G1 X151.262 Y32.029 E2.06115
G1 X151.476 Y33.269 E2.09463
G1 X151.611 Y34.52 E2.12811
G1 X151.667 Y36.011 E2.16781
G1 X151.667 Y37.353 E2.20352
G1 X151.627 Y38.611 E2.23701
G1 X151.507 Y39.863 E2.27048
G1 X151.308 Y41.106 E2.30397
G1 X151.03 Y42.333 E2.33745
G1 X150.93 Y42.673 E2.34688
G1 X150.969 Y42.8 E2.35041
G1 X151.261 Y44.024 E2.3839
G1 X151.476 Y45.264 E2.41738
G1 X151.61 Y46.515 E2.45086
G1 X151.667 Y48.011 E2.49069
G1 X151.667 Y49.353 E2.5264
G1 X151.627 Y50.611 E2.55989
G1 X151.507 Y51.863 E2.59336
G1 X151.308 Y53.106 E2.62685
G1 X151.03 Y54.333 E2.66033
G1 X150.93 Y54.675 E2.66981
G1 X150.968 Y54.8 E2.67329
G1 X151.26 Y56.024 E2.70677
G1 X151.475 Y57.264 E2.74026
G1 X151.609 Y58.515 E2.77373
G1 X151.666 Y60.011 E2.81357
G1 X151.666 Y61.353 E2.84928
G1 X151.626 Y62.611 E2.88277
G1 X151.506 Y63.863 E2.91623
G1 X151.307 Y65.106 E2.94973
G1 X151.029 Y66.333 E2.9832
G1 X150.674 Y67.541 E3.0167
G1 X150.243 Y68.723 E3.05018
G1 X149.738 Y69.875 E3.08365
G1 X149.16 Y70.994 E3.11716
G1 X148.513 Y72.073 E3.15064
G1 X147.799 Y73.109 E3.18412
G1 X147.02 Y74.097 E3.21759
G1 X145.867 Y75.354 E3.26298
G1 X145.75 Y75.471 E3.26738
G1 X144.832 Y76.332 E3.30087
G1 X143.862 Y77.133 E3.33434
G1 X142.842 Y77.871 E3.36784
G1 X141.778 Y78.542 E3.40131
G1 X140.673 Y79.145 E3.43481
G1 X139.532 Y79.676 E3.46829
G1 X138.36 Y80.134 E3.50177
G1 X137.161 Y80.516 E3.53526
G1 X136.858 Y80.592 E3.54357
G1 X136.11 Y80.884 E3.56494
G1 X134.911 Y81.266 E3.59842
G1 X133.69 Y81.571 E3.63191
G1 X132.453 Y81.798 E3.66537
G1 X131.203 Y81.947 E3.69886
G1 X129.499 Y82.02 E3.74425
G1 X126.048 Y82.02 E3.83607
G1 X124.79 Y81.98 E3.86956
G1 X123.538 Y81.86 E3.90303
G1 X122.295 Y81.661 E3.93652
G1 X121.068 Y81.383 E3.97
G1 X120.273 Y81.15 E3.99204
G1 X119.911 Y81.265 E4.00215
G1 X118.69 Y81.57 E4.03563
G1 X117.453 Y81.797 E4.0691
G1 X116.203 Y81.946 E4.10259
G1 X114.499 Y82.019 E4.14798
G1 X111.048 Y82.019 E4.2398
G1 X109.79 Y81.979 E4.27329
G1 X108.538 Y81.859 E4.30676
G1 X107.295 Y81.66 E4.34025
G1 X106.068 Y81.382 E4.37373
G1 X105.274 Y81.149 E4.39574
G1 X104.86 Y81.109 E4.40681
G1 X103.617 Y80.91 E4.44031
G1 X102.39 Y80.632 E4.47378
G1 X101.182 Y80.277 E4.50728
G1 X100 Y79.846 E4.54076
G1 X98.848 Y79.341 E4.57423
G1 X97.729 Y78.763 E4.60774
G1 X96.65 Y78.116 E4.64122
G1 X95.614 Y77.402 E4.6747
G1 X94.626 Y76.623 E4.70817
G1 X93.369 Y75.47 E4.75356
G1 X93.252 Y75.353 E4.75796
G1 X92.391 Y74.435 E4.79145
G1 X91.59 Y73.465 E4.82492
G1 X90.852 Y72.445 E4.85842
G1 X90.181 Y71.381 E4.89189
G1 X89.578 Y70.276 E4.92539
G1 X89.047 Y69.135 E4.95887
G1 X88.589 Y67.963 E4.99235
G1 X88.207 Y66.764 E5.02584
G1 X87.902 Y65.543 E5.05932
G1 X87.675 Y64.306 E5.09279
G1 X87.526 Y63.056 E5.12628
G1 X87.458 Y61.799 E5.15978
G1 X87.461 Y60.807 E5.18617
G1 X87.5 Y59.391 E5.22387
G1 X87.574 Y58.135 E5.25734
G1 X87.728 Y56.886 E5.29083
G1 X87.962 Y55.649 E5.32433
G1 X88.198 Y54.724 E5.34973
G1 X87.903 Y53.543 E5.38212
G1 X87.676 Y52.306 E5.41558
G1 X87.527 Y51.056 E5.44908
G1 X87.459 Y49.799 E5.48257
G1 X87.462 Y48.807 E5.50897
G1 X87.501 Y47.391 E5.54666
G1 X87.575 Y46.135 E5.58014
G1 X87.729 Y44.886 E5.61362
G1 X87.963 Y43.649 E5.64712
G1 X88.199 Y42.724 E5.67252
G1 X87.904 Y41.543 E5.70491
G1 X87.677 Y40.306 E5.73837
G1 X87.528 Y39.056 E5.77187
G1 X87.46 Y37.799 E5.80537
G1 X87.463 Y36.807 E5.83176
G1 X87.502 Y35.391 E5.86945
G1 X87.576 Y34.135 E5.90293
G1 X87.73 Y32.886 E5.93641
G1 X87.964 Y31.649 E5.96991
G1 X88.275 Y30.43 E6.00339
G1 X88.355 Y30.184 E6.01027
G0 F810 X88.663 Y29.233
M204 S5000
M205 X30 Y30
G0 F7200 X89.061 Y29.309
M204 S500
M205 X20 Y20
G1 F6000 E6.03688
G1 F900 X89.524 Y28.152 E6.07004
G1 X90.06 Y27.028 E6.10317
G1 X90.667 Y25.94 E6.13632
G1 X91.343 Y24.894 E6.16946
G1 X92.085 Y23.893 E6.20261
G1 X92.889 Y22.942 E6.23575
G1 X93.752 Y22.044 E6.26889
G1 X94.672 Y21.204 E6.30204
G1 X95.548 Y20.496 E6.33201
G1 X97.216 Y19.227 E6.38777
G1 X98.231 Y18.505 E6.42092
G1 X98.975 Y18.035 E6.44433
G1 X99.821 Y17.527 E6.47059
G1 X100.909 Y16.92 E6.50374
G1 X102.034 Y16.385 E6.53689
G1 X103.19 Y15.923 E6.57001
G1 X104.374 Y15.536 E6.60315
G1 X105.581 Y15.225 E6.63632
G1 X106.804 Y14.993 E6.66944
G1 X108.04 Y14.84 E6.70258
G1 X109.284 Y14.766 E6.73574
G1 X110.53 Y14.772 E6.76889
G1 X110.551 Y14.773 E6.76945
G1 X110.582 Y14.768 E6.77029
G1 X111.82 Y14.629 E6.80344
G1 X113.064 Y14.571 E6.83657
G1 X113.727 Y14.573 E6.85421
G1 X115.275 Y14.603 E6.89541
G1 X116.519 Y14.667 E6.92856
G1 X117.756 Y14.811 E6.96169
G1 X118.982 Y15.033 E6.99484
G1 X120.171 Y15.33 E7.02745
G1 X120.571 Y15.227 E7.03844
G1 X121.794 Y14.995 E7.07157
G1 X123.03 Y14.841 E7.10471
G1 X124.274 Y14.766 E7.13787
G1 X125.519 Y14.772 E7.171
G1 X125.552 Y14.774 E7.17188
G1 X125.582 Y14.769 E7.17268
G1 X126.82 Y14.63 E7.20583
G1 X128.064 Y14.572 E7.23897
G1 X128.727 Y14.574 E7.25661
G1 X130.275 Y14.604 E7.29781
G1 X131.519 Y14.668 E7.33095
G1 X132.756 Y14.812 E7.36409
G1 X133.982 Y15.034 E7.39724
G1 X135.19 Y15.336 E7.43037
G1 X136.377 Y15.714 E7.46352
G1 X137.537 Y16.167 E7.49665
G1 X138.666 Y16.694 E7.52981
G1 X139.759 Y17.292 E7.56296
G1 X140.811 Y17.959 E7.5961
G1 X141.817 Y18.693 E7.62924
G1 X142.775 Y19.489 E7.66238
G1 X143.764 Y20.431 E7.69872
G1 X145.732 Y22.442 E7.77359
G1 X146.575 Y23.36 E7.80675
G1 X147.356 Y24.33 E7.83989
G1 X148.074 Y25.348 E7.87303
G1 X148.725 Y26.41 E7.90618
G1 X149.306 Y27.512 E7.93933
G1 X149.816 Y28.648 E7.97246
G1 X150.251 Y29.815 E8.0056
G1 X150.611 Y31.008 E8.03875
G1 X150.893 Y32.221 E8.07189
G1 X151.097 Y33.45 E8.10504
G1 X151.222 Y34.689 E8.13817
G1 X151.267 Y36.011 E8.17337
G1 X151.267 Y37.353 E8.20908
G1 X151.227 Y38.598 E8.24222
G1 X151.107 Y39.838 E8.27537
G1 X150.908 Y41.067 E8.3085
G1 X150.63 Y42.282 E8.34166
G1 X150.512 Y42.68 E8.35271
G1 X150.609 Y43.003 E8.36168
G1 X150.892 Y44.216 E8.39482
G1 X151.097 Y45.445 E8.42798
G1 X151.222 Y46.684 E8.46111
G1 X151.267 Y48.011 E8.49644
G1 X151.267 Y49.353 E8.53215
G1 X151.227 Y50.598 E8.56529
G1 X151.107 Y51.838 E8.59844
G1 X150.908 Y53.067 E8.63157
G1 X150.63 Y54.282 E8.66473
G1 X150.511 Y54.682 E8.67584
G1 X150.608 Y55.003 E8.68476
G1 X150.891 Y56.216 E8.7179
G1 X151.096 Y57.445 E8.75106
G1 X151.221 Y58.684 E8.78419
G1 X151.266 Y60.011 E8.81952
G1 X151.266 Y61.353 E8.85523
G1 X151.226 Y62.598 E8.88837
G1 X151.106 Y63.838 E8.92152
G1 X150.907 Y65.067 E8.95465
G1 X150.629 Y66.282 E8.98781
G1 X150.274 Y67.476 E9.02096
G1 X149.844 Y68.644 E9.05407
G1 X149.339 Y69.783 E9.08723
G1 X148.762 Y70.887 E9.12037
G1 X148.115 Y71.952 E9.15353
G1 X147.401 Y72.973 E9.18668
G1 X146.624 Y73.946 E9.21981
G1 X145.584 Y75.071 E9.26058
G1 X145.467 Y75.188 E9.26498
G1 X144.558 Y76.04 E9.29813
G1 X143.597 Y76.832 E9.33126
G1 X142.587 Y77.561 E9.36441
G1 X141.532 Y78.223 E9.39755
G1 X140.436 Y78.816 E9.43071
G1 X139.305 Y79.338 E9.46385
G1 X138.143 Y79.786 E9.49699
G1 X136.954 Y80.159 E9.53014
G1 X136.728 Y80.214 E9.53633
G1 X135.893 Y80.536 E9.56015
G1 X134.704 Y80.909 E9.5933
G1 X133.494 Y81.204 E9.62644
G1 X132.268 Y81.421 E9.65957
G1 X131.03 Y81.56 E9.69272
G1 X129.499 Y81.62 E9.73349
G1 X126.048 Y81.62 E9.82531
G1 X124.803 Y81.58 E9.85846
G1 X123.563 Y81.46 E9.8916
G1 X122.334 Y81.261 E9.92473
G1 X121.119 Y80.983 E9.9579
G1 X120.351 Y80.755 E9.97921
G1 X120.23 Y80.743 E9.98245
G1 X119.704 Y80.908 E9.99712
G1 X118.494 Y81.203 E10.03025
G1 X117.268 Y81.42 E10.06338
G1 X116.03 Y81.559 E10.09653
G1 X114.499 Y81.619 E10.1373
G1 X111.048 Y81.619 E10.22912
G1 X109.803 Y81.579 E10.26227
G1 X108.563 Y81.459 E10.29542
G1 X107.334 Y81.26 E10.32854
G1 X106.119 Y80.982 E10.36171
G1 X105.353 Y80.754 E10.38297
G1 X104.885 Y80.709 E10.39548
G1 X103.656 Y80.51 E10.42861
G1 X102.441 Y80.232 E10.46177
G1 X101.247 Y79.877 E10.49492
G1 X100.079 Y79.447 E10.52804
G1 X98.94 Y78.942 E10.56119
G1 X97.836 Y78.365 E10.59433
G1 X96.771 Y77.718 E10.62749
G1 X95.75 Y77.004 E10.66064
G1 X94.777 Y76.227 E10.69377
G1 X93.652 Y75.187 E10.73454
G1 X93.535 Y75.07 E10.73894
G1 X92.683 Y74.161 E10.77209
G1 X91.891 Y73.2 E10.80523
G1 X91.162 Y72.19 E10.83837
G1 X90.5 Y71.135 E10.87151
G1 X89.907 Y70.039 E10.90467
G1 X89.385 Y68.908 E10.93781
G1 X88.937 Y67.746 E10.97095
G1 X88.564 Y66.557 E11.00411
G1 X88.269 Y65.347 E11.03725
G1 X88.052 Y64.121 E11.07037
G1 X87.913 Y62.883 E11.10352
G1 X87.855 Y61.639 E11.13666
G1 X87.86 Y60.818 E11.1585
G1 X87.899 Y59.402 E11.1962
G1 X87.974 Y58.158 E11.22936
G1 X88.128 Y56.922 E11.2625
G1 X88.36 Y55.699 E11.29562
G1 X88.614 Y54.714 E11.32269
G1 X88.565 Y54.557 E11.32706
G1 X88.27 Y53.347 E11.3602
G1 X88.053 Y52.121 E11.39333
G1 X87.914 Y50.883 E11.42648
G1 X87.856 Y49.639 E11.45961
G1 X87.861 Y48.818 E11.48146
G1 X87.9 Y47.402 E11.51915
G1 X87.975 Y46.158 E11.55231
G1 X88.129 Y44.922 E11.58545
G1 X88.361 Y43.699 E11.61858
G1 X88.615 Y42.714 E11.64564
G1 X88.566 Y42.557 E11.65002
G1 X88.271 Y41.347 E11.68316
G1 X88.054 Y40.121 E11.71629
G1 X87.915 Y38.883 E11.74943
G1 X87.857 Y37.639 E11.78257
G1 X87.862 Y36.818 E11.80442
G1 X87.901 Y35.402 E11.84211
G1 X87.976 Y34.158 E11.87527
G1 X88.13 Y32.922 E11.90841
G1 X88.362 Y31.699 E11.94153
G1 X88.673 Y30.493 E11.97467
G1 X88.75 Y30.26 E11.9812
G0 F810 X89.061 Y29.309
M204 S5000
M205 X30 Y30
G0 F7200 X89.459 Y29.385
M204 S500
M205 X20 Y20
G1 F6000 E12.00781
G1 F900 X89.921 Y28.243 E12.04059
G1 X90.457 Y27.132 E12.07341
G1 X91.063 Y26.059 E12.1062
G1 X91.738 Y25.027 E12.13901
G1 X92.478 Y24.041 E12.17181
G1 X93.28 Y23.106 E12.20459
G1 X94.142 Y22.224 E12.2374
G1 X95.059 Y21.4 E12.27021
G1 X95.79 Y20.815 E12.29512
G1 X97.458 Y19.546 E12.35089
G1 X98.463 Y18.832 E12.38369
G1 X99.181 Y18.378 E12.40629
G1 X100.027 Y17.87 E12.43255
G1 X101.104 Y17.27 E12.46535
G1 X102.217 Y16.741 E12.49814
G1 X103.363 Y16.286 E12.53095
G1 X104.535 Y15.905 E12.56374
G1 X105.73 Y15.602 E12.59655
G1 X106.942 Y15.376 E12.62935
G1 X108.166 Y15.23 E12.66215
G1 X109.397 Y15.163 E12.69495
G1 X110.587 Y15.177 E12.72662
G1 X110.766 Y15.146 E12.73145
G1 X111.992 Y15.018 E12.76425
G1 X113.719 Y14.973 E12.81022
G1 X115.267 Y15.003 E12.85142
G1 X116.498 Y15.066 E12.88421
G1 X117.723 Y15.21 E12.91703
G1 X118.935 Y15.433 E12.94982
G1 X120.13 Y15.733 E12.98261
G1 X120.167 Y15.745 E12.98364
G1 X120.72 Y15.604 E12.99883
G1 X121.932 Y15.378 E13.03163
G1 X123.156 Y15.231 E13.06443
G1 X124.387 Y15.164 E13.09724
G1 X125.597 Y15.176 E13.12943
G1 X125.766 Y15.147 E13.134
G1 X126.992 Y15.019 E13.1668
G1 X128.719 Y14.974 E13.21276
G1 X130.267 Y15.004 E13.25396
G1 X131.498 Y15.067 E13.28676
G1 X132.723 Y15.211 E13.31958
G1 X133.935 Y15.434 E13.35237
G1 X135.13 Y15.734 E13.38515
G1 X136.304 Y16.112 E13.41797
G1 X137.45 Y16.565 E13.45076
G1 X138.565 Y17.091 E13.48356
G1 X139.643 Y17.689 E13.51636
G1 X140.68 Y18.355 E13.54916
G1 X141.672 Y19.087 E13.58196
G1 X142.615 Y19.882 E13.61478
G1 X143.478 Y20.711 E13.64662
G1 X145.446 Y22.722 E13.72149
G1 X146.28 Y23.63 E13.75429
G1 X147.052 Y24.591 E13.78709
G1 X147.761 Y25.6 E13.8199
G1 X148.402 Y26.652 E13.85268
G1 X148.974 Y27.744 E13.88548
G1 X149.474 Y28.871 E13.91829
G1 X149.9 Y30.028 E13.9511
G1 X150.25 Y31.21 E13.9839
G1 X150.523 Y32.412 E14.01669
G1 X150.717 Y33.629 E14.04948
G1 X150.832 Y34.857 E14.0823
G1 X150.867 Y36.011 E14.11302
G1 X150.867 Y37.353 E14.14873
G1 X150.827 Y38.585 E14.18153
G1 X150.707 Y39.812 E14.21433
G1 X150.508 Y41.028 E14.24712
G1 X150.231 Y42.23 E14.27994
G1 X150.095 Y42.683 E14.29252
G1 X150.249 Y43.205 E14.30701
G1 X150.522 Y44.407 E14.3398
G1 X150.717 Y45.625 E14.37262
G1 X150.832 Y46.852 E14.40542
G1 X150.867 Y48.011 E14.43627
G1 X150.867 Y49.353 E14.47198
G1 X150.827 Y50.585 E14.50478
G1 X150.707 Y51.812 E14.53758
G1 X150.508 Y53.028 E14.57037
G1 X150.231 Y54.23 E14.60319
G1 X150.094 Y54.685 E14.61583
G1 X150.248 Y55.205 E14.63026
G1 X150.521 Y56.407 E14.66306
G1 X150.716 Y57.625 E14.69588
G1 X150.831 Y58.852 E14.72867
G1 X150.866 Y60.011 E14.75952
G1 X150.866 Y61.353 E14.79523
G1 X150.826 Y62.585 E14.82803
G1 X150.706 Y63.812 E14.86083
G1 X150.507 Y65.028 E14.89362
G1 X150.23 Y66.23 E14.92644
G1 X149.875 Y67.41 E14.95923
G1 X149.444 Y68.565 E14.99203
G1 X148.939 Y69.69 E15.02484
G1 X148.363 Y70.779 E15.05762
G1 X147.717 Y71.829 E15.09042
G1 X147.004 Y72.835 E15.12323
G1 X146.228 Y73.793 E15.15604
G1 X145.301 Y74.788 E15.19222
G1 X145.184 Y74.905 E15.19663
G1 X144.285 Y75.748 E15.22942
G1 X143.332 Y76.531 E15.26224
G1 X142.331 Y77.25 E15.29503
G1 X141.286 Y77.903 E15.32782
G1 X140.2 Y78.487 E15.36063
G1 X139.079 Y78.999 E15.39342
G1 X137.927 Y79.438 E15.42622
G1 X136.749 Y79.8 E15.45901
G1 X136.605 Y79.834 E15.46295
G1 X135.677 Y80.188 E15.48938
G1 X134.499 Y80.55 E15.52217
G1 X133.299 Y80.836 E15.55499
G1 X132.084 Y81.043 E15.58779
G1 X130.858 Y81.171 E15.62059
G1 X129.499 Y81.22 E15.65677
G1 X126.048 Y81.22 E15.74859
G1 X124.816 Y81.18 E15.78139
G1 X123.589 Y81.06 E15.8142
G1 X122.373 Y80.861 E15.84698
G1 X121.171 Y80.584 E15.8798
G1 X120.426 Y80.36 E15.9005
G1 X120.19 Y80.337 E15.90681
G1 X119.499 Y80.549 E15.92604
G1 X118.299 Y80.835 E15.95887
G1 X117.084 Y81.042 E15.99166
G1 X115.858 Y81.17 E16.02446
G1 X114.499 Y81.219 E16.06065
G1 X111.048 Y81.219 E16.15247
G1 X109.816 Y81.179 E16.18527
G1 X108.589 Y81.059 E16.21807
G1 X107.373 Y80.86 E16.25086
G1 X106.171 Y80.583 E16.28368
G1 X105.428 Y80.36 E16.30432
G1 X104.911 Y80.309 E16.31814
G1 X103.695 Y80.11 E16.35093
G1 X102.493 Y79.833 E16.38375
G1 X101.313 Y79.478 E16.41654
G1 X100.158 Y79.047 E16.44934
G1 X99.033 Y78.542 E16.48215
G1 X97.944 Y77.966 E16.51493
G1 X96.894 Y77.32 E16.54774
G1 X95.888 Y76.607 E16.58054
G1 X94.93 Y75.831 E16.61335
G1 X93.935 Y74.904 E16.64953
