;FLAVOR:Marlin
;TIME:930
;Filament used: 0.43146m
;Layer height: 0.16
;Generated with Cura_SteamEngine 3.6.0
M140 S70
M105
M190 S70
M104 S215
M105
M109 S215
M82 ;absolute extrusion mode
G28 ; home all axes
M117 Purge extruder
G92 E0 ; reset extruder
G1 Z1.0 F3000 ; move z up little to prevent scratching of surface
G1 X0.1 Y20 Z0.3 F5000.0 ; move to start-line position G1 X0.1 Y200.0 Z0.3 F1500.0 E15 ; draw 1st line
G1 X0.4 Y200.0 Z0.3 F5000.0 ; move to side a little
G1 X0.4 Y20 Z0.3 F1500.0 E30 ; draw 2nd line
G92 E0 ; reset extruder
G1 Z1.0 F3000 ; move z up little to prevent scratching of surface
M117 All systems go!
G92 E0
G1 F6000 E-5
;LAYER_COUNT:26
;LAYER:0
M107
M204 S5000
M205 X30 Y30
G0 F7200 X57.778 Y19.061 Z0.16
M204 S500
M205 X20 Y20
;TYPE:SKIRT
G1 F6000 E0
G1 F900 X58.078 Y18.228 E0.02356
G1 X58.451 Y17.425 E0.04712
G1 X58.677 Y17.016 E0.05955
G1 X60.359 Y14.134 E0.14834
G1 X60.839 Y13.391 E0.17188
G1 X61.385 Y12.693 E0.19546
G1 X61.991 Y12.048 E0.219
G1 X62.653 Y11.46 E0.24256
G1 X63.365 Y10.935 E0.2661
G1 X64.397 Y10.33 E0.29793
G1 X64.8 Y10.126 E0.30995
G1 X65.607 Y9.763 E0.3335
G1 X66.444 Y9.473 E0.35707
G1 X67.303 Y9.261 E0.38061
G1 X68.178 Y9.126 E0.40417
G1 X69.259 Y9.07 E0.43297
G1 X72.566 Y9.081 E0.52096
G1 X73.45 Y9.124 E0.54451
G1 X74.326 Y9.247 E0.56805
G1 X75.189 Y9.448 E0.59163
G1 X76.029 Y9.726 E0.61517
G1 X76.841 Y10.079 E0.63873
G1 X77.462 Y10.411 E0.65746
G1 X77.859 Y10.642 E0.66969
G1 X78.603 Y11.121 E0.69323
G1 X78.646 Y11.154 E0.69467
G1 X79.058 Y10.715 E0.71069
G1 X79.175 Y10.598 E0.7151
G1 X79.829 Y10.001 E0.73866
G1 X80.534 Y9.466 E0.76221
G1 X81.284 Y8.996 E0.78576
G1 X82.074 Y8.596 E0.80932
G1 X82.896 Y8.268 E0.83287
G1 X83.745 Y8.017 E0.85642
G1 X84.613 Y7.842 E0.87998
G1 X85.493 Y7.747 E0.90353
G1 X86.105 Y7.728 E0.91983
G1 X95.871 Y7.728 E1.17968
G1 X96.755 Y7.768 E1.20323
G1 X97.632 Y7.888 E1.22678
G1 X98.495 Y8.086 E1.25034
G1 X99.336 Y8.361 E1.27388
G1 X100.149 Y8.711 E1.29743
G1 X100.928 Y9.133 E1.32101
G1 X101.664 Y9.624 E1.34455
G1 X102.354 Y10.179 E1.36811
G1 X102.801 Y10.598 E1.38441
G1 X102.918 Y10.715 E1.38882
G1 X102.929 Y10.727 E1.38925
G1 X103.204 Y10.518 E1.39844
G1 X103.954 Y10.048 E1.42199
G1 X104.744 Y9.648 E1.44555
G1 X105.566 Y9.32 E1.4691
G1 X106.415 Y9.069 E1.49266
G1 X107.283 Y8.894 E1.51622
G1 X108.163 Y8.799 E1.53977
G1 X108.775 Y8.78 E1.55606
G1 X118.541 Y8.78 E1.81592
G1 X119.425 Y8.82 E1.83946
G1 X120.302 Y8.94 E1.86301
G1 X121.165 Y9.138 E1.88657
G1 X122.006 Y9.413 E1.91012
G1 X122.819 Y9.763 E1.93367
G1 X123.598 Y10.185 E1.95724
G1 X124.334 Y10.676 E1.98078
G1 X125.024 Y11.231 E2.00435
G1 X125.471 Y11.65 E2.02065
G1 X125.588 Y11.767 E2.02505
G1 X126.185 Y12.421 E2.04861
G1 X126.341 Y12.627 E2.05549
G1 X126.454 Y12.527 E2.0595
G1 X127.166 Y12.002 E2.08304
G1 X128.198 Y11.397 E2.11487
G1 X128.601 Y11.193 E2.12689
G1 X129.408 Y10.83 E2.15044
G1 X130.245 Y10.54 E2.17401
G1 X131.104 Y10.328 E2.19755
G1 X131.979 Y10.193 E2.22111
G1 X133.06 Y10.137 E2.24991
G1 X136.367 Y10.148 E2.3379
G1 X137.251 Y10.191 E2.36145
G1 X138.127 Y10.314 E2.38499
G1 X138.99 Y10.515 E2.40856
G1 X139.83 Y10.793 E2.43211
G1 X140.642 Y11.146 E2.45567
G1 X141.263 Y11.478 E2.4744
G1 X141.66 Y11.709 E2.48663
G1 X142.404 Y12.188 E2.51017
G1 X143.102 Y12.732 E2.53372
G1 X143.748 Y13.338 E2.55728
G1 X144.336 Y13.999 E2.58082
G1 X144.863 Y14.71 E2.60437
G1 X145.229 Y15.298 E2.6228
G1 X146.887 Y18.185 E2.71139
G1 X147.293 Y18.972 E2.73495
G1 X147.626 Y19.792 E2.7585
G1 X147.884 Y20.639 E2.78206
G1 X148.064 Y21.506 E2.80562
G1 X148.165 Y22.385 E2.82916
G1 X148.185 Y23.349 E2.85482
G1 X148.171 Y23.833 E2.8677
G1 X148.105 Y24.716 E2.89126
G1 X147.96 Y25.589 E2.91481
G1 X147.737 Y26.446 E2.93837
G1 X147.438 Y27.279 E2.96192
G1 X147.064 Y28.082 E2.98549
G1 X146.839 Y28.489 E2.99786
G1 X145.156 Y31.373 E3.08671
G1 X144.676 Y32.117 E3.11027
G1 X144.131 Y32.814 E3.13381
G1 X143.524 Y33.459 E3.15738
G1 X142.863 Y34.047 E3.18092
G1 X142.151 Y34.573 E3.20447
G1 X141.109 Y35.182 E3.23659
G1 X140.707 Y35.385 E3.24857
G1 X139.9 Y35.748 E3.27212
G1 X139.063 Y36.036 E3.29567
G1 X138.204 Y36.248 E3.31921
G1 X137.329 Y36.382 E3.34276
G1 X136.257 Y36.437 E3.37133
G1 X132.95 Y36.426 E3.45932
G1 X132.066 Y36.383 E3.48287
G1 X131.19 Y36.26 E3.50641
G1 X130.327 Y36.059 E3.52998
G1 X129.487 Y35.781 E3.55353
G1 X128.675 Y35.428 E3.57709
G1 X128.08 Y35.111 E3.59502
G1 X127.682 Y34.881 E3.60726
G1 X127.472 Y34.747 E3.61388
G1 X127.053 Y35.52 E3.63728
G1 X126.562 Y36.256 E3.66082
G1 X126.007 Y36.946 E3.68438
G1 X125.588 Y37.393 E3.70068
G1 X125.471 Y37.51 E3.70509
G1 X124.817 Y38.107 E3.72865
G1 X124.112 Y38.642 E3.7522
G1 X123.362 Y39.112 E3.77575
G1 X122.572 Y39.512 E3.79931
G1 X121.75 Y39.84 E3.82286
G1 X120.901 Y40.091 E3.84642
G1 X120.033 Y40.266 E3.86998
G1 X119.153 Y40.361 E3.89353
G1 X118.541 Y40.38 E3.90982
G1 X108.778 Y40.38 E4.16959
G1 X107.894 Y40.34 E4.19314
G1 X107.017 Y40.22 E4.21669
G1 X106.154 Y40.022 E4.24025
G1 X105.313 Y39.747 E4.2638
G1 X104.5 Y39.397 E4.28735
G1 X103.721 Y38.975 E4.31092
G1 X102.985 Y38.484 E4.33446
G1 X102.295 Y37.929 E4.35802
G1 X101.848 Y37.51 E4.37433
G1 X101.731 Y37.393 E4.37873
G1 X101.719 Y37.38 E4.3792
G1 X101.442 Y37.59 E4.38845
G1 X100.692 Y38.06 E4.412
G1 X99.902 Y38.46 E4.43556
G1 X99.08 Y38.788 E4.45911
G1 X98.231 Y39.039 E4.48267
G1 X97.363 Y39.214 E4.50623
G1 X96.483 Y39.309 E4.52978
G1 X95.871 Y39.328 E4.54607
G1 X86.108 Y39.328 E4.80585
G1 X85.224 Y39.288 E4.82939
G1 X84.347 Y39.168 E4.85294
G1 X83.484 Y38.97 E4.8765
G1 X82.643 Y38.695 E4.90005
G1 X81.83 Y38.345 E4.9236
G1 X81.051 Y37.923 E4.94717
G1 X80.315 Y37.432 E4.97071
G1 X79.625 Y36.877 E4.99428
G1 X79.178 Y36.458 E5.01058
G1 X79.061 Y36.341 E5.01498
G1 X78.464 Y35.687 E5.03854
G1 X77.929 Y34.982 E5.06209
G1 X77.459 Y34.232 E5.08564
G1 X77.379 Y34.074 E5.09035
G1 X77.308 Y34.115 E5.09253
G1 X76.906 Y34.318 E5.10452
G1 X76.099 Y34.681 E5.12806
G1 X75.262 Y34.969 E5.15162
G1 X74.403 Y35.181 E5.17516
G1 X73.528 Y35.315 E5.19871
G1 X72.456 Y35.37 E5.22727
G1 X69.149 Y35.359 E5.31527
G1 X68.265 Y35.316 E5.33882
G1 X67.389 Y35.193 E5.36235
G1 X66.526 Y34.992 E5.38593
G1 X65.686 Y34.714 E5.40947
G1 X64.874 Y34.361 E5.43303
G1 X64.279 Y34.044 E5.45097
G1 X63.881 Y33.814 E5.4632
G1 X63.135 Y33.337 E5.48676
G1 X62.435 Y32.795 E5.51032
G1 X61.788 Y32.191 E5.53387
G1 X61.197 Y31.532 E5.55742
G1 X60.668 Y30.822 E5.58098
G1 X60.284 Y30.207 E5.60027
G1 X58.627 Y27.32 E5.68884
G1 X58.222 Y26.533 E5.7124
G1 X57.889 Y25.713 E5.73594
G1 X57.632 Y24.866 E5.7595
G1 X57.452 Y24 E5.78303
G1 X57.35 Y23.12 E5.8066
G1 X57.331 Y22.16 E5.83215
G1 X57.345 Y21.674 E5.84509
G1 X57.41 Y20.791 E5.86865
G1 X57.537 Y20.031 E5.88915
G0 F810 X57.555 Y19.918
G0 X57.778 Y19.061
M204 S5000
M205 X30 Y30
G0 F7200 X58.176 Y19.128
M204 S500
M205 X20 Y20
G1 F6000 E5.91576
G1 F900 X58.475 Y18.314 E5.93883
G1 X59.023 Y17.218 E5.97144
G1 X60.705 Y14.336 E6.06023
G1 X61.176 Y13.608 E6.0833
G1 X61.712 Y12.927 E6.10636
G1 X62.308 Y12.298 E6.12941
G1 X62.96 Y11.726 E6.15249
G1 X63.662 Y11.217 E6.17556
G1 X64.578 Y10.687 E6.20372
G1 X64.981 Y10.483 E6.21574
G1 X65.771 Y10.128 E6.23879
G1 X66.591 Y9.847 E6.26185
G1 X67.434 Y9.642 E6.28494
G1 X68.292 Y9.517 E6.30801
G1 X69.257 Y9.47 E6.33371
G1 X72.564 Y9.481 E6.42171
G1 X73.43 Y9.524 E6.44478
G1 X74.288 Y9.646 E6.46784
G1 X75.132 Y9.847 E6.49092
G1 X75.953 Y10.125 E6.51399
G1 X76.745 Y10.478 E6.53706
G1 X77.26 Y10.756 E6.55263
G1 X77.657 Y10.987 E6.56485
G1 X78.386 Y11.457 E6.58793
G1 X78.71 Y11.712 E6.5989
G1 X79.033 Y11.322 E6.61238
G1 X79.341 Y10.998 E6.62427
G1 X79.458 Y10.881 E6.62867
G1 X80.099 Y10.297 E6.65175
G1 X80.791 Y9.774 E6.67483
G1 X81.528 Y9.318 E6.69789
G1 X82.303 Y8.931 E6.72094
G1 X83.112 Y8.617 E6.74403
G1 X83.945 Y8.379 E6.76708
G1 X84.797 Y8.219 E6.79014
G1 X85.66 Y8.139 E6.81321
G1 X86.105 Y8.128 E6.82505
G1 X95.871 Y8.128 E7.0849
G1 X96.737 Y8.168 E7.10797
G1 X97.596 Y8.288 E7.13105
G1 X98.44 Y8.486 E7.15412
G1 X99.262 Y8.761 E7.17718
G1 X100.055 Y9.111 E7.20024
G1 X100.813 Y9.532 E7.22332
G1 X101.528 Y10.021 E7.24636
G1 X102.196 Y10.574 E7.26944
G1 X102.518 Y10.881 E7.28128
G1 X102.635 Y10.998 E7.28568
G1 X102.879 Y11.266 E7.29532
G1 X103.461 Y10.826 E7.31474
G1 X104.198 Y10.37 E7.3378
G1 X104.973 Y9.983 E7.36085
G1 X105.782 Y9.669 E7.38394
G1 X106.615 Y9.431 E7.40699
G1 X107.467 Y9.271 E7.43005
G1 X108.33 Y9.191 E7.45312
G1 X108.775 Y9.18 E7.46496
G1 X118.541 Y9.18 E7.72481
G1 X119.407 Y9.22 E7.74788
G1 X120.266 Y9.34 E7.77096
G1 X121.11 Y9.538 E7.79403
G1 X121.932 Y9.813 E7.81709
G1 X122.725 Y10.163 E7.84015
G1 X123.483 Y10.584 E7.86323
G1 X124.198 Y11.073 E7.88627
G1 X124.866 Y11.626 E7.90935
G1 X125.188 Y11.933 E7.92119
G1 X125.305 Y12.05 E7.92559
G1 X125.889 Y12.691 E7.94866
G1 X126.283 Y13.212 E7.96604
G1 X126.761 Y12.793 E7.98296
G1 X127.463 Y12.284 E8.00603
G1 X128.379 Y11.754 E8.03419
G1 X128.782 Y11.55 E8.04621
G1 X129.572 Y11.195 E8.06925
G1 X130.392 Y10.914 E8.09232
G1 X131.235 Y10.709 E8.1154
G1 X132.093 Y10.584 E8.13847
G1 X133.058 Y10.537 E8.16418
G1 X136.365 Y10.548 E8.25217
G1 X137.231 Y10.591 E8.27524
G1 X138.089 Y10.713 E8.2983
G1 X138.933 Y10.914 E8.32139
G1 X139.754 Y11.192 E8.34445
G1 X140.546 Y11.545 E8.36752
G1 X141.061 Y11.823 E8.38309
G1 X141.458 Y12.054 E8.39532
G1 X142.187 Y12.524 E8.4184
G1 X142.869 Y13.06 E8.44148
G1 X143.499 Y13.655 E8.46453
G1 X144.071 Y14.307 E8.48761
G1 X144.581 Y15.008 E8.51068
G1 X144.882 Y15.498 E8.52598
G1 X146.54 Y18.385 E8.61456
G1 X146.937 Y19.156 E8.63764
G1 X147.261 Y19.96 E8.6607
G1 X147.509 Y20.79 E8.68375
G1 X147.68 Y21.64 E8.70682
G1 X147.772 Y22.502 E8.72989
G1 X147.785 Y23.338 E8.75214
G1 X147.771 Y23.822 E8.76502
G1 X147.706 Y24.686 E8.78807
G1 X147.562 Y25.541 E8.81114
G1 X147.339 Y26.379 E8.83422
G1 X147.04 Y27.193 E8.85729
G1 X146.494 Y28.288 E8.88985
G1 X144.811 Y31.172 E8.9787
G1 X144.34 Y31.9 E9.00177
G1 X143.804 Y32.581 E9.02483
G1 X143.207 Y33.21 E9.0479
G1 X142.555 Y33.781 E9.07096
G1 X141.853 Y34.29 E9.09404
G1 X140.929 Y34.825 E9.12245
G1 X140.527 Y35.028 E9.13443
G1 X139.736 Y35.383 E9.1575
G1 X138.916 Y35.663 E9.18055
G1 X138.073 Y35.866 E9.20363
G1 X137.215 Y35.991 E9.2267
G1 X136.259 Y36.037 E9.25216
G1 X132.952 Y36.026 E9.34016
G1 X132.086 Y35.983 E9.36323
G1 X131.228 Y35.861 E9.38629
G1 X130.384 Y35.66 E9.40937
G1 X129.563 Y35.382 E9.43244
G1 X128.771 Y35.029 E9.45551
G1 X128.28 Y34.765 E9.47034
G1 X127.882 Y34.535 E9.48257
G1 X127.292 Y34.156 E9.50123
G1 X127.075 Y34.647 E9.51552
G1 X126.654 Y35.405 E9.53859
G1 X126.165 Y36.12 E9.56164
G1 X125.612 Y36.788 E9.58471
G1 X125.305 Y37.11 E9.59655
G1 X125.188 Y37.227 E9.60095
G1 X124.547 Y37.811 E9.62402
G1 X123.855 Y38.334 E9.6471
G1 X123.118 Y38.79 E9.67016
G1 X122.343 Y39.177 E9.69321
G1 X121.534 Y39.491 E9.7163
G1 X120.701 Y39.729 E9.73935
G1 X119.849 Y39.889 E9.76242
G1 X118.986 Y39.969 E9.78548
G1 X118.541 Y39.98 E9.79733
G1 X108.778 Y39.98 E10.0571
G1 X107.912 Y39.94 E10.08017
G1 X107.053 Y39.82 E10.10325
G1 X106.209 Y39.622 E10.12631
G1 X105.387 Y39.347 E10.14938
G1 X104.594 Y38.997 E10.17244
G1 X103.836 Y38.576 E10.19551
G1 X103.121 Y38.087 E10.21856
G1 X102.453 Y37.534 E10.24164
G1 X102.131 Y37.227 E10.25347
G1 X102.014 Y37.11 E10.25788
G1 X101.769 Y36.841 E10.26756
G1 X101.185 Y37.282 E10.28703
G1 X100.448 Y37.738 E10.31009
G1 X99.673 Y38.125 E10.33314
G1 X98.864 Y38.439 E10.35623
G1 X98.031 Y38.677 E10.37928
G1 X97.179 Y38.837 E10.40235
G1 X96.316 Y38.917 E10.42541
G1 X95.871 Y38.928 E10.43725
G1 X86.108 Y38.928 E10.69703
G1 X85.242 Y38.888 E10.7201
G1 X84.383 Y38.768 E10.74317
G1 X83.539 Y38.57 E10.76624
G1 X82.717 Y38.295 E10.7893
G1 X81.924 Y37.945 E10.81237
G1 X81.166 Y37.524 E10.83544
G1 X80.451 Y37.035 E10.85849
G1 X79.783 Y36.482 E10.88156
G1 X79.461 Y36.175 E10.8934
G1 X79.344 Y36.058 E10.8978
G1 X78.76 Y35.417 E10.92088
G1 X78.237 Y34.725 E10.94396
G1 X77.781 Y33.988 E10.96702
G1 X77.546 Y33.516 E10.98105
G1 X77.128 Y33.758 E10.9939
G1 X76.726 Y33.961 E11.00588
G1 X75.935 Y34.316 E11.02895
G1 X75.115 Y34.596 E11.052
G1 X74.272 Y34.799 E11.07508
G1 X73.414 Y34.924 E11.09815
G1 X72.458 Y34.97 E11.12361
G1 X69.151 Y34.959 E11.21161
G1 X68.285 Y34.916 E11.23468
G1 X67.427 Y34.794 E11.25774
G1 X66.583 Y34.593 E11.28082
G1 X65.762 Y34.315 E11.30389
G1 X64.97 Y33.962 E11.32696
G1 X64.479 Y33.698 E11.34179
G1 X64.081 Y33.468 E11.35402
G1 X63.351 Y33 E11.3771
G1 X62.667 Y32.467 E11.40017
G1 X62.036 Y31.873 E11.42323
G1 X61.462 Y31.223 E11.4463
G1 X60.95 Y30.523 E11.46938
G1 X60.631 Y30.008 E11.4855
G1 X58.974 Y27.121 E11.57407
G1 X58.578 Y26.35 E11.59713
G1 X58.254 Y25.546 E11.6202
G1 X58.006 Y24.715 E11.64327
G1 X57.835 Y23.865 E11.66634
G1 X57.744 Y23.003 E11.6894
G1 X57.731 Y22.171 E11.71154
G1 X57.745 Y21.685 E11.72448
G1 X57.81 Y20.821 E11.74754
G1 X57.932 Y20.098 E11.76705
G0 F810 X57.954 Y19.966
G0 X58.176 Y19.128
M204 S5000
M205 X30 Y30
G0 F7200 X58.575 Y19.196
M204 S500
M205 X20 Y20
G1 F6000 E11.79365
G1 F900 X58.872 Y18.402 E11.81621
G1 X59.368 Y17.419 E11.84551
G1 X61.05 Y14.537 E11.9343
G1 X61.512 Y13.826 E11.95686
G1 X62.038 Y13.161 E11.97942
G1 X62.625 Y12.548 E12.002
G1 X63.267 Y11.994 E12.02456
G1 X63.958 Y11.502 E12.04714
G1 X64.758 Y11.044 E12.07166
G1 X65.161 Y10.84 E12.08368
G1 X65.935 Y10.493 E12.10625
G1 X66.739 Y10.221 E12.12884
G1 X67.564 Y10.025 E12.1514
G1 X68.404 Y9.908 E12.17396
G1 X69.256 Y9.87 E12.19666
G1 X72.563 Y9.881 E12.28465
G1 X73.41 Y9.924 E12.30722
G1 X74.25 Y10.046 E12.3298
G1 X75.074 Y10.247 E12.35237
G1 X75.875 Y10.525 E12.37493
G1 X76.647 Y10.876 E12.3975
G1 X77.059 Y11.102 E12.41
G1 X77.456 Y11.333 E12.42222
G1 X78.169 Y11.794 E12.44481
G1 X78.776 Y12.273 E12.46539
G1 X78.877 Y12.129 E12.47007
G1 X79.624 Y11.281 E12.50014
G1 X79.741 Y11.164 E12.50454
G1 X80.368 Y10.593 E12.5271
G1 X81.047 Y10.084 E12.54968
G1 X81.77 Y9.641 E12.57224
G1 X82.532 Y9.268 E12.59482
G1 X83.326 Y8.968 E12.6174
G1 X84.144 Y8.744 E12.63997
G1 X84.98 Y8.599 E12.66255
G1 X86.105 Y8.528 E12.69254
G1 X95.871 Y8.528 E12.9524
G1 X96.718 Y8.568 E12.97496
G1 X97.558 Y8.688 E12.99754
G1 X98.383 Y8.886 E13.02011
G1 X99.186 Y9.161 E13.04269
G1 X99.959 Y9.51 E13.06526
G1 X100.695 Y9.93 E13.08781
G1 X101.389 Y10.418 E13.11038
G1 X102.235 Y11.164 E13.1404
G1 X102.352 Y11.281 E13.1448
G1 X102.844 Y11.821 E13.16424
G1 X103.038 Y11.645 E13.17121
G1 X103.717 Y11.136 E13.19379
G1 X104.44 Y10.693 E13.21635
G1 X105.202 Y10.32 E13.23892
G1 X105.996 Y10.02 E13.26151
G1 X106.814 Y9.796 E13.28407
G1 X107.65 Y9.651 E13.30665
G1 X108.775 Y9.58 E13.33664
G1 X118.541 Y9.58 E13.5965
G1 X119.388 Y9.62 E13.61906
G1 X120.228 Y9.74 E13.64164
G1 X121.053 Y9.938 E13.66421
G1 X121.856 Y10.213 E13.6868
G1 X122.629 Y10.562 E13.70937
G1 X123.365 Y10.982 E13.73191
G1 X124.059 Y11.47 E13.75449
G1 X124.905 Y12.216 E13.7845
G1 X125.022 Y12.333 E13.7889
G1 X125.593 Y12.96 E13.81147
G1 X126.102 Y13.639 E13.83405
G1 X126.219 Y13.831 E13.84003
G1 X126.426 Y13.615 E13.84799
G1 X127.068 Y13.061 E13.87055
G1 X127.759 Y12.569 E13.89312
G1 X128.559 Y12.111 E13.91765
G1 X128.962 Y11.907 E13.92967
G1 X129.736 Y11.56 E13.95224
G1 X130.54 Y11.288 E13.97482
G1 X131.365 Y11.092 E13.99739
G1 X132.205 Y10.975 E14.01995
G1 X133.057 Y10.937 E14.04265
G1 X136.364 Y10.948 E14.13064
G1 X137.211 Y10.991 E14.15321
G1 X138.051 Y11.113 E14.17579
G1 X138.875 Y11.314 E14.19836
G1 X139.676 Y11.592 E14.22092
G1 X140.448 Y11.943 E14.24348
G1 X140.86 Y12.169 E14.25599
G1 X141.257 Y12.4 E14.26821
G1 X141.97 Y12.861 E14.2908
G1 X142.635 Y13.386 E14.31334
G1 X143.249 Y13.973 E14.33595
G1 X143.804 Y14.614 E14.35851
G1 X144.297 Y15.304 E14.38107
G1 X144.536 Y15.697 E14.39331
G1 X146.194 Y18.584 E14.48189
G1 X146.581 Y19.339 E14.50447
G1 X146.895 Y20.126 E14.52701
G1 X147.134 Y20.94 E14.54959
G1 X147.296 Y21.773 E14.57217
G1 X147.378 Y22.617 E14.59473
G1 X147.385 Y23.326 E14.6136
G1 X147.371 Y23.81 E14.62648
G1 X147.307 Y24.656 E14.64906
G1 X147.163 Y25.492 E14.67163
G1 X146.941 Y26.311 E14.69421
G1 X146.643 Y27.105 E14.71677
G1 X146.148 Y28.086 E14.74601
G1 X144.465 Y30.97 E14.83486
G1 X144.004 Y31.682 E14.85743
G1 X143.477 Y32.347 E14.88
G1 X142.89 Y32.96 E14.90259
