;FLAVOR:Marlin
;TIME:3606
;Filament used: 2.83294m
;Layer height: 0.16
;Generated with Cura_SteamEngine 3.6.0
M140 S70
M105
M190 S70
M104 S215
M105
M109 S215
M82 ;absolute extrusion mode
G28 ; home all axes
M117 Purge extruder
G92 E0 ; reset extruder
G1 Z1.0 F3000 ; move z up little to prevent scratching of surface
G1 X0.1 Y20 Z0.3 F5000.0 ; move to start-line position G1 X0.1 Y200.0 Z0.3 F1500.0 E15 ; draw 1st line
G1 X0.4 Y200.0 Z0.3 F5000.0 ; move to side a little
G1 X0.4 Y20 Z0.3 F1500.0 E30 ; draw 2nd line
G92 E0 ; reset extruder
G1 Z1.0 F3000 ; move z up little to prevent scratching of surface
M117 All systems go!
G92 E0
G1 F6000 E-5
;LAYER_COUNT:28
;LAYER:0
M107
M204 S5000
M205 X30 Y30
G0 F7200 X94.508 Y69.653 Z0.2
M204 S500
M205 X20 Y20
;TYPE:SKIRT
G1 F6000 E0
G1 F900 X95.022 Y69.051 E0.02896
G1 X95.151 Y68.922 E0.03564
G1 X95.628 Y68.502 E0.05889
G1 X96.154 Y68.144 E0.08217
G1 X96.721 Y67.856 E0.10543
G1 X97.319 Y67.64 E0.1287
G1 X97.94 Y67.502 E0.15197
G1 X98.729 Y67.44 E0.18093
G1 X108.271 Y67.44 E0.53003
G1 X108.906 Y67.48 E0.55331
G1 X109.53 Y67.599 E0.57655
G1 X110.135 Y67.796 E0.59983
G1 X110.5 Y67.968 E0.61459
G1 X110.721 Y67.856 E0.62366
G1 X111.319 Y67.64 E0.64692
G1 X111.94 Y67.502 E0.67019
G1 X112.729 Y67.44 E0.69915
G1 X122.271 Y67.44 E1.04825
G1 X122.906 Y67.48 E1.07153
G1 X123.53 Y67.599 E1.09477
G1 X124.135 Y67.796 E1.11805
G1 X124.71 Y68.067 E1.14131
G1 X125.247 Y68.408 E1.16458
G1 X125.849 Y68.922 E1.19354
G1 X125.978 Y69.051 E1.20021
G1 X126.398 Y69.528 E1.22347
G1 X126.756 Y70.054 E1.24675
G1 X127.044 Y70.621 E1.27001
G1 X127.26 Y71.219 E1.29328
G1 X127.398 Y71.84 E1.31655
G1 X127.46 Y72.629 E1.3455
G1 X127.46 Y162.371 E4.62882
G1 X127.42 Y163.006 E4.6521
G1 X127.301 Y163.63 E4.67534
G1 X127.104 Y164.235 E4.69862
G1 X126.833 Y164.81 E4.72187
G1 X126.492 Y165.347 E4.74515
G1 X125.978 Y165.949 E4.77411
G1 X125.849 Y166.078 E4.78078
G1 X125.372 Y166.498 E4.80403
G1 X124.846 Y166.856 E4.82731
G1 X124.279 Y167.144 E4.85058
G1 X123.681 Y167.36 E4.87384
G1 X123.06 Y167.498 E4.89712
G1 X122.271 Y167.56 E4.92607
G1 X112.729 Y167.56 E5.27518
G1 X112.094 Y167.52 E5.29846
G1 X111.47 Y167.401 E5.3217
G1 X110.865 Y167.204 E5.34497
G1 X110.5 Y167.032 E5.35974
G1 X110.279 Y167.144 E5.3688
G1 X109.681 Y167.36 E5.39206
G1 X109.06 Y167.498 E5.41534
G1 X108.271 Y167.56 E5.44429
G1 X98.729 Y167.56 E5.7934
G1 X98.094 Y167.52 E5.81668
G1 X97.47 Y167.401 E5.83992
G1 X96.865 Y167.204 E5.8632
G1 X96.29 Y166.933 E5.88645
G1 X95.753 Y166.592 E5.90973
G1 X95.151 Y166.078 E5.93869
G1 X95.022 Y165.949 E5.94536
G1 X94.602 Y165.472 E5.96861
G1 X94.244 Y164.946 E5.99189
G1 X93.956 Y164.379 E6.01516
G1 X93.74 Y163.781 E6.03842
G1 X93.602 Y163.16 E6.0617
G1 X93.54 Y162.371 E6.09065
G1 X93.54 Y72.629 E9.37397
G1 X93.58 Y71.994 E9.39724
G1 X93.699 Y71.37 E9.42048
G1 X93.896 Y70.765 E9.44376
G1 X94.129 Y70.272 E9.46371
G0 F810 X94.167 Y70.19
G0 X94.508 Y69.653
M204 S5000
M205 X30 Y30
G0 F7200 X94.945 Y69.803
M204 S500
M205 X20 Y20
G1 F6000 E9.49031
G1 F900 X95.333 Y69.362 E9.5118
G1 X95.462 Y69.233 E9.51848
G1 X95.919 Y68.833 E9.5407
G1 X96.425 Y68.496 E9.56294
G1 X96.97 Y68.228 E9.58516
G1 X97.546 Y68.034 E9.6074
G1 X98.142 Y67.917 E9.62962
G1 X98.729 Y67.88 E9.65114
G1 X108.271 Y67.88 E10.00024
G1 X108.877 Y67.92 E10.02246
G1 X109.473 Y68.039 E10.0447
G1 X110.048 Y68.235 E10.06692
G1 X110.499 Y68.46 E10.08536
G1 X110.97 Y68.228 E10.10457
G1 X111.546 Y68.034 E10.12681
G1 X112.142 Y67.917 E10.14903
G1 X112.729 Y67.88 E10.17055
G1 X122.271 Y67.88 E10.51965
G1 X122.877 Y67.92 E10.54187
G1 X123.473 Y68.039 E10.56411
G1 X124.048 Y68.235 E10.58633
G1 X124.592 Y68.506 E10.60857
G1 X125.097 Y68.845 E10.63082
G1 X125.538 Y69.233 E10.65231
G1 X125.667 Y69.362 E10.65899
G1 X126.067 Y69.819 E10.68121
G1 X126.404 Y70.325 E10.70345
G1 X126.672 Y70.87 E10.72567
G1 X126.866 Y71.446 E10.74791
G1 X126.983 Y72.042 E10.77013
G1 X127.02 Y72.629 E10.79165
G1 X127.02 Y162.371 E14.07496
G1 X126.98 Y162.977 E14.09718
G1 X126.861 Y163.573 E14.11942
G1 X126.665 Y164.148 E14.14164
G1 X126.394 Y164.692 E14.16388
G1 X126.055 Y165.197 E14.18613
G1 X125.667 Y165.638 E14.20762
G1 X125.538 Y165.767 E14.21429
G1 X125.081 Y166.167 E14.23651
G1 X124.575 Y166.504 E14.25876
G1 X124.03 Y166.772 E14.28098
G1 X123.454 Y166.966 E14.30321
G1 X122.858 Y167.083 E14.32543
G1 X122.271 Y167.12 E14.34695
G1 X112.729 Y167.12 E14.69606
G1 X112.123 Y167.08 E14.71828
G1 X111.527 Y166.961 E14.74051
G1 X110.952 Y166.765 E14.76274
G1 X110.501 Y166.54 E14.78118
G1 X110.03 Y166.772 E14.80039
G1 X109.454 Y166.966 E14.82263
G1 X108.858 Y167.083 E14.84485
G1 X108.271 Y167.12 E14.86637
G1 X98.729 Y167.12 E15.21547
G1 X98.123 Y167.08 E15.23769
G1 X97.527 Y166.961 E15.25993
G1 X96.952 Y166.765 E15.28215
G1 X96.408 Y166.494 E15.30439
G1 X95.903 Y166.155 E15.32664
G1 X95.462 Y165.767 E15.34813
G1 X95.333 Y165.638 E15.3548
G1 X94.933 Y165.181 E15.37702
G1 X94.596 Y164.675 E15.39927
G1 X94.328 Y164.13 E15.42149
G1 X94.134 Y163.554 E15.44372
G1 X94.017 Y162.958 E15.46595
G1 X93.98 Y162.371 E15.48746
G1 X93.98 Y72.629 E18.77078
G1 X94.02 Y72.023 E18.793
G1 X94.139 Y71.427 E18.81523
G1 X94.335 Y70.852 E18.83746
G1 X94.553 Y70.414 E18.85536
G0 F810 X94.606 Y70.308
G0 X94.945 Y69.803
M204 S5000
M205 X30 Y30
G0 F7200 X95.381 Y69.962
M204 S500
M205 X20 Y20
G1 F6000 E18.88196
G1 F900 X95.644 Y69.673 E18.89625
G1 X95.773 Y69.544 E18.90293
G1 X96.209 Y69.165 E18.92406
G1 X96.693 Y68.849 E18.94521
G1 X97.216 Y68.603 E18.96636
G1 X97.768 Y68.432 E18.9875
G1 X98.339 Y68.338 E19.00867
G1 X98.729 Y68.32 E19.02295
G1 X108.271 Y68.32 E19.37206
G1 X108.848 Y68.36 E19.39322
G1 X109.413 Y68.479 E19.41435
G1 X109.957 Y68.675 E19.4355
G1 X110.468 Y68.944 E19.45663
G1 X110.506 Y68.971 E19.45833
G1 X110.693 Y68.849 E19.4665
G1 X111.216 Y68.603 E19.48765
G1 X111.768 Y68.432 E19.50879
G1 X112.339 Y68.338 E19.52996
G1 X112.729 Y68.32 E19.54425
G1 X122.271 Y68.32 E19.89335
G1 X122.848 Y68.36 E19.91451
G1 X123.413 Y68.479 E19.93564
G1 X123.957 Y68.675 E19.95679
G1 X124.468 Y68.944 E19.97792
G1 X124.938 Y69.281 E19.99908
G1 X125.227 Y69.544 E20.01338
G1 X125.356 Y69.673 E20.02005
G1 X125.735 Y70.109 E20.04119
G1 X126.051 Y70.593 E20.06233
G1 X126.297 Y71.116 E20.08348
G1 X126.468 Y71.668 E20.10462
G1 X126.562 Y72.239 E20.12579
G1 X126.58 Y72.629 E20.14008
G1 X126.58 Y162.371 E23.42339
G1 X126.54 Y162.948 E23.44455
G1 X126.421 Y163.513 E23.46568
G1 X126.225 Y164.057 E23.48683
G1 X125.956 Y164.568 E23.50796
G1 X125.619 Y165.038 E23.52912
G1 X125.356 Y165.327 E23.54341
G1 X125.227 Y165.456 E23.55009
G1 X124.791 Y165.835 E23.57123
G1 X124.307 Y166.151 E23.59237
G1 X123.784 Y166.397 E23.61352
G1 X123.232 Y166.568 E23.63466
G1 X122.661 Y166.662 E23.65583
G1 X122.271 Y166.68 E23.67012
G1 X112.729 Y166.68 E24.01922
G1 X112.152 Y166.64 E24.04038
G1 X111.587 Y166.521 E24.06151
G1 X111.043 Y166.325 E24.08266
G1 X110.532 Y166.056 E24.10379
G1 X110.494 Y166.029 E24.1055
G1 X110.307 Y166.151 E24.11366
G1 X109.784 Y166.397 E24.13481
G1 X109.232 Y166.568 E24.15595
G1 X108.661 Y166.662 E24.17712
G1 X108.271 Y166.68 E24.19141
G1 X98.729 Y166.68 E24.54051
G1 X98.152 Y166.64 E24.56167
G1 X97.587 Y166.521 E24.5828
G1 X97.043 Y166.325 E24.60395
G1 X96.532 Y166.056 E24.62508
G1 X96.062 Y165.719 E24.64624
G1 X95.773 Y165.456 E24.66054
G1 X95.644 Y165.327 E24.66721
G1 X95.265 Y164.891 E24.68835
G1 X94.949 Y164.407 E24.70949
G1 X94.703 Y163.884 E24.73064
G1 X94.532 Y163.332 E24.75178
G1 X94.438 Y162.761 E24.77295
G1 X94.42 Y162.371 E24.78724
G1 X94.42 Y72.629 E28.07055
G1 X94.46 Y72.052 E28.09171
G1 X94.579 Y71.487 E28.11284
G1 X94.775 Y70.943 E28.13399
G1 X94.975 Y70.563 E28.1497
G0 F810 X95.044 Y70.432
G0 X95.381 Y69.962
M204 S5000
M205 X30 Y30
G0 F7200 X95.482 Y70.563
M204 S500
M205 X20 Y20
G1 F6000 E28.1763
G1 F900 X95.955 Y69.984 E28.20366
G1 X96.084 Y69.855 E28.21033
G1 X96.498 Y69.498 E28.23033
G1 X96.96 Y69.205 E28.25035
G1 X97.459 Y68.982 E28.27034
G1 X97.985 Y68.835 E28.29032
G1 X98.729 Y68.76 E28.31768
G1 X108.271 Y68.76 E28.66679
G1 X108.816 Y68.8 E28.68678
G1 X109.35 Y68.919 E28.7068
G1 X109.86 Y69.114 E28.72677
G1 X110.337 Y69.382 E28.74679
G1 X110.489 Y69.506 E28.75397
G1 X110.498 Y69.498 E28.75441
G1 X110.96 Y69.205 E28.77442
G1 X111.459 Y68.982 E28.79442
G1 X111.985 Y68.835 E28.8144
G1 X112.729 Y68.76 E28.84176
G1 X122.271 Y68.76 E29.19086
G1 X122.816 Y68.8 E29.21086
G1 X123.35 Y68.919 E29.23087
G1 X123.86 Y69.114 E29.25085
G1 X124.337 Y69.382 E29.27087
G1 X124.916 Y69.855 E29.29822
G1 X125.045 Y69.984 E29.3049
G1 X125.402 Y70.398 E29.3249
G1 X125.695 Y70.86 E29.34491
G1 X125.918 Y71.359 E29.36491
G1 X126.065 Y71.885 E29.38489
G1 X126.14 Y72.629 E29.41225
G1 X126.14 Y162.371 E32.69556
G1 X126.1 Y162.916 E32.71556
G1 X125.981 Y163.45 E32.73557
G1 X125.786 Y163.96 E32.75555
G1 X125.518 Y164.437 E32.77557
G1 X125.045 Y165.016 E32.80292
G1 X124.916 Y165.145 E32.80959
G1 X124.502 Y165.502 E32.82959
G1 X124.04 Y165.795 E32.84961
G1 X123.541 Y166.018 E32.86961
G1 X123.015 Y166.165 E32.88959
G1 X122.271 Y166.24 E32.91695
G1 X112.729 Y166.24 E33.26605
G1 X112.184 Y166.2 E33.28604
G1 X111.65 Y166.081 E33.30606
G1 X111.14 Y165.886 E33.32604
G1 X110.663 Y165.618 E33.34605
G1 X110.511 Y165.494 E33.35323
G1 X110.502 Y165.502 E33.35367
G1 X110.04 Y165.795 E33.37369
G1 X109.541 Y166.018 E33.39368
G1 X109.015 Y166.165 E33.41366
G1 X108.271 Y166.24 E33.44102
G1 X98.729 Y166.24 E33.79013
G1 X98.184 Y166.2 E33.81012
G1 X97.65 Y166.081 E33.83014
G1 X97.14 Y165.886 E33.85011
G1 X96.663 Y165.618 E33.87013
G1 X96.084 Y165.145 E33.89748
G1 X95.955 Y165.016 E33.90416
G1 X95.598 Y164.602 E33.92416
G1 X95.305 Y164.14 E33.94417
G1 X95.082 Y163.641 E33.96417
G1 X94.935 Y163.115 E33.98415
G1 X94.86 Y162.371 E34.01151
G1 X94.86 Y72.629 E37.29483
G1 X94.9 Y72.084 E37.31482
G1 X95.019 Y71.55 E37.33483
G1 X95.15 Y71.208 E37.34823
G0 F810 X95.214 Y71.04
G0 X95.482 Y70.563
M204 S5000
M205 X30 Y30
G0 F7200 X95.92 Y70.704
M204 S500
M205 X20 Y20
G1 F6000 E37.37483
G1 F900 X96.267 Y70.296 E37.39443
G1 X96.396 Y70.167 E37.4011
G1 X96.786 Y69.833 E37.41989
G1 X97.223 Y69.564 E37.43866
G1 X97.697 Y69.366 E37.45746
G1 X98.195 Y69.243 E37.47622
G1 X98.729 Y69.2 E37.49582
G1 X108.271 Y69.2 E37.84493
G1 X108.783 Y69.24 E37.86372
G1 X109.282 Y69.359 E37.88249
G1 X109.757 Y69.554 E37.90127
G1 X110.196 Y69.82 E37.92005
G1 X110.5 Y70.078 E37.93464
G1 X110.786 Y69.833 E37.94842
G1 X111.223 Y69.564 E37.96719
G1 X111.697 Y69.366 E37.98599
G1 X112.195 Y69.243 E38.00475
G1 X112.729 Y69.2 E38.02435
G1 X122.271 Y69.2 E38.37346
G1 X122.783 Y69.24 E38.39225
G1 X123.282 Y69.359 E38.41102
G1 X123.757 Y69.554 E38.4298
G1 X124.196 Y69.82 E38.44858
G1 X124.604 Y70.167 E38.46818
G1 X124.733 Y70.296 E38.47485
G1 X125.067 Y70.686 E38.49364
G1 X125.336 Y71.123 E38.51241
G1 X125.534 Y71.597 E38.53121
G1 X125.657 Y72.095 E38.54997
G1 X125.7 Y72.629 E38.56957
G1 X125.7 Y162.371 E41.85289
G1 X125.66 Y162.883 E41.87168
G1 X125.541 Y163.382 E41.89045
G1 X125.346 Y163.857 E41.90923
G1 X125.08 Y164.296 E41.92801
G1 X124.733 Y164.704 E41.94761
G1 X124.604 Y164.833 E41.95428
G1 X124.214 Y165.167 E41.97307
G1 X123.777 Y165.436 E41.99184
G1 X123.303 Y165.634 E42.01064
G1 X122.805 Y165.757 E42.0294
G1 X122.271 Y165.8 E42.049
G1 X112.729 Y165.8 E42.39811
G1 X112.217 Y165.76 E42.4169
G1 X111.718 Y165.641 E42.43567
G1 X111.243 Y165.446 E42.45445
G1 X110.804 Y165.18 E42.47323
G1 X110.5 Y164.922 E42.48782
G1 X110.214 Y165.167 E42.5016
G1 X109.777 Y165.436 E42.52037
G1 X109.303 Y165.634 E42.53917
G1 X108.805 Y165.757 E42.55793
G1 X108.271 Y165.8 E42.57753
G1 X98.729 Y165.8 E42.92664
G1 X98.217 Y165.76 E42.94543
G1 X97.718 Y165.641 E42.9642
G1 X97.243 Y165.446 E42.98298
G1 X96.804 Y165.18 E43.00176
G1 X96.396 Y164.833 E43.02136
G1 X96.267 Y164.704 E43.02803
G1 X95.933 Y164.314 E43.04682
G1 X95.664 Y163.877 E43.06559
G1 X95.466 Y163.403 E43.08439
G1 X95.343 Y162.905 E43.10315
G1 X95.3 Y162.371 E43.12276
G1 X95.3 Y72.629 E46.40607
G1 X95.34 Y72.117 E46.42486
G1 X95.459 Y71.618 E46.44363
G1 X95.573 Y71.341 E46.45459
G0 F810 X95.654 Y71.143
G0 X95.92 Y70.704
M204 S5000
M205 X30 Y30
G0 F7200 X96.357 Y70.855
M204 S500
M205 X20 Y20
G1 F6000 E46.48118
G1 F900 X96.578 Y70.607 E46.49334
G1 X96.707 Y70.478 E46.50001
G1 X97.072 Y70.169 E46.51751
G1 X97.483 Y69.926 E46.53498
G1 X97.929 Y69.754 E46.55247
G1 X98.397 Y69.659 E46.56994
G1 X98.729 Y69.64 E46.5821
G1 X108.271 Y69.64 E46.93121
G1 X108.747 Y69.68 E46.94869
G1 X109.21 Y69.799 E46.96618
G1 X109.647 Y69.993 E46.98367
G1 X110.045 Y70.257 E47.00114
G1 X110.293 Y70.478 E47.01329
G1 X110.422 Y70.607 E47.01997
G1 X110.498 Y70.697 E47.02428
G1 X110.578 Y70.607 E47.02868
G1 X110.707 Y70.478 E47.03536
G1 X111.072 Y70.169 E47.05286
G1 X111.483 Y69.926 E47.07032
G1 X111.929 Y69.754 E47.08781
G1 X112.397 Y69.659 E47.10528
G1 X112.729 Y69.64 E47.11745
G1 X122.271 Y69.64 E47.46656
G1 X122.747 Y69.68 E47.48403
G1 X123.21 Y69.799 E47.50152
G1 X123.647 Y69.993 E47.51902
G1 X124.045 Y70.257 E47.53649
G1 X124.293 Y70.478 E47.54864
G1 X124.422 Y70.607 E47.55532
G1 X124.731 Y70.972 E47.57281
G1 X124.974 Y71.383 E47.59028
G1 X125.146 Y71.829 E47.60777
G1 X125.241 Y72.297 E47.62524
G1 X125.26 Y72.629 E47.63741
G1 X125.26 Y162.371 E50.92072
G1 X125.22 Y162.847 E50.9382
G1 X125.101 Y163.31 E50.95569
G1 X124.907 Y163.747 E50.97318
G1 X124.643 Y164.145 E50.99066
G1 X124.422 Y164.393 E51.00281
G1 X124.293 Y164.522 E51.00948
G1 X123.928 Y164.831 E51.02698
G1 X123.517 Y165.074 E51.04445
G1 X123.071 Y165.246 E51.06194
G1 X122.603 Y165.341 E51.07941
G1 X122.271 Y165.36 E51.09157
G1 X112.729 Y165.36 E51.44068
G1 X112.253 Y165.32 E51.45816
G1 X111.79 Y165.201 E51.47565
G1 X111.353 Y165.007 E51.49314
G1 X110.955 Y164.743 E51.51061
G1 X110.707 Y164.522 E51.52277
G1 X110.578 Y164.393 E51.52944
G1 X110.502 Y164.303 E51.53375
G1 X110.422 Y164.393 E51.53816
G1 X110.293 Y164.522 E51.54483
G1 X109.928 Y164.831 E51.56233
G1 X109.517 Y165.074 E51.5798
G1 X109.071 Y165.246 E51.59728
G1 X108.603 Y165.341 E51.61476
G1 X108.271 Y165.36 E51.62692
G1 X98.729 Y165.36 E51.97603
G1 X98.253 Y165.32 E51.9935
G1 X97.79 Y165.201 E52.01099
G1 X97.353 Y165.007 E52.02849
G1 X96.955 Y164.743 E52.04596
G1 X96.707 Y164.522 E52.05811
G1 X96.578 Y164.393 E52.06479
G1 X96.269 Y164.028 E52.08228
G1 X96.026 Y163.617 E52.09975
G1 X95.854 Y163.171 E52.11724
G1 X95.759 Y162.703 E52.13471
G1 X95.74 Y162.371 E52.14688
G1 X95.74 Y72.629 E55.43019
G1 X95.78 Y72.153 E55.44767
G1 X95.899 Y71.69 E55.46516
G1 X95.992 Y71.481 E55.47353
G0 F810 X96.093 Y71.253
G0 X96.357 Y70.855
M204 S5000
M205 X30 Y30
G0 F7200 X96.531 Y71.373
M204 S500
M205 X20 Y20
G1 F6000 E55.50013
G1 F900 X96.889 Y70.918 E55.52131
G1 X97.018 Y70.789 E55.52798
G1 X97.356 Y70.508 E55.54407
G1 X97.739 Y70.292 E55.56015
G1 X98.154 Y70.149 E55.57621
G1 X98.729 Y70.08 E55.5974
G1 X108.271 Y70.08 E55.9465
G1 X108.709 Y70.12 E55.9626
G1 X109.132 Y70.238 E55.97866
G1 X109.527 Y70.431 E55.99475
G1 X109.982 Y70.789 E56.01593
G1 X110.111 Y70.918 E56.0226
G1 X110.392 Y71.256 E56.03869
G1 X110.497 Y71.442 E56.0465
G1 X110.531 Y71.373 E56.04931
G1 X110.889 Y70.918 E56.0705
G1 X111.018 Y70.789 E56.07717
G1 X111.356 Y70.508 E56.09325
G1 X111.739 Y70.292 E56.10934
G1 X112.154 Y70.149 E56.1254
G1 X112.729 Y70.08 E56.14659
G1 X122.271 Y70.08 E56.49569
G1 X122.709 Y70.12 E56.51178
G1 X123.132 Y70.238 E56.52785
G1 X123.527 Y70.431 E56.54393
G1 X123.982 Y70.789 E56.56512
G1 X124.111 Y70.918 E56.57179
G1 X124.392 Y71.256 E56.58787
G1 X124.608 Y71.639 E56.60396
G1 X124.751 Y72.054 E56.62002
G1 X124.82 Y72.629 E56.64121
G1 X124.82 Y162.371 E59.92452
G1 X124.78 Y162.809 E59.94061
G1 X124.662 Y163.232 E59.95668
G1 X124.469 Y163.627 E59.97276
G1 X124.111 Y164.082 E59.99394
G1 X123.982 Y164.211 E60.00062
G1 X123.644 Y164.492 E60.0167
G1 X123.261 Y164.708 E60.03279
G1 X122.846 Y164.851 E60.04885
G1 X122.271 Y164.92 E60.07004
G1 X112.729 Y164.92 E60.41914
G1 X112.291 Y164.88 E60.43523
G1 X111.868 Y164.762 E60.4513
G1 X111.473 Y164.569 E60.46738
G1 X111.018 Y164.211 E60.48856
G1 X110.889 Y164.082 E60.49524
G1 X110.608 Y163.744 E60.51132
G1 X110.503 Y163.558 E60.51914
