;FLAVOR:RepRap
;TIME:3902
;Generated with Cura_SteamEngine 2.3.1
M190 S70
M104 S215
M109 S215
G28 ; home all axes
M117 Purge extruder
G92 E0 ; reset extruder
G1 Z1.0 F3000 ; move z up little to prevent scratching of surface
G1 X0.1 Y20 Z0.3 F5000.0 ; move to start-line position G1 X0.1 Y200.0 Z0.3 F1500.0 E15 ; draw 1st line
G1 X0.4 Y200.0 Z0.3 F5000.0 ; move to side a little
G1 X0.4 Y20 Z0.3 F1500.0 E30 ; draw 2nd line
G92 E0 ; reset extruder
G1 Z1.0 F3000 ; move z up little to prevent scratching of surface

M117 All systems go!
;LAYER_COUNT:49
;LAYER:0
M117 INDICATOR-Layer0
M107
G1 F4200 E-5
G0 F1800 X85.393 Y54.58 Z.16
;TYPE:SKIRT
G1 F4200 E0
G1 F1200 X86.752 Y52.545 E0.07162
G1 X86.975 Y52.244 E0.08259
G1 X88.543 Y50.334 E0.15492
G1 X88.793 Y50.058 E0.16582
G1 X90.515 Y48.336 E0.23709
G1 X90.791 Y48.086 E0.24799
G1 X92.702 Y46.517 E0.32036
G1 X93.003 Y46.294 E0.33133
G1 X95.038 Y44.935 E0.40295
G1 X95.356 Y44.744 E0.41381
G1 X97.509 Y43.593 E0.48526
G1 X97.845 Y43.434 E0.49614
G1 X100.128 Y42.487 E0.56848
G1 X100.485 Y42.359 E0.57958
G1 X102.822 Y41.653 E0.65104
G1 X103.176 Y41.565 E0.66172
G1 X105.587 Y41.083 E0.73368
G1 X105.96 Y41.027 E0.74472
G1 X108.402 Y40.787 E0.81654
G1 X108.774 Y40.769 E0.82744
G1 X111.226 Y40.769 E0.89921
G1 X111.598 Y40.787 E0.91011
G1 X114.04 Y41.027 E0.98193
G1 X114.413 Y41.083 E0.99297
G1 X116.824 Y41.565 E1.06493
G1 X117.178 Y41.653 E1.07561
G1 X119.515 Y42.359 E1.14706
G1 X119.872 Y42.487 E1.15816
G1 X122.155 Y43.434 E1.2305
G1 X122.491 Y43.593 E1.24138
G1 X124.644 Y44.744 E1.31284
G1 X124.962 Y44.935 E1.3237
G1 X126.997 Y46.294 E1.39532
G1 X127.298 Y46.517 E1.40628
G1 X129.208 Y48.085 E1.47861
G1 X129.484 Y48.335 E1.48951
G1 X131.206 Y50.057 E1.56079
G1 X131.456 Y50.333 E1.57169
G1 X133.025 Y52.244 E1.64406
G1 X133.248 Y52.544 E1.655
G1 X134.606 Y54.577 E1.72656
G1 X134.797 Y54.895 E1.73741
G1 X135.952 Y57.054 E1.80908
G1 X136.112 Y57.393 E1.82005
G1 X137.054 Y59.668 E1.89212
G1 X137.18 Y60.021 E1.90309
G1 X137.889 Y62.362 E1.97468
G1 X137.978 Y62.719 E1.98545
G1 X138.459 Y65.128 E2.05735
G1 X138.515 Y65.5 E2.06836
G1 X138.755 Y67.942 E2.14018
G1 X138.773 Y68.314 E2.15108
G1 X138.773 Y70.769 E2.22294
G1 X138.755 Y71.141 E2.23384
G1 X138.515 Y73.583 E2.30566
G1 X138.46 Y73.954 E2.31664
G1 X137.979 Y76.365 E2.38859
G1 X137.889 Y76.723 E2.3994
G1 X137.181 Y79.062 E2.47093
G1 X137.055 Y79.415 E2.4819
G1 X136.112 Y81.692 E2.55403
G1 X135.952 Y82.031 E2.565
G1 X134.798 Y84.188 E2.6366
G1 X134.607 Y84.505 E2.64744
G1 X133.248 Y86.54 E2.71906
G1 X133.025 Y86.841 E2.73002
G1 X131.457 Y88.751 E2.80235
G1 X131.207 Y89.027 E2.81325
G1 X129.485 Y90.749 E2.88453
G1 X129.209 Y90.999 E2.89543
G1 X127.3 Y92.566 E2.96772
G1 X126.999 Y92.789 E2.97868
G1 X124.961 Y94.15 E3.05041
G1 X124.644 Y94.34 E3.06123
G1 X122.488 Y95.494 E3.1328
G1 X122.149 Y95.655 E3.14378
G1 X119.874 Y96.597 E3.21585
G1 X119.521 Y96.723 E3.22682
G1 X117.18 Y97.432 E3.29842
G1 X116.822 Y97.522 E3.30922
G1 X116.583 Y97.57 E3.31636
G1 X116.687 Y97.616 E3.31968
G1 X117.375 Y98.014 E3.34295
G1 X119.119 Y99.281 E3.40604
G1 X119.709 Y99.811 E3.42925
G1 X121.151 Y101.411 E3.4923
G1 X121.62 Y102.057 E3.51566
G1 X122.691 Y103.915 E3.57843
G1 X123.012 Y104.636 E3.60153
G1 X123.678 Y106.68 E3.66445
G1 X123.844 Y107.46 E3.68779
G1 X124.069 Y109.601 E3.7508
G1 X124.069 Y110.395 E3.77404
G1 X123.844 Y112.539 E3.83714
G1 X123.678 Y113.319 E3.86048
G1 X123.012 Y115.363 E3.9234
G1 X122.692 Y116.083 E3.94646
G1 X121.621 Y117.942 E4.00926
G1 X121.151 Y118.589 E4.03267
G1 X119.709 Y120.189 E4.09571
G1 X119.119 Y120.72 E4.11894
G1 X117.376 Y121.986 E4.18199
G1 X116.689 Y122.382 E4.2052
G1 X114.729 Y123.255 E4.268
G1 X113.974 Y123.501 E4.29124
G1 X111.863 Y123.95 E4.35441
G1 X111.07 Y124.033 E4.37775
G1 X108.926 Y124.032 E4.4405
G1 X108.139 Y123.949 E4.46367
G1 X106.029 Y123.501 E4.5268
G1 X105.273 Y123.256 E4.55006
G1 X103.312 Y122.383 E4.61289
G1 X102.624 Y121.986 E4.63614
G1 X100.881 Y120.72 E4.69919
G1 X100.291 Y120.189 E4.72242
G1 X98.849 Y118.589 E4.78546
G1 X98.379 Y117.942 E4.80887
G1 X97.308 Y116.083 E4.87166
G1 X96.988 Y115.363 E4.89473
G1 X96.322 Y113.319 E4.95765
G1 X96.156 Y112.539 E4.98099
G1 X95.931 Y110.399 E5.04397
G1 X95.931 Y109.606 E5.06718
G1 X96.156 Y107.461 E5.13031
G1 X96.322 Y106.68 E5.15368
G1 X96.988 Y104.636 E5.2166
G1 X97.309 Y103.915 E5.2397
G1 X98.38 Y102.057 E5.30247
G1 X98.849 Y101.411 E5.32583
G1 X100.291 Y99.811 E5.38887
G1 X100.881 Y99.281 E5.41209
G1 X102.625 Y98.014 E5.47518
G1 X103.313 Y97.616 E5.49844
G1 X103.417 Y97.57 E5.50177
G1 X103.178 Y97.522 E5.50891
G1 X102.82 Y97.432 E5.51971
G1 X100.479 Y96.723 E5.5913
G1 X100.126 Y96.597 E5.60227
G1 X97.851 Y95.655 E5.67434
G1 X97.512 Y95.494 E5.68533
G1 X95.356 Y94.34 E5.7569
G1 X95.039 Y94.15 E5.76772
G1 X93.001 Y92.789 E5.83945
G1 X92.7 Y92.566 E5.85041
G1 X90.791 Y90.999 E5.9227
G1 X90.515 Y90.749 E5.9336
G1 X88.793 Y89.027 E6.00488
G1 X88.543 Y88.751 E6.01578
G1 X86.975 Y86.841 E6.08811
G1 X86.752 Y86.54 E6.09907
G1 X85.393 Y84.505 E6.17069
G1 X85.202 Y84.188 E6.18152
G1 X84.048 Y82.031 E6.25313
G1 X83.888 Y81.692 E6.2641
G1 X82.945 Y79.415 E6.33623
G1 X82.819 Y79.062 E6.3472
G1 X82.111 Y76.723 E6.41873
G1 X82.021 Y76.365 E6.42953
G1 X81.54 Y73.954 E6.50149
G1 X81.485 Y73.583 E6.51247
G1 X81.245 Y71.143 E6.58423
G1 X81.227 Y70.771 E6.59513
G1 X81.227 Y68.316 E6.66699
G1 X81.245 Y67.944 E6.67789
G1 X81.485 Y65.502 E6.74971
G1 X81.54 Y65.131 E6.76068
G1 X82.021 Y62.72 E6.83264
G1 X82.111 Y62.362 E6.84345
G1 X82.819 Y60.023 E6.91497
G1 X82.945 Y59.67 E6.92594
G1 X83.888 Y57.393 E6.99808
G1 X84.048 Y57.054 E7.00905
G1 X85.202 Y54.897 E7.08065
G1 X85.393 Y54.58 E7.09148
G0 F1800 X85.726 Y54.802
G1 F1200 X87.085 Y52.767 E7.16311
G1 X87.284 Y52.498 E7.1729
G1 X88.852 Y50.588 E7.24523
G1 X89.076 Y50.341 E7.25499
G1 X90.798 Y48.619 E7.32627
G1 X91.045 Y48.395 E7.33602
G1 X92.956 Y46.826 E7.40839
G1 X93.225 Y46.627 E7.41819
G1 X95.26 Y45.268 E7.48981
G1 X95.545 Y45.097 E7.49954
G1 X97.698 Y43.946 E7.57099
G1 X97.998 Y43.803 E7.58072
G1 X100.281 Y42.856 E7.65306
G1 X100.601 Y42.742 E7.66301
G1 X102.938 Y42.036 E7.73446
G1 X103.254 Y41.957 E7.74399
G1 X105.665 Y41.475 E7.81596
G1 X105.999 Y41.425 E7.82584
G1 X108.441 Y41.185 E7.89766
G1 X108.774 Y41.169 E7.90742
G1 X111.226 Y41.169 E7.97919
G1 X111.559 Y41.185 E7.98894
G1 X114.001 Y41.425 E8.06076
G1 X114.335 Y41.475 E8.07065
G1 X116.746 Y41.957 E8.14261
G1 X117.062 Y42.036 E8.15215
G1 X119.399 Y42.742 E8.2236
G1 X119.719 Y42.856 E8.23354
G1 X122.002 Y43.803 E8.30588
G1 X122.302 Y43.946 E8.31561
G1 X124.455 Y45.097 E8.38707
G1 X124.74 Y45.268 E8.3968
G1 X126.775 Y46.627 E8.46842
G1 X127.044 Y46.826 E8.47821
G1 X128.954 Y48.394 E8.55054
G1 X129.201 Y48.618 E8.5603
G1 X130.923 Y50.34 E8.63158
G1 X131.147 Y50.587 E8.64134
G1 X132.716 Y52.498 E8.71371
G1 X132.915 Y52.766 E8.72348
G1 X134.273 Y54.799 E8.79504
G1 X134.444 Y55.084 E8.80476
G1 X135.599 Y57.243 E8.87643
G1 X135.742 Y57.546 E8.88624
G1 X136.684 Y59.821 E8.95831
G1 X136.797 Y60.136 E8.9681
G1 X137.506 Y62.477 E9.03969
G1 X137.586 Y62.797 E9.04935
G1 X138.067 Y65.206 E9.12125
G1 X138.117 Y65.539 E9.1311
G1 X138.357 Y67.981 E9.20292
G1 X138.373 Y68.314 E9.21268
G1 X138.373 Y70.769 E9.28454
G1 X138.357 Y71.102 E9.29429
G1 X138.117 Y73.544 E9.36611
G1 X138.067 Y73.876 E9.37594
G1 X137.586 Y76.287 E9.4479
G1 X137.506 Y76.607 E9.45755
G1 X136.798 Y78.946 E9.52908
G1 X136.685 Y79.262 E9.5389
G1 X135.742 Y81.539 E9.61104
G1 X135.599 Y81.842 E9.62084
G1 X134.445 Y83.999 E9.69244
G1 X134.274 Y84.283 E9.70215
G1 X132.915 Y86.318 E9.77377
G1 X132.716 Y86.587 E9.78356
G1 X131.148 Y88.497 E9.85589
G1 X130.924 Y88.744 E9.86565
G1 X129.202 Y90.466 E9.93693
G1 X128.955 Y90.69 E9.94669
G1 X127.046 Y92.257 E10.01898
G1 X126.777 Y92.456 E10.02877
G1 X124.739 Y93.817 E10.1005
G1 X124.455 Y93.988 E10.1102
G1 X122.299 Y95.142 E10.18177
G1 X121.996 Y95.285 E10.19158
G1 X119.721 Y96.227 E10.26365
G1 X119.406 Y96.34 E10.27345
G1 X117.065 Y97.049 E10.34504
G1 X116.744 Y97.129 E10.35472
G1 X115.269 Y97.423 E10.39874
G1 X116.525 Y97.982 E10.43898
G1 X117.14 Y98.337 E10.45976
G1 X118.884 Y99.604 E10.52286
G1 X119.412 Y100.079 E10.54364
G1 X120.854 Y101.679 E10.60669
G1 X121.274 Y102.257 E10.6276
G1 X122.345 Y104.115 E10.69037
G1 X122.632 Y104.76 E10.71103
G1 X123.298 Y106.804 E10.77395
G1 X123.446 Y107.502 E10.79484
G1 X123.671 Y109.643 E10.85785
G1 X123.671 Y110.353 E10.87863
G1 X123.446 Y112.497 E10.94172
G1 X123.298 Y113.195 E10.96261
G1 X122.632 Y115.239 E11.02553
G1 X122.345 Y115.883 E11.04617
G1 X121.274 Y117.742 E11.10896
G1 X120.854 Y118.321 E11.1299
G1 X119.412 Y119.921 E11.19294
G1 X118.884 Y120.396 E11.21373
G1 X117.141 Y121.662 E11.27678
G1 X116.526 Y122.017 E11.29756
G1 X114.566 Y122.89 E11.36036
G1 X113.89 Y123.11 E11.38117
G1 X111.779 Y123.559 E11.44434
G1 X111.07 Y123.633 E11.4652
G1 X108.926 Y123.632 E11.52796
G1 X108.222 Y123.558 E11.54868
G1 X106.112 Y123.11 E11.61181
G1 X105.435 Y122.89 E11.63265
G1 X103.474 Y122.017 E11.69547
G1 X102.859 Y121.662 E11.71626
G1 X101.116 Y120.396 E11.77931
G1 X100.588 Y119.921 E11.8001
G1 X99.146 Y118.321 E11.86314
G1 X98.726 Y117.742 E11.88407
G1 X97.655 Y115.883 E11.94687
G1 X97.368 Y115.239 E11.96751
G1 X96.702 Y113.195 E12.03043
G1 X96.554 Y112.498 E12.05128
G1 X96.329 Y110.358 E12.11426
G1 X96.329 Y109.647 E12.13507
G1 X96.554 Y107.502 E12.1982
G1 X96.702 Y106.804 E12.21908
G1 X97.368 Y104.76 E12.282
G1 X97.655 Y104.115 E12.30267
G1 X98.726 Y102.257 E12.36544
G1 X99.146 Y101.679 E12.38635
G1 X100.588 Y100.079 E12.44939
G1 X101.116 Y99.604 E12.47018
G1 X102.86 Y98.337 E12.53327
G1 X103.475 Y97.982 E12.55406
G1 X104.731 Y97.423 E12.5943
G1 X103.256 Y97.129 E12.63832
G1 X102.935 Y97.049 E12.648
G1 X100.594 Y96.34 E12.71959
G1 X100.279 Y96.227 E12.72939
G1 X98.004 Y95.285 E12.80146
G1 X97.701 Y95.142 E12.81126
G1 X95.545 Y93.988 E12.88284
G1 X95.261 Y93.817 E12.89254
G1 X93.223 Y92.456 E12.96427
G1 X92.954 Y92.257 E12.97406
G1 X91.045 Y90.69 E13.04635
G1 X90.798 Y90.466 E13.05611
G1 X89.076 Y88.744 E13.12739
G1 X88.852 Y88.497 E13.13715
G1 X87.284 Y86.587 E13.20947
G1 X87.085 Y86.318 E13.21927
G1 X85.726 Y84.283 E13.29089
G1 X85.555 Y83.999 E13.30059
G1 X84.401 Y81.842 E13.37219
G1 X84.258 Y81.539 E13.382
G1 X83.315 Y79.262 E13.45414
G1 X83.202 Y78.946 E13.46396
G1 X82.494 Y76.607 E13.53549
G1 X82.414 Y76.287 E13.54514
G1 X81.933 Y73.876 E13.6171
G1 X81.883 Y73.544 E13.62692
G1 X81.643 Y71.104 E13.69869
G1 X81.627 Y70.771 E13.70844
G1 X81.627 Y68.316 E13.7803
G1 X81.643 Y67.983 E13.79006
G1 X81.883 Y65.541 E13.86188
G1 X81.933 Y65.209 E13.8717
G1 X82.414 Y62.798 E13.94366
G1 X82.494 Y62.478 E13.95331
G1 X83.202 Y60.139 E14.02484
G1 X83.315 Y59.823 E14.03466
G1 X84.258 Y57.546 E14.1068
G1 X84.401 Y57.243 E14.11661
G1 X85.555 Y55.086 E14.18821
G1 X85.726 Y54.802 E14.19791
G0 F1800 X86.058 Y55.024
G1 F1200 X87.417 Y52.989 E14.26953
G1 X87.593 Y52.751 E14.2782
G1 X89.161 Y50.841 E14.35052
G1 X89.359 Y50.624 E14.35912
G1 X91.081 Y48.902 E14.4304
G1 X91.298 Y48.704 E14.439
G1 X93.209 Y47.135 E14.51137
G1 X93.447 Y46.959 E14.52003
G1 X95.482 Y45.6 E14.59165
G1 X95.734 Y45.449 E14.60025
G1 X97.887 Y44.298 E14.67171
G1 X98.152 Y44.173 E14.68028
G1 X100.435 Y43.226 E14.75263
G1 X100.716 Y43.125 E14.76137
G1 X103.053 Y42.419 E14.83282
G1 X103.333 Y42.349 E14.84127
G1 X105.744 Y41.867 E14.91323
G1 X106.039 Y41.823 E14.92196
G1 X108.481 Y41.583 E14.99378
G1 X108.774 Y41.569 E15.00237
G1 X111.226 Y41.569 E15.07413
G1 X111.519 Y41.583 E15.08272
G1 X113.961 Y41.823 E15.15454
G1 X114.256 Y41.867 E15.16327
G1 X116.667 Y42.349 E15.23523
G1 X116.947 Y42.419 E15.24368
G1 X119.284 Y43.125 E15.31513
G1 X119.565 Y43.226 E15.32387
G1 X121.848 Y44.173 E15.39622
G1 X122.113 Y44.298 E15.40479
G1 X124.266 Y45.449 E15.47625
G1 X124.518 Y45.6 E15.48485
G1 X126.553 Y46.959 E15.55647
G1 X126.791 Y47.135 E15.56513
G1 X128.701 Y48.703 E15.63746
G1 X128.918 Y48.901 E15.64606
G1 X130.64 Y50.623 E15.71734
G1 X130.838 Y50.84 E15.72593
G1 X132.407 Y52.751 E15.7983
G1 X132.583 Y52.989 E15.80697
G1 X133.941 Y55.022 E15.87853
G1 X134.091 Y55.273 E15.88708
G1 X135.246 Y57.432 E15.95875
G1 X135.373 Y57.699 E15.9674
G1 X136.315 Y59.974 E16.03947
G1 X136.414 Y60.252 E16.04811
G1 X137.123 Y62.593 E16.1197
G1 X137.194 Y62.876 E16.12824
G1 X137.675 Y65.285 E16.20014
G1 X137.719 Y65.579 E16.20884
G1 X137.959 Y68.021 E16.28066
G1 X137.973 Y68.314 E16.28925
G1 X137.973 Y70.769 E16.3611
G1 X137.959 Y71.062 E16.36969
G1 X137.719 Y73.504 E16.44151
G1 X137.675 Y73.798 E16.45021
G1 X137.194 Y76.209 E16.52217
G1 X137.123 Y76.491 E16.53068
G1 X136.415 Y78.83 E16.60221
G1 X136.316 Y79.109 E16.61087
G1 X135.373 Y81.386 E16.68301
G1 X135.246 Y81.653 E16.69166
G1 X134.092 Y83.81 E16.76326
G1 X133.942 Y84.061 E16.77182
G1 X132.583 Y86.096 E16.84344
G1 X132.407 Y86.334 E16.8521
G1 X130.839 Y88.244 E16.92443
G1 X130.641 Y88.461 E16.93303
G1 X128.919 Y90.183 E17.00431
G1 X128.701 Y90.381 E17.01293
G1 X126.792 Y91.948 E17.08522
G1 X126.555 Y92.124 E17.09386
G1 X124.517 Y93.485 E17.16559
G1 X124.267 Y93.635 E17.17412
G1 X122.111 Y94.789 E17.24569
G1 X121.843 Y94.916 E17.25437
G1 X119.568 Y95.858 E17.32644
G1 X119.29 Y95.957 E17.33508
G1 X116.949 Y96.666 E17.40667
G1 X116.666 Y96.737 E17.41521
G1 X114.254 Y97.218 E17.4872
G1 X113.959 Y97.262 E17.49593
G1 X113.791 Y97.279 E17.50087
G1 X113.807 Y97.282 E17.50135
G1 X114.403 Y97.475 E17.51968
G1 X116.362 Y98.347 E17.58244
G1 X116.905 Y98.661 E17.6008
G1 X118.649 Y99.928 E17.6639
G1 X119.114 Y100.347 E17.68222
G1 X120.556 Y101.947 E17.74526
G1 X120.927 Y102.457 E17.76372
G1 X121.998 Y104.315 E17.82649
G1 X122.251 Y104.884 E17.84471
G1 X122.917 Y106.928 E17.90764
G1 X123.049 Y107.543 E17.92605
G1 X123.274 Y109.684 E17.98906
G1 X123.274 Y110.311 E18.00741
G1 X123.049 Y112.455 E18.07051
G1 X122.917 Y113.071 E18.08894
G1 X122.251 Y115.115 E18.15187
G1 X121.998 Y115.684 E18.17009
G1 X120.927 Y117.543 E18.23289
G1 X120.556 Y118.053 E18.25135
G1 X119.114 Y119.653 E18.31439
G1 X118.649 Y120.072 E18.33271
G1 X116.906 Y121.338 E18.39576
G1 X116.364 Y121.651 E18.41408
G1 X114.404 Y122.524 E18.47688
G1 X113.807 Y122.718 E18.49525
G1 X111.696 Y123.167 E18.55842
G1 X111.071 Y123.233 E18.57682
G1 X108.927 Y123.232 E18.63957
G1 X108.305 Y123.167 E18.65787
G1 X106.195 Y122.719 E18.72101
G1 X105.598 Y122.525 E18.73938
G1 X103.637 Y121.652 E18.80221
G1 X103.094 Y121.338 E18.82057
G1 X101.351 Y120.072 E18.88362
G1 X100.886 Y119.653 E18.90194
G1 X99.444 Y118.053 E18.96498
G1 X99.073 Y117.543 E18.98344
G1 X98.002 Y115.684 E19.04624
G1 X97.749 Y115.115 E19.06446
G1 X97.083 Y113.071 E19.12738
G1 X96.951 Y112.456 E19.14579
G1 X96.726 Y110.316 E19.20877
G1 X96.726 Y109.689 E19.22713
G1 X96.951 Y107.544 E19.29025
G1 X97.083 Y106.928 E19.30869
G1 X97.749 Y104.884 E19.37161
G1 X98.002 Y104.315 E19.38984
G1 X99.073 Y102.457 E19.45261
G1 X99.444 Y101.947 E19.47107
G1 X100.886 Y100.347 E19.53411
G1 X101.351 Y99.928 E19.55243
G1 X103.095 Y98.661 E19.61552
G1 X103.638 Y98.347 E19.63388
G1 X105.597 Y97.475 E19.69664
G1 X106.193 Y97.282 E19.71498
G1 X106.209 Y97.279 E19.71546
G1 X106.041 Y97.262 E19.7204
G1 X105.746 Y97.218 E19.72913
G1 X103.334 Y96.737 E19.80112
G1 X103.051 Y96.666 E19.80966
G1 X100.71 Y95.957 E19.88125
G1 X100.432 Y95.858 E19.88989
G1 X98.157 Y94.916 E19.96195
G1 X97.889 Y94.789 E19.97063
G1 X95.733 Y93.635 E20.04221
G1 X95.483 Y93.485 E20.05074
G1 X93.445 Y92.124 E20.12247
G1 X93.208 Y91.948 E20.13111
G1 X91.299 Y90.381 E20.2034
G1 X91.081 Y90.183 E20.21202
G1 X89.359 Y88.461 E20.2833
G1 X89.161 Y88.244 E20.29189
G1 X87.593 Y86.334 E20.36422
G1 X87.417 Y86.096 E20.37289
G1 X86.058 Y84.061 E20.44451
G1 X85.908 Y83.81 E20.45307
G1 X84.754 Y81.653 E20.52467
G1 X84.627 Y81.386 E20.53332
G1 X83.684 Y79.109 E20.60546
G1 X83.585 Y78.83 E20.61412
G1 X82.877 Y76.491 E20.68565
G1 X82.806 Y76.209 E20.69416
G1 X82.325 Y73.798 E20.76612
G1 X82.281 Y73.505 E20.77479
G1 X82.041 Y71.065 E20.84655
G1 X82.027 Y70.771 E20.85517
G1 X82.027 Y68.316 E20.92702
G1 X82.041 Y68.023 E20.93561
G1 X82.281 Y65.581 E21.00743
G1 X82.325 Y65.287 E21.01613
G1 X82.806 Y62.876 E21.08809
