;FLAVOR:RepRap
;TIME:2425
;Generated with Cura_SteamEngine 2.3.1
M190 S70
M104 S215
M109 S215
G28 ; home all axes
M117 Purge extruder
G92 E0 ; reset extruder
G1 Z1.0 F3000 ; move z up little to prevent scratching of surface
G1 X0.1 Y20 Z0.3 F5000.0 ; move to start-line position G1 X0.1 Y200.0 Z0.3 F1500.0 E15 ; draw 1st line
G1 X0.4 Y200.0 Z0.3 F5000.0 ; move to side a little
G1 X0.4 Y20 Z0.3 F1500.0 E30 ; draw 2nd line
G92 E0 ; reset extruder
G1 Z1.0 F3000 ; move z up little to prevent scratching of surface

M117 All systems go!
;LAYER_COUNT:463
;LAYER:0
M117 INDICATOR-Layer0
M107
G1 F4200 E-5
G0 F1800 X97.639 Y97.199 Z.16
;TYPE:SKIRT
G1 F4200 E0
G1 F1200 X97.99 Y96.87 E0.01408
G1 X99.355 Y95.742 E0.06591
G1 X99.74 Y95.462 E0.07984
G1 X101.22 Y94.523 E0.13114
G1 X101.64 Y94.293 E0.14516
G1 X103.236 Y93.543 E0.19677
G1 X103.678 Y93.368 E0.21069
G1 X105.35 Y92.825 E0.26214
G1 X105.813 Y92.706 E0.27613
G1 X107.541 Y92.377 E0.32762
G1 X108.013 Y92.318 E0.34154
G1 X109.761 Y92.208 E0.3928
G1 X110.239 Y92.208 E0.40679
G1 X111.987 Y92.318 E0.45806
G1 X112.459 Y92.377 E0.47198
G1 X114.187 Y92.706 E0.52347
G1 X114.65 Y92.825 E0.53746
G1 X116.322 Y93.368 E0.58891
G1 X116.764 Y93.543 E0.60282
G1 X118.36 Y94.293 E0.65444
G1 X118.779 Y94.523 E0.66843
G1 X120.258 Y95.461 E0.71969
G1 X120.644 Y95.741 E0.73365
G1 X122.009 Y96.869 E0.78547
G1 X122.36 Y97.198 E0.79956
G1 X123.554 Y98.471 E0.85064
G1 X123.855 Y98.836 E0.86449
G1 X124.89 Y100.259 E0.91599
G1 X125.147 Y100.663 E0.93
G1 X125.994 Y102.203 E0.98144
G1 X126.196 Y102.633 E0.99535
G1 X126.844 Y104.267 E1.0468
G1 X126.992 Y104.721 E1.06077
G1 X127.43 Y106.423 E1.11221
G1 X127.52 Y106.89 E1.12613
G1 X127.742 Y108.634 E1.17759
G1 X127.772 Y109.114 E1.19167
G1 X127.772 Y110.881 E1.24338
G1 X127.742 Y111.36 E1.25743
G1 X127.52 Y113.108 E1.30901
G1 X127.43 Y113.577 E1.32298
G1 X126.993 Y115.274 E1.37427
G1 X126.847 Y115.723 E1.38809
G1 X126.199 Y117.362 E1.43968
G1 X125.994 Y117.797 E1.45375
G1 X125.146 Y119.338 E1.50523
G1 X124.89 Y119.741 E1.51921
G1 X123.856 Y121.163 E1.57067
G1 X123.555 Y121.528 E1.58451
G1 X122.361 Y122.801 E1.6356
G1 X122.01 Y123.13 E1.64968
G1 X120.645 Y124.258 E1.70151
G1 X120.26 Y124.538 E1.71544
G1 X118.78 Y125.477 E1.76674
G1 X118.361 Y125.707 E1.78073
G1 X116.766 Y126.457 E1.83232
G1 X116.323 Y126.632 E1.84626
G1 X114.652 Y127.175 E1.89769
G1 X114.188 Y127.294 E1.91171
G1 X112.458 Y127.623 E1.96325
G1 X111.987 Y127.682 E1.97714
G1 X110.239 Y127.792 E2.02841
G1 X109.761 Y127.792 E2.0424
G1 X108.013 Y127.682 E2.09366
G1 X107.542 Y127.623 E2.10755
G1 X105.812 Y127.294 E2.1591
G1 X105.348 Y127.175 E2.17312
G1 X103.677 Y126.632 E2.22454
G1 X103.234 Y126.457 E2.23848
G1 X101.639 Y125.707 E2.29007
G1 X101.22 Y125.477 E2.30406
G1 X99.74 Y124.538 E2.35536
G1 X99.355 Y124.258 E2.3693
G1 X97.99 Y123.13 E2.42112
G1 X97.639 Y122.801 E2.4352
G1 X96.445 Y121.528 E2.48629
G1 X96.144 Y121.163 E2.50014
G1 X95.11 Y119.741 E2.5516
G1 X94.854 Y119.338 E2.56557
G1 X94.006 Y117.797 E2.61705
G1 X93.801 Y117.362 E2.63113
G1 X93.153 Y115.723 E2.68271
G1 X93.007 Y115.274 E2.69653
G1 X92.57 Y113.577 E2.74782
G1 X92.48 Y113.108 E2.7618
G1 X92.258 Y111.36 E2.81337
G1 X92.228 Y110.881 E2.82742
G1 X92.228 Y109.115 E2.87911
G1 X92.258 Y108.635 E2.89318
G1 X92.48 Y106.891 E2.94464
G1 X92.57 Y106.424 E2.95856
G1 X93.008 Y104.722 E3.01
G1 X93.155 Y104.269 E3.02394
G1 X93.803 Y102.634 E3.07541
G1 X94.006 Y102.203 E3.08936
G1 X94.853 Y100.663 E3.1408
G1 X95.11 Y100.259 E3.15482
G1 X96.144 Y98.837 E3.20628
G1 X96.445 Y98.472 E3.22012
G1 X97.639 Y97.199 E3.27121
G0 F1800 X97.931 Y97.473
G1 F1200 X98.245 Y97.178 E3.28382
G1 X99.61 Y96.05 E3.33565
G1 X99.955 Y95.8 E3.34812
G1 X101.435 Y94.861 E3.39942
G1 X101.81 Y94.655 E3.41194
G1 X103.406 Y93.905 E3.46355
G1 X103.802 Y93.748 E3.47602
G1 X105.474 Y93.205 E3.52748
G1 X105.888 Y93.099 E3.53998
G1 X107.616 Y92.77 E3.59147
G1 X108.038 Y92.717 E3.60392
G1 X109.786 Y92.607 E3.65518
G1 X110.214 Y92.607 E3.66771
G1 X111.962 Y92.717 E3.71897
G1 X112.384 Y92.77 E3.73142
G1 X114.112 Y93.099 E3.7829
G1 X114.526 Y93.205 E3.79541
G1 X116.198 Y93.748 E3.84687
G1 X116.594 Y93.905 E3.85933
G1 X118.19 Y94.655 E3.91095
G1 X118.565 Y94.861 E3.92347
G1 X120.044 Y95.799 E3.97473
G1 X120.389 Y96.049 E3.9872
G1 X121.754 Y97.177 E4.03903
G1 X122.068 Y97.472 E4.05164
G1 X123.262 Y98.745 E4.10272
G1 X123.532 Y99.071 E4.11511
G1 X124.567 Y100.494 E4.16662
G1 X124.796 Y100.855 E4.17913
G1 X125.643 Y102.395 E4.23057
G1 X125.825 Y102.781 E4.24306
G1 X126.473 Y104.415 E4.29451
G1 X126.605 Y104.821 E4.307
G1 X127.043 Y106.523 E4.35844
G1 X127.123 Y106.941 E4.3709
G1 X127.345 Y108.685 E4.42236
G1 X127.372 Y109.114 E4.43494
G1 X127.372 Y110.881 E4.48666
G1 X127.345 Y111.309 E4.49921
G1 X127.123 Y113.057 E4.55078
G1 X127.043 Y113.477 E4.5633
G1 X126.606 Y115.174 E4.61459
G1 X126.475 Y115.576 E4.62696
G1 X125.827 Y117.215 E4.67855
G1 X125.644 Y117.604 E4.69113
G1 X124.796 Y119.145 E4.74261
G1 X124.567 Y119.506 E4.75512
G1 X123.533 Y120.928 E4.80658
G1 X123.263 Y121.254 E4.81897
G1 X122.069 Y122.527 E4.87006
G1 X121.755 Y122.822 E4.88267
G1 X120.39 Y123.95 E4.93449
G1 X120.045 Y124.2 E4.94696
G1 X118.565 Y125.139 E4.99827
G1 X118.191 Y125.345 E5.01076
G1 X116.596 Y126.095 E5.06235
G1 X116.2 Y126.252 E5.07482
G1 X114.529 Y126.795 E5.12624
G1 X114.113 Y126.901 E5.13881
G1 X112.383 Y127.23 E5.19035
G1 X111.962 Y127.283 E5.20277
G1 X110.214 Y127.393 E5.25403
G1 X109.786 Y127.393 E5.26656
G1 X108.038 Y127.283 E5.31782
G1 X107.617 Y127.23 E5.33024
G1 X105.887 Y126.901 E5.38179
G1 X105.471 Y126.795 E5.39435
G1 X103.8 Y126.252 E5.44578
G1 X103.404 Y126.095 E5.45825
G1 X101.809 Y125.345 E5.50983
G1 X101.435 Y125.139 E5.52233
G1 X99.955 Y124.2 E5.57363
G1 X99.61 Y123.95 E5.5861
G1 X98.245 Y122.822 E5.63793
G1 X97.931 Y122.527 E5.65054
G1 X96.737 Y121.254 E5.70162
G1 X96.467 Y120.928 E5.71401
G1 X95.433 Y119.506 E5.76547
G1 X95.204 Y119.145 E5.77799
G1 X94.356 Y117.604 E5.82947
G1 X94.173 Y117.215 E5.84205
G1 X93.525 Y115.576 E5.89364
G1 X93.394 Y115.174 E5.90601
G1 X92.957 Y113.477 E5.9573
G1 X92.877 Y113.057 E5.96981
G1 X92.655 Y111.309 E6.02139
G1 X92.628 Y110.881 E6.03394
G1 X92.628 Y109.115 E6.08563
G1 X92.655 Y108.686 E6.09821
G1 X92.877 Y106.942 E6.14967
G1 X92.957 Y106.524 E6.16212
G1 X93.395 Y104.822 E6.21356
G1 X93.527 Y104.416 E6.22606
G1 X94.175 Y102.781 E6.27753
G1 X94.357 Y102.395 E6.29002
G1 X95.204 Y100.855 E6.34147
G1 X95.433 Y100.494 E6.35398
G1 X96.467 Y99.072 E6.40544
G1 X96.737 Y98.746 E6.41783
G1 X97.931 Y97.473 E6.46891
G0 F1800 X98.223 Y97.747
G1 F1200 X98.5 Y97.486 E6.48005
G1 X99.865 Y96.358 E6.53188
G1 X100.169 Y96.138 E6.54286
G1 X101.649 Y95.199 E6.59416
G1 X101.98 Y95.017 E6.60522
G1 X103.576 Y94.267 E6.65683
G1 X103.925 Y94.129 E6.66782
G1 X105.597 Y93.586 E6.71927
G1 X105.963 Y93.492 E6.73033
G1 X107.691 Y93.163 E6.78182
G1 X108.064 Y93.116 E6.79282
G1 X109.812 Y93.006 E6.84408
G1 X110.188 Y93.006 E6.85509
G1 X111.936 Y93.116 E6.90635
G1 X112.309 Y93.163 E6.91736
G1 X114.037 Y93.492 E6.96884
G1 X114.403 Y93.586 E6.9799
G1 X116.075 Y94.129 E7.03136
G1 X116.424 Y94.267 E7.04234
G1 X118.02 Y95.017 E7.09395
G1 X118.351 Y95.199 E7.10501
G1 X119.83 Y96.137 E7.15627
G1 X120.134 Y96.357 E7.16725
G1 X121.499 Y97.485 E7.21908
G1 X121.776 Y97.746 E7.23022
G1 X122.97 Y99.019 E7.28131
G1 X123.208 Y99.306 E7.29222
G1 X124.243 Y100.729 E7.34372
G1 X124.446 Y101.048 E7.35479
G1 X125.293 Y102.588 E7.40623
G1 X125.453 Y102.928 E7.41723
G1 X126.101 Y104.562 E7.46868
G1 X126.217 Y104.92 E7.47969
G1 X126.655 Y106.622 E7.53113
G1 X126.726 Y106.991 E7.54213
G1 X126.948 Y108.735 E7.59358
G1 X126.972 Y109.114 E7.6047
G1 X126.972 Y110.881 E7.65642
G1 X126.948 Y111.259 E7.6675
G1 X126.726 Y113.007 E7.71908
G1 X126.655 Y113.377 E7.7301
G1 X126.218 Y115.074 E7.78139
G1 X126.103 Y115.429 E7.79231
G1 X125.455 Y117.068 E7.8439
G1 X125.293 Y117.411 E7.855
G1 X124.445 Y118.952 E7.90648
G1 X124.243 Y119.27 E7.91751
G1 X123.209 Y120.692 E7.96897
G1 X122.971 Y120.98 E7.97991
G1 X121.777 Y122.253 E8.03099
G1 X121.5 Y122.514 E8.04213
G1 X120.135 Y123.642 E8.09396
G1 X119.831 Y123.862 E8.10494
G1 X118.351 Y124.801 E8.15624
G1 X118.021 Y124.983 E8.16727
G1 X116.426 Y125.733 E8.21886
G1 X116.076 Y125.871 E8.22987
G1 X114.405 Y126.414 E8.2813
G1 X114.038 Y126.508 E8.29239
G1 X112.308 Y126.837 E8.34393
G1 X111.936 Y126.884 E8.3549
G1 X110.188 Y126.994 E8.40617
G1 X109.812 Y126.994 E8.41717
G1 X108.064 Y126.884 E8.46844
G1 X107.692 Y126.837 E8.47941
G1 X105.962 Y126.508 E8.53095
G1 X105.595 Y126.414 E8.54204
G1 X103.924 Y125.871 E8.59347
G1 X103.574 Y125.733 E8.60448
G1 X101.979 Y124.983 E8.65607
G1 X101.649 Y124.801 E8.6671
G1 X100.169 Y123.862 E8.7184
G1 X99.865 Y123.642 E8.72938
G1 X98.5 Y122.514 E8.78121
G1 X98.223 Y122.253 E8.79235
G1 X97.029 Y120.98 E8.84343
G1 X96.791 Y120.692 E8.85437
G1 X95.757 Y119.27 E8.90583
G1 X95.555 Y118.952 E8.91685
G1 X94.707 Y117.411 E8.96834
G1 X94.545 Y117.068 E8.97944
G1 X93.897 Y115.429 E9.03102
G1 X93.782 Y115.074 E9.04195
G1 X93.345 Y113.377 E9.09324
G1 X93.274 Y113.007 E9.10426
G1 X93.052 Y111.259 E9.15584
G1 X93.028 Y110.881 E9.16692
G1 X93.028 Y109.115 E9.21861
G1 X93.052 Y108.736 E9.22973
G1 X93.274 Y106.992 E9.28118
G1 X93.345 Y106.623 E9.29218
G1 X93.783 Y104.921 E9.34362
G1 X93.899 Y104.564 E9.35461
G1 X94.547 Y102.929 E9.40608
G1 X94.707 Y102.588 E9.41711
G1 X95.554 Y101.048 E9.46855
G1 X95.757 Y100.73 E9.47959
G1 X96.791 Y99.308 E9.53105
G1 X97.029 Y99.02 E9.54199
G1 X98.223 Y97.747 E9.59307
G0 F1800 X98.515 Y98.02
G1 F1200 X98.755 Y97.795 E9.6027
G1 X100.12 Y96.667 E9.65453
G1 X100.383 Y96.476 E9.66404
G1 X101.863 Y95.537 E9.71534
G1 X102.15 Y95.379 E9.72493
G1 X103.746 Y94.629 E9.77655
G1 X104.049 Y94.509 E9.78608
G1 X105.721 Y93.966 E9.83754
G1 X106.038 Y93.885 E9.84711
G1 X107.766 Y93.556 E9.8986
G1 X108.089 Y93.515 E9.90813
G1 X109.837 Y93.405 E9.95939
G1 X110.163 Y93.405 E9.96893
G1 X111.911 Y93.515 E10.0202
G1 X112.234 Y93.556 E10.02973
G1 X113.962 Y93.885 E10.08121
G1 X114.279 Y93.966 E10.09079
G1 X115.951 Y94.509 E10.14224
G1 X116.254 Y94.629 E10.15178
G1 X117.85 Y95.379 E10.20339
G1 X118.137 Y95.536 E10.21297
G1 X119.616 Y96.474 E10.26423
G1 X119.879 Y96.666 E10.27376
G1 X121.244 Y97.794 E10.32559
G1 X121.484 Y98.019 E10.33522
G1 X122.678 Y99.292 E10.3863
G1 X122.885 Y99.542 E10.3958
G1 X123.92 Y100.965 E10.4473
G1 X124.095 Y101.241 E10.45687
G1 X124.942 Y102.781 E10.50831
G1 X125.081 Y103.076 E10.51786
G1 X125.729 Y104.71 E10.5693
G1 X125.83 Y105.02 E10.57885
G1 X126.268 Y106.722 E10.63029
G1 X126.329 Y107.042 E10.63982
G1 X126.551 Y108.786 E10.69128
G1 X126.572 Y109.114 E10.7009
G1 X126.572 Y110.881 E10.75262
G1 X126.551 Y111.209 E10.76224
G1 X126.329 Y112.957 E10.81381
G1 X126.268 Y113.277 E10.82334
G1 X125.831 Y114.974 E10.87463
G1 X125.731 Y115.282 E10.88411
G1 X125.083 Y116.921 E10.9357
G1 X124.943 Y117.218 E10.94531
G1 X124.095 Y118.759 E10.99679
G1 X123.92 Y119.035 E11.00635
G1 X122.886 Y120.457 E11.05781
G1 X122.679 Y120.707 E11.06731
G1 X121.485 Y121.98 E11.1184
G1 X121.245 Y122.205 E11.12803
G1 X119.88 Y123.333 E11.17985
G1 X119.617 Y123.524 E11.18937
G1 X118.137 Y124.463 E11.24067
G1 X117.85 Y124.621 E11.25026
G1 X116.255 Y125.371 E11.30184
G1 X115.953 Y125.491 E11.31136
G1 X114.282 Y126.034 E11.36278
G1 X113.964 Y126.115 E11.37239
G1 X112.234 Y126.444 E11.42393
G1 X111.911 Y126.485 E11.43346
G1 X110.163 Y126.595 E11.48472
G1 X109.837 Y126.595 E11.49426
G1 X108.089 Y126.485 E11.54553
G1 X107.766 Y126.444 E11.55506
G1 X106.036 Y126.115 E11.6066
G1 X105.718 Y126.034 E11.6162
G1 X104.047 Y125.491 E11.66763
G1 X103.745 Y125.371 E11.67714
G1 X102.15 Y124.621 E11.72873
G1 X101.863 Y124.463 E11.73832
G1 X100.383 Y123.524 E11.78962
G1 X100.12 Y123.333 E11.79913
G1 X98.755 Y122.205 E11.85096
G1 X98.515 Y121.98 E11.86059
G1 X97.321 Y120.707 E11.91167
G1 X97.114 Y120.457 E11.92117
G1 X96.08 Y119.035 E11.97263
G1 X95.905 Y118.759 E11.9822
G1 X95.057 Y117.218 E12.03368
G1 X94.917 Y116.921 E12.04329
G1 X94.269 Y115.282 E12.09488
G1 X94.169 Y114.974 E12.10435
G1 X93.732 Y113.277 E12.15564
G1 X93.671 Y112.957 E12.16518
G1 X93.449 Y111.209 E12.21675
G1 X93.428 Y110.881 E12.22637
G1 X93.428 Y109.115 E12.27806
G1 X93.449 Y108.787 E12.28768
G1 X93.671 Y107.043 E12.33914
G1 X93.732 Y106.723 E12.34867
G1 X94.17 Y105.021 E12.40011
G1 X94.271 Y104.711 E12.40965
G1 X94.919 Y103.076 E12.46113
G1 X95.058 Y102.781 E12.47067
G1 X95.905 Y101.241 E12.52212
G1 X96.08 Y100.965 E12.53168
G1 X97.114 Y99.543 E12.58314
G1 X97.321 Y99.293 E12.59264
G1 X98.515 Y98.02 E12.64373
G0 F1800 X98.806 Y98.294
G1 F1200 X99.01 Y98.103 E12.65191
G1 X100.375 Y96.975 E12.70373
G1 X100.597 Y96.813 E12.71178
G1 X102.077 Y95.874 E12.76308
G1 X102.32 Y95.741 E12.77119
G1 X103.916 Y94.991 E12.8228
G1 X104.172 Y94.89 E12.83086
G1 X105.844 Y94.347 E12.88231
G1 X106.113 Y94.278 E12.89044
G1 X107.841 Y93.949 E12.94192
G1 X108.114 Y93.914 E12.94998
G1 X109.862 Y93.804 E13.00124
G1 X110.138 Y93.804 E13.00932
G1 X111.886 Y93.914 E13.06058
G1 X112.159 Y93.949 E13.06864
G1 X113.887 Y94.278 E13.12012
G1 X114.156 Y94.347 E13.12825
G1 X115.828 Y94.89 E13.17971
G1 X116.084 Y94.991 E13.18776
G1 X117.68 Y95.741 E13.23937
G1 X117.922 Y95.874 E13.24746
G1 X119.401 Y96.812 E13.29872
G1 X119.624 Y96.974 E13.30679
G1 X120.989 Y98.102 E13.35861
G1 X121.193 Y98.293 E13.36679
G1 X122.387 Y99.566 E13.41788
G1 X122.561 Y99.777 E13.42588
G1 X123.596 Y101.2 E13.47738
G1 X123.745 Y101.434 E13.4855
G1 X124.592 Y102.974 E13.53694
G1 X124.709 Y103.223 E13.545
G1 X125.357 Y104.857 E13.59645
G1 X125.443 Y105.12 E13.60454
G1 X125.881 Y106.822 E13.65598
G1 X125.932 Y107.092 E13.66403
G1 X126.154 Y108.836 E13.71548
G1 X126.172 Y109.114 E13.72364
G1 X126.172 Y110.881 E13.77535
G1 X126.154 Y111.158 E13.78348
G1 X125.932 Y112.906 E13.83505
G1 X125.88 Y113.178 E13.84316
G1 X125.443 Y114.875 E13.89445
G1 X125.359 Y115.135 E13.90244
G1 X124.711 Y116.774 E13.95403
G1 X124.592 Y117.026 E13.96219
G1 X123.744 Y118.567 E14.01367
G1 X123.596 Y118.8 E14.02175
G1 X122.562 Y120.222 E14.07321
G1 X122.388 Y120.433 E14.08121
G1 X121.194 Y121.706 E14.1323
G1 X120.99 Y121.897 E14.14048
G1 X119.625 Y123.025 E14.1923
G1 X119.403 Y123.187 E14.20035
G1 X117.923 Y124.126 E14.25165
G1 X117.68 Y124.259 E14.25976
G1 X116.085 Y125.009 E14.31134
G1 X115.829 Y125.11 E14.3194
G1 X114.158 Y125.653 E14.37082
G1 X113.889 Y125.722 E14.37895
G1 X112.159 Y126.051 E14.4305
G1 X111.886 Y126.086 E14.43855
G1 X110.138 Y126.196 E14.48981
G1 X109.862 Y126.196 E14.49789
G1 X108.114 Y126.086 E14.54916
G1 X107.841 Y126.051 E14.55721
G1 X106.111 Y125.722 E14.60875
G1 X105.842 Y125.653 E14.61688
G1 X104.171 Y125.11 E14.66831
G1 X103.915 Y125.009 E14.67636
G1 X102.32 Y124.259 E14.72795
G1 X102.077 Y124.126 E14.73606
G1 X100.597 Y123.187 E14.78736
G1 X100.375 Y123.025 E14.7954
G1 X99.01 Y121.897 E14.84723
G1 X98.806 Y121.706 E14.85541
G1 X97.612 Y120.433 E14.9065
G1 X97.438 Y120.222 E14.9145
G1 X96.404 Y118.8 E14.96596
G1 X96.256 Y118.567 E14.97404
G1 X95.408 Y117.026 E15.02552
G1 X95.289 Y116.774 E15.03368
G1 X94.641 Y115.135 E15.08526
G1 X94.557 Y114.875 E15.09326
G1 X94.12 Y113.178 E15.14455
G1 X94.068 Y112.906 E15.15266
G1 X93.846 Y111.158 E15.20423
G1 X93.828 Y110.881 E15.21235
G1 X93.828 Y109.115 E15.26404
G1 X93.846 Y108.837 E15.2722
G1 X94.068 Y107.093 E15.32365
G1 X94.119 Y106.823 E15.33169
G1 X94.557 Y105.121 E15.38313
G1 X94.643 Y104.858 E15.39123
G1 X95.291 Y103.223 E15.44271
G1 X95.408 Y102.974 E15.45076
G1 X96.255 Y101.434 E15.5022
G1 X96.404 Y101.2 E15.51032
G1 X97.438 Y99.778 E15.56178
G1 X97.612 Y99.567 E15.56979
G1 X98.806 Y98.294 E15.62087
G0 F1800 X99.098 Y98.568
G1 F1200 X99.264 Y98.411 E15.62756
G1 X100.629 Y97.283 E15.67939
G1 X100.812 Y97.151 E15.68599
G1 X102.292 Y96.212 E15.73729
G1 X102.49 Y96.103 E15.74391
G1 X104.086 Y95.353 E15.79552
G1 X104.296 Y95.27 E15.80213
G1 X105.968 Y94.727 E15.85358
G1 X106.187 Y94.671 E15.8602
G1 X107.915 Y94.342 E15.91169
G1 X108.139 Y94.314 E15.91829
G1 X109.887 Y94.204 E15.96956
G1 X110.113 Y94.204 E15.97617
G1 X111.861 Y94.314 E16.02743
G1 X112.085 Y94.342 E16.03404
