;FLAVOR:Marlin
;TIME:618
;Filament used: 0.332203m
;Layer height: 0.2
;Generated with Cura_SteamEngine 4.0.0
M140 S70
M105
M190 S70
M104 S215
M105
M109 S215
M82 ;absolute extrusion mode
G28 ; home all axes
M117 Purge extruder
G92 E0 ; reset extruder
G1 Z1.0 F3000 ; move z up little to prevent scratching of surface
G1 X0.1 Y20 Z0.3 F5000.0 ; move to start-line position G1 X0.1 Y200.0 Z0.3 F1500.0 E15 ; draw 1st line
G1 X0.4 Y200.0 Z0.3 F5000.0 ; move to side a little
G1 X0.4 Y20 Z0.3 F1500.0 E30 ; draw 2nd line
G92 E0 ; reset extruder
G1 Z1.0 F3000 ; move z up little to prevent scratching of surface
M117 All systems go!
G92 E0
G1 F6000 E-5
;LAYER_COUNT:10
;LAYER:0
M107
M204 S5000
M205 X30 Y30
G0 F7200 X67.901 Y106.397 Z0.2
M204 S500
M205 X20 Y20
;TYPE:SKIRT
G1 F6000 E0
G1 F900 X68.671 Y105.961 E0.02943
G1 X69.089 Y105.761 E0.04484
G1 X69.32 Y105.657 E0.05327
G1 X70.143 Y105.33 E0.08272
G1 X70.991 Y105.079 E0.11214
G1 X71.86 Y104.906 E0.14161
G1 X72.74 Y104.812 E0.17104
G1 X73.625 Y104.797 E0.20048
G1 X74.508 Y104.862 E0.22993
G1 X75.381 Y105.007 E0.25936
G1 X76.238 Y105.23 E0.28882
G1 X77.071 Y105.53 E0.31827
G1 X77.873 Y105.903 E0.34768
G1 X78.639 Y106.347 E0.37713
G1 X79.67 Y107.109 E0.41977
G1 X80.398 Y107.724 E0.45147
G1 X81.319 Y108.172 E0.48553
G1 X81.913 Y108.406 E0.50677
G1 X82.49 Y108.585 E0.52686
G1 X87.114 Y109.555 E0.684
G1 X89.539 Y109.936 E0.76565
G1 X92.052 Y110.189 E0.84965
G1 X95.707 Y110.316 E0.97129
G1 X101.472 Y110.291 E1.16304
G1 X108.319 Y110.08 E1.39088
G1 X115.342 Y109.669 E1.62487
G1 X122.584 Y109.064 E1.86657
G1 X130.238 Y108.257 E2.12256
G1 X139.182 Y107.067 E2.42266
G1 X156.042 Y104.384 E2.99048
G1 X158.526 Y103.52 E3.07795
G1 X159.375 Y103.267 E3.10742
G1 X160.242 Y103.092 E3.13684
G1 X161.122 Y102.996 E3.16628
G1 X162.007 Y102.979 E3.19572
G1 X162.89 Y103.043 E3.22517
G1 X163.764 Y103.186 E3.25462
G1 X164.621 Y103.407 E3.28406
G1 X165.455 Y103.705 E3.31351
G1 X166.258 Y104.076 E3.34294
G1 X167.025 Y104.519 E3.3724
G1 X167.442 Y104.801 E3.38914
G1 X167.61 Y104.921 E3.39601
G1 X168.306 Y105.468 E3.42545
G1 X168.951 Y106.075 E3.45491
G1 X169.537 Y106.738 E3.48434
G1 X170.062 Y107.451 E3.51379
G1 X170.52 Y108.208 E3.54321
G1 X170.908 Y109.004 E3.57267
G1 X171.223 Y109.832 E3.60213
G1 X171.461 Y110.684 E3.63155
G1 X171.622 Y111.554 E3.66098
G1 X171.703 Y112.436 E3.69044
G1 X171.714 Y112.918 E3.70648
G1 X171.711 Y114.241 E3.75048
G1 X171.669 Y115.125 E3.77991
G1 X171.547 Y116.002 E3.80936
G1 X171.348 Y116.86 E3.83866
G1 X171.156 Y117.546 E3.86235
G1 X170.879 Y118.387 E3.8918
G1 X170.528 Y119.2 E3.92126
G1 X170.104 Y119.977 E3.9507
G1 X169.613 Y120.713 E3.98012
G1 X169.088 Y121.365 E4.00797
G1 X168.626 Y121.892 E4.03127
G1 X168.013 Y122.531 E4.06073
G1 X167.345 Y123.112 E4.09017
G1 X166.627 Y123.63 E4.11962
G1 X165.866 Y124.081 E4.14904
G1 X165.238 Y124.387 E4.17228
G1 X164.561 Y124.688 E4.19692
G1 X163.737 Y125.011 E4.22636
G1 X162.887 Y125.258 E4.2558
G1 X162.163 Y125.404 E4.28036
G1 X147.91 Y127.737 E4.76073
G1 X147.746 Y127.763 E4.76625
G1 X137.431 Y129.272 E5.11298
G1 X137.173 Y129.306 E5.12163
G1 X128.702 Y130.317 E5.40538
G1 X128.463 Y130.343 E5.41338
G1 X120.821 Y131.065 E5.66868
G1 X120.602 Y131.083 E5.67599
G1 X113.205 Y131.615 E5.92265
G1 X112.938 Y131.63 E5.93155
G1 X105.623 Y131.956 E6.17509
G1 X105.362 Y131.964 E6.18377
G1 X98.575 Y132.085 E6.40954
G1 X98.283 Y132.086 E6.41925
G1 X93.086 Y132.024 E6.59212
G1 X92.567 Y132.004 E6.60939
G1 X88.954 Y131.769 E6.72982
G1 X88.295 Y131.704 E6.75184
G1 X85.205 Y131.292 E6.85553
G1 X84.627 Y131.197 E6.87501
G1 X78.483 Y130.001 E7.08319
G1 X77.617 Y129.791 E7.11283
G1 X75.281 Y129.111 E7.19375
G1 X74.423 Y128.818 E7.22391
G1 X73.009 Y128.26 E7.27447
G1 X72.317 Y127.955 E7.29962
G1 X71.029 Y127.328 E7.34727
G1 X70.383 Y126.984 E7.37161
G1 X69.23 Y126.312 E7.41599
G1 X68.486 Y125.832 E7.44544
G1 X67.789 Y125.287 E7.47487
G1 X67.143 Y124.681 E7.50433
G1 X66.837 Y124.352 E7.51928
G1 X66.29 Y123.736 E7.54668
G1 X65.733 Y123.048 E7.57612
G1 X65.24 Y122.313 E7.60555
G1 X64.978 Y121.854 E7.62313
G1 X64.447 Y120.862 E7.66056
G1 X64.065 Y120.063 E7.69001
G1 X63.756 Y119.234 E7.71944
G1 X63.524 Y118.379 E7.7489
G1 X63.37 Y117.508 E7.77832
G1 X63.295 Y116.626 E7.80776
G1 X63.288 Y116.078 E7.82599
G1 X63.313 Y114.538 E7.87722
G1 X63.368 Y113.654 E7.90668
G1 X63.501 Y112.779 E7.93611
G1 X63.714 Y111.92 E7.96555
G1 X64.003 Y111.083 E7.995
G1 X64.366 Y110.276 E8.02443
G1 X64.8 Y109.505 E8.05386
G1 X65.303 Y108.776 E8.08332
G1 X65.869 Y108.095 E8.11277
G1 X66.494 Y107.469 E8.14219
G1 X67.174 Y106.901 E8.17166
G1 X67.244 Y106.853 E8.17448
G0 F810 X67.901 Y106.397
M204 S5000
M205 X30 Y30
G0 F7200 X68.282 Y106.633
M204 S500
M205 X20 Y20
G1 F6000 E8.20109
G1 F900 X69.253 Y106.126 E8.23752
G1 X69.484 Y106.022 E8.24595
G1 X70.29 Y105.703 E8.27478
G1 X71.122 Y105.459 E8.30362
G1 X71.973 Y105.293 E8.33246
G1 X72.836 Y105.207 E8.3613
G1 X73.703 Y105.2 E8.39014
G1 X74.567 Y105.273 E8.41898
G1 X75.42 Y105.425 E8.4478
G1 X76.256 Y105.656 E8.47664
G1 X77.067 Y105.962 E8.50547
G1 X77.846 Y106.342 E8.5343
G1 X78.587 Y106.792 E8.56314
G1 X79.412 Y107.415 E8.59752
G1 X80.177 Y108.062 E8.63085
G1 X80.178 Y108.063 E8.63089
G1 X81.154 Y108.537 E8.66698
G1 X81.778 Y108.783 E8.68929
G1 X82.387 Y108.972 E8.7105
G1 X87.049 Y109.95 E8.86893
G1 X89.491 Y110.334 E8.95115
G1 X92.029 Y110.589 E9.03599
G1 X95.695 Y110.716 E9.15799
G1 X101.448 Y110.692 E9.34934
G1 X108.354 Y110.479 E9.57915
G1 X115.398 Y110.066 E9.81383
G1 X122.614 Y109.463 E10.05467
G1 X130.261 Y108.657 E10.31042
G1 X139.258 Y107.46 E10.6123
G1 X156.143 Y104.773 E11.18097
G1 X158.658 Y103.898 E11.26953
G1 X159.489 Y103.651 E11.29837
G1 X160.339 Y103.482 E11.32719
G1 X161.201 Y103.392 E11.35602
G1 X162.068 Y103.382 E11.38486
G1 X162.932 Y103.451 E11.41368
G1 X163.786 Y103.6 E11.44252
G1 X164.623 Y103.827 E11.47136
G1 X165.435 Y104.13 E11.50019
G1 X166.216 Y104.507 E11.52903
G1 X167.21 Y105.127 E11.568
G1 X167.378 Y105.247 E11.57486
G1 X168.059 Y105.783 E11.60369
G1 X168.688 Y106.379 E11.63251
G1 X169.26 Y107.031 E11.66136
G1 X169.769 Y107.733 E11.6902
G1 X170.211 Y108.478 E11.71901
G1 X170.583 Y109.262 E11.74787
G1 X170.881 Y110.076 E11.7767
G1 X171.103 Y110.914 E11.80554
G1 X171.246 Y111.769 E11.83437
G1 X171.314 Y112.917 E11.87262
G1 X171.311 Y114.24 E11.91662
G1 X171.269 Y115.106 E11.94546
G1 X171.147 Y115.965 E11.97432
G1 X170.963 Y116.753 E12.00123
G1 X170.771 Y117.439 E12.02492
G1 X170.499 Y118.262 E12.05375
G1 X170.153 Y119.056 E12.08256
G1 X169.734 Y119.816 E12.11142
G1 X169.248 Y120.533 E12.14023
G1 X168.787 Y121.102 E12.16459
G1 X168.325 Y121.629 E12.1879
G1 X167.724 Y122.253 E12.21672
G1 X167.068 Y122.82 E12.24555
G1 X166.363 Y123.324 E12.27438
G1 X165.614 Y123.761 E12.30322
G1 X165.076 Y124.021 E12.32309
G1 X164.399 Y124.322 E12.34774
G1 X163.591 Y124.638 E12.37659
G1 X162.758 Y124.877 E12.40542
G1 X162.098 Y125.01 E12.42781
G1 X147.845 Y127.343 E12.90817
G1 X147.688 Y127.367 E12.91346
G1 X137.373 Y128.876 E13.26019
G1 X137.126 Y128.909 E13.26848
G1 X128.655 Y129.92 E13.55222
G1 X128.425 Y129.944 E13.55991
G1 X120.783 Y130.666 E13.81522
G1 X120.573 Y130.684 E13.82223
G1 X113.176 Y131.216 E14.06889
G1 X112.921 Y131.231 E14.07739
G1 X105.606 Y131.557 E14.32093
G1 X105.355 Y131.565 E14.32928
G1 X98.568 Y131.686 E14.55505
G1 X98.288 Y131.686 E14.56436
G1 X93.091 Y131.624 E14.73723
G1 X92.593 Y131.605 E14.7538
G1 X88.98 Y131.37 E14.87423
G1 X88.348 Y131.308 E14.89535
G1 X85.258 Y130.896 E14.99903
G1 X84.704 Y130.805 E15.0177
G1 X78.56 Y129.609 E15.22589
G1 X77.729 Y129.407 E15.25433
G1 X75.393 Y128.727 E15.33525
G1 X74.569 Y128.446 E15.36421
G1 X73.155 Y127.888 E15.41477
G1 X72.492 Y127.596 E15.43887
G1 X71.204 Y126.969 E15.48651
G1 X70.585 Y126.638 E15.50986
G1 X69.432 Y125.966 E15.55424
G1 X68.704 Y125.496 E15.58307
G1 X68.022 Y124.96 E15.61192
G1 X67.136 Y124.086 E15.65331
G1 X66.589 Y123.47 E15.68071
G1 X66.044 Y122.796 E15.70954
G1 X65.563 Y122.075 E15.73837
G1 X65.331 Y121.665 E15.75403
G1 X64.8 Y120.673 E15.79146
G1 X64.426 Y119.891 E15.82029
G1 X64.126 Y119.077 E15.84914
G1 X63.903 Y118.24 E15.87795
G1 X63.757 Y117.385 E15.9068
G1 X63.691 Y116.521 E15.93562
G1 X63.688 Y116.084 E15.95016
G1 X63.713 Y114.544 E16.00138
G1 X63.767 Y113.679 E16.03021
G1 X63.901 Y112.823 E16.05903
G1 X64.113 Y111.982 E16.08788
G1 X64.401 Y111.164 E16.11672
G1 X64.764 Y110.377 E16.14554
G1 X65.197 Y109.626 E16.17438
G1 X65.698 Y108.918 E16.20323
G1 X66.262 Y108.26 E16.23205
G1 X66.884 Y107.656 E16.26089
G1 X67.559 Y107.112 E16.28972
G1 X67.615 Y107.074 E16.29197
G0 F810 X68.282 Y106.633
M204 S5000
M205 X30 Y30
G0 F7200 X68.661 Y106.875
M204 S500
M205 X20 Y20
G1 F6000 E16.31858
G1 F900 X69.417 Y106.49 E16.3468
G1 X69.648 Y106.386 E16.35522
G1 X70.437 Y106.075 E16.38343
G1 X71.252 Y105.839 E16.41165
G1 X72.086 Y105.681 E16.43988
G1 X72.93 Y105.602 E16.46808
G1 X73.779 Y105.604 E16.49632
G1 X74.623 Y105.684 E16.52451
G1 X75.456 Y105.845 E16.55273
G1 X76.27 Y106.082 E16.58093
G1 X77.059 Y106.396 E16.60917
G1 X77.814 Y106.782 E16.63738
G1 X78.529 Y107.238 E16.66558
G1 X79.154 Y107.72 E16.69183
G1 X79.945 Y108.389 E16.72629
G1 X79.983 Y108.413 E16.72778
G1 X80.99 Y108.902 E16.76502
G1 X81.647 Y109.161 E16.78851
G1 X82.292 Y109.361 E16.81097
G1 X86.96 Y110.341 E16.96961
G1 X89.443 Y110.731 E17.05321
G1 X91.99 Y110.987 E17.13835
G1 X95.708 Y111.116 E17.26208
G1 X101.463 Y111.092 E17.4535
G1 X108.352 Y110.879 E17.68274
G1 X115.414 Y110.465 E17.91802
G1 X122.691 Y109.857 E18.1609
G1 X130.32 Y109.053 E18.41605
G1 X139.295 Y107.859 E18.71719
G1 X156.241 Y105.162 E19.28791
G1 X158.789 Y104.276 E19.37763
G1 X159.602 Y104.035 E19.40583
G1 X160.435 Y103.872 E19.43406
G1 X161.279 Y103.788 E19.46227
G1 X162.127 Y103.784 E19.49048
G1 X162.972 Y103.86 E19.5187
G1 X163.806 Y104.015 E19.54691
G1 X164.622 Y104.248 E19.57514
G1 X165.412 Y104.557 E19.60335
G1 X166.17 Y104.938 E19.63157
G1 X166.977 Y105.452 E19.66339
G1 X167.145 Y105.572 E19.67026
G1 X167.811 Y106.097 E19.69846
G1 X168.425 Y106.683 E19.72669
G1 X168.981 Y107.324 E19.75492
G1 X169.475 Y108.014 E19.78314
G1 X169.901 Y108.747 E19.81134
G1 X170.256 Y109.518 E19.83957
G1 X170.537 Y110.318 E19.86777
G1 X170.741 Y111.141 E19.89597
G1 X170.867 Y111.98 E19.92419
G1 X170.914 Y112.916 E19.95536
G1 X170.911 Y114.239 E19.99936
G1 X170.869 Y115.087 E20.0276
G1 X170.748 Y115.926 E20.0558
G1 X170.578 Y116.645 E20.08037
G1 X170.386 Y117.331 E20.10406
G1 X170.119 Y118.136 E20.13227
G1 X169.778 Y118.912 E20.16046
G1 X169.364 Y119.653 E20.1887
G1 X168.883 Y120.352 E20.21692
G1 X168.487 Y120.838 E20.23777
G1 X168.025 Y121.365 E20.26108
G1 X167.436 Y121.976 E20.28931
G1 X166.792 Y122.528 E20.31752
G1 X166.1 Y123.018 E20.34572
G1 X165.364 Y123.44 E20.37394
G1 X164.913 Y123.656 E20.39057
G1 X164.236 Y123.957 E20.41521
G1 X163.446 Y124.265 E20.44341
G1 X162.63 Y124.496 E20.47162
G1 X162.034 Y124.615 E20.49183
G1 X147.781 Y126.948 E20.9722
G1 X147.63 Y126.971 E20.97728
G1 X137.315 Y128.48 E21.32401
G1 X137.079 Y128.512 E21.33193
G1 X128.608 Y129.523 E21.61568
G1 X128.388 Y129.546 E21.62303
G1 X120.746 Y130.268 E21.87834
G1 X120.545 Y130.285 E21.88505
G1 X113.148 Y130.817 E22.13171
G1 X112.903 Y130.831 E22.13987
G1 X105.588 Y131.157 E22.38341
G1 X105.347 Y131.165 E22.39143
G1 X98.56 Y131.286 E22.6172
G1 X98.293 Y131.286 E22.62608
G1 X93.096 Y131.224 E22.79895
G1 X92.619 Y131.206 E22.81483
G1 X89.006 Y130.971 E22.93525
G1 X88.401 Y130.911 E22.95547
G1 X85.311 Y130.499 E23.05915
G1 X84.78 Y130.412 E23.07705
G1 X78.636 Y129.216 E23.28524
G1 X77.841 Y129.023 E23.31245
G1 X75.505 Y128.343 E23.39337
G1 X74.716 Y128.074 E23.42109
G1 X73.302 Y127.516 E23.47165
G1 X72.667 Y127.236 E23.49473
G1 X71.379 Y126.609 E23.54238
G1 X70.786 Y126.293 E23.56473
G1 X69.633 Y125.621 E23.60911
G1 X68.921 Y125.16 E23.63733
G1 X68.256 Y124.633 E23.66555
G1 X67.435 Y123.821 E23.70395
G1 X66.888 Y123.205 E23.73135
G1 X66.356 Y122.545 E23.75955
G1 X65.683 Y121.476 E23.80156
G1 X65.152 Y120.484 E23.83899
G1 X64.788 Y119.718 E23.86719
G1 X64.497 Y118.922 E23.89538
G1 X64.282 Y118.101 E23.92361
G1 X64.146 Y117.264 E23.95181
G1 X64.088 Y116.091 E23.99088
G1 X64.113 Y114.551 E24.0421
G1 X64.167 Y113.704 E24.07033
G1 X64.3 Y112.867 E24.09852
G1 X64.512 Y112.045 E24.12675
G1 X64.799 Y111.247 E24.15496
G1 X65.161 Y110.48 E24.18317
G1 X65.594 Y109.75 E24.2114
G1 X66.093 Y109.064 E24.23961
G1 X66.654 Y108.428 E24.26782
G1 X67.273 Y107.848 E24.29603
G1 X67.944 Y107.329 E24.32425
G1 X67.985 Y107.303 E24.32586
G0 F810 X68.661 Y106.875
M204 S5000
M205 X30 Y30
G0 F7200 X68.327 Y107.551
M204 S500
M205 X20 Y20
G1 F6000 E24.35247
G1 F900 X69.038 Y107.123 E24.38007
G1 X69.581 Y106.855 E24.40021
G1 X69.812 Y106.751 E24.40864
G1 X70.584 Y106.448 E24.43622
G1 X71.381 Y106.22 E24.46379
G1 X72.197 Y106.07 E24.49139
G1 X73.023 Y105.999 E24.51896
G1 X73.852 Y106.008 E24.54654
G1 X74.677 Y106.097 E24.57414
G1 X75.489 Y106.265 E24.60172
G1 X76.281 Y106.51 E24.62929
G1 X77.046 Y106.831 E24.65688
G1 X77.776 Y107.224 E24.68446
G1 X78.465 Y107.685 E24.71203
G1 X78.895 Y108.026 E24.73028
G1 X79.7 Y108.707 E24.76535
G1 X79.795 Y108.766 E24.76907
G1 X80.836 Y109.272 E24.80757
G1 X81.5 Y109.534 E24.83131
G1 X82.189 Y109.748 E24.85531
G1 X86.894 Y110.735 E25.0152
G1 X89.395 Y111.128 E25.09941
G1 X91.967 Y111.387 E25.18538
G1 X95.696 Y111.516 E25.30949
G1 X101.477 Y111.491 E25.50176
G1 X108.39 Y111.278 E25.7318
G1 X115.432 Y110.866 E25.96642
G1 X122.672 Y110.261 E26.20806
G1 X130.379 Y109.448 E26.46582
G1 X139.371 Y108.252 E26.76753
G1 X156.334 Y105.553 E27.33882
G1 X158.92 Y104.653 E27.42989
G1 X159.716 Y104.419 E27.45748
G1 X160.53 Y104.262 E27.48506
G1 X161.356 Y104.185 E27.51265
G1 X162.185 Y104.187 E27.54022
G1 X163.01 Y104.269 E27.5678
G1 X163.823 Y104.431 E27.59537
G1 X164.618 Y104.67 E27.62298
G1 X165.385 Y104.984 E27.65054
G1 X166.118 Y105.37 E27.6781
G1 X166.745 Y105.778 E27.70298
G1 X166.913 Y105.898 E27.70985
G1 X167.563 Y106.412 E27.73741
G1 X168.162 Y106.986 E27.765
G1 X168.702 Y107.615 E27.79257
G1 X169.179 Y108.293 E27.82015
G1 X169.588 Y109.015 E27.84774
G1 X169.926 Y109.772 E27.87532
G1 X170.19 Y110.558 E27.9029
G1 X170.377 Y111.366 E27.93048
G1 X170.485 Y112.188 E27.95806
G1 X170.514 Y112.916 E27.98229
G1 X170.511 Y114.239 E28.02629
G1 X170.469 Y115.067 E28.05387
G1 X170.348 Y115.887 E28.08143
G1 X170.193 Y116.537 E28.10366
G1 X170.001 Y117.223 E28.12735
G1 X169.739 Y118.01 E28.15494
G1 X169.403 Y118.768 E28.18252
G1 X168.995 Y119.49 E28.2101
G1 X168.52 Y120.169 E28.23766
G1 X168.186 Y120.574 E28.25512
G1 X167.724 Y121.101 E28.27843
G1 X167.148 Y121.698 E28.30602
G1 X166.517 Y122.236 E28.3336
G1 X165.837 Y122.711 E28.36119
G1 X164.751 Y123.29 E28.40213
G1 X164.074 Y123.591 E28.42677
G1 X163.301 Y123.891 E28.45435
G1 X162.502 Y124.115 E28.48195
G1 X161.969 Y124.22 E28.50001
G1 X147.716 Y126.553 E28.98038
G1 X147.572 Y126.575 E28.98522
G1 X137.257 Y128.084 E29.33195
G1 X137.031 Y128.114 E29.33954
G1 X128.56 Y129.125 E29.62328
G1 X128.35 Y129.148 E29.63031
G1 X120.708 Y129.87 E29.88562
G1 X120.516 Y129.886 E29.89202
G1 X113.119 Y130.418 E30.13868
G1 X112.885 Y130.431 E30.14648
G1 X105.57 Y130.757 E30.39002
G1 X105.34 Y130.765 E30.39767
G1 X98.553 Y130.886 E30.62345
G1 X98.297 Y130.886 E30.63196
G1 X93.1 Y130.824 E30.80483
G1 X92.645 Y130.807 E30.81997
G1 X89.032 Y130.572 E30.94039
G1 X88.453 Y130.515 E30.95974
G1 X85.363 Y130.103 E31.06343
G1 X84.857 Y130.02 E31.08048
G1 X78.713 Y128.824 E31.28867
G1 X77.952 Y128.639 E31.31472
G1 X75.616 Y127.959 E31.39564
G1 X74.863 Y127.702 E31.4221
G1 X73.449 Y127.144 E31.47266
G1 X72.842 Y126.876 E31.49473
G1 X71.554 Y126.249 E31.54237
G1 X70.988 Y125.947 E31.56371
G1 X69.835 Y125.275 E31.6081
G1 X69.139 Y124.824 E31.63568
G1 X68.49 Y124.307 E31.66328
G1 X67.734 Y123.555 E31.69875
G1 X67.187 Y122.939 E31.72615
G1 X66.667 Y122.293 E31.75373
G1 X66.036 Y121.288 E31.7932
G1 X65.505 Y120.296 E31.83062
G1 X65.149 Y119.546 E31.85823
G1 X64.867 Y118.767 E31.88579
G1 X64.662 Y117.963 E31.91338
G1 X64.535 Y117.144 E31.94095
G1 X64.488 Y116.097 E31.97581
G1 X64.513 Y114.557 E32.02704
G1 X64.567 Y113.73 E32.0546
