;FLAVOR:Marlin
;TIME:405
;Filament used: 0.181633m
;Layer height: 0.2
;Generated with Cura_SteamEngine 4.0.0
M140 S70
M105
M190 S70
M104 S215
M105
M109 S215
M82 ;absolute extrusion mode
G28 ; home all axes
M117 Purge extruder
G92 E0 ; reset extruder
G1 Z1.0 F3000 ; move z up little to prevent scratching of surface
G1 X0.1 Y20 Z0.3 F5000.0 ; move to start-line position G1 X0.1 Y200.0 Z0.3 F1500.0 E15 ; draw 1st line
G1 X0.4 Y200.0 Z0.3 F5000.0 ; move to side a little
G1 X0.4 Y20 Z0.3 F1500.0 E30 ; draw 2nd line
G92 E0 ; reset extruder
G1 Z1.0 F3000 ; move z up little to prevent scratching of surface
M117 All systems go!
G92 E0
G1 F6000 E-5
;LAYER_COUNT:21
;LAYER:0
M107
M204 S5000
M205 X30 Y30
G0 F7200 X103.967 Y109.392 Z0.2
M204 S500
M205 X20 Y20
;TYPE:SKIRT
G1 F6000 E0
G1 F900 X104.629 Y108.805 E0.02943
G1 X105.215 Y108.374 E0.05362
G1 X105.742 Y107.949 E0.07614
G1 X106.479 Y107.459 E0.10558
G1 X106.806 Y107.282 E0.11794
G1 X106.817 Y107.273 E0.11842
G1 X107.562 Y106.795 E0.14786
G1 X108.346 Y106.385 E0.17728
G1 X108.823 Y106.189 E0.19443
G1 X109.063 Y106.062 E0.20347
G1 X109.302 Y105.944 E0.21233
G1 X110.113 Y105.588 E0.24179
G1 X110.953 Y105.307 E0.27125
G1 X110.99 Y105.298 E0.27252
G1 X111.494 Y105.113 E0.29037
G1 X112.136 Y104.933 E0.31255
G1 X112.46 Y104.854 E0.32364
G1 X112.711 Y104.804 E0.33215
G1 X113.317 Y104.624 E0.35318
G1 X114.184 Y104.449 E0.3826
G1 X115.064 Y104.352 E0.41204
G1 X115.089 Y104.352 E0.41288
G1 X115.685 Y104.256 E0.43295
G1 X116.568 Y104.196 E0.46239
G1 X117.162 Y104.209 E0.48215
G1 X117.225 Y104.204 E0.48425
G1 X118.11 Y104.178 E0.5137
G1 X118.993 Y104.232 E0.54313
G1 X119.464 Y104.304 E0.55897
G1 X120.288 Y104.371 E0.58647
G1 X120.602 Y104.418 E0.59703
G1 X121.236 Y104.542 E0.61852
G1 X121.547 Y104.575 E0.62892
G1 X122.415 Y104.746 E0.65834
G1 X123.265 Y104.996 E0.68781
G1 X123.593 Y105.125 E0.69953
G1 X124.156 Y105.273 E0.7189
G1 X124.988 Y105.574 E0.74832
G1 X125.424 Y105.778 E0.76433
G1 X126.062 Y106.019 E0.78702
G1 X126.859 Y106.405 E0.81647
G1 X127.543 Y106.816 E0.84301
G1 X127.914 Y106.998 E0.85676
G1 X128.671 Y107.457 E0.8862
G1 X129.197 Y107.845 E0.90794
G1 X129.749 Y108.201 E0.92979
G1 X130.447 Y108.745 E0.95922
G1 X130.927 Y109.194 E0.98108
G1 X131.091 Y109.323 E0.98802
G1 X131.298 Y109.498 E0.99704
G1 X131.947 Y110.1 E1.02648
G1 X132.54 Y110.757 E1.05592
G1 X132.899 Y111.129 E1.07311
G1 X133.194 Y111.479 E1.08833
G1 X133.397 Y111.732 E1.09912
G1 X133.795 Y112.276 E1.12154
G1 X134.324 Y112.959 E1.15028
G1 X134.506 Y113.226 E1.16102
G1 X134.971 Y113.979 E1.19046
G1 X134.986 Y114.01 E1.1916
G1 X135.05 Y114.103 E1.19536
G1 X135.191 Y114.322 E1.20402
G1 X135.636 Y115.087 E1.23346
G1 X136.01 Y115.889 E1.26289
G1 X136.02 Y115.918 E1.26391
G1 X136.185 Y116.223 E1.27544
G1 X136.533 Y117.037 E1.30489
G1 X136.807 Y117.879 E1.33434
G1 X137.003 Y118.742 E1.36377
G1 X137.117 Y119.58 E1.3919
G1 X137.158 Y120.023 E1.4067
G1 X137.2 Y120.907 E1.43613
G1 X137.162 Y121.791 E1.46556
G1 X137.044 Y122.669 E1.49503
G1 X136.847 Y123.532 E1.52447
G1 X136.573 Y124.374 E1.55392
G1 X136.225 Y125.187 E1.58333
G1 X135.804 Y125.966 E1.61279
G1 X135.315 Y126.704 E1.64223
G1 X134.762 Y127.395 E1.67167
G1 X133.89 Y128.269 E1.71273
G1 X133.778 Y128.368 E1.7177
G1 X133.089 Y128.923 E1.74713
G1 X132.353 Y129.415 E1.77657
G1 X131.575 Y129.837 E1.80601
G1 X130.763 Y130.188 E1.83543
G1 X129.922 Y130.465 E1.86488
G1 X129.059 Y130.664 E1.89434
G1 X128.182 Y130.784 E1.92378
G1 X127.291 Y130.825 E1.95345
G1 X108.27 Y130.831 E2.58609
G1 X107.386 Y130.791 E2.61552
G1 X106.509 Y130.672 E2.64496
G1 X105.646 Y130.474 E2.67441
G1 X104.804 Y130.199 E2.70387
G1 X103.991 Y129.849 E2.73331
G1 X103.213 Y129.427 E2.76275
G1 X102.476 Y128.937 E2.79218
G1 X101.786 Y128.382 E2.82163
G1 X101.149 Y127.767 E2.85108
G1 X100.571 Y127.098 E2.88049
G1 X100.127 Y126.488 E2.90558
G1 X100.007 Y126.309 E2.91275
G1 X99.548 Y125.552 E2.9422
G1 X99.159 Y124.757 E2.97163
G1 X98.843 Y123.93 E3.00108
G1 X98.746 Y123.586 E3.01297
G1 X98.657 Y123.344 E3.02154
G1 X98.427 Y122.489 E3.05099
G1 X98.276 Y121.617 E3.08043
G1 X98.203 Y120.727 E3.11013
G1 X98.191 Y120.39 E3.12134
G1 X98.2 Y119.505 E3.15078
G1 X98.288 Y118.624 E3.18023
G1 X98.455 Y117.755 E3.20966
G1 X98.701 Y116.904 E3.23912
G1 X99.022 Y116.079 E3.26857
G1 X99.416 Y115.286 E3.29802
G1 X99.702 Y114.806 E3.3166
G1 X100.027 Y114.189 E3.33979
G1 X100.348 Y113.677 E3.35989
G1 X100.532 Y113.403 E3.37087
G1 X100.81 Y113.027 E3.38642
G1 X101.104 Y112.57 E3.4045
G1 X101.412 Y112.159 E3.42158
G1 X101.628 Y111.886 E3.43316
G1 X102.007 Y111.449 E3.4524
G1 X102.545 Y110.798 E3.48049
G1 X103.008 Y110.321 E3.5026
G1 X103.259 Y110.079 E3.51419
G1 X103.4 Y109.955 E3.52044
G0 F810 X103.612 Y109.768
G0 X103.967 Y109.392
M204 S5000
M205 X30 Y30
G0 F7200 X104.258 Y109.667
M204 S500
M205 X20 Y20
G1 F6000 E3.54705
G1 F900 X104.909 Y109.094 E3.57589
G1 X105.376 Y108.753 E3.59512
G1 X106.051 Y108.219 E3.62375
G1 X106.778 Y107.747 E3.65258
G1 X107.046 Y107.606 E3.66265
G1 X107.107 Y107.559 E3.66521
G1 X107.84 Y107.096 E3.69405
G1 X108.613 Y106.703 E3.72289
G1 X109.01 Y106.554 E3.737
G1 X109.241 Y106.42 E3.74588
G1 X109.48 Y106.302 E3.75474
G1 X110.274 Y105.955 E3.78356
G1 X111.097 Y105.682 E3.8124
G1 X111.103 Y105.681 E3.81261
G1 X111.735 Y105.457 E3.83491
G1 X112.23 Y105.322 E3.85197
G1 X112.554 Y105.243 E3.86306
G1 X112.808 Y105.193 E3.87167
G1 X113.431 Y105.008 E3.89329
G1 X114.281 Y104.838 E3.92212
G1 X115.127 Y104.75 E3.95041
G1 X115.766 Y104.649 E3.97193
G1 X116.631 Y104.594 E4.00076
G1 X117.168 Y104.609 E4.01862
G1 X117.255 Y104.603 E4.02152
G1 X118.121 Y104.578 E4.05034
G1 X118.987 Y104.634 E4.0792
G1 X119.335 Y104.689 E4.09092
G1 X120.229 Y104.767 E4.12077
G1 X120.543 Y104.814 E4.13133
G1 X121.178 Y104.939 E4.15285
G1 X121.523 Y104.976 E4.16439
G1 X122.372 Y105.148 E4.19321
G1 X123.203 Y105.397 E4.22206
G1 X123.478 Y105.508 E4.23192
G1 X124.054 Y105.66 E4.25174
G1 X124.868 Y105.958 E4.28057
G1 X125.252 Y106.14 E4.2947
G1 X125.937 Y106.401 E4.31908
G1 X126.715 Y106.782 E4.3479
G1 X127.327 Y107.156 E4.37175
G1 X127.738 Y107.358 E4.38698
G1 X128.478 Y107.809 E4.41581
G1 X128.951 Y108.162 E4.43544
G1 X129.547 Y108.548 E4.45905
G1 X130.228 Y109.084 E4.48788
G1 X130.646 Y109.481 E4.50705
G1 X130.833 Y109.629 E4.51498
G1 X131.04 Y109.804 E4.524
G1 X131.675 Y110.393 E4.55281
G1 X132.254 Y111.039 E4.58166
G1 X132.257 Y111.043 E4.58183
G1 X132.882 Y111.729 E4.61269
G1 X133.085 Y111.982 E4.62348
G1 X133.354 Y112.352 E4.63869
G1 X133.356 Y112.354 E4.63879
G1 X133.993 Y113.185 E4.67361
G1 X134.175 Y113.452 E4.68436
G1 X134.63 Y114.19 E4.7132
G1 X134.654 Y114.238 E4.71498
G1 X134.714 Y114.319 E4.71834
G1 X134.855 Y114.538 E4.727
G1 X135.29 Y115.288 E4.75584
G1 X135.654 Y116.075 E4.78468
G1 X135.662 Y116.098 E4.78549
G1 X135.863 Y116.478 E4.79978
G1 X136.196 Y117.279 E4.82864
G1 X136.454 Y118.106 E4.85745
G1 X136.634 Y118.954 E4.88628
G1 X136.719 Y119.617 E4.90851
G1 X136.76 Y120.06 E4.92331
G1 X136.8 Y120.926 E4.95214
G1 X136.76 Y121.792 E4.98098
G1 X136.64 Y122.65 E5.00979
G1 X136.442 Y123.494 E5.03863
G1 X136.167 Y124.317 E5.06749
G1 X135.818 Y125.11 E5.0963
G1 X135.396 Y125.868 E5.12516
G1 X134.907 Y126.583 E5.15397
G1 X134.354 Y127.251 E5.18281
G1 X133.625 Y127.969 E5.21685
G1 X133.513 Y128.068 E5.22182
G1 X132.838 Y128.612 E5.25065
G1 X132.116 Y129.091 E5.27947
G1 X131.352 Y129.501 E5.30831
G1 X130.554 Y129.839 E5.33713
G1 X129.728 Y130.103 E5.36597
G1 X128.881 Y130.289 E5.39482
G1 X128.021 Y130.396 E5.42364
G1 X127.291 Y130.425 E5.44794
G1 X108.27 Y130.431 E6.08058
G1 X107.404 Y130.391 E6.10942
G1 X106.545 Y130.272 E6.13826
G1 X105.701 Y130.074 E6.16709
G1 X104.879 Y129.799 E6.19592
G1 X104.086 Y129.45 E6.22474
G1 X103.328 Y129.029 E6.25358
G1 X102.612 Y128.54 E6.28242
G1 X101.944 Y127.987 E6.31126
G1 X101.33 Y127.375 E6.34009
G1 X100.775 Y126.709 E6.36893
G1 X100.459 Y126.265 E6.38705
G1 X100.339 Y126.086 E6.39422
G1 X99.89 Y125.345 E6.42304
G1 X99.511 Y124.565 E6.45188
G1 X99.206 Y123.753 E6.48073
G1 X99.122 Y123.447 E6.49128
G1 X99.011 Y123.137 E6.50224
G1 X98.795 Y122.298 E6.53105
G1 X98.657 Y121.442 E6.55989
G1 X98.603 Y120.713 E6.5842
G1 X98.591 Y120.376 E6.59542
G1 X98.6 Y119.509 E6.62426
G1 X98.689 Y118.646 E6.65311
G1 X98.857 Y117.796 E6.68193
G1 X99.103 Y116.964 E6.71079
G1 X99.424 Y116.159 E6.73961
G1 X99.818 Y115.387 E6.76844
G1 X100.02 Y115.053 E6.78142
G1 X100.023 Y115.046 E6.78167
G1 X100.436 Y114.283 E6.81053
G1 X100.68 Y113.9 E6.82564
G1 X100.864 Y113.626 E6.83661
G1 X101.169 Y113.214 E6.85366
G1 X101.725 Y112.407 E6.88626
G1 X101.941 Y112.134 E6.89784
G1 X102.332 Y111.685 E6.91764
G1 X102.366 Y111.636 E6.91962
G1 X102.926 Y110.975 E6.94844
G1 X103.286 Y110.609 E6.96551
G1 X103.537 Y110.367 E6.97711
G1 X103.692 Y110.231 E6.98397
G0 F810 X103.889 Y110.058
G0 X104.258 Y109.667
M204 S5000
M205 X30 Y30
G0 F7200 X104.549 Y109.942
M204 S500
M205 X20 Y20
G1 F6000 E7.01057
G1 F900 X105.187 Y109.383 E7.03879
G1 X105.643 Y109.055 E7.05747
G1 X105.689 Y109.011 E7.05959
G1 X106.359 Y108.491 E7.0878
G1 X107.075 Y108.037 E7.11599
G1 X107.264 Y107.945 E7.12298
G1 X107.396 Y107.845 E7.12849
G1 X108.117 Y107.399 E7.15669
G1 X108.878 Y107.023 E7.18492
G1 X109.198 Y106.905 E7.19627
G1 X109.418 Y106.779 E7.2047
G1 X109.657 Y106.661 E7.21356
G1 X110.434 Y106.322 E7.24176
G1 X111.136 Y106.091 E7.26634
G1 X111.17 Y106.076 E7.26758
G1 X112.325 Y105.71 E7.30787
G1 X112.649 Y105.631 E7.31897
G1 X112.91 Y105.58 E7.32781
G1 X113.545 Y105.392 E7.34984
G1 X114.377 Y105.229 E7.37804
G1 X115.129 Y105.153 E7.40317
G1 X115.846 Y105.043 E7.4273
G1 X116.693 Y104.994 E7.45552
G1 X117.167 Y105.011 E7.47129
G1 X117.285 Y105.002 E7.47523
G1 X118.133 Y104.979 E7.50345
G1 X118.979 Y105.035 E7.53165
G1 X119.206 Y105.072 E7.5393
G1 X120.169 Y105.162 E7.57146
G1 X120.483 Y105.209 E7.58202
G1 X121.116 Y105.334 E7.60348
G1 X121.497 Y105.377 E7.61624
G1 X122.328 Y105.549 E7.64446
G1 X123.139 Y105.799 E7.67269
G1 X123.365 Y105.893 E7.68083
G1 X123.952 Y106.048 E7.70102
G1 X124.748 Y106.341 E7.72923
G1 X125.09 Y106.505 E7.74185
G1 X125.811 Y106.782 E7.76754
G1 X126.571 Y107.16 E7.79577
G1 X127.114 Y107.497 E7.81703
G1 X127.562 Y107.717 E7.83363
G1 X128.284 Y108.161 E7.86182
G1 X128.707 Y108.479 E7.87942
G1 X129.344 Y108.894 E7.90471
G1 X130.007 Y109.422 E7.9329
G1 X130.361 Y109.763 E7.94924
G1 X130.575 Y109.934 E7.95835
G1 X130.782 Y110.109 E7.96737
G1 X131.403 Y110.687 E7.99559
G1 X131.845 Y111.183 E8.01768
G1 X131.887 Y111.221 E8.01957
G1 X132.57 Y111.98 E8.05353
G1 X132.773 Y112.233 E8.06432
G1 X133.063 Y112.632 E8.08072
G1 X133.124 Y112.698 E8.08371
G1 X133.663 Y113.41 E8.11341
G1 X133.845 Y113.677 E8.12416
G1 X134.289 Y114.4 E8.15238
G1 X134.313 Y114.449 E8.15419
G1 X134.377 Y114.536 E8.15779
G1 X134.518 Y114.755 E8.16645
G1 X134.943 Y115.489 E8.19466
G1 X135.297 Y116.26 E8.22288
G1 X135.299 Y116.266 E8.22309
G1 X135.54 Y116.731 E8.24051
G1 X135.857 Y117.518 E8.26873
G1 X136.098 Y118.331 E8.29693
G1 X136.262 Y119.164 E8.32517
G1 X136.321 Y119.654 E8.34158
G1 X136.362 Y120.097 E8.35638
G1 X136.4 Y120.944 E8.38458
G1 X136.358 Y121.791 E8.41279
G1 X136.237 Y122.631 E8.44101
G1 X136.037 Y123.455 E8.46922
G1 X135.761 Y124.257 E8.49743
G1 X135.41 Y125.03 E8.52566
G1 X134.988 Y125.766 E8.55388
G1 X134.499 Y126.458 E8.58206
G1 X133.946 Y127.102 E8.61029
G1 X133.361 Y127.669 E8.63739
G1 X133.249 Y127.768 E8.64236
G1 X132.587 Y128.3 E8.67061
G1 X131.879 Y128.766 E8.6988
G1 X131.13 Y129.164 E8.72701
G1 X130.346 Y129.489 E8.75524
G1 X129.536 Y129.74 E8.78344
G1 X128.705 Y129.913 E8.81168
G1 X127.862 Y130.007 E8.83989
G1 X127.291 Y130.025 E8.85889
G1 X108.27 Y130.031 E9.49153
G1 X107.422 Y129.991 E9.51977
G1 X106.583 Y129.872 E9.54795
G1 X105.758 Y129.674 E9.57617
G1 X104.955 Y129.399 E9.6044
G1 X104.182 Y129.05 E9.63261
G1 X103.445 Y128.63 E9.66082
G1 X102.751 Y128.143 E9.68902
G1 X102.106 Y127.592 E9.71724
G1 X101.516 Y126.982 E9.74546
G1 X100.791 Y126.043 E9.78492
G1 X100.671 Y125.864 E9.79209
G1 X100.233 Y125.137 E9.82032
G1 X99.864 Y124.373 E9.84854
G1 X99.57 Y123.578 E9.87673
G1 X99.499 Y123.311 E9.88592
G1 X99.367 Y122.933 E9.89923
G1 X99.165 Y122.109 E9.92745
G1 X99.041 Y121.27 E9.95566
G1 X99.003 Y120.698 E9.97473
G1 X98.991 Y120.361 E9.98594
G1 X99 Y119.513 E10.01415
G1 X99.09 Y118.669 E10.04238
G1 X99.259 Y117.838 E10.07058
G1 X99.505 Y117.026 E10.0988
G1 X99.826 Y116.241 E10.12701
G1 X100.391 Y115.212 E10.16606
G1 X100.431 Y115.121 E10.16936
G1 X101.012 Y114.123 E10.20777
G1 X101.196 Y113.849 E10.21875
G1 X101.411 Y113.559 E10.23076
G1 X101.425 Y113.534 E10.23171
G1 X102.039 Y112.656 E10.26734
G1 X102.255 Y112.383 E10.27892
G1 X102.668 Y111.909 E10.29983
G1 X102.75 Y111.794 E10.30453
G1 X103.563 Y110.897 E10.34479
G1 X103.814 Y110.655 E10.35639
G1 X103.984 Y110.506 E10.36391
G0 F810 X104.167 Y110.346
G0 X104.549 Y109.942
M204 S5000
M205 X30 Y30
G0 F7200 X104.84 Y110.217
M204 S500
M205 X20 Y20
G1 F6000 E10.39052
G1 F900 X105.465 Y109.673 E10.41808
G1 X105.904 Y109.36 E10.43601
G1 X106.005 Y109.267 E10.44058
G1 X106.665 Y108.765 E10.46816
G1 X107.371 Y108.329 E10.49575
G1 X107.509 Y108.263 E10.50084
G1 X107.683 Y108.133 E10.50807
G1 X108.393 Y107.704 E10.53566
G1 X109.141 Y107.346 E10.56324
G1 X109.382 Y107.259 E10.57176
G1 X109.595 Y107.138 E10.57991
G1 X109.834 Y107.02 E10.58877
G1 X110.594 Y106.689 E10.61634
G1 X111.302 Y106.459 E10.6411
G1 X111.42 Y106.408 E10.64538
G1 X112.42 Y106.099 E10.68019
G1 X112.744 Y106.02 E10.69128
G1 X113.002 Y105.97 E10.70002
G1 X113.658 Y105.776 E10.72278
G1 X114.473 Y105.619 E10.75038
G1 X115.119 Y105.558 E10.77196
G1 X115.925 Y105.437 E10.79907
G1 X116.753 Y105.393 E10.82665
G1 X117.175 Y105.411 E10.8407
G1 X117.314 Y105.401 E10.84533
G1 X118.143 Y105.379 E10.87292
G1 X118.971 Y105.437 E10.90052
G1 X119.189 Y105.474 E10.90788
G1 X119.269 Y105.474 E10.91054
G1 X120.11 Y105.558 E10.93865
G1 X120.424 Y105.605 E10.94921
G1 X121.046 Y105.729 E10.9703
G1 X121.471 Y105.778 E10.98453
G1 X122.282 Y105.951 E11.01211
G1 X123.073 Y106.201 E11.03971
G1 X123.247 Y106.275 E11.04599
G1 X123.849 Y106.435 E11.06671
G1 X124.626 Y106.724 E11.09428
G1 X124.918 Y106.866 E11.10508
G1 X125.684 Y107.163 E11.13241
G1 X126.425 Y107.536 E11.16
G1 X126.909 Y107.842 E11.17905
G1 X127.385 Y108.076 E11.19669
G1 X128.09 Y108.513 E11.22428
G1 X128.451 Y108.788 E11.23937
G1 X129.14 Y109.24 E11.26678
G1 X129.786 Y109.76 E11.29436
G1 X130.154 Y110.12 E11.31148
G1 X130.316 Y110.239 E11.31817
G1 X130.523 Y110.414 E11.32718
G1 X131.13 Y110.98 E11.35479
G1 X131.579 Y111.488 E11.37734
G1 X131.684 Y111.585 E11.38209
G1 X132.258 Y112.23 E11.41081
G1 X132.461 Y112.483 E11.4216
G1 X132.771 Y112.91 E11.43915
G1 X132.889 Y113.041 E11.44501
G1 X133.332 Y113.635 E11.46966
G1 X133.514 Y113.902 E11.48041
G1 X133.948 Y114.609 E11.508
G1 X133.97 Y114.655 E11.50969
G1 X134.041 Y114.752 E11.51369
G1 X134.182 Y114.971 E11.52235
G1 X134.597 Y115.69 E11.54997
G1 X134.917 Y116.393 E11.57566
G1 X135.215 Y116.983 E11.59764
G1 X135.515 Y117.756 E11.62522
G1 X135.74 Y118.554 E11.6528
G1 X135.922 Y119.69 E11.69106
G1 X135.963 Y120.133 E11.70586
G1 X136 Y120.962 E11.73346
G1 X135.956 Y121.79 E11.76104
G1 X135.834 Y122.61 E11.78861
G1 X135.632 Y123.414 E11.81618
G1 X135.354 Y124.196 E11.84379
G1 X135.002 Y124.946 E11.87134
G1 X134.58 Y125.66 E11.89893
G1 X134.091 Y126.329 E11.92649
G1 X133.539 Y126.949 E11.9541
G1 X133.096 Y127.37 E11.97443
G1 X132.984 Y127.469 E11.9794
G1 X132.337 Y127.987 E12.00696
G1 X131.643 Y128.441 E12.03455
G1 X130.908 Y128.826 E12.06214
G1 X130.14 Y129.138 E12.08971
G1 X129.345 Y129.375 E12.11731
G1 X128.532 Y129.535 E12.14487
G1 X127.706 Y129.615 E12.17247
G1 X127.291 Y129.625 E12.18627
G1 X108.27 Y129.631 E12.81892
G1 X107.441 Y129.591 E12.84652
G1 X106.621 Y129.472 E12.87408
G1 X105.816 Y129.274 E12.90165
G1 X105.033 Y129 E12.92924
G1 X104.281 Y128.651 E12.95682
G1 X103.565 Y128.232 E12.98441
G1 X102.894 Y127.746 E13.01197
G1 X102.272 Y127.197 E13.03956
G1 X101.706 Y126.591 E13.06714
G1 X101.124 Y125.82 E13.09927
G1 X101.004 Y125.641 E13.10644
G1 X100.576 Y124.931 E13.13401
G1 X100.218 Y124.182 E13.16162
