;FLAVOR:Marlin
;TIME:1186
;Filament used: 0.281695m
;Layer height: 0.2
;Generated with Cura_SteamEngine 4.0.0
M140 S70
M105
M190 S70
M104 S215
M105
M109 S215
M82 ;absolute extrusion mode
G28 ; home all axes
M117 Purge extruder
G92 E0 ; reset extruder
G1 Z1.0 F3000 ; move z up little to prevent scratching of surface
G1 X0.1 Y20 Z0.3 F5000.0 ; move to start-line position G1 X0.1 Y200.0 Z0.3 F1500.0 E15 ; draw 1st line
G1 X0.4 Y200.0 Z0.3 F5000.0 ; move to side a little
G1 X0.4 Y20 Z0.3 F1500.0 E30 ; draw 2nd line
G92 E0 ; reset extruder
G1 Z1.0 F3000 ; move z up little to prevent scratching of surface
M117 All systems go!
G92 E0
G1 F6000 E-5
;LAYER_COUNT:149
;LAYER:0
M107
M204 S5000
M205 X30 Y30
G0 F7200 X101.102 Y106.435 Z0.2
M204 S500
M205 X20 Y20
;TYPE:SKIRT
G1 F6000 E0
G1 F900 X101.492 Y106.085 E0.01743
G1 X101.765 Y105.853 E0.02934
G1 X102.465 Y105.311 E0.05879
G1 X103.21 Y104.834 E0.08821
G1 X103.894 Y104.475 E0.11391
G1 X104.603 Y104.137 E0.14003
G1 X105.418 Y103.792 E0.16947
G1 X106.261 Y103.523 E0.1989
G1 X107.125 Y103.331 E0.22833
G1 X108.003 Y103.217 E0.25778
G1 X108.705 Y103.184 E0.28116
G1 X108.875 Y103.182 E0.28681
G1 X109.759 Y103.211 E0.31623
G1 X109.964 Y103.237 E0.3231
G1 X110.502 Y103.189 E0.34107
G1 X111.387 Y103.191 E0.3705
G1 X111.929 Y103.241 E0.38861
G1 X112.531 Y103.187 E0.40871
G1 X113.416 Y103.189 E0.43814
G1 X113.971 Y103.24 E0.45668
G1 X114.563 Y103.187 E0.47645
G1 X115.448 Y103.189 E0.50589
G1 X116.01 Y103.241 E0.52466
G1 X116.612 Y103.188 E0.54476
G1 X117.497 Y103.19 E0.57419
G1 X118.038 Y103.241 E0.59227
G1 X118.636 Y103.188 E0.61223
G1 X119.521 Y103.19 E0.64167
G1 X120.069 Y103.241 E0.65997
G1 X120.668 Y103.188 E0.67997
G1 X121.553 Y103.19 E0.70941
G1 X122.099 Y103.241 E0.72765
G1 X122.695 Y103.188 E0.74755
G1 X123.581 Y103.19 E0.77702
G1 X124.132 Y103.241 E0.79542
G1 X124.727 Y103.188 E0.81529
G1 X125.613 Y103.19 E0.84476
G1 X126.494 Y103.271 E0.87419
G1 X127.192 Y103.4 E0.89779
G1 X127.36 Y103.405 E0.90339
G1 X127.817 Y103.45 E0.91866
G1 X127.94 Y103.465 E0.92278
G1 X128.813 Y103.612 E0.95222
G1 X129.669 Y103.837 E0.98166
G1 X130.502 Y104.138 E1.01112
G1 X131.304 Y104.513 E1.04057
G1 X132.068 Y104.959 E1.06999
G1 X132.79 Y105.472 E1.09945
G1 X133.248 Y105.854 E1.11929
G1 X133.656 Y106.215 E1.13741
G1 X134.292 Y106.83 E1.16683
G1 X134.869 Y107.501 E1.19627
G1 X135.384 Y108.221 E1.22571
G1 X135.832 Y108.985 E1.25517
G1 X136.209 Y109.786 E1.28461
G1 X136.512 Y110.618 E1.31406
G1 X136.739 Y111.473 E1.34348
G1 X136.887 Y112.346 E1.37293
G1 X136.957 Y113.229 E1.40239
G1 X136.946 Y114.114 E1.43183
G1 X136.856 Y114.994 E1.46125
G1 X136.686 Y115.863 E1.4907
G1 X136.328 Y117.022 E1.53105
G1 X136.23 Y117.281 E1.54026
G1 X135.879 Y118.094 E1.56971
G1 X135.457 Y118.872 E1.59915
G1 X134.966 Y119.609 E1.62861
G1 X134.411 Y120.298 E1.65803
G1 X133.796 Y120.935 E1.68748
G1 X133.126 Y121.513 E1.71691
G1 X132.406 Y122.029 E1.74637
G1 X131.643 Y122.477 E1.7758
G1 X130.843 Y122.855 E1.80523
G1 X130.011 Y123.159 E1.83469
G1 X129.156 Y123.387 E1.86412
G1 X128.284 Y123.537 E1.89355
G1 X127.063 Y123.613 E1.93424
G1 X107.935 Y123.612 E2.57044
G1 X107.051 Y123.572 E2.59987
G1 X106.174 Y123.452 E2.62932
G1 X105.311 Y123.254 E2.65877
G1 X104.47 Y122.979 E2.68819
G1 X103.657 Y122.629 E2.71763
G1 X102.879 Y122.206 E2.74709
G1 X102.142 Y121.716 E2.77652
G1 X101.453 Y121.161 E2.80595
G1 X100.816 Y120.546 E2.8354
G1 X100.237 Y119.876 E2.86485
G1 X99.722 Y119.156 E2.8943
G1 X99.273 Y118.393 E2.92374
G1 X98.77 Y117.28 E2.96436
G1 X98.672 Y117.021 E2.97357
G1 X98.397 Y116.18 E3.003
G1 X98.198 Y115.317 E3.03246
G1 X98.078 Y114.44 E3.0619
G1 X98.038 Y113.556 E3.09133
G1 X98.078 Y112.672 E3.12077
G1 X98.197 Y111.794 E3.15023
G1 X98.395 Y110.932 E3.17965
G1 X98.67 Y110.09 E3.20911
G1 X99.02 Y109.277 E3.23855
G1 X99.442 Y108.499 E3.26799
G1 X99.932 Y107.762 E3.29743
G1 X100.487 Y107.072 E3.32688
G1 X100.547 Y107.01 E3.32975
G0 F810 X101.102 Y106.435
M204 S5000
M205 X30 Y30
G0 F7200 X101.751 Y106.39
M204 S500
M205 X20 Y20
G1 F6000 E3.35636
G1 F900 X102.024 Y106.158 E3.36827
G1 X102.71 Y105.628 E3.3971
G1 X103.441 Y105.163 E3.42592
G1 X104.066 Y104.836 E3.44938
G1 X104.775 Y104.498 E3.4755
G1 X105.574 Y104.161 E3.50435
G1 X106.4 Y103.9 E3.53316
G1 X107.248 Y103.715 E3.56203
G1 X108.108 Y103.61 E3.59084
G1 X108.709 Y103.584 E3.61085
G1 X108.879 Y103.582 E3.61651
G1 X109.746 Y103.611 E3.64536
G1 X109.957 Y103.638 E3.65243
G1 X110.59 Y103.586 E3.67356
G1 X111.457 Y103.595 E3.7024
G1 X111.913 Y103.642 E3.71764
G1 X112.62 Y103.584 E3.74124
G1 X113.487 Y103.593 E3.77007
G1 X113.958 Y103.641 E3.78582
G1 X114.652 Y103.584 E3.80898
G1 X115.519 Y103.593 E3.83782
G1 X115.998 Y103.642 E3.85383
G1 X116.7 Y103.585 E3.87726
G1 X117.567 Y103.595 E3.9061
G1 X118.021 Y103.642 E3.92128
G1 X118.724 Y103.585 E3.94474
G1 X119.591 Y103.594 E3.97358
G1 X120.055 Y103.642 E3.98909
G1 X120.756 Y103.585 E4.01248
G1 X121.623 Y103.594 E4.04132
G1 X122.089 Y103.642 E4.0569
G1 X122.784 Y103.585 E4.0801
G1 X123.651 Y103.594 E4.10893
G1 X124.119 Y103.642 E4.12458
G1 X124.816 Y103.585 E4.14784
G1 X125.683 Y103.594 E4.17668
G1 X126.545 Y103.683 E4.2055
G1 X127.214 Y103.815 E4.22818
G1 X127.769 Y103.847 E4.24667
G1 X127.892 Y103.862 E4.25079
G1 X128.747 Y104.007 E4.27964
G1 X129.585 Y104.229 E4.30847
G1 X130.398 Y104.528 E4.33728
G1 X131.181 Y104.901 E4.36613
G1 X131.926 Y105.344 E4.39496
G1 X132.627 Y105.854 E4.42379
G1 X132.983 Y106.153 E4.43925
G1 X133.391 Y106.514 E4.45737
G1 X134.013 Y107.118 E4.48621
G1 X134.577 Y107.776 E4.51503
G1 X135.078 Y108.484 E4.54388
G1 X135.511 Y109.235 E4.57271
G1 X135.873 Y110.023 E4.60156
G1 X136.162 Y110.84 E4.63038
G1 X136.373 Y111.681 E4.65922
G1 X136.507 Y112.538 E4.68807
G1 X136.561 Y113.403 E4.71689
G1 X136.535 Y114.269 E4.74571
G1 X136.429 Y115.13 E4.77456
G1 X136.244 Y115.977 E4.8034
G1 X135.954 Y116.881 E4.83498
G1 X135.856 Y117.14 E4.84419
G1 X135.512 Y117.935 E4.873
G1 X135.096 Y118.696 E4.90184
G1 X134.612 Y119.415 E4.93067
G1 X134.064 Y120.087 E4.95951
G1 X133.456 Y120.705 E4.98835
G1 X132.794 Y121.265 E5.01718
G1 X132.083 Y121.761 E5.04602
G1 X131.329 Y122.19 E5.07487
G1 X130.539 Y122.547 E5.10371
G1 X129.72 Y122.83 E5.13253
G1 X128.878 Y123.036 E5.16136
G1 X128.02 Y123.164 E5.19021
G1 X127.064 Y123.213 E5.22205
G1 X107.936 Y123.212 E5.85825
G1 X107.069 Y123.172 E5.88712
G1 X106.211 Y123.052 E5.91593
G1 X105.367 Y122.854 E5.94476
G1 X104.545 Y122.579 E5.97359
G1 X103.751 Y122.229 E6.00245
G1 X102.994 Y121.808 E6.03126
G1 X102.278 Y121.319 E6.0601
G1 X101.611 Y120.765 E6.08894
G1 X100.997 Y120.153 E6.11777
G1 X100.442 Y119.487 E6.14661
G1 X99.951 Y118.772 E6.17546
G1 X99.528 Y118.015 E6.2043
G1 X99.144 Y117.139 E6.23611
G1 X99.046 Y116.88 E6.24532
G1 X98.777 Y116.055 E6.27418
G1 X98.585 Y115.21 E6.303
G1 X98.472 Y114.351 E6.33182
G1 X98.438 Y113.484 E6.36068
G1 X98.485 Y112.619 E6.38949
G1 X98.61 Y111.761 E6.41833
G1 X98.815 Y110.918 E6.44719
G1 X99.096 Y110.098 E6.47602
G1 X99.451 Y109.307 E6.50485
G1 X99.878 Y108.553 E6.53367
G1 X100.373 Y107.841 E6.56252
G1 X100.931 Y107.177 E6.59136
G1 X101.174 Y106.944 E6.60256
G0 F810 X101.751 Y106.39
M204 S5000
M205 X30 Y30
G0 F7200 X101.375 Y107.289
M204 S500
M205 X20 Y20
G1 F6000 E6.62917
G1 F900 X102.01 Y106.695 E6.65809
G1 X102.283 Y106.463 E6.67
G1 X102.954 Y105.945 E6.6982
G1 X103.672 Y105.492 E6.72643
G1 X104.238 Y105.197 E6.74766
G1 X104.947 Y104.859 E6.77379
G1 X105.729 Y104.53 E6.80201
G1 X106.539 Y104.277 E6.83023
G1 X107.368 Y104.101 E6.85842
G1 X108.211 Y104.004 E6.88664
G1 X108.714 Y103.984 E6.90338
G1 X108.884 Y103.982 E6.90904
G1 X109.732 Y104.012 E6.93726
G1 X109.939 Y104.039 E6.9442
G1 X110.678 Y103.983 E6.96885
G1 X111.526 Y104 E6.99706
G1 X111.895 Y104.042 E7.00942
G1 X112.707 Y103.982 E7.0365
G1 X113.555 Y103.998 E7.06471
G1 X113.938 Y104.042 E7.07753
G1 X114.739 Y103.982 E7.10424
G1 X115.587 Y103.998 E7.13245
G1 X115.977 Y104.042 E7.14551
G1 X116.787 Y103.982 E7.17252
G1 X117.635 Y104 E7.20073
G1 X118.002 Y104.042 E7.21302
G1 X118.812 Y103.982 E7.24003
G1 X119.66 Y103.999 E7.26824
G1 X120.035 Y104.042 E7.2808
G1 X120.844 Y103.982 E7.30778
G1 X121.692 Y103.999 E7.33599
G1 X122.071 Y104.043 E7.34868
G1 X122.871 Y103.982 E7.37537
G1 X123.72 Y103.999 E7.40361
G1 X124.103 Y104.043 E7.41643
G1 X124.903 Y103.982 E7.44312
G1 X125.752 Y103.999 E7.47136
G1 X126.594 Y104.095 E7.49955
G1 X127.12 Y104.206 E7.51743
G1 X127.72 Y104.244 E7.53742
G1 X127.843 Y104.259 E7.54154
G1 X128.68 Y104.401 E7.56978
G1 X129.499 Y104.622 E7.598
G1 X130.294 Y104.918 E7.62621
G1 X131.057 Y105.288 E7.65441
G1 X131.782 Y105.729 E7.68264
G1 X132.718 Y106.453 E7.722
G1 X133.126 Y106.814 E7.74012
G1 X133.734 Y107.405 E7.76832
G1 X134.284 Y108.051 E7.79654
G1 X134.77 Y108.746 E7.82474
G1 X135.189 Y109.484 E7.85297
G1 X135.537 Y110.258 E7.88119
G1 X135.81 Y111.061 E7.9094
G1 X136.006 Y111.886 E7.93761
G1 X136.124 Y112.726 E7.96582
G1 X136.162 Y113.573 E7.99402
G1 X136.12 Y114.421 E8.02226
G1 X135.999 Y115.26 E8.05045
G1 X135.799 Y116.085 E8.07869
G1 X135.58 Y116.739 E8.10163
G1 X135.482 Y116.998 E8.11084
G1 X135.144 Y117.776 E8.13905
G1 X134.735 Y118.52 E8.16729
G1 X134.258 Y119.221 E8.19549
G1 X133.717 Y119.874 E8.22369
G1 X133.117 Y120.474 E8.25192
G1 X132.463 Y121.014 E8.28012
G1 X131.761 Y121.49 E8.30833
G1 X131.017 Y121.898 E8.33656
G1 X130.238 Y122.235 E8.36479
G1 X129.431 Y122.496 E8.393
G1 X128.603 Y122.68 E8.42121
G1 X127.762 Y122.786 E8.4494
G1 X127.064 Y122.813 E8.47263
G1 X107.936 Y122.812 E9.10883
G1 X107.088 Y122.772 E9.13707
G1 X106.248 Y122.652 E9.16529
G1 X105.424 Y122.454 E9.19348
G1 X104.621 Y122.179 E9.22171
G1 X103.848 Y121.83 E9.24992
G1 X103.111 Y121.409 E9.27815
G1 X102.417 Y120.921 E9.30637
G1 X101.773 Y120.37 E9.33456
G1 X101.182 Y119.761 E9.36278
G1 X100.652 Y119.099 E9.39099
G1 X100.187 Y118.389 E9.41921
G1 X99.79 Y117.639 E9.44744
G1 X99.518 Y116.997 E9.47063
G1 X99.42 Y116.738 E9.47984
G1 X99.158 Y115.931 E9.50806
G1 X98.973 Y115.104 E9.53625
G1 X98.866 Y114.262 E9.56448
G1 X98.839 Y113.414 E9.59269
G1 X98.892 Y112.568 E9.62089
G1 X99.025 Y111.73 E9.64911
G1 X99.235 Y110.908 E9.67733
G1 X99.523 Y110.11 E9.70554
G1 X99.884 Y109.342 E9.73377
G1 X100.316 Y108.612 E9.76198
G1 X100.814 Y107.926 E9.79018
G1 X100.846 Y107.889 E9.7918
G0 F810 X101.375 Y107.289
M204 S5000
M205 X30 Y30
G0 F7200 X101.82 Y107.409
M204 S500
M205 X20 Y20
G1 F6000 E9.81841
G1 F900 X102.269 Y107 E9.83861
G1 X102.542 Y106.768 E9.85053
G1 X103.199 Y106.262 E9.87811
G1 X103.902 Y105.822 E9.90569
G1 X104.41 Y105.558 E9.92474
G1 X105.119 Y105.22 E9.95086
G1 X105.884 Y104.9 E9.97844
G1 X106.676 Y104.654 E10.00602
G1 X107.488 Y104.487 E10.0336
G1 X108.719 Y104.384 E10.07468
G1 X108.889 Y104.382 E10.08034
G1 X109.717 Y104.412 E10.10789
G1 X109.922 Y104.439 E10.11477
G1 X109.936 Y104.437 E10.11524
G1 X110.763 Y104.382 E10.14281
G1 X111.592 Y104.406 E10.17039
G1 X111.907 Y104.446 E10.18095
G1 X111.966 Y104.436 E10.18294
G1 X112.793 Y104.38 E10.21051
G1 X113.622 Y104.404 E10.2381
G1 X113.946 Y104.445 E10.24896
G1 X113.998 Y104.436 E10.25072
G1 X114.825 Y104.38 E10.27828
G1 X115.654 Y104.404 E10.30587
G1 X115.983 Y104.445 E10.3169
G1 X116.045 Y104.435 E10.31898
G1 X116.872 Y104.38 E10.34655
G1 X117.701 Y104.406 E10.37414
G1 X118.011 Y104.446 E10.38453
G1 X118.07 Y104.436 E10.38652
G1 X118.897 Y104.38 E10.41409
G1 X119.726 Y104.405 E10.44168
G1 X120.045 Y104.445 E10.45237
G1 X120.102 Y104.436 E10.45429
G1 X120.929 Y104.38 E10.48186
G1 X121.758 Y104.405 E10.50944
G1 X122.075 Y104.445 E10.52007
G1 X122.13 Y104.436 E10.52193
G1 X122.957 Y104.381 E10.54949
G1 X123.786 Y104.405 E10.57708
G1 X124.105 Y104.445 E10.58777
G1 X124.162 Y104.436 E10.58969
G1 X124.989 Y104.381 E10.61726
G1 X125.818 Y104.405 E10.64484
G1 X126.641 Y104.509 E10.67243
G1 X127.032 Y104.598 E10.68577
G1 X127.672 Y104.641 E10.7071
G1 X127.795 Y104.656 E10.71122
G1 X128.612 Y104.796 E10.73879
G1 X129.412 Y105.014 E10.76637
G1 X130.188 Y105.308 E10.79397
G1 X130.931 Y105.676 E10.82155
G1 X131.636 Y106.113 E10.84914
G1 X132.453 Y106.752 E10.88364
G1 X132.861 Y107.113 E10.90175
G1 X133.455 Y107.692 E10.92934
G1 X133.99 Y108.325 E10.95691
G1 X134.462 Y109.007 E10.9845
G1 X134.866 Y109.731 E11.01207
G1 X135.198 Y110.491 E11.03966
G1 X135.456 Y111.279 E11.06723
G1 X135.636 Y112.089 E11.09483
G1 X135.738 Y112.912 E11.12241
G1 X135.76 Y113.74 E11.14996
G1 X135.702 Y114.568 E11.17757
G1 X135.565 Y115.385 E11.20512
G1 X135.349 Y116.186 E11.23272
G1 X135.205 Y116.597 E11.2472
G1 X135.107 Y116.856 E11.25641
G1 X134.777 Y117.617 E11.284
G1 X134.375 Y118.342 E11.31157
G1 X133.905 Y119.025 E11.33915
G1 X133.371 Y119.66 E11.36674
G1 X132.778 Y120.24 E11.39433
G1 X132.133 Y120.76 E11.42189
G1 X131.44 Y121.216 E11.44948
G1 X130.707 Y121.603 E11.47705
G1 X129.94 Y121.918 E11.50463
G1 X129.146 Y122.157 E11.53221
G1 X128.332 Y122.319 E11.55981
G1 X127.507 Y122.402 E11.58739
G1 X127.064 Y122.413 E11.60213
G1 X107.936 Y122.412 E12.23833
G1 X107.107 Y122.372 E12.26593
G1 X106.287 Y122.252 E12.2935
G1 X105.482 Y122.054 E12.32107
G1 X104.699 Y121.78 E12.34866
G1 X103.947 Y121.431 E12.37623
G1 X103.232 Y121.011 E12.40381
G1 X102.56 Y120.525 E12.4314
G1 X101.939 Y119.976 E12.45897
G1 X101.373 Y119.37 E12.48655
G1 X100.868 Y118.712 E12.51413
G1 X100.429 Y118.008 E12.54173
G1 X100.06 Y117.266 E12.56929
G1 X99.893 Y116.855 E12.58405
G1 X99.795 Y116.596 E12.59326
G1 X99.539 Y115.808 E12.62081
G1 X99.36 Y114.998 E12.6484
G1 X99.261 Y114.175 E12.67597
G1 X99.24 Y113.346 E12.70356
G1 X99.3 Y112.519 E12.73113
G1 X99.44 Y111.701 E12.75874
G1 X99.657 Y110.901 E12.78631
G1 X99.951 Y110.125 E12.81391
G1 X100.317 Y109.382 E12.84145
G1 X100.754 Y108.677 E12.86904
G1 X101.257 Y108.017 E12.89664
G1 X101.277 Y107.996 E12.89761
G0 F810 X101.82 Y107.409
M204 S5000
M205 X30 Y30
G0 F7200 X102.528 Y107.305
M204 S500
M205 X20 Y20
G1 F6000 E12.92422
G1 F900 X102.801 Y107.073 E12.93613
G1 X103.443 Y106.579 E12.96307
G1 X104.131 Y106.152 E12.99001
G1 X104.582 Y105.919 E13.00689
G1 X105.291 Y105.581 E13.03301
G1 X106.039 Y105.269 E13.05997
G1 X106.813 Y105.032 E13.08689
G1 X107.607 Y104.873 E13.11383
G1 X108.724 Y104.784 E13.1511
G1 X108.894 Y104.782 E13.15675
G1 X109.703 Y104.812 E13.18368
G1 X109.937 Y104.844 E13.19153
G1 X110.039 Y104.828 E13.19496
G1 X110.847 Y104.78 E13.22189
G1 X111.656 Y104.813 E13.24882
G1 X111.92 Y104.85 E13.25768
G1 X112.069 Y104.826 E13.2627
G1 X112.877 Y104.778 E13.28962
G1 X113.686 Y104.81 E13.31655
G1 X113.961 Y104.848 E13.32579
G1 X114.101 Y104.826 E13.3305
G1 X114.909 Y104.778 E13.35742
G1 X115.718 Y104.81 E13.38435
G1 X115.999 Y104.849 E13.39379
G1 X116.147 Y104.826 E13.39877
G1 X116.955 Y104.779 E13.42569
G1 X117.764 Y104.812 E13.45262
G1 X118.03 Y104.85 E13.46155
G1 X118.172 Y104.827 E13.46634
G1 X118.981 Y104.779 E13.49329
G1 X119.79 Y104.812 E13.52022
G1 X120.061 Y104.85 E13.52932
G1 X120.204 Y104.827 E13.53414
G1 X121.013 Y104.779 E13.5611
G1 X121.822 Y104.812 E13.58803
G1 X122.091 Y104.85 E13.59706
G1 X122.233 Y104.827 E13.60185
G1 X123.041 Y104.779 E13.62877
G1 X123.85 Y104.812 E13.6557
G1 X124.122 Y104.85 E13.66483
G1 X124.265 Y104.827 E13.66965
G1 X125.073 Y104.779 E13.69657
G1 X125.882 Y104.812 E13.7235
G1 X126.684 Y104.923 E13.75043
G1 X126.956 Y104.989 E13.75974
G1 X127.624 Y105.038 E13.78202
G1 X127.747 Y105.053 E13.78614
G1 X128.545 Y105.191 E13.81307
G1 X129.325 Y105.406 E13.83998
G1 X130.08 Y105.698 E13.86691
G1 X130.803 Y106.063 E13.89385
G1 X131.487 Y106.497 E13.92079
G1 X132.188 Y107.052 E13.95053
G1 X132.596 Y107.413 E13.96865
G1 X133.175 Y107.979 E13.99558
G1 X133.695 Y108.599 E14.02249
G1 X134.152 Y109.267 E14.04941
G1 X134.541 Y109.978 E14.07637
G1 X134.858 Y110.723 E14.10329
G1 X135.099 Y111.496 E14.13023
G1 X135.264 Y112.288 E14.15713
G1 X135.349 Y113.094 E14.18409
G1 X135.355 Y113.903 E14.211
G1 X135.28 Y114.71 E14.23795
G1 X135.127 Y115.505 E14.26488
G1 X134.831 Y116.456 E14.29801
G1 X134.733 Y116.715 E14.30722
G1 X134.41 Y117.457 E14.33413
G1 X134.015 Y118.164 E14.36107
G1 X133.552 Y118.828 E14.38799
G1 X133.025 Y119.443 E14.41493
G1 X132.441 Y120.004 E14.44187
G1 X131.804 Y120.504 E14.4688
