;FLAVOR:RepRap
;TIME:1819
;Generated with Cura_SteamEngine 2.3.1
M190 S70
M104 S215
M109 S215
G28 ; home all axes
M117 Purge extruder
G92 E0 ; reset extruder
G1 Z1.0 F3000 ; move z up little to prevent scratching of surface
G1 X0.1 Y20 Z0.3 F5000.0 ; move to start-line position G1 X0.1 Y200.0 Z0.3 F1500.0 E15 ; draw 1st line
G1 X0.4 Y200.0 Z0.3 F5000.0 ; move to side a little
G1 X0.4 Y20 Z0.3 F1500.0 E30 ; draw 2nd line
G92 E0 ; reset extruder
G1 Z1.0 F3000 ; move z up little to prevent scratching of surface

M117 All systems go!
;LAYER_COUNT:19
;LAYER:0
M117 INDICATOR-Layer0
M107
G1 F4200 E-5
G0 F1800 X93.329 Y93.031 Z.16
;TYPE:SKIRT
G1 F4200 E0
G1 F1200 X95 Y91.537 E0.06561
G1 X95.335 Y91.27 E0.07814
G1 X97.166 Y89.972 E0.14384
G1 X97.524 Y89.747 E0.15621
G1 X99.486 Y88.661 E0.22185
G1 X99.872 Y88.475 E0.23439
G1 X101.944 Y87.617 E0.30003
G1 X102.348 Y87.476 E0.31255
G1 X104.5 Y86.857 E0.37809
G1 X104.915 Y86.763 E0.39055
G1 X107.126 Y86.388 E0.45618
G1 X107.546 Y86.34 E0.46856
G1 X109.784 Y86.213 E0.53417
G1 X110.214 Y86.213 E0.54675
G1 X112.454 Y86.34 E0.61242
G1 X112.874 Y86.388 E0.62479
G1 X115.085 Y86.763 E0.69043
G1 X115.5 Y86.857 E0.70288
G1 X117.652 Y87.476 E0.76843
G1 X118.056 Y87.617 E0.78095
G1 X120.126 Y88.474 E0.84652
G1 X120.512 Y88.66 E0.85906
G1 X122.476 Y89.747 E0.92477
G1 X122.834 Y89.972 E0.93714
G1 X124.663 Y91.269 E1.00277
G1 X124.998 Y91.536 E1.01531
G1 X126.668 Y93.029 E1.08087
G1 X126.968 Y93.329 E1.09329
G1 X128.463 Y95.001 E1.15894
G1 X128.73 Y95.336 E1.17147
G1 X130.027 Y97.165 E1.2371
G1 X130.251 Y97.521 E1.24941
G1 X131.339 Y99.484 E1.3151
G1 X131.526 Y99.874 E1.32776
G1 X132.383 Y101.946 E1.39339
G1 X132.524 Y102.349 E1.40589
G1 X133.142 Y104.501 E1.47142
G1 X133.236 Y104.912 E1.48376
G1 X133.612 Y107.12 E1.54931
G1 X133.66 Y107.543 E1.56177
G1 X133.787 Y109.783 E1.62744
G1 X133.787 Y110.213 E1.64003
G1 X133.66 Y112.455 E1.70575
G1 X133.612 Y112.877 E1.71818
G1 X133.237 Y115.084 E1.78371
G1 X133.144 Y115.495 E1.79604
G1 X132.526 Y117.648 E1.8616
G1 X132.384 Y118.052 E1.87414
G1 X131.527 Y120.124 E1.93976
G1 X131.34 Y120.514 E1.95242
G1 X130.252 Y122.477 E2.01811
G1 X130.028 Y122.832 E2.0304
G1 X128.731 Y124.662 E2.09605
G1 X128.463 Y124.999 E2.10865
G1 X126.969 Y126.669 E2.17424
G1 X126.671 Y126.967 E2.18657
G1 X125 Y128.462 E2.2522
G1 X124.663 Y128.731 E2.26482
G1 X122.831 Y130.029 E2.33053
G1 X122.477 Y130.251 E2.34276
G1 X120.517 Y131.338 E2.40836
G1 X120.126 Y131.526 E2.42106
G1 X118.054 Y132.383 E2.48669
G1 X117.651 Y132.524 E2.49918
G1 X115.499 Y133.142 E2.56472
G1 X115.087 Y133.236 E2.57708
G1 X112.877 Y133.612 E2.6427
G1 X112.455 Y133.66 E2.65513
G1 X110.214 Y133.787 E2.72083
G1 X109.784 Y133.787 E2.73341
G1 X107.545 Y133.66 E2.79905
G1 X107.123 Y133.612 E2.81148
G1 X104.913 Y133.236 E2.8771
G1 X104.501 Y133.142 E2.88946
G1 X102.349 Y132.524 E2.955
G1 X101.946 Y132.383 E2.96749
G1 X99.874 Y131.526 E3.03312
G1 X99.483 Y131.338 E3.04582
G1 X97.523 Y130.251 E3.11142
G1 X97.169 Y130.029 E3.12365
G1 X95.337 Y128.731 E3.18936
G1 X95.001 Y128.463 E3.20194
G1 X93.329 Y126.968 E3.26759
G1 X93.029 Y126.668 E3.28001
G1 X91.536 Y124.998 E3.34557
G1 X91.269 Y124.662 E3.35813
G1 X89.974 Y122.835 E3.42368
G1 X89.747 Y122.475 E3.43614
G1 X88.663 Y120.512 E3.50177
G1 X88.481 Y120.133 E3.51407
G1 X87.617 Y118.054 E3.57997
G1 X87.474 Y117.646 E3.59262
G1 X86.856 Y115.497 E3.65807
G1 X86.761 Y115.082 E3.67053
G1 X86.387 Y112.874 E3.73608
G1 X86.34 Y112.454 E3.74845
G1 X86.213 Y110.215 E3.81409
G1 X86.213 Y109.785 E3.82667
G1 X86.34 Y107.546 E3.89231
G1 X86.387 Y107.126 E3.90468
G1 X86.761 Y104.918 E3.97023
G1 X86.856 Y104.503 E3.98269
G1 X87.474 Y102.354 E4.04814
G1 X87.617 Y101.946 E4.06079
G1 X88.481 Y99.867 E4.12669
G1 X88.664 Y99.487 E4.13903
G1 X89.748 Y97.525 E4.20464
G1 X89.973 Y97.167 E4.21701
G1 X91.268 Y95.338 E4.28261
G1 X91.536 Y95.001 E4.29521
G1 X93.029 Y93.331 E4.36077
G1 X93.329 Y93.031 E4.37319
G0 F1800 X93.596 Y93.329
G1 F1200 X95.267 Y91.835 E4.4388
G1 X95.567 Y91.596 E4.45002
G1 X97.398 Y90.298 E4.51572
G1 X97.717 Y90.097 E4.52675
G1 X99.679 Y89.011 E4.59239
G1 X100.025 Y88.845 E4.60362
G1 X102.097 Y87.987 E4.66926
G1 X102.458 Y87.86 E4.68046
G1 X104.61 Y87.241 E4.746
G1 X104.981 Y87.157 E4.75713
G1 X107.192 Y86.782 E4.82277
G1 X107.568 Y86.739 E4.83385
G1 X109.806 Y86.612 E4.89946
G1 X110.191 Y86.612 E4.91073
G1 X112.431 Y86.739 E4.97639
G1 X112.808 Y86.782 E4.9875
G1 X115.019 Y87.157 E5.05314
G1 X115.39 Y87.241 E5.06427
G1 X117.542 Y87.86 E5.12981
G1 X117.903 Y87.987 E5.14101
G1 X119.973 Y88.844 E5.20659
G1 X120.318 Y89.01 E5.21779
G1 X122.282 Y90.097 E5.28349
G1 X122.603 Y90.299 E5.29459
G1 X124.432 Y91.596 E5.36022
G1 X124.731 Y91.834 E5.37141
G1 X126.401 Y93.327 E5.43697
G1 X126.67 Y93.596 E5.4481
G1 X128.165 Y95.268 E5.51375
G1 X128.403 Y95.567 E5.52494
G1 X129.7 Y97.396 E5.59056
G1 X129.901 Y97.715 E5.6016
G1 X130.989 Y99.678 E5.66729
G1 X131.157 Y100.026 E5.6786
G1 X132.014 Y102.098 E5.74423
G1 X132.14 Y102.46 E5.75545
G1 X132.758 Y104.612 E5.82098
G1 X132.842 Y104.979 E5.832
G1 X133.218 Y107.187 E5.89755
G1 X133.261 Y107.566 E5.90872
G1 X133.388 Y109.806 E5.97439
G1 X133.388 Y110.19 E5.98563
G1 X133.261 Y112.432 E6.05135
G1 X133.218 Y112.81 E6.06249
G1 X132.843 Y115.017 E6.12801
G1 X132.759 Y115.385 E6.13906
G1 X132.141 Y117.538 E6.20462
G1 X132.015 Y117.9 E6.21584
G1 X131.158 Y119.972 E6.28146
G1 X130.99 Y120.32 E6.29277
G1 X129.902 Y122.283 E6.35846
G1 X129.702 Y122.601 E6.36946
G1 X128.405 Y124.431 E6.43511
G1 X128.165 Y124.732 E6.44638
G1 X126.671 Y126.402 E6.51196
G1 X126.404 Y126.669 E6.52301
G1 X124.733 Y128.164 E6.58864
G1 X124.432 Y128.404 E6.59991
G1 X122.6 Y129.702 E6.66562
G1 X122.283 Y129.901 E6.67658
G1 X120.323 Y130.988 E6.74218
G1 X119.974 Y131.157 E6.75353
G1 X117.902 Y132.014 E6.81915
G1 X117.54 Y132.14 E6.83037
G1 X115.388 Y132.758 E6.8959
G1 X115.02 Y132.842 E6.90695
G1 X112.81 Y133.218 E6.97257
G1 X112.432 Y133.261 E6.9837
G1 X110.191 Y133.388 E7.0494
G1 X109.806 Y133.388 E7.06067
G1 X107.567 Y133.261 E7.12631
G1 X107.19 Y133.218 E7.13741
G1 X104.98 Y132.842 E7.20303
G1 X104.612 Y132.758 E7.21407
G1 X102.46 Y132.14 E7.27961
G1 X102.098 Y132.014 E7.29082
G1 X100.026 Y131.157 E7.35645
G1 X99.677 Y130.988 E7.3678
G1 X97.717 Y129.901 E7.4334
G1 X97.4 Y129.702 E7.44436
G1 X95.568 Y128.404 E7.51007
G1 X95.268 Y128.165 E7.5213
G1 X93.596 Y126.67 E7.58694
G1 X93.327 Y126.401 E7.59808
G1 X91.834 Y124.731 E7.66364
G1 X91.595 Y124.431 E7.67487
G1 X90.3 Y122.604 E7.74042
G1 X90.098 Y122.282 E7.75154
G1 X89.014 Y120.319 E7.81717
G1 X88.85 Y119.98 E7.8282
G1 X87.986 Y117.901 E7.89409
G1 X87.858 Y117.536 E7.90541
G1 X87.24 Y115.387 E7.97086
G1 X87.156 Y115.015 E7.98202
G1 X86.782 Y112.807 E8.04757
G1 X86.739 Y112.432 E8.05862
G1 X86.612 Y110.193 E8.12426
G1 X86.612 Y109.807 E8.13555
G1 X86.739 Y107.568 E8.20119
G1 X86.782 Y107.193 E8.21224
G1 X87.156 Y104.985 E8.27779
G1 X87.24 Y104.613 E8.28895
G1 X87.858 Y102.464 E8.3544
G1 X87.986 Y102.099 E8.36572
G1 X88.85 Y100.02 E8.43161
G1 X89.014 Y99.681 E8.44264
G1 X90.098 Y97.719 E8.50824
G1 X90.299 Y97.398 E8.51933
G1 X91.594 Y95.569 E8.58492
G1 X91.834 Y95.268 E8.59619
G1 X93.327 Y93.598 E8.66175
G1 X93.596 Y93.329 E8.67289
G0 F1800 X93.862 Y93.628
G1 F1200 X95.533 Y92.134 E8.73849
G1 X95.798 Y91.923 E8.74841
G1 X97.629 Y90.625 E8.8141
G1 X97.911 Y90.447 E8.82386
G1 X99.873 Y89.361 E8.8895
G1 X100.178 Y89.214 E8.89941
G1 X102.25 Y88.356 E8.96505
G1 X102.569 Y88.245 E8.97493
G1 X104.721 Y87.626 E9.04047
G1 X105.048 Y87.551 E9.05029
G1 X107.259 Y87.176 E9.11593
G1 X107.591 Y87.139 E9.12571
G1 X109.829 Y87.012 E9.19132
G1 X110.169 Y87.012 E9.20127
G1 X112.409 Y87.139 E9.26693
G1 X112.741 Y87.176 E9.27671
G1 X114.952 Y87.551 E9.34235
G1 X115.279 Y87.626 E9.35217
G1 X117.431 Y88.245 E9.41771
G1 X117.75 Y88.356 E9.4276
G1 X119.82 Y89.213 E9.49317
G1 X120.125 Y89.36 E9.50308
G1 X122.089 Y90.447 E9.56878
G1 X122.371 Y90.625 E9.57854
G1 X124.2 Y91.922 E9.64417
G1 X124.464 Y92.132 E9.65404
G1 X126.134 Y93.625 E9.71961
G1 X126.371 Y93.862 E9.72942
G1 X127.866 Y95.534 E9.79506
G1 X128.077 Y95.799 E9.80498
G1 X129.374 Y97.628 E9.8706
G1 X129.551 Y97.909 E9.88032
G1 X130.639 Y99.872 E9.94601
G1 X130.787 Y100.179 E9.95599
G1 X131.644 Y102.251 E10.02162
G1 X131.755 Y102.57 E10.0315
G1 X132.373 Y104.722 E10.09704
G1 X132.447 Y105.046 E10.10676
G1 X132.823 Y107.254 E10.17232
G1 X132.861 Y107.588 E10.18216
G1 X132.988 Y109.828 E10.24783
G1 X132.988 Y110.168 E10.25778
G1 X132.861 Y112.41 E10.3235
G1 X132.824 Y112.743 E10.33331
G1 X132.449 Y114.95 E10.39883
G1 X132.375 Y115.275 E10.40859
G1 X131.757 Y117.428 E10.47415
G1 X131.645 Y117.747 E10.48404
G1 X130.788 Y119.819 E10.54967
G1 X130.64 Y120.126 E10.55965
G1 X129.552 Y122.089 E10.62534
G1 X129.376 Y122.37 E10.63504
G1 X128.079 Y124.2 E10.70069
G1 X127.867 Y124.465 E10.71063
G1 X126.373 Y126.135 E10.77621
G1 X126.137 Y126.371 E10.78598
G1 X124.466 Y127.866 E10.8516
G1 X124.2 Y128.078 E10.86156
G1 X122.368 Y129.376 E10.92727
G1 X122.089 Y129.552 E10.93693
G1 X120.129 Y130.639 E11.00253
G1 X119.821 Y130.787 E11.01253
G1 X117.749 Y131.644 E11.07816
G1 X117.43 Y131.755 E11.08804
G1 X115.278 Y132.373 E11.15358
G1 X114.953 Y132.448 E11.16334
G1 X112.743 Y132.824 E11.22895
G1 X112.41 Y132.861 E11.23876
G1 X110.169 Y132.988 E11.30446
G1 X109.829 Y132.988 E11.31441
G1 X107.59 Y132.861 E11.38005
G1 X107.257 Y132.824 E11.38985
G1 X105.047 Y132.448 E11.45547
G1 X104.722 Y132.373 E11.46523
G1 X102.57 Y131.755 E11.53076
G1 X102.251 Y131.644 E11.54065
G1 X100.179 Y130.787 E11.60627
G1 X99.871 Y130.639 E11.61628
G1 X97.911 Y129.552 E11.68187
G1 X97.632 Y129.376 E11.69153
G1 X95.8 Y128.078 E11.75725
G1 X95.534 Y127.866 E11.7672
G1 X93.862 Y126.371 E11.83285
G1 X93.625 Y126.134 E11.84266
G1 X92.132 Y124.464 E11.90822
G1 X91.921 Y124.2 E11.91811
G1 X90.626 Y122.373 E11.98366
G1 X90.448 Y122.088 E11.99349
G1 X89.364 Y120.125 E12.05913
G1 X89.22 Y119.826 E12.06884
G1 X88.356 Y117.747 E12.13474
G1 X88.243 Y117.425 E12.14472
G1 X87.625 Y115.276 E12.21017
G1 X87.55 Y114.948 E12.22002
G1 X87.176 Y112.74 E12.28557
G1 X87.139 Y112.409 E12.29532
G1 X87.012 Y110.17 E12.36095
G1 X87.012 Y109.83 E12.37091
G1 X87.139 Y107.591 E12.43654
G1 X87.176 Y107.26 E12.44629
G1 X87.55 Y105.052 E12.51184
G1 X87.625 Y104.724 E12.52169
G1 X88.243 Y102.575 E12.58713
G1 X88.356 Y102.253 E12.59712
G1 X89.22 Y100.174 E12.66302
G1 X89.364 Y99.874 E12.67276
G1 X90.448 Y97.912 E12.73837
G1 X90.626 Y97.629 E12.74815
G1 X91.921 Y95.8 E12.81374
G1 X92.132 Y95.535 E12.82366
G1 X93.625 Y93.865 E12.88922
G1 X93.862 Y93.628 E12.89903
G0 F1800 X94.129 Y93.926
G1 F1200 X95.8 Y92.432 E12.96464
G1 X96.029 Y92.249 E12.97322
G1 X97.86 Y90.951 E13.03891
G1 X98.105 Y90.797 E13.04738
G1 X100.067 Y89.711 E13.11302
G1 X100.331 Y89.584 E13.12159
G1 X102.403 Y88.726 E13.18723
G1 X102.679 Y88.629 E13.19579
G1 X104.831 Y88.01 E13.26133
G1 X105.115 Y87.946 E13.26985
G1 X107.326 Y87.571 E13.33549
G1 X107.614 Y87.538 E13.34398
G1 X109.852 Y87.411 E13.40959
G1 X110.146 Y87.411 E13.41819
G1 X112.386 Y87.538 E13.48386
G1 X112.674 Y87.571 E13.49234
G1 X114.885 Y87.946 E13.55798
G1 X115.169 Y88.01 E13.5665
G1 X117.321 Y88.629 E13.63204
G1 X117.597 Y88.726 E13.6406
G1 X119.667 Y89.583 E13.70618
G1 X119.931 Y89.71 E13.71475
G1 X121.895 Y90.797 E13.78045
G1 X122.14 Y90.951 E13.78892
G1 X123.969 Y92.248 E13.85455
G1 X124.198 Y92.431 E13.86313
G1 X125.868 Y93.924 E13.9287
G1 X126.073 Y94.129 E13.93718
G1 X127.568 Y95.801 E14.00283
G1 X127.751 Y96.03 E14.01141
G1 X129.048 Y97.859 E14.07703
G1 X129.201 Y98.103 E14.08546
G1 X130.289 Y100.066 E14.15115
G1 X130.418 Y100.332 E14.15981
G1 X131.275 Y102.404 E14.22543
G1 X131.371 Y102.68 E14.23399
G1 X131.989 Y104.832 E14.29952
G1 X132.053 Y105.114 E14.30798
G1 X132.429 Y107.322 E14.37354
G1 X132.462 Y107.611 E14.38205
G1 X132.589 Y109.851 E14.44772
G1 X132.589 Y110.145 E14.45633
G1 X132.462 Y112.387 E14.52205
G1 X132.429 Y112.676 E14.53057
G1 X132.054 Y114.883 E14.59609
G1 X131.99 Y115.164 E14.60452
G1 X131.372 Y117.317 E14.67008
G1 X131.276 Y117.594 E14.67866
G1 X130.419 Y119.666 E14.74429
G1 X130.29 Y119.932 E14.75295
G1 X129.202 Y121.895 E14.81863
G1 X129.049 Y122.138 E14.82704
G1 X127.752 Y123.968 E14.89269
G1 X127.569 Y124.199 E14.90132
G1 X126.075 Y125.869 E14.9669
G1 X125.871 Y126.073 E14.97534
G1 X124.2 Y127.568 E15.04097
G1 X123.969 Y127.751 E15.0496
G1 X122.137 Y129.049 E15.11531
G1 X121.895 Y129.202 E15.12369
G1 X119.935 Y130.289 E15.18929
G1 X119.668 Y130.418 E15.19797
G1 X117.596 Y131.275 E15.2636
G1 X117.32 Y131.371 E15.27215
G1 X115.168 Y131.989 E15.33768
G1 X114.886 Y132.053 E15.34615
G1 X112.676 Y132.429 E15.41176
G1 X112.387 Y132.462 E15.42027
G1 X110.146 Y132.589 E15.48597
G1 X109.852 Y132.589 E15.49457
G1 X107.613 Y132.462 E15.56021
G1 X107.324 Y132.429 E15.56873
G1 X105.114 Y132.053 E15.63434
G1 X104.832 Y131.989 E15.6428
G1 X102.68 Y131.371 E15.70834
G1 X102.404 Y131.275 E15.71689
G1 X100.332 Y130.418 E15.78252
G1 X100.065 Y130.289 E15.7912
G1 X98.105 Y129.202 E15.8568
G1 X97.863 Y129.049 E15.86518
G1 X96.031 Y127.751 E15.93089
G1 X95.801 Y127.568 E15.93949
G1 X94.129 Y126.073 E16.00514
G1 X93.924 Y125.868 E16.01363
G1 X92.431 Y124.198 E16.07919
G1 X92.248 Y123.969 E16.08777
G1 X90.953 Y122.142 E16.15332
G1 X90.798 Y121.895 E16.16185
G1 X89.714 Y119.932 E16.22748
G1 X89.589 Y119.673 E16.2359
G1 X88.725 Y117.594 E16.3018
G1 X88.627 Y117.315 E16.31045
G1 X88.009 Y115.166 E16.3759
G1 X87.945 Y114.881 E16.38445
G1 X87.571 Y112.673 E16.45
G1 X87.538 Y112.386 E16.45845
G1 X87.411 Y110.147 E16.52409
G1 X87.411 Y109.853 E16.53269
G1 X87.538 Y107.614 E16.59833
G1 X87.571 Y107.327 E16.60679
G1 X87.945 Y105.119 E16.67234
G1 X88.009 Y104.834 E16.68088
G1 X88.627 Y102.685 E16.74633
G1 X88.725 Y102.406 E16.75499
G1 X89.589 Y100.327 E16.82088
G1 X89.714 Y100.068 E16.8293
G1 X90.798 Y98.106 E16.89491
G1 X90.952 Y97.861 E16.90338
G1 X92.247 Y96.032 E16.96897
G1 X92.431 Y95.801 E16.97761
G1 X93.924 Y94.131 E17.04318
G1 X94.129 Y93.926 E17.05166
G0 F1800 X94.396 Y94.224
G1 F1200 X96.067 Y92.73 E17.11727
G1 X96.261 Y92.575 E17.12454
G1 X98.092 Y91.277 E17.19023
G1 X98.299 Y91.147 E17.19738
G1 X100.261 Y90.061 E17.26302
G1 X100.484 Y89.953 E17.27027
G1 X102.556 Y89.095 E17.33591
G1 X102.79 Y89.014 E17.34316
G1 X104.942 Y88.395 E17.4087
G1 X105.182 Y88.34 E17.41591
G1 X107.393 Y87.965 E17.48154
G1 X107.636 Y87.938 E17.4887
G1 X109.874 Y87.811 E17.55431
G1 X110.124 Y87.811 E17.56163
G1 X112.364 Y87.938 E17.62729
G1 X112.607 Y87.965 E17.63445
G1 X114.818 Y88.34 E17.70009
G1 X115.058 Y88.395 E17.7073
G1 X117.21 Y89.014 E17.77284
G1 X117.444 Y89.095 E17.78008
G1 X119.514 Y89.952 E17.84566
G1 X119.737 Y90.06 E17.85291
G1 X121.701 Y91.147 E17.91861
G1 X121.909 Y91.277 E17.92579
G1 X123.738 Y92.574 E17.99142
G1 X123.931 Y92.729 E17.99866
G1 X125.601 Y94.222 E18.06423
G1 X125.775 Y94.396 E18.07143
G1 X127.27 Y96.068 E18.13708
G1 X127.425 Y96.261 E18.14432
G1 X128.722 Y98.09 E18.20995
G1 X128.851 Y98.297 E18.21709
G1 X129.939 Y100.26 E18.28278
G1 X130.048 Y100.485 E18.29009
G1 X130.905 Y102.557 E18.35572
G1 X130.987 Y102.791 E18.36298
G1 X131.605 Y104.943 E18.42851
G1 X131.659 Y105.181 E18.43565
G1 X132.035 Y107.389 E18.50121
G1 X132.062 Y107.633 E18.5084
G1 X132.189 Y109.873 E18.57406
G1 X132.189 Y110.122 E18.58135
G1 X132.062 Y112.364 E18.64708
G1 X132.035 Y112.609 E18.65429
G1 X131.66 Y114.816 E18.71981
G1 X131.606 Y115.054 E18.72696
G1 X130.988 Y117.207 E18.79252
G1 X130.906 Y117.441 E18.79977
G1 X130.049 Y119.513 E18.8654
G1 X129.94 Y119.738 E18.87272
G1 X128.852 Y121.701 E18.93841
G1 X128.723 Y121.907 E18.94552
G1 X127.426 Y123.737 E19.01117
G1 X127.271 Y123.932 E19.01847
G1 X125.777 Y125.602 E19.08405
G1 X125.604 Y125.775 E19.09121
G1 X123.933 Y127.27 E19.15684
G1 X123.738 Y127.425 E19.16413
G1 X121.906 Y128.723 E19.22984
G1 X121.701 Y128.852 E19.23693
G1 X119.741 Y129.939 E19.30253
G1 X119.515 Y130.048 E19.30987
G1 X117.443 Y130.905 E19.3755
G1 X117.209 Y130.987 E19.38276
G1 X115.057 Y131.605 E19.44829
G1 X114.819 Y131.659 E19.45543
G1 X112.609 Y132.035 E19.52105
G1 X112.364 Y132.062 E19.52826
