;FLAVOR:RepRap
;TIME:4575
;Generated with Cura_SteamEngine 2.3.1
M190 S70
M104 S215
M109 S215
G28 ; home all axes
M117 Purge extruder
G92 E0 ; reset extruder
G1 Z1.0 F3000 ; move z up little to prevent scratching of surface
G1 X0.1 Y20 Z0.3 F5000.0 ; move to start-line position G1 X0.1 Y200.0 Z0.3 F1500.0 E15 ; draw 1st line
G1 X0.4 Y200.0 Z0.3 F5000.0 ; move to side a little
G1 X0.4 Y20 Z0.3 F1500.0 E30 ; draw 2nd line
G92 E0 ; reset extruder
G1 Z1.0 F3000 ; move z up little to prevent scratching of surface

M117 All systems go!
;LAYER_COUNT:58
;LAYER:0
M117 INDICATOR-Layer0
M107
G1 F4200 E-5
G0 F1800 X87.301 Y87.548 Z.16
;TYPE:SKIRT
G1 F4200 E0
G1 F1200 X87.696 Y87.164 E0.01612
G1 X88.142 Y86.84 E0.03226
G1 X88.63 Y86.585 E0.04837
G1 X89.15 Y86.402 E0.06451
G1 X89.691 Y86.297 E0.08064
G1 X90.144 Y86.27 E0.09392
G1 X130.138 Y86.27 E1.2645
G1 X130.688 Y86.31 E1.28064
G1 X131.226 Y86.429 E1.29677
G1 X131.741 Y86.625 E1.3129
G1 X132.222 Y86.893 E1.32901
G1 X132.66 Y87.227 E1.34514
G1 X133.044 Y87.622 E1.36126
G1 X133.368 Y88.068 E1.3774
G1 X133.623 Y88.556 E1.39351
G1 X133.806 Y89.076 E1.40965
G1 X133.911 Y89.617 E1.42578
G1 X133.938 Y90.07 E1.43906
G1 X133.941 Y130.069 E2.60979
G1 X133.901 Y130.618 E2.6259
G1 X133.782 Y131.156 E2.64202
G1 X133.587 Y131.671 E2.65814
G1 X133.319 Y132.153 E2.67428
G1 X132.984 Y132.591 E2.69042
G1 X132.589 Y132.975 E2.70655
G1 X132.143 Y133.299 E2.72268
G1 X131.655 Y133.554 E2.7388
G1 X131.135 Y133.737 E2.75493
G1 X130.594 Y133.842 E2.77106
G1 X130.141 Y133.869 E2.78435
G1 X90.145 Y133.869 E3.95499
G1 X89.595 Y133.829 E3.97113
G1 X89.057 Y133.71 E3.98725
G1 X88.542 Y133.514 E4.00338
G1 X88.061 Y133.246 E4.0195
G1 X87.623 Y132.912 E4.03562
G1 X87.239 Y132.517 E4.05174
G1 X86.915 Y132.071 E4.06788
G1 X86.66 Y131.583 E4.08399
G1 X86.477 Y131.063 E4.10013
G1 X86.372 Y130.522 E4.11626
G1 X86.345 Y130.069 E4.12954
G1 X86.344 Y90.07 E5.30027
G1 X86.384 Y89.521 E5.31638
G1 X86.503 Y88.983 E5.33251
G1 X86.698 Y88.467 E5.34865
G1 X86.966 Y87.986 E5.36477
G1 X87.301 Y87.548 E5.38091
G0 F1800 X87.696 Y87.71
G1 F1200 X88.086 Y87.364 E5.39617
G1 X88.523 Y87.081 E5.41141
G1 X88.999 Y86.868 E5.42667
G1 X89.502 Y86.731 E5.44193
G1 X90.144 Y86.67 E5.4608
G1 X130.138 Y86.67 E6.63138
G1 X130.658 Y86.71 E6.64665
G1 X131.165 Y86.829 E6.66189
G1 X131.648 Y87.024 E6.67714
G1 X132.096 Y87.29 E6.69239
G1 X132.498 Y87.622 E6.70765
G1 X132.844 Y88.012 E6.72291
G1 X133.127 Y88.45 E6.73817
G1 X133.34 Y88.925 E6.75341
G1 X133.477 Y89.428 E6.76866
G1 X133.538 Y90.07 E6.78754
G1 X133.541 Y130.069 E7.95827
G1 X133.501 Y130.588 E7.9735
G1 X133.382 Y131.096 E7.98877
G1 X133.187 Y131.579 E8.00402
G1 X132.921 Y132.027 E8.01927
G1 X132.589 Y132.429 E8.03453
G1 X132.199 Y132.775 E8.04979
G1 X131.762 Y133.058 E8.06503
G1 X131.286 Y133.27 E8.08028
G1 X130.783 Y133.408 E8.09554
G1 X130.141 Y133.469 E8.11442
G1 X90.145 Y133.469 E9.28506
G1 X89.625 Y133.429 E9.30032
G1 X89.118 Y133.31 E9.31557
G1 X88.635 Y133.115 E9.33081
G1 X88.187 Y132.849 E9.34606
G1 X87.785 Y132.517 E9.36132
G1 X87.439 Y132.127 E9.37658
G1 X87.156 Y131.689 E9.39184
G1 X86.943 Y131.214 E9.40708
G1 X86.806 Y130.711 E9.42234
G1 X86.745 Y130.069 E9.44121
G1 X86.744 Y90.07 E10.61194
G1 X86.784 Y89.55 E10.62721
G1 X86.903 Y89.043 E10.64245
G1 X87.098 Y88.56 E10.6577
G1 X87.364 Y88.112 E10.67294
G1 X87.696 Y87.71 E10.6882
G0 F1800 X88.09 Y87.883
G1 F1200 X88.473 Y87.578 E10.70254
G1 X88.9 Y87.34 E10.71684
G1 X89.361 Y87.174 E10.73118
G1 X89.842 Y87.085 E10.7455
G1 X90.144 Y87.07 E10.75435
G1 X130.138 Y87.07 E11.92493
G1 X130.626 Y87.11 E11.93926
G1 X131.101 Y87.229 E11.9536
G1 X131.55 Y87.423 E11.96791
G1 X131.962 Y87.688 E11.98225
G1 X132.325 Y88.016 E11.99657
G1 X132.63 Y88.399 E12.0109
G1 X132.868 Y88.827 E12.02523
G1 X133.034 Y89.287 E12.03955
G1 X133.123 Y89.768 E12.05386
G1 X133.138 Y90.07 E12.06271
G1 X133.141 Y130.069 E13.23344
G1 X133.101 Y130.557 E13.24777
G1 X132.982 Y131.032 E13.26211
G1 X132.788 Y131.481 E13.27642
G1 X132.523 Y131.892 E13.29073
G1 X132.195 Y132.256 E13.30508
G1 X131.812 Y132.56 E13.31939
G1 X131.385 Y132.799 E13.33371
G1 X130.924 Y132.965 E13.34805
G1 X130.443 Y133.054 E13.36237
G1 X130.141 Y133.069 E13.37122
G1 X90.145 Y133.069 E14.54186
G1 X89.657 Y133.029 E14.55619
G1 X89.182 Y132.91 E14.57052
G1 X88.733 Y132.716 E14.58484
G1 X88.321 Y132.451 E14.59918
G1 X87.958 Y132.123 E14.6135
G1 X87.653 Y131.74 E14.62783
G1 X87.415 Y131.312 E14.64216
G1 X87.249 Y130.852 E14.65647
G1 X87.16 Y130.371 E14.67079
G1 X87.145 Y130.069 E14.67964
G1 X87.144 Y90.07 E15.85037
G1 X87.184 Y89.582 E15.8647
G1 X87.303 Y89.107 E15.87903
G1 X87.497 Y88.658 E15.89335
G1 X87.762 Y88.246 E15.90768
G1 X88.09 Y87.883 E15.922
G0 F1800 X88.482 Y88.071
G1 F1200 X88.857 Y87.811 E15.93536
G1 X89.271 Y87.621 E15.94869
G1 X89.712 Y87.506 E15.96203
G1 X90.144 Y87.47 E15.97472
G1 X130.138 Y87.47 E17.1453
G1 X130.592 Y87.51 E17.15864
G1 X131.032 Y87.628 E17.17197
G1 X131.444 Y87.822 E17.1853
G1 X131.817 Y88.085 E17.19866
G1 X132.138 Y88.408 E17.21199
G1 X132.397 Y88.783 E17.22533
G1 X132.587 Y89.197 E17.23866
G1 X132.702 Y89.638 E17.252
G1 X132.738 Y90.07 E17.26469
G1 X132.741 Y130.069 E18.43542
G1 X132.701 Y130.523 E18.44876
G1 X132.583 Y130.963 E18.46209
G1 X132.389 Y131.375 E18.47542
G1 X132.127 Y131.748 E18.48876
G1 X131.803 Y132.068 E18.50209
G1 X131.429 Y132.328 E18.51542
G1 X131.014 Y132.518 E18.52878
G1 X130.574 Y132.633 E18.54209
G1 X130.141 Y132.669 E18.55481
G1 X90.145 Y132.669 E19.72545
G1 X89.691 Y132.629 E19.73879
G1 X89.251 Y132.511 E19.75212
G1 X88.839 Y132.317 E19.76545
G1 X88.466 Y132.054 E19.77881
G1 X88.145 Y131.731 E19.79213
G1 X87.886 Y131.356 E19.80547
G1 X87.696 Y130.942 E19.81881
G1 X87.581 Y130.501 E19.83215
G1 X87.545 Y130.069 E19.84483
G1 X87.544 Y90.07 E21.01556
G1 X87.584 Y89.616 E21.0289
G1 X87.702 Y89.176 E21.04223
G1 X87.896 Y88.764 E21.05556
G1 X88.159 Y88.391 E21.06892
G1 X88.482 Y88.071 E21.08223
G0 F1800 X88.871 Y88.276
G1 F1200 X89.234 Y88.067 E21.09449
G1 X89.631 Y87.931 E21.10677
G1 X90.144 Y87.87 E21.12189
G1 X130.138 Y87.87 E22.29247
G1 X130.555 Y87.91 E22.30473
G1 X130.957 Y88.028 E22.317
G1 X131.329 Y88.221 E22.32926
G1 X131.658 Y88.48 E22.34152
G1 X131.932 Y88.797 E22.35378
G1 X132.141 Y89.16 E22.36604
G1 X132.277 Y89.557 E22.37833
G1 X132.338 Y90.07 E22.39345
G1 X132.341 Y130.069 E23.56417
G1 X132.301 Y130.486 E23.57643
G1 X132.183 Y130.888 E23.5887
G1 X131.991 Y131.26 E23.60095
G1 X131.731 Y131.589 E23.61322
G1 X131.414 Y131.863 E23.62549
G1 X131.051 Y132.072 E23.63775
G1 X130.654 Y132.208 E23.65003
G1 X130.141 Y132.269 E23.66515
G1 X90.145 Y132.269 E24.83579
G1 X89.728 Y132.229 E24.84805
G1 X89.326 Y132.111 E24.86031
G1 X88.954 Y131.918 E24.87258
G1 X88.625 Y131.659 E24.88484
G1 X88.351 Y131.342 E24.8971
G1 X88.142 Y130.979 E24.90936
G1 X88.006 Y130.582 E24.92164
G1 X87.945 Y130.069 E24.93676
G1 X87.944 Y90.07 E26.10749
G1 X87.984 Y89.653 E26.11975
G1 X88.102 Y89.251 E26.13201
G1 X88.295 Y88.879 E26.14428
G1 X88.554 Y88.55 E26.15653
G1 X88.871 Y88.276 E26.1688
G0 F1800 X89.255 Y88.505
G1 F1200 X89.603 Y88.353 E26.17991
G1 X90.144 Y88.27 E26.19593
G1 X130.138 Y88.27 E27.36651
G1 X130.515 Y88.31 E27.37761
G1 X130.875 Y88.428 E27.3887
G1 X131.202 Y88.618 E27.39977
G1 X131.483 Y88.873 E27.41087
G1 X131.703 Y89.182 E27.42198
G1 X131.855 Y89.529 E27.43306
G1 X131.938 Y90.07 E27.44908
G1 X131.941 Y130.069 E28.61981
G1 X131.901 Y130.446 E28.63091
G1 X131.783 Y130.806 E28.642
G1 X131.593 Y131.133 E28.65307
G1 X131.338 Y131.414 E28.66417
G1 X131.03 Y131.634 E28.67525
G1 X130.682 Y131.786 E28.68637
G1 X130.141 Y131.869 E28.70238
G1 X90.145 Y131.869 E29.87302
G1 X89.768 Y131.829 E29.88412
G1 X89.408 Y131.711 E29.89521
G1 X89.081 Y131.521 E29.90628
G1 X88.8 Y131.266 E29.91738
G1 X88.58 Y130.957 E29.92849
G1 X88.428 Y130.61 E29.93958
G1 X88.345 Y130.069 E29.95559
G1 X88.344 Y90.07 E31.12632
G1 X88.384 Y89.693 E31.13742
G1 X88.502 Y89.333 E31.14851
G1 X88.692 Y89.006 E31.15958
G1 X88.947 Y88.725 E31.17068
G1 X89.255 Y88.505 E31.18176
G1 F4200 E26.18176
G0 F1800 X90.144 Y88.67
G1 F4200 E31.18176
G1 F1200 X130.138 Y88.67 E32.35234
G1 X130.47 Y88.71 E32.36213
G1 X130.782 Y88.827 E32.37188
G1 X131.059 Y89.015 E32.38168
G1 X131.282 Y89.263 E32.39144
G1 X131.441 Y89.557 E32.40123
G1 X131.525 Y89.881 E32.41102
G1 X131.538 Y90.07 E32.41657
G1 X131.541 Y130.069 E33.58729
G1 X131.501 Y130.401 E33.59708
G1 X131.384 Y130.713 E33.60683
G1 X131.196 Y130.989 E33.61661
G1 X130.948 Y131.213 E33.62639
G1 X130.654 Y131.372 E33.63617
G1 X130.33 Y131.456 E33.64597
G1 X130.141 Y131.469 E33.65151
G1 X90.145 Y131.469 E34.82215
G1 X89.813 Y131.429 E34.83194
G1 X89.501 Y131.312 E34.84169
G1 X89.224 Y131.124 E34.85149
G1 X89.001 Y130.876 E34.86125
G1 X88.842 Y130.582 E34.87104
G1 X88.758 Y130.258 E34.88083
G1 X88.745 Y130.069 E34.88638
G1 X88.744 Y90.07 E36.05711
G1 X88.784 Y89.738 E36.06689
G1 X88.901 Y89.426 E36.07665
G1 X89.089 Y89.149 E36.08645
G1 X89.337 Y88.926 E36.09621
G1 X89.631 Y88.767 E36.10599
G1 X89.955 Y88.683 E36.11579
G1 X90.144 Y88.67 E36.12133
G0 F1800 X90.144 Y89.07
G1 F1200 X130.138 Y89.07 E37.29191
G1 X130.417 Y89.11 E37.30016
G1 X130.674 Y89.226 E37.30842
G1 X130.889 Y89.409 E37.31668
G1 X131.043 Y89.645 E37.32493
G1 X131.126 Y89.915 E37.33319
G1 X131.138 Y90.07 E37.33774
G1 X131.141 Y130.069 E38.50847
G1 X131.101 Y130.348 E38.51672
G1 X130.985 Y130.605 E38.52497
G1 X130.802 Y130.82 E38.53324
G1 X130.566 Y130.974 E38.54149
G1 X130.296 Y131.057 E38.54975
G1 X130.141 Y131.069 E38.5543
G1 X90.145 Y131.069 E39.72494
G1 X89.866 Y131.029 E39.73319
G1 X89.609 Y130.913 E39.74145
G1 X89.394 Y130.73 E39.74971
G1 X89.24 Y130.494 E39.75796
G1 X89.157 Y130.224 E39.76623
G1 X89.145 Y130.069 E39.77078
G1 X89.144 Y90.07 E40.9415
G1 X89.184 Y89.791 E40.94975
G1 X89.3 Y89.534 E40.95801
G1 X89.483 Y89.319 E40.96627
G1 X89.719 Y89.165 E40.97452
G1 X89.989 Y89.082 E40.98279
G1 X90.144 Y89.07 E40.98734
G0 F1800 X90.144 Y89.47
G1 F1200 X130.138 Y89.47 E42.15792
G1 X130.353 Y89.51 E42.16432
G1 X130.539 Y89.623 E42.17069
G1 X130.672 Y89.796 E42.17707
G1 X130.738 Y90.07 E42.18532
G1 X130.741 Y130.069 E43.35605
G1 X130.701 Y130.283 E43.36242
G1 X130.588 Y130.47 E43.36882
G1 X130.415 Y130.603 E43.3752
G1 X130.141 Y130.669 E43.38345
G1 X90.145 Y130.669 E44.55409
G1 X89.93 Y130.629 E44.56049
G1 X89.744 Y130.516 E44.56686
G1 X89.611 Y130.343 E44.57325
G1 X89.545 Y130.069 E44.5815
G1 X89.544 Y90.07 E45.75223
G1 X89.584 Y89.855 E45.75863
G1 X89.697 Y89.669 E45.765
G1 X89.87 Y89.536 E45.77139
G1 X90.144 Y89.47 E45.77963
G0 F1800 X89.944 Y90.07
G1 F1200 X89.983 Y89.951 E45.7833
G1 X90.144 Y89.87 E45.78857
G1 X130.138 Y89.87 E46.95916
G1 X130.257 Y89.909 E46.96282
G1 X130.338 Y90.07 E46.9681
G1 X130.341 Y130.069 E48.13882
G1 X130.302 Y130.188 E48.14249
G1 X130.141 Y130.269 E48.14776
G1 X90.145 Y130.269 E49.3184
G1 X90.026 Y130.23 E49.32207
G1 X89.945 Y130.069 E49.32734
G1 X89.944 Y90.07 E50.49807
G1 F4200 E45.49807
G0 F1800 X90.772 Y90.698
G0 X96.344 Y96.47
;TYPE:WALL-INNER
G1 F4200 E50.49807
G1 F1200 X96.344 Y96.27 E50.50393
G1 X96.544 Y96.27 E50.50772
G1 X123.938 Y96.27 E51.30951
G1 X123.941 Y123.669 E52.11145
G1 X123.941 Y123.869 E52.1173
G1 X123.741 Y123.869 E52.12109
G1 X96.345 Y123.869 E52.92294
G1 X96.344 Y96.47 E53.72488
G0 F1800 X95.944 Y96.07
G1 F1200 X95.944 Y95.87 E53.73074
G1 X96.144 Y95.87 E53.73453
G1 X124.338 Y95.87 E54.55973
G1 X124.341 Y124.069 E55.38509
G1 X124.341 Y124.269 E55.39094
G1 X124.141 Y124.269 E55.39473
G1 X95.945 Y124.269 E56.22
G1 X95.944 Y96.07 E57.04535
G0 F1800 X95.544 Y95.67
G1 F1200 X95.544 Y95.47 E57.05121
G1 X95.744 Y95.47 E57.055
G1 X124.738 Y95.47 E57.90362
G1 X124.741 Y124.469 E58.75239
G1 X124.741 Y124.669 E58.75824
G1 X124.541 Y124.669 E58.76203
G1 X95.545 Y124.669 E59.61072
G1 X95.544 Y95.67 E60.45948
G0 F1800 X95.144 Y95.27
G1 F1200 X95.144 Y95.07 E60.46534
G1 X95.344 Y95.07 E60.46913
G1 X125.138 Y95.07 E61.34117
G1 X125.141 Y124.869 E62.21335
G1 X125.141 Y125.069 E62.21921
G1 X124.941 Y125.069 E62.223
G1 X95.145 Y125.069 E63.09509
G1 X95.144 Y95.27 E63.96728
G0 F1800 X94.744 Y94.87
G1 F1200 X94.744 Y94.67 E63.97313
G1 X94.944 Y94.67 E63.97692
G1 X125.538 Y94.67 E64.87237
G1 X125.541 Y125.269 E65.76797
G1 X125.541 Y125.469 E65.77383
G1 X125.341 Y125.469 E65.77762
G1 X94.745 Y125.469 E66.67313
G1 X94.744 Y94.87 E67.56873
G0 F1800 X94.344 Y94.47
G1 F1200 X94.344 Y94.27 E67.57458
G1 X94.544 Y94.27 E67.57837
G1 X125.938 Y94.27 E68.49724
G1 X125.941 Y125.669 E69.41626
G1 X125.941 Y125.869 E69.42211
G1 X125.741 Y125.869 E69.4259
G1 X94.345 Y125.869 E70.34483
G1 X94.344 Y94.47 E71.26384
G0 F1800 X93.944 Y94.07
G1 F1200 X93.944 Y93.87 E71.2697
G1 X94.144 Y93.87 E71.27349
G1 X126.338 Y93.87 E72.21577
G1 X126.341 Y126.069 E73.1582
G1 X126.341 Y126.269 E73.16405
G1 X126.141 Y126.269 E73.16784
G1 X93.945 Y126.269 E74.11019
G1 X93.944 Y94.07 E75.05262
G0 F1800 X93.544 Y93.67
G1 F1200 X93.544 Y93.47 E75.05847
G1 X93.744 Y93.47 E75.06226
G1 X126.738 Y93.47 E76.02796
G1 X126.741 Y126.469 E76.9938
G1 X126.741 Y126.669 E76.99966
G1 X126.541 Y126.669 E77.00345
G1 X93.545 Y126.669 E77.96921
G1 X93.544 Y93.67 E78.93505
G0 F1800 X93.144 Y93.27
G1 F1200 X93.144 Y93.07 E78.9409
G1 X93.344 Y93.07 E78.94469
G1 X127.138 Y93.07 E79.93381
G1 X127.141 Y126.869 E80.92307
G1 X127.141 Y127.069 E80.92892
G1 X126.941 Y127.069 E80.93271
G1 X93.145 Y127.069 E81.92189
G1 X93.144 Y93.27 E82.91115
G0 F1800 X92.744 Y92.87
G1 F1200 X92.744 Y92.67 E82.917
G1 X92.944 Y92.67 E82.92079
G1 X127.538 Y92.67 E83.93332
G1 X127.541 Y127.269 E84.94599
G1 X127.541 Y127.469 E84.95185
G1 X127.341 Y127.469 E84.95564
G1 X92.745 Y127.469 E85.96823
G1 X92.744 Y92.87 E86.9809
G0 F1800 X92.344 Y92.47
G1 F1200 X92.344 Y92.27 E86.98675
G1 X92.544 Y92.27 E86.99054
G1 X127.938 Y92.27 E88.02649
G1 X127.941 Y127.669 E89.06258
G1 X127.941 Y127.869 E89.06843
G1 X127.741 Y127.869 E89.07222
G1 X92.345 Y127.869 E90.10823
G1 X92.344 Y92.47 E91.14432
G0 F1800 X91.944 Y92.07
G1 F1200 X91.944 Y91.87 E91.15017
G1 X92.144 Y91.87 E91.15396
G1 X128.338 Y91.87 E92.21332
G1 X128.341 Y128.069 E93.27283
G1 X128.341 Y128.269 E93.27868
G1 X128.141 Y128.269 E93.28247
G1 X91.945 Y128.269 E94.34189
G1 X91.944 Y92.07 E95.40139
G0 F1800 X91.544 Y91.67
G1 F1200 X91.544 Y91.47 E95.40725
G1 X91.744 Y91.47 E95.41104
G1 X128.738 Y91.47 E96.49381
G1 X128.741 Y128.469 E97.57673
G1 X128.741 Y128.669 E97.58259
G1 X128.541 Y128.669 E97.58638
G1 X91.545 Y128.669 E98.66921
G1 X91.544 Y91.67 E99.75213
G0 F1800 X91.144 Y91.27
G1 F1200 X91.144 Y91.07 E99.75798
G1 X91.344 Y91.07 E99.76177
G1 X129.138 Y91.07 E100.86796
G1 X129.141 Y128.869 E101.9743
G1 X129.141 Y129.069 E101.98015
G1 X128.941 Y129.069 E101.98394
G1 X91.145 Y129.069 E103.09019
G1 X91.144 Y91.27 E104.19653
G0 F1800 X90.744 Y90.87
G1 F1200 X90.744 Y90.67 E104.20238
G1 X90.944 Y90.67 E104.20617
G1 X129.538 Y90.67 E105.33578
G1 X129.541 Y129.269 E106.46553
G1 X129.541 Y129.469 E106.47138
G1 X129.341 Y129.469 E106.47517
G1 X90.745 Y129.469 E107.60483
G1 X90.744 Y90.87 E108.73459
G0 F1800 X90.344 Y90.47
;TYPE:WALL-OUTER
G1 F1200 X90.344 Y90.27 E108.74044
G1 X90.544 Y90.27 E108.74423
G1 X129.938 Y90.27 E109.89725
G1 X129.941 Y129.669 E111.05042
G1 X129.941 Y129.869 E111.05627
G1 X129.741 Y129.869 E111.06006
G1 X90.345 Y129.869 E112.21314
G1 X90.344 Y90.47 E113.3663
G0 F1800 X90.814 Y90.74
G0 X96.523 Y96.523
;TYPE:SKIN
G1 F1200 X123.688 Y123.688 E114.49073
G0 X123.758 Y123.758
G0 F1800 X123.759 Y123.194
G1 F1200 X97.015 Y96.45 E115.59773
G0 X96.945 Y96.38
G0 F1800 X97.581 Y96.45
G1 F1200 X123.759 Y122.628 E116.68131
G0 X123.829 Y122.698
G0 F1800 X123.759 Y122.062
G1 F1200 X98.147 Y96.45 E117.74145
G0 X98.077 Y96.38
G0 F1800 X98.712 Y96.45
G1 F1200 X123.759 Y121.497 E118.77821
G0 X123.829 Y121.567
G0 F1800 X123.759 Y120.931
G1 F1200 X99.278 Y96.45 E119.79154
G0 X99.208 Y96.38
G0 F1800 X99.844 Y96.45
G1 F1200 X123.759 Y120.365 E120.78144
G0 X123.829 Y120.435
G0 F1800 X123.759 Y119.8
G1 F1200 X100.409 Y96.45 E121.74795
G0 X100.339 Y96.38
G0 F1800 X100.975 Y96.45
G1 F1200 X123.759 Y119.234 E122.69104
G0 X123.829 Y119.304
G0 F1800 X123.759 Y118.668
