;FLAVOR:RepRap
;TIME:2675
;Generated with Cura_SteamEngine 2.3.1
M190 S70
M104 S215
M109 S215
G28 ; home all axes
M117 Purge extruder
G92 E0 ; reset extruder
G1 Z1.0 F3000 ; move z up little to prevent scratching of surface
G1 X0.1 Y20 Z0.3 F5000.0 ; move to start-line position G1 X0.1 Y200.0 Z0.3 F1500.0 E15 ; draw 1st line
G1 X0.4 Y200.0 Z0.3 F5000.0 ; move to side a little
G1 X0.4 Y20 Z0.3 F1500.0 E30 ; draw 2nd line
G92 E0 ; reset extruder
G1 Z1.0 F3000 ; move z up little to prevent scratching of surface

M117 All systems go!
;LAYER_COUNT:37
;LAYER:0
M117 INDICATOR-Layer0
M107
G1 F4200 E-5
G0 F1800 X89.705 Y101.857 Z.16
G0 X89.924 Y101.673
;TYPE:SKIRT
G1 F4200 E0
G1 F1200 X90.37 Y101.35 E0.01612
G1 X90.858 Y101.095 E0.03223
G1 X91.379 Y100.913 E0.04839
G1 X92.07 Y100.794 E0.06891
G1 X92.616 Y100.751 E0.08494
G1 X93.167 Y100.747 E0.10107
G1 X93.674 Y100.819 E0.11605
G1 X93.865 Y100.776 E0.12179
G1 X94.414 Y100.736 E0.1379
G1 X95.026 Y100.785 E0.15587
G1 X95.298 Y100.829 E0.16393
G1 X95.956 Y100.783 E0.18324
G1 X96.222 Y100.774 E0.19103
G1 X99.369 Y100.774 E0.28314
G1 X99.459 Y100.784 E0.28579
G1 X99.938 Y100.718 E0.29994
G1 X100.489 Y100.722 E0.31607
G1 X100.556 Y100.73 E0.31804
G1 X100.81 Y100.698 E0.32553
G1 X101.361 Y100.709 E0.34166
G1 X101.804 Y100.777 E0.35478
G1 X101.807 Y100.778 E0.35488
G1 X102.156 Y100.723 E0.36522
G1 X102.615 Y100.676 E0.37872
G1 X103.166 Y100.66 E0.39485
G1 X103.691 Y100.719 E0.41032
G1 X105.129 Y100.984 E0.45312
G1 X105.624 Y100.831 E0.46828
G1 X106.159 Y100.726 E0.48424
G1 X106.937 Y100.655 E0.5071
G1 X111.31 Y100.708 E0.63511
G1 X121.082 Y96.92 E0.94186
G1 X121.608 Y96.759 E0.95796
G1 X122.153 Y96.675 E0.9741
G1 X122.704 Y96.671 E0.99023
G1 X123.25 Y96.747 E1.00636
G1 X123.779 Y96.901 E1.02249
G1 X124.28 Y97.13 E1.03861
G1 X124.743 Y97.429 E1.05474
G1 X125.143 Y97.777 E1.07026
G1 X128.139 Y100.774 E1.19429
G1 X128.476 Y100.774 E1.20416
G1 X129.026 Y100.814 E1.2203
G1 X129.564 Y100.932 E1.23642
G1 X130.079 Y101.128 E1.25255
G1 X130.56 Y101.395 E1.26865
G1 X130.998 Y101.73 E1.28479
G1 X131.383 Y102.124 E1.30091
G1 X131.707 Y102.57 E1.31705
G1 X131.963 Y103.058 E1.33318
G1 X132.114 Y103.471 E1.34605
G1 X132.546 Y104.895 E1.3896
G1 X132.668 Y105.432 E1.40572
G1 X132.71 Y105.998 E1.42233
G1 X132.711 Y113.705 E1.64791
G1 X132.671 Y114.254 E1.66402
G1 X132.552 Y114.792 E1.68014
G1 X132.357 Y115.307 E1.69626
G1 X132.089 Y115.789 E1.7124
G1 X131.754 Y116.226 E1.72852
G1 X131.36 Y116.611 E1.74464
G1 X131.091 Y116.817 E1.75456
G1 X130.884 Y116.962 E1.76196
G1 X130.778 Y117.025 E1.76557
G1 X130.727 Y117.064 E1.76745
G1 X121.74 Y123.083 E2.08403
G1 X121.261 Y123.356 E2.10017
G1 X120.748 Y123.556 E2.11628
G1 X120.211 Y123.681 E2.13242
G1 X119.662 Y123.726 E2.14854
G1 X119.112 Y123.691 E2.16467
G1 X118.573 Y123.577 E2.1808
G1 X118.093 Y123.404 E2.19573
G1 X116.665 Y122.775 E2.2414
G1 X116.085 Y122.456 E2.26078
G1 X112.967 Y120.371 E2.37056
G1 X109.534 Y120.394 E2.47104
G1 X108.984 Y120.358 E2.48718
G1 X108.706 Y120.298 E2.4955
G1 X108.458 Y120.356 E2.50296
G1 X107.887 Y120.401 E2.51972
G1 X107.376 Y120.403 E2.53468
G1 X106.826 Y120.365 E2.55081
G1 X106.055 Y120.172 E2.57408
G1 X105.662 Y120.028 E2.58633
G1 X105.239 Y120.192 E2.5996
G1 X104.701 Y120.313 E2.61574
G1 X104.3 Y120.352 E2.62754
G1 X103.525 Y120.386 E2.65024
G1 X102.974 Y120.371 E2.66637
G1 X102.431 Y120.275 E2.68251
G1 X101.922 Y120.108 E2.69819
G1 X101.182 Y119.806 E2.72159
G1 X100.688 Y119.562 E2.73771
G1 X100.235 Y119.248 E2.75385
G1 X100.088 Y119.111 E2.75973
G1 X96.707 Y118.546 E2.86006
G1 X96.55 Y118.508 E2.86479
G1 X96.478 Y118.524 E2.86694
G1 X95.944 Y118.619 E2.88282
G1 X95.396 Y118.676 E2.89895
G1 X94.845 Y118.653 E2.91509
G1 X94.399 Y118.569 E2.92837
G1 X93.92 Y118.659 E2.94264
G1 X93.471 Y118.683 E2.9558
G1 X93.114 Y118.681 E2.96624
G1 X92.564 Y118.638 E2.98239
G1 X92.027 Y118.516 E2.99851
G1 X91.513 Y118.317 E3.01464
G1 X91.033 Y118.047 E3.03076
G1 X90.597 Y117.71 E3.04689
G1 X90.564 Y117.675 E3.0483
G1 X90.152 Y117.331 E3.06401
G1 X89.784 Y116.92 E3.08015
G1 X89.481 Y116.46 E3.09628
G1 X89.246 Y115.962 E3.11239
G1 X89.087 Y115.434 E3.12853
G1 X89.003 Y114.865 E3.14537
G1 X88.931 Y113.84 E3.17544
G1 X88.541 Y112.9 E3.20523
G1 X88.444 Y112.606 E3.21429
G1 X88.44 Y112.599 E3.21453
G1 X88.334 Y112.338 E3.22277
G1 X87.958 Y111.302 E3.25503
G1 X87.808 Y110.772 E3.27115
G1 X87.747 Y110.365 E3.2832
G1 X87.589 Y108.698 E3.33221
G1 X87.59 Y107.97 E3.35351
G1 X87.735 Y106.484 E3.39721
G1 X87.849 Y105.86 E3.41578
G1 X88.303 Y104.183 E3.46663
G1 X88.485 Y103.663 E3.48276
G1 X88.663 Y103.253 E3.49584
G1 X88.919 Y102.765 E3.51197
G1 X89.242 Y102.318 E3.52811
G1 X89.705 Y101.857 E3.54723
G1 X89.924 Y101.673 E3.55561
G0 F1800 X90.181 Y101.979
G1 F1200 X90.604 Y101.675 E3.57085
G1 X91.069 Y101.44 E3.5861
G1 X91.565 Y101.278 E3.60137
G1 X92.101 Y101.192 E3.61726
G1 X92.647 Y101.149 E3.63329
G1 X93.168 Y101.149 E3.64854
G1 X93.681 Y101.227 E3.66373
G1 X93.979 Y101.164 E3.67264
G1 X94.499 Y101.137 E3.68788
G1 X94.962 Y101.18 E3.70149
G1 X95.279 Y101.231 E3.71089
G1 X95.984 Y101.182 E3.73158
G1 X96.222 Y101.174 E3.73855
G1 X99.369 Y101.174 E3.83066
G1 X99.504 Y101.189 E3.83463
G1 X99.698 Y101.145 E3.84045
G1 X100.218 Y101.11 E3.85571
G1 X100.499 Y101.134 E3.86396
G1 X100.537 Y101.126 E3.8651
G1 X101.057 Y101.093 E3.88035
G1 X101.721 Y101.168 E3.89991
G1 X101.81 Y101.187 E3.90257
G1 X101.87 Y101.17 E3.9044
G1 X102.197 Y101.121 E3.91407
G1 X102.656 Y101.074 E3.92758
G1 X103.177 Y101.06 E3.94283
G1 X103.619 Y101.112 E3.95586
G1 X105.146 Y101.394 E4.00131
G1 X105.701 Y101.224 E4.0183
G1 X106.236 Y101.119 E4.03426
G1 X106.932 Y101.055 E4.05471
G1 X111.382 Y101.109 E4.18497
G1 X121.226 Y97.293 E4.49398
G1 X121.725 Y97.142 E4.50924
G1 X122.241 Y97.07 E4.52449
G1 X122.762 Y97.077 E4.53974
G1 X123.276 Y97.164 E4.555
G1 X123.771 Y97.328 E4.57026
G1 X124.234 Y97.566 E4.5855
G1 X124.656 Y97.872 E4.60076
G1 X124.86 Y98.059 E4.60886
G1 X127.974 Y101.174 E4.73777
G1 X128.476 Y101.174 E4.75247
G1 X128.996 Y101.214 E4.76773
G1 X129.503 Y101.332 E4.78297
G1 X129.987 Y101.527 E4.79824
G1 X130.435 Y101.793 E4.81349
G1 X130.837 Y102.125 E4.82875
G1 X131.183 Y102.514 E4.84399
G1 X131.466 Y102.952 E4.85925
G1 X131.732 Y103.587 E4.8794
G1 X132.164 Y105.011 E4.92296
G1 X132.276 Y105.52 E4.93821
G1 X132.31 Y105.998 E4.95224
G1 X132.311 Y113.705 E5.17781
G1 X132.271 Y114.224 E5.19305
G1 X132.152 Y114.732 E5.20832
G1 X131.957 Y115.215 E5.22356
G1 X131.691 Y115.663 E5.23881
G1 X131.359 Y116.065 E5.25407
G1 X130.862 Y116.49 E5.27321
G1 X130.655 Y116.635 E5.28061
G1 X130.537 Y116.704 E5.28461
G1 X130.504 Y116.732 E5.28588
G1 X121.517 Y122.751 E5.60246
G1 X121.063 Y123.007 E5.61772
G1 X120.575 Y123.19 E5.63297
G1 X120.065 Y123.297 E5.64822
G1 X119.545 Y123.325 E5.66347
G1 X119.026 Y123.273 E5.67873
G1 X118.522 Y123.142 E5.69397
G1 X118.254 Y123.038 E5.70239
G1 X116.826 Y122.409 E5.74806
G1 X116.307 Y122.123 E5.7654
G1 X113.088 Y119.97 E5.87875
G1 X109.531 Y119.994 E5.98286
G1 X109.011 Y119.957 E5.99812
G1 X108.706 Y119.888 E6.00727
G1 X108.369 Y119.965 E6.01739
G1 X107.885 Y120.001 E6.0316
G1 X107.374 Y120.003 E6.04655
G1 X106.855 Y119.965 E6.06179
G1 X106.193 Y119.796 E6.08178
G1 X105.723 Y119.624 E6.09643
G1 X105.649 Y119.59 E6.09881
G1 X105.531 Y119.655 E6.10276
G1 X105.041 Y119.833 E6.11802
G1 X104.282 Y119.953 E6.14051
G1 X103.507 Y119.987 E6.16321
G1 X102.986 Y119.97 E6.17847
G1 X102.474 Y119.873 E6.19372
G1 X102.073 Y119.738 E6.20611
G1 X101.333 Y119.436 E6.2295
G1 X100.867 Y119.203 E6.24475
G1 X100.442 Y118.901 E6.26001
G1 X100.273 Y118.737 E6.2669
G1 X96.773 Y118.152 E6.37076
G1 X96.535 Y118.093 E6.37794
G1 X96.408 Y118.13 E6.38181
G1 X95.874 Y118.225 E6.39769
G1 X95.355 Y118.277 E6.41295
G1 X94.835 Y118.249 E6.4282
G1 X94.395 Y118.157 E6.44135
G1 X94.332 Y118.178 E6.4433
G1 X93.819 Y118.267 E6.45854
G1 X93.473 Y118.283 E6.46867
G1 X93.116 Y118.281 E6.47912
G1 X92.597 Y118.238 E6.49437
G1 X92.09 Y118.116 E6.50963
G1 X91.608 Y117.919 E6.52487
G1 X91.161 Y117.65 E6.54014
G1 X90.812 Y117.357 E6.55348
G1 X90.762 Y117.326 E6.5552
G1 X90.37 Y116.984 E6.57042
G1 X90.034 Y116.585 E6.58569
G1 X89.763 Y116.14 E6.60094
G1 X89.563 Y115.659 E6.61619
G1 X89.439 Y115.153 E6.63144
G1 X89.402 Y114.837 E6.64075
G1 X89.326 Y113.745 E6.67279
G1 X88.911 Y112.746 E6.70445
G1 X88.776 Y112.335 E6.71711
G1 X88.71 Y112.202 E6.72146
G1 X88.334 Y111.166 E6.75372
G1 X88.194 Y110.664 E6.76897
G1 X88.145 Y110.327 E6.77894
G1 X87.987 Y108.66 E6.82795
G1 X87.988 Y108.009 E6.847
G1 X88.133 Y106.523 E6.8907
G1 X88.235 Y105.965 E6.9073
G1 X88.689 Y104.288 E6.95815
G1 X88.852 Y103.822 E6.9726
G1 X89.03 Y103.412 E6.98569
G1 X89.274 Y102.951 E7.00095
G1 X89.585 Y102.533 E7.0162
G1 X89.962 Y102.163 E7.03166
G1 X90.181 Y101.979 E7.04003
G0 F1800 X90.219 Y102.469
G1 F1200 X90.438 Y102.285 E7.04841
G1 X90.837 Y102.002 E7.06272
G1 X91.277 Y101.787 E7.07706
G1 X91.746 Y101.647 E7.09138
G1 X92.132 Y101.591 E7.1028
G1 X92.678 Y101.548 E7.11883
G1 X93.168 Y101.55 E7.13317
G1 X93.651 Y101.631 E7.14751
G1 X93.665 Y101.636 E7.14794
G1 X94.089 Y101.554 E7.16058
G1 X94.579 Y101.54 E7.17493
G1 X94.898 Y101.575 E7.18432
G1 X95.26 Y101.634 E7.19506
G1 X96.012 Y101.581 E7.21712
G1 X96.222 Y101.574 E7.22327
G1 X99.369 Y101.574 E7.31538
G1 X99.503 Y101.588 E7.31932
G1 X99.507 Y101.587 E7.31944
G1 X99.992 Y101.516 E7.33379
G1 X100.528 Y101.542 E7.3495
G1 X100.8 Y101.5 E7.35755
G1 X101.289 Y101.506 E7.37187
G1 X101.637 Y101.559 E7.38217
G1 X101.826 Y101.599 E7.38782
G1 X101.978 Y101.557 E7.39244
G1 X102.237 Y101.519 E7.4001
G1 X102.696 Y101.472 E7.41361
G1 X103.186 Y101.462 E7.42795
G1 X103.546 Y101.506 E7.43857
G1 X105.175 Y101.806 E7.48705
G1 X105.219 Y101.784 E7.48849
G1 X105.778 Y101.616 E7.50557
G1 X106.313 Y101.511 E7.52153
G1 X106.927 Y101.455 E7.53957
G1 X111.455 Y101.51 E7.67211
G1 X121.371 Y97.666 E7.98339
G1 X121.84 Y97.527 E7.99771
G1 X122.326 Y97.466 E8.01204
G1 X122.815 Y97.485 E8.02637
G1 X123.294 Y97.583 E8.04068
G1 X123.752 Y97.758 E8.05503
G1 X124.174 Y98.004 E8.06932
G1 X124.577 Y98.342 E8.08472
G1 X127.808 Y101.574 E8.21848
G1 X128.476 Y101.574 E8.23803
G1 X128.964 Y101.614 E8.25236
G1 X129.439 Y101.732 E8.26669
G1 X129.889 Y101.926 E8.28103
G1 X130.3 Y102.191 E8.29534
G1 X130.664 Y102.519 E8.30968
G1 X130.969 Y102.902 E8.32401
G1 X131.208 Y103.329 E8.33834
G1 X131.349 Y103.703 E8.35003
G1 X131.781 Y105.127 E8.39359
G1 X131.884 Y105.606 E8.40793
G1 X131.91 Y105.998 E8.41943
G1 X131.911 Y113.705 E8.645
G1 X131.871 Y114.192 E8.65931
G1 X131.752 Y114.667 E8.67364
G1 X131.558 Y115.117 E8.68798
G1 X131.293 Y115.528 E8.70229
G1 X130.965 Y115.891 E8.71661
G1 X130.632 Y116.162 E8.72918
G1 X130.425 Y116.307 E8.73658
G1 X130.328 Y116.364 E8.73987
G1 X130.281 Y116.4 E8.7416
G1 X121.294 Y122.419 E9.05819
G1 X120.867 Y122.657 E9.0725
G1 X120.406 Y122.822 E9.08683
G1 X119.925 Y122.911 E9.10114
G1 X119.435 Y122.92 E9.11549
G1 X118.951 Y122.849 E9.12981
G1 X118.416 Y122.671 E9.14631
G1 X116.988 Y122.042 E9.19198
G1 X116.529 Y121.791 E9.20729
G1 X113.207 Y119.569 E9.32427
G1 X109.528 Y119.594 E9.43195
G1 X109.04 Y119.557 E9.44628
G1 X108.711 Y119.478 E9.45618
G1 X108.281 Y119.573 E9.46907
G1 X107.884 Y119.601 E9.48072
G1 X107.373 Y119.603 E9.49567
G1 X106.885 Y119.565 E9.51
G1 X106.33 Y119.42 E9.52679
G1 X105.86 Y119.248 E9.54144
G1 X105.635 Y119.144 E9.54869
G1 X105.312 Y119.315 E9.55939
G1 X104.848 Y119.47 E9.57371
G1 X104.264 Y119.553 E9.59097
G1 X103.489 Y119.587 E9.61368
G1 X103 Y119.569 E9.628
G1 X102.521 Y119.471 E9.64231
G1 X102.224 Y119.368 E9.65151
G1 X101.484 Y119.066 E9.6749
G1 X101.048 Y118.844 E9.68922
G1 X100.653 Y118.555 E9.70355
G1 X100.461 Y118.358 E9.7116
G1 X100.347 Y118.343 E9.71497
G1 X96.839 Y117.757 E9.81907
G1 X96.537 Y117.681 E9.82818
G1 X96.337 Y117.737 E9.83426
G1 X95.803 Y117.832 E9.85013
G1 X95.316 Y117.878 E9.86445
G1 X94.828 Y117.844 E9.87877
G1 X94.381 Y117.738 E9.89222
G1 X94.204 Y117.797 E9.89768
G1 X93.721 Y117.874 E9.91199
G1 X93.475 Y117.883 E9.9192
G1 X93.118 Y117.881 E9.92965
G1 X92.631 Y117.838 E9.94395
G1 X92.156 Y117.717 E9.9583
G1 X91.708 Y117.52 E9.97263
G1 X91.298 Y117.253 E9.98695
G1 X91.074 Y117.048 E9.99583
G1 X90.954 Y116.97 E10.00002
G1 X90.593 Y116.639 E10.01436
G1 X90.291 Y116.254 E10.02868
G1 X90.055 Y115.825 E10.04301
G1 X89.893 Y115.363 E10.05734
G1 X89.801 Y114.809 E10.07378
G1 X89.72 Y113.653 E10.1077
G1 X89.28 Y112.593 E10.14129
G1 X89.155 Y112.206 E10.15319
G1 X89.086 Y112.065 E10.15778
G1 X88.71 Y111.029 E10.19004
G1 X88.581 Y110.557 E10.20436
G1 X88.543 Y110.289 E10.21229
G1 X88.385 Y108.622 E10.2613
G1 X88.386 Y108.048 E10.2781
G1 X88.531 Y106.562 E10.3218
G1 X88.621 Y106.069 E10.33647
G1 X89.075 Y104.392 E10.38732
G1 X89.219 Y103.981 E10.40006
G1 X89.397 Y103.571 E10.41315
G1 X89.628 Y103.14 E10.42746
G1 X89.926 Y102.751 E10.4418
G1 X90.219 Y102.469 E10.4537
G0 F1800 X90.476 Y102.775
G1 F1200 X90.695 Y102.591 E10.46207
G1 X91.069 Y102.33 E10.47542
G1 X91.482 Y102.138 E10.48875
G1 X91.922 Y102.021 E10.50208
G1 X92.164 Y101.99 E10.50922
G1 X92.71 Y101.947 E10.52525
G1 X93.165 Y101.951 E10.53857
G1 X93.613 Y102.035 E10.55191
G1 X93.663 Y102.054 E10.55348
G1 X93.747 Y102.024 E10.55609
G1 X94.196 Y101.945 E10.56943
G1 X94.834 Y101.97 E10.58812
G1 X95.241 Y102.036 E10.60019
G1 X96.04 Y101.98 E10.62363
G1 X96.222 Y101.974 E10.62896
G1 X99.369 Y101.974 E10.72107
G1 X99.564 Y101.995 E10.72681
G1 X99.814 Y101.936 E10.73433
G1 X100.269 Y101.911 E10.74766
G1 X100.55 Y101.938 E10.75593
G1 X100.594 Y101.927 E10.75725
G1 X101.048 Y101.893 E10.77058
G1 X101.554 Y101.95 E10.78548
G1 X101.855 Y102.014 E10.79449
G1 X102.278 Y101.917 E10.80719
G1 X102.737 Y101.87 E10.8207
G1 X103.193 Y101.863 E10.83404
G1 X103.474 Y101.899 E10.84234
G1 X105.236 Y102.224 E10.89478
G1 X105.4 Y102.142 E10.90015
G1 X105.855 Y102.009 E10.91402
G1 X106.39 Y101.904 E10.92998
G1 X106.923 Y101.855 E10.94564
G1 X111.527 Y101.911 E11.08041
G1 X121.515 Y98.039 E11.39394
G1 X121.953 Y97.912 E11.40729
G1 X122.406 Y97.863 E11.42063
G1 X122.86 Y97.895 E11.43395
G1 X123.303 Y98.005 E11.44731
G1 X123.719 Y98.191 E11.46065
G1 X124.096 Y98.446 E11.47397
G1 X124.294 Y98.625 E11.48178
G1 X127.642 Y101.974 E11.62038
G1 X128.477 Y101.974 E11.64482
G1 X128.931 Y102.014 E11.65816
G1 X129.371 Y102.132 E11.6715
G1 X129.783 Y102.325 E11.68481
G1 X130.156 Y102.588 E11.69817
G1 X130.477 Y102.911 E11.7115
G1 X130.736 Y103.285 E11.72481
G1 X130.966 Y103.819 E11.74183
G1 X131.398 Y105.243 E11.78539
G1 X131.492 Y105.689 E11.79873
G1 X131.51 Y105.998 E11.80779
G1 X131.511 Y113.705 E12.03336
G1 X131.471 Y114.159 E12.0467
G1 X131.353 Y114.599 E12.06003
G1 X131.159 Y115.011 E12.07336
G1 X130.897 Y115.383 E12.08668
G1 X130.403 Y115.835 E12.10628
G1 X130.196 Y115.98 E12.11368
G1 X130.089 Y116.041 E12.11728
G1 X130.059 Y116.067 E12.11844
G1 X121.072 Y122.086 E12.43503
G1 X120.672 Y122.306 E12.44839
G1 X120.241 Y122.452 E12.46171
G1 X119.791 Y122.521 E12.47503
G1 X119.335 Y122.51 E12.48838
G1 X118.888 Y122.419 E12.50173
G1 X118.577 Y122.305 E12.51143
G1 X117.149 Y121.676 E12.5571
G1 X116.752 Y121.458 E12.57036
G1 X113.328 Y119.168 E12.69092
G1 X109.526 Y119.194 E12.8022
G1 X109.071 Y119.157 E12.81557
G1 X108.713 Y119.063 E12.8264
G1 X108.64 Y119.085 E12.82863
G1 X108.195 Y119.181 E12.84196
G1 X107.882 Y119.201 E12.85114
G1 X107.371 Y119.203 E12.86609
G1 X106.917 Y119.165 E12.87943
G1 X106.467 Y119.045 E12.89306
G1 X105.997 Y118.873 E12.90771
G1 X105.606 Y118.689 E12.92035
G1 X105.503 Y118.766 E12.92412
G1 X105.097 Y118.971 E12.93743
G1 X104.66 Y119.102 E12.95078
G1 X104.247 Y119.154 E12.96297
G1 X103.472 Y119.188 E12.98567
G1 X103.017 Y119.168 E12.999
G1 X102.376 Y118.997 E13.01842
G1 X101.636 Y118.695 E13.04181
G1 X101.23 Y118.487 E13.05516
G1 X100.868 Y118.211 E13.06849
G1 X100.653 Y117.978 E13.07777
G1 X100.575 Y117.97 E13.08006
G1 X100.413 Y117.948 E13.08485
G1 X96.905 Y117.362 E13.18895
G1 X96.544 Y117.269 E13.19986
G1 X96.267 Y117.343 E13.20825
G1 X95.733 Y117.438 E13.22412
G1 X95.28 Y117.478 E13.23743
G1 X94.826 Y117.438 E13.25077
G1 X94.386 Y117.32 E13.26411
G1 X94.381 Y117.318 E13.26426
