;FLAVOR:RepRap
;TIME:2115
;Generated with Cura_SteamEngine 2.3.1
M190 S70
M104 S215
M109 S215
G28 ; home all axes
M117 Purge extruder
G92 E0 ; reset extruder
G1 Z1.0 F3000 ; move z up little to prevent scratching of surface
G1 X0.1 Y20 Z0.3 F5000.0 ; move to start-line position G1 X0.1 Y200.0 Z0.3 F1500.0 E15 ; draw 1st line
G1 X0.4 Y200.0 Z0.3 F5000.0 ; move to side a little
G1 X0.4 Y20 Z0.3 F1500.0 E30 ; draw 2nd line
G92 E0 ; reset extruder
G1 Z1.0 F3000 ; move z up little to prevent scratching of surface

M117 All systems go!
;LAYER_COUNT:25
;LAYER:0
M117 INDICATOR-Layer0
M107
G1 F4200 E-5
G0 F1800 X89.629 Y100.871 Z.16
G0 X89.233 Y101.254
;TYPE:SKIRT
G1 F4200 E0
G1 F1200 X89.629 Y100.871 E0.01612
G1 X90.076 Y100.549 E0.03225
G1 X90.565 Y100.295 E0.04838
G1 X91.086 Y100.115 E0.06451
G1 X91.387 Y100.048 E0.07354
G1 X91.624 Y100.005 E0.08059
G1 X92.171 Y99.946 E0.09669
G1 X92.722 Y99.967 E0.11283
G1 X92.878 Y99.996 E0.11747
G1 X93.519 Y99.949 E0.13628
G1 X96.059 Y100.019 E0.21066
G1 X96.08 Y100.013 E0.21129
G1 X96.626 Y99.941 E0.22741
G1 X97.177 Y99.948 E0.24354
G1 X97.231 Y99.955 E0.24514
G1 X97.389 Y99.943 E0.24977
G1 X97.905 Y99.992 E0.26494
G1 X98.186 Y99.942 E0.2733
G1 X98.173 Y99.641 E0.28212
G1 X98.197 Y98.667 E0.31063
G1 X98.251 Y98.119 E0.32675
G1 X98.383 Y97.584 E0.34288
G1 X98.591 Y97.074 E0.359
G1 X98.871 Y96.599 E0.37514
G1 X99.216 Y96.17 E0.39125
G1 X99.62 Y95.795 E0.40738
G1 X100.074 Y95.483 E0.42351
G1 X100.188 Y95.426 E0.42724
G1 X100.341 Y95.304 E0.43297
G1 X100.499 Y95.131 E0.43982
G1 X100.533 Y92.075 E0.52927
G1 X100.579 Y91.525 E0.54543
G1 X100.704 Y90.989 E0.56154
G1 X100.906 Y90.476 E0.57767
G1 X101.179 Y89.998 E0.59379
G1 X101.519 Y89.564 E0.60992
G1 X101.918 Y89.183 E0.62607
G1 X102.367 Y88.865 E0.64217
G1 X102.858 Y88.615 E0.6583
G1 X103.38 Y88.438 E0.67443
G1 X103.922 Y88.339 E0.69056
G1 X104.333 Y88.317 E0.70261
G1 X106.192 Y88.317 E0.75702
G1 X106.742 Y88.357 E0.77316
G1 X107.28 Y88.476 E0.78929
G1 X107.795 Y88.672 E0.80541
G1 X108.276 Y88.94 E0.82153
G1 X108.714 Y89.274 E0.83765
G1 X108.885 Y89.45 E0.84483
G1 X109.46 Y89.816 E0.86478
G1 X109.863 Y90.113 E0.87944
G1 X110.451 Y90.607 E0.90191
G1 X110.846 Y90.991 E0.91804
G1 X111.273 Y91.573 E0.93917
G1 X111.708 Y92.304 E0.96406
G1 X111.954 Y92.796 E0.98016
G1 X112.127 Y93.32 E0.99631
G1 X112.222 Y93.862 E1.01242
G1 X112.234 Y94.289 E1.02492
G1 X112.348 Y94.489 E1.03166
G1 X112.548 Y95.002 E1.04778
G1 X112.671 Y95.539 E1.0639
G1 X112.701 Y96.194 E1.08309
G1 X119.255 Y93.602 E1.28938
G1 X119.781 Y93.437 E1.30551
G1 X120.325 Y93.35 E1.32164
G1 X120.876 Y93.343 E1.33776
G1 X121.422 Y93.415 E1.35388
G1 X121.952 Y93.565 E1.37001
G1 X122.455 Y93.791 E1.38615
G1 X122.92 Y94.086 E1.40226
G1 X123.341 Y94.45 E1.41855
G1 X128.9 Y100.012 E1.64872
G1 X129.033 Y100.021 E1.65262
G1 X129.571 Y100.14 E1.66875
G1 X130.087 Y100.335 E1.68489
G1 X130.568 Y100.603 E1.70101
G1 X131.006 Y100.937 E1.71713
G1 X131.391 Y101.331 E1.73325
G1 X131.715 Y101.777 E1.74939
G1 X131.971 Y102.265 E1.76552
G1 X132.123 Y102.678 E1.7784
G1 X132.822 Y104.98 E1.84881
G1 X132.944 Y105.517 E1.86493
G1 X132.986 Y106.084 E1.88157
G1 X132.987 Y113.829 E2.10826
G1 X132.947 Y114.378 E2.12437
G1 X132.828 Y114.916 E2.1405
G1 X132.633 Y115.431 E2.15661
G1 X132.365 Y115.913 E2.17276
G1 X132.03 Y116.35 E2.18887
G1 X131.636 Y116.735 E2.205
G1 X131.3 Y116.988 E2.21731
G1 X121.505 Y123.539 E2.56221
G1 X121.682 Y123.779 E2.57093
G1 X121.942 Y124.265 E2.58707
G1 X122.129 Y124.784 E2.60321
G1 X122.251 Y125.427 E2.62237
G1 X122.345 Y126.356 E2.6497
G1 X122.36 Y126.907 E2.66583
G1 X122.296 Y127.454 E2.68195
G1 X122.153 Y127.987 E2.6981
G1 X121.935 Y128.493 E2.71423
G1 X121.646 Y128.962 E2.73035
G1 X121.292 Y129.384 E2.74647
G1 X120.682 Y129.894 E2.76975
G1 X119.644 Y130.591 E2.80634
G1 X119.166 Y130.864 E2.82245
G1 X118.839 Y131.002 E2.83284
G1 X117.53 Y131.484 E2.87367
G1 X117.001 Y131.636 E2.88978
G1 X116.455 Y131.711 E2.90591
G1 X115.904 Y131.705 E2.92204
G1 X115.359 Y131.62 E2.93818
G1 X114.833 Y131.457 E2.9543
G1 X114.336 Y131.22 E2.97042
G1 X113.878 Y130.913 E2.98655
G1 X113.469 Y130.543 E3.0027
G1 X113.174 Y130.194 E3.01607
G1 X112.874 Y129.793 E3.03073
G1 X112.577 Y129.329 E3.04685
G1 X112.35 Y128.827 E3.06298
G1 X112.198 Y128.298 E3.07909
G1 X112.124 Y127.752 E3.09522
G1 X112.13 Y127.201 E3.11134
G1 X112.212 Y126.679 E3.12681
G1 X105.411 Y122.133 E3.36624
G1 X103.476 Y122.134 E3.42288
G1 X102.927 Y122.094 E3.43899
G1 X102.921 Y122.093 E3.43917
G1 X102.715 Y122.136 E3.44533
G1 X102.165 Y122.171 E3.46146
G1 X101.616 Y122.125 E3.47758
G1 X101.073 Y121.983 E3.49401
G1 X100.847 Y122.048 E3.50089
G1 X100.06 Y122.126 E3.52404
G1 X99.466 Y122.123 E3.54143
G1 X98.916 Y122.08 E3.55757
G1 X98.379 Y121.959 E3.57368
G1 X98.032 Y121.834 E3.58448
G1 X97.696 Y121.695 E3.59512
G1 X97.204 Y121.448 E3.61124
G1 X96.88 Y121.222 E3.6228
G1 X95.434 Y121.007 E3.66559
G1 X95.21 Y121.051 E3.67227
G1 X94.66 Y121.079 E3.68839
G1 X94.118 Y121.024 E3.70433
G1 X94.007 Y121.048 E3.70766
G1 X93.321 Y121.081 E3.72776
G1 X93.111 Y121.072 E3.73391
G1 X92.564 Y121.008 E3.75003
G1 X92.032 Y120.866 E3.76614
G1 X91.525 Y120.649 E3.78229
G1 X91.056 Y120.36 E3.79841
G1 X90.929 Y120.254 E3.80325
G1 X90.663 Y120.063 E3.81284
G1 X90.267 Y119.68 E3.82896
G1 X89.93 Y119.243 E3.84511
G1 X89.661 Y118.763 E3.86122
G1 X89.463 Y118.248 E3.87737
G1 X89.351 Y117.706 E3.89357
G1 X89.334 Y117.671 E3.8947
G1 X87.814 Y113.999 E4.01102
G1 X87.641 Y113.476 E4.02715
G1 X87.64 Y113.469 E4.02735
G1 X87.501 Y113.094 E4.03906
G1 X87.366 Y112.38 E4.06033
G1 X87.09 Y109.361 E4.14906
G1 X87.092 Y108.646 E4.16999
G1 X87.326 Y106.247 E4.24054
G1 X87.46 Y105.551 E4.26128
G1 X88.222 Y102.94 E4.34089
G1 X88.414 Y102.424 E4.35701
G1 X88.679 Y101.941 E4.37313
G1 X89.038 Y101.472 E4.39042
G1 X89.233 Y101.254 E4.39898
G0 F1800 X89.531 Y101.52
G1 F1200 X89.907 Y101.16 E4.41421
G1 X90.334 Y100.861 E4.42947
G1 X90.802 Y100.63 E4.44475
G1 X91.458 Y100.442 E4.46472
G1 X91.695 Y100.399 E4.47177
G1 X92.213 Y100.345 E4.48701
G1 X92.734 Y100.372 E4.50228
G1 X92.849 Y100.396 E4.50572
G1 X92.855 Y100.394 E4.50591
G1 X93.508 Y100.349 E4.52506
G1 X96.121 Y100.421 E4.60157
G1 X96.244 Y100.389 E4.60529
G1 X96.762 Y100.335 E4.62054
G1 X97.125 Y100.364 E4.6312
G1 X97.476 Y100.344 E4.64149
G1 X97.931 Y100.392 E4.65488
G1 X98.351 Y100.32 E4.66735
G1 X98.626 Y100.315 E4.6754
G1 X98.573 Y99.651 E4.6949
G1 X98.597 Y98.677 E4.72341
G1 X98.65 Y98.159 E4.73865
G1 X98.781 Y97.654 E4.75392
G1 X98.988 Y97.176 E4.76917
G1 X99.266 Y96.735 E4.78443
G1 X99.607 Y96.342 E4.79966
G1 X100.005 Y96.005 E4.81492
G1 X100.424 Y95.749 E4.82929
G1 X100.6 Y95.611 E4.83584
G1 X100.889 Y95.303 E4.8482
G1 X100.897 Y95.297 E4.84849
G1 X100.933 Y92.079 E4.94269
G1 X100.979 Y91.56 E4.95794
G1 X101.104 Y91.054 E4.97319
G1 X101.304 Y90.573 E4.98844
G1 X101.576 Y90.128 E5.0037
G1 X101.912 Y89.73 E5.01895
G1 X102.305 Y89.388 E5.0342
G1 X102.746 Y89.11 E5.04945
G1 X103.224 Y88.903 E5.0647
G1 X103.729 Y88.771 E5.07998
G1 X104.333 Y88.717 E5.09773
G1 X106.192 Y88.717 E5.15214
G1 X106.712 Y88.757 E5.1674
G1 X107.219 Y88.876 E5.18265
G1 X107.702 Y89.071 E5.19789
G1 X108.15 Y89.337 E5.21314
G1 X108.552 Y89.669 E5.2284
G1 X108.641 Y89.77 E5.23234
G1 X109.245 Y90.154 E5.25329
G1 X109.606 Y90.419 E5.2664
G1 X110.194 Y90.913 E5.28887
G1 X110.566 Y91.278 E5.30413
G1 X110.929 Y91.777 E5.32219
G1 X111.364 Y92.508 E5.34709
G1 X111.595 Y92.975 E5.36234
G1 X111.753 Y93.472 E5.3776
G1 X111.832 Y93.987 E5.39285
G1 X111.832 Y94.39 E5.40464
G1 X111.999 Y94.686 E5.41459
G1 X112.182 Y95.174 E5.42985
G1 X112.288 Y95.684 E5.44509
G1 X112.309 Y96.333 E5.4641
G1 X112.28 Y96.791 E5.47753
G1 X119.402 Y93.974 E5.7017
G1 X119.9 Y93.82 E5.71695
G1 X120.416 Y93.744 E5.73222
G1 X120.937 Y93.748 E5.74747
G1 X121.452 Y93.831 E5.76274
G1 X121.947 Y93.992 E5.77797
G1 X122.413 Y94.227 E5.79325
G1 X122.837 Y94.53 E5.8085
G1 X123.058 Y94.732 E5.81726
G1 X128.724 Y100.4 E6.05184
G1 X129.004 Y100.422 E6.06006
G1 X129.511 Y100.54 E6.07529
G1 X129.995 Y100.735 E6.09057
G1 X130.443 Y101.001 E6.10581
G1 X130.845 Y101.332 E6.12106
G1 X131.192 Y101.722 E6.13634
G1 X131.475 Y102.159 E6.15157
G1 X131.74 Y102.794 E6.17171
G1 X132.439 Y105.096 E6.24213
G1 X132.552 Y105.605 E6.25739
G1 X132.586 Y106.084 E6.27144
G1 X132.587 Y113.829 E6.49813
G1 X132.547 Y114.348 E6.51337
G1 X132.428 Y114.856 E6.52864
G1 X132.233 Y115.339 E6.54388
G1 X131.967 Y115.787 E6.55913
G1 X131.635 Y116.189 E6.57439
G1 X131.077 Y116.655 E6.59567
G1 X120.915 Y123.452 E6.9535
G1 X121.226 Y123.818 E6.96756
G1 X121.498 Y124.263 E6.98282
G1 X121.698 Y124.744 E6.99807
G1 X121.853 Y125.468 E7.01974
G1 X121.947 Y126.397 E7.04707
G1 X121.959 Y126.918 E7.06232
G1 X121.892 Y127.435 E7.07758
G1 X121.747 Y127.935 E7.09282
G1 X121.527 Y128.407 E7.10806
G1 X121.237 Y128.841 E7.12334
G1 X120.884 Y129.224 E7.13859
G1 X120.459 Y129.562 E7.15448
G1 X119.421 Y130.259 E7.19107
G1 X118.968 Y130.515 E7.2063
G1 X118.701 Y130.627 E7.21478
G1 X117.392 Y131.109 E7.25561
G1 X116.89 Y131.251 E7.27088
G1 X116.373 Y131.314 E7.28612
G1 X115.852 Y131.298 E7.30138
G1 X115.34 Y131.203 E7.31662
G1 X114.848 Y131.03 E7.33188
G1 X114.389 Y130.785 E7.34711
G1 X113.972 Y130.471 E7.36239
G1 X113.495 Y129.955 E7.38296
G1 X113.195 Y129.554 E7.39761
G1 X112.915 Y129.114 E7.41288
G1 X112.706 Y128.636 E7.42815
G1 X112.573 Y128.132 E7.4434
G1 X112.518 Y127.614 E7.45865
G1 X112.543 Y127.094 E7.47389
G1 X112.648 Y126.583 E7.48916
G1 X112.677 Y126.505 E7.49159
G1 X112.622 Y126.472 E7.49347
G1 X105.532 Y121.733 E7.74307
G1 X103.476 Y121.734 E7.80325
G1 X102.956 Y121.694 E7.81852
G1 X102.917 Y121.685 E7.81969
G1 X102.633 Y121.744 E7.82818
G1 X102.113 Y121.77 E7.84342
G1 X101.594 Y121.716 E7.85869
G1 X101.067 Y121.571 E7.87469
G1 X100.683 Y121.672 E7.88631
G1 X100.062 Y121.726 E7.90455
G1 X99.468 Y121.723 E7.92194
G1 X98.948 Y121.68 E7.93721
G1 X98.442 Y121.559 E7.95244
G1 X98.185 Y121.465 E7.96045
G1 X97.849 Y121.326 E7.97109
G1 X97.384 Y121.09 E7.98635
G1 X97.039 Y120.842 E7.99879
G1 X95.423 Y120.601 E8.04661
G1 X95.104 Y120.661 E8.05611
G1 X94.583 Y120.676 E8.07137
G1 X94.129 Y120.624 E8.08474
G1 X94.097 Y120.618 E8.08569
G1 X93.868 Y120.662 E8.09252
G1 X93.338 Y120.681 E8.10804
G1 X93.128 Y120.672 E8.11419
G1 X92.611 Y120.61 E8.12943
G1 X92.109 Y120.469 E8.1447
G1 X91.635 Y120.254 E8.15993
G1 X91.199 Y119.968 E8.17519
G1 X91.162 Y119.935 E8.17664
G1 X90.813 Y119.663 E8.18959
G1 X90.455 Y119.284 E8.20485
G1 X90.16 Y118.855 E8.22009
G1 X89.933 Y118.385 E8.23537
G1 X89.781 Y117.887 E8.25061
G1 X89.727 Y117.561 E8.26028
G1 X89.704 Y117.518 E8.26171
G1 X88.184 Y113.846 E8.37803
G1 X88.033 Y113.383 E8.39228
G1 X88.011 Y113.341 E8.39367
G1 X87.848 Y112.846 E8.40892
G1 X87.764 Y112.344 E8.42382
G1 X87.488 Y109.325 E8.51255
G1 X87.49 Y108.685 E8.53128
G1 X87.724 Y106.286 E8.60183
G1 X87.844 Y105.663 E8.6204
G1 X88.606 Y103.052 E8.70001
G1 X88.79 Y102.565 E8.71525
G1 X89.046 Y102.111 E8.7305
G1 X89.336 Y101.738 E8.74433
G1 X89.531 Y101.52 E8.75289
G0 F1800 X89.634 Y102.005
G1 F1200 X89.829 Y101.787 E8.76145
G1 X90.184 Y101.45 E8.77578
G1 X90.589 Y101.175 E8.79011
G1 X91.033 Y100.97 E8.80442
G1 X91.529 Y100.835 E8.81947
G1 X91.766 Y100.792 E8.82652
G1 X92.254 Y100.744 E8.84087
G1 X92.742 Y100.776 E8.85518
G1 X92.864 Y100.805 E8.85885
G1 X92.95 Y100.784 E8.86145
G1 X93.497 Y100.749 E8.87749
G1 X96.171 Y100.823 E8.95578
G1 X96.404 Y100.768 E8.96279
G1 X96.892 Y100.734 E8.97711
G1 X97.152 Y100.76 E8.98476
G1 X97.558 Y100.747 E8.99665
G1 X97.947 Y100.794 E9.00811
G1 X98.418 Y100.716 E9.02209
G1 X98.907 Y100.714 E9.0364
G1 X99.158 Y100.747 E9.04381
G1 X99.071 Y100.5 E9.05147
G1 X98.985 Y100.018 E9.0658
G1 X98.973 Y99.661 E9.07626
G1 X98.997 Y98.687 E9.10478
G1 X99.049 Y98.2 E9.11911
G1 X99.179 Y97.729 E9.13341
G1 X99.385 Y97.284 E9.14776
G1 X99.66 Y96.879 E9.16209
G1 X99.997 Y96.524 E9.17642
G1 X100.387 Y96.229 E9.19073
G1 X100.616 Y96.108 E9.19831
G1 X100.642 Y96.081 E9.19941
G1 X100.858 Y95.917 E9.20735
G1 X100.863 Y95.91 E9.2076
G1 X101.203 Y95.558 E9.22192
G1 X101.295 Y95.49 E9.22527
G1 X101.333 Y92.083 E9.325
G1 X101.379 Y91.596 E9.33932
G1 X101.503 Y91.123 E9.35363
G1 X101.702 Y90.676 E9.36795
G1 X101.971 Y90.267 E9.38228
G1 X102.304 Y89.907 E9.39663
G1 X102.69 Y89.607 E9.41094
G1 X103.12 Y89.373 E9.42527
G1 X103.582 Y89.212 E9.43959
G1 X104.065 Y89.129 E9.45393
G1 X104.333 Y89.117 E9.46178
G1 X106.192 Y89.117 E9.51619
G1 X106.68 Y89.157 E9.53052
G1 X107.155 Y89.276 E9.54486
G1 X107.604 Y89.47 E9.55917
G1 X108.016 Y89.735 E9.57351
G1 X108.379 Y90.063 E9.58783
G1 X108.398 Y90.089 E9.58877
G1 X109.03 Y90.491 E9.6107
G1 X109.349 Y90.725 E9.62228
G1 X109.937 Y91.219 E9.64475
G1 X110.285 Y91.563 E9.65908
G1 X110.585 Y91.982 E9.67416
G1 X111.02 Y92.713 E9.69906
G1 X111.235 Y93.153 E9.71339
G1 X111.376 Y93.621 E9.7277
G1 X111.439 Y94.107 E9.74204
G1 X111.426 Y94.481 E9.75299
G1 X111.648 Y94.882 E9.76641
G1 X111.813 Y95.342 E9.78071
G1 X111.901 Y95.824 E9.79505
G1 X111.91 Y96.308 E9.80922
G1 X111.842 Y97.395 E9.8411
G1 X119.55 Y94.346 E10.08371
G1 X120.018 Y94.204 E10.09803
G1 X120.503 Y94.14 E10.11234
G1 X120.992 Y94.155 E10.12666
G1 X121.473 Y94.25 E10.14101
G1 X121.931 Y94.422 E10.15533
G1 X122.355 Y94.666 E10.16965
G1 X122.775 Y95.015 E10.18564
G1 X128.544 Y100.787 E10.42449
G1 X128.972 Y100.822 E10.43706
G1 X129.447 Y100.94 E10.45138
G1 X129.897 Y101.134 E10.46573
G1 X130.309 Y101.398 E10.48005
G1 X130.672 Y101.726 E10.49437
G1 X130.977 Y102.109 E10.5087
G1 X131.216 Y102.536 E10.52302
G1 X131.358 Y102.91 E10.53473
G1 X132.057 Y105.212 E10.60515
G1 X132.16 Y105.691 E10.61949
G1 X132.186 Y106.084 E10.63101
G1 X132.187 Y113.829 E10.8577
G1 X132.147 Y114.316 E10.872
G1 X132.028 Y114.791 E10.88634
G1 X131.834 Y115.241 E10.90068
G1 X131.569 Y115.652 E10.91499
G1 X131.241 Y116.015 E10.92931
G1 X130.855 Y116.323 E10.94376
G1 X120.256 Y123.412 E11.31698
G1 X120.442 Y123.549 E11.32374
G1 X120.784 Y123.9 E11.33808
G1 X121.063 Y124.302 E11.35241
G1 X121.274 Y124.744 E11.36674
G1 X121.41 Y125.214 E11.38106
G1 X121.455 Y125.508 E11.38977
G1 X121.549 Y126.437 E11.4171
G1 X121.558 Y126.926 E11.43141
G1 X121.488 Y127.411 E11.44575
G1 X121.34 Y127.877 E11.46006
G1 X121.118 Y128.314 E11.47441
G1 X120.828 Y128.708 E11.48873
G1 X120.477 Y129.05 E11.50307
G1 X120.236 Y129.23 E11.51188
G1 X119.198 Y129.927 E11.54847
G1 X118.563 Y130.251 E11.56934
G1 X117.254 Y130.733 E11.61017
G1 X116.782 Y130.864 E11.6245
G1 X116.295 Y130.917 E11.63884
G1 X115.807 Y130.89 E11.65315
G1 X115.329 Y130.784 E11.66748
G1 X114.875 Y130.601 E11.6818
G1 X114.456 Y130.347 E11.69614
G1 X114.085 Y130.028 E11.71047
G1 X113.815 Y129.715 E11.72256
G1 X113.515 Y129.314 E11.73722
G1 X113.255 Y128.9 E11.75153
G1 X113.065 Y128.448 E11.76588
G1 X112.952 Y127.972 E11.7802
G1 X112.917 Y127.484 E11.79452
G1 X112.963 Y126.996 E11.80887
G1 X113.087 Y126.523 E11.82318
G1 X113.179 Y126.317 E11.82978
G1 X112.844 Y126.139 E11.84089
G1 X105.654 Y121.333 E12.09401
G1 X103.476 Y121.334 E12.15776
G1 X102.988 Y121.294 E12.17209
G1 X102.919 Y121.277 E12.17417
G1 X102.553 Y121.35 E12.1851
G1 X102.064 Y121.368 E12.19942
G1 X101.578 Y121.305 E12.21376
G1 X101.158 Y121.183 E12.22656
G1 X101.073 Y121.151 E12.22922
G1 X101.001 Y121.181 E12.2315
G1 X100.524 Y121.293 E12.24585
G1 X100.064 Y121.326 E12.25934
G1 X99.47 Y121.323 E12.27673
G1 X98.982 Y121.281 E12.29107
G1 X98.338 Y121.095 E12.31068
G1 X98.002 Y120.956 E12.32133
G1 X97.567 Y120.733 E12.33564
G1 X97.199 Y120.461 E12.34903
G1 X95.423 Y120.197 E12.40158
G1 X95.002 Y120.269 E12.41408
G1 X94.513 Y120.271 E12.4284
G1 X94.201 Y120.231 E12.4376
G1 X94.1 Y120.213 E12.4406
G1 X93.734 Y120.274 E12.45146
G1 X93.356 Y120.281 E12.46253
G1 X93.146 Y120.272 E12.46868
G1 X92.66 Y120.211 E12.48302
G1 X92.19 Y120.073 E12.49736
G1 X91.75 Y119.859 E12.51168
G1 X91.416 Y119.623 E12.52365
G1 X91.347 Y119.582 E12.526
G1 X90.975 Y119.264 E12.54032
G1 X90.659 Y118.89 E12.55465
G1 X90.408 Y118.47 E12.56897
G1 X90.228 Y118.015 E12.58329
G1 X90.119 Y117.488 E12.59904
G1 X90.115 Y117.455 E12.60002
G1 X90.073 Y117.365 E12.60292
G1 X88.553 Y113.693 E12.71924
