;FLAVOR:RepRap
;TIME:1784
;Generated with Cura_SteamEngine 2.3.1
M190 S70
M104 S215
M109 S215
G28 ; home all axes
M117 Purge extruder
G92 E0 ; reset extruder
G1 Z1.0 F3000 ; move z up little to prevent scratching of surface
G1 X0.1 Y20 Z0.3 F5000.0 ; move to start-line position G1 X0.1 Y200.0 Z0.3 F1500.0 E15 ; draw 1st line
G1 X0.4 Y200.0 Z0.3 F5000.0 ; move to side a little
G1 X0.4 Y20 Z0.3 F1500.0 E30 ; draw 2nd line
G92 E0 ; reset extruder
G1 Z1.0 F3000 ; move z up little to prevent scratching of surface

M117 All systems go!
;LAYER_COUNT:23
;LAYER:0
M117 INDICATOR-Layer0
M107
G1 F4200 E-5
G0 F1800 X92.201 Y94.848 Z.16
G0 X94.106 Y93.837
;TYPE:SKIRT
G1 F4200 E0
G1 F1200 X94.137 Y93.698 E0.00417
G1 X94.333 Y93.183 E0.0203
G1 X94.601 Y92.702 E0.03641
G1 X94.937 Y92.265 E0.05255
G1 X95.331 Y91.88 E0.06867
G1 X95.778 Y91.557 E0.08481
G1 X96.266 Y91.302 E0.10093
G1 X96.786 Y91.12 E0.11705
G1 X97.327 Y91.016 E0.13318
G1 X97.875 Y91.002 E0.14922
G1 X98.026 Y90.823 E0.15608
G1 X98.438 Y90.457 E0.17221
G1 X98.899 Y90.155 E0.18834
G1 X99.398 Y89.922 E0.20446
G1 X99.926 Y89.764 E0.22059
G1 X100.662 Y89.675 E0.24229
G1 X101.657 Y89.652 E0.27142
G1 X101.731 Y89.565 E0.27476
G1 X102.196 Y89.102 E0.29396
G1 X102.835 Y88.568 E0.31834
G1 X103.283 Y88.246 E0.33449
G1 X103.772 Y87.993 E0.3506
G1 X104.292 Y87.812 E0.36672
G1 X104.834 Y87.709 E0.38286
G1 X105.129 Y87.687 E0.39152
G1 X105.807 Y87.662 E0.41138
G1 X105.99 Y87.529 E0.418
G1 X106.478 Y87.275 E0.4341
G1 X106.999 Y87.094 E0.45025
G1 X107.54 Y86.99 E0.46637
G1 X108.09 Y86.965 E0.48249
G1 X108.432 Y86.991 E0.49252
G1 X110.637 Y87.253 E0.55752
G1 X111.178 Y87.357 E0.57364
G1 X111.699 Y87.539 E0.58979
G1 X112.066 Y87.742 E0.60207
G1 X114.338 Y88.07 E0.66926
G1 X114.876 Y88.188 E0.68538
G1 X115.391 Y88.383 E0.7015
G1 X115.873 Y88.65 E0.71762
G1 X116.311 Y88.984 E0.73375
G1 X116.511 Y89.175 E0.74184
G1 X117.328 Y90.011 E0.77605
G1 X119.411 Y90.058 E0.83704
G1 X119.96 Y90.11 E0.85318
G1 X120.495 Y90.241 E0.8693
G1 X121.006 Y90.448 E0.88544
G1 X121.481 Y90.727 E0.90156
G1 X121.689 Y90.894 E0.90937
G1 X122.047 Y91.045 E0.92074
G1 X122.518 Y91.331 E0.93687
G1 X122.943 Y91.682 E0.953
G1 X123.313 Y92.09 E0.96912
G1 X123.62 Y92.548 E0.98526
G1 X123.845 Y93.019 E1.00054
G1 X124.904 Y94.013 E1.04305
G1 X125.277 Y94.418 E1.05916
G1 X125.588 Y94.873 E1.07529
G1 X125.83 Y95.368 E1.09142
G1 X125.84 Y95.397 E1.09232
G1 X126.385 Y95.994 E1.11598
G1 X126.633 Y96.155 E1.12463
G1 X127.046 Y96.519 E1.14074
G1 X127.33 Y96.843 E1.15336
G1 X128.523 Y98.372 E1.21012
G1 X128.83 Y98.83 E1.22626
G1 X129.067 Y99.328 E1.2424
G1 X129.262 Y100.008 E1.2631
G1 X129.443 Y100.973 E1.29184
G1 X129.758 Y101.326 E1.30569
G1 X130.24 Y101.96 E1.329
G1 X130.657 Y102.651 E1.35262
G1 X130.847 Y103.057 E1.36574
G1 X131.03 Y103.197 E1.37248
G1 X131.414 Y103.592 E1.38861
G1 X131.738 Y104.038 E1.40474
G1 X131.993 Y104.526 E1.42086
G1 X132.176 Y105.046 E1.43699
G1 X132.303 Y105.84 E1.46053
G1 X132.449 Y108.611 E1.54175
G1 X132.438 Y109.162 E1.55788
G1 X132.347 Y109.705 E1.57399
G1 X132.302 Y109.846 E1.57832
G1 X132.302 Y113.693 E1.69092
G1 X132.262 Y114.243 E1.70706
G1 X132.143 Y114.781 E1.72319
G1 X131.947 Y115.296 E1.73932
G1 X131.679 Y115.777 E1.75543
G1 X131.345 Y116.215 E1.77155
G1 X130.95 Y116.599 E1.78768
G1 X130.827 Y116.688 E1.79212
G1 X130.761 Y117.221 E1.80784
G1 X130.614 Y117.752 E1.82397
G1 X130.392 Y118.256 E1.84009
G1 X130.1 Y118.723 E1.85621
G1 X129.743 Y119.143 E1.87234
G1 X129.329 Y119.507 E1.88848
G1 X128.867 Y119.807 E1.9046
G1 X128.366 Y120.037 E1.92073
G1 X127.838 Y120.192 E1.93684
G1 X127.688 Y120.213 E1.94127
G1 X127.531 Y120.653 E1.95495
G1 X127.273 Y121.14 E1.97108
G1 X126.993 Y121.529 E1.98511
G1 X126.252 Y122.432 E2.0193
G1 X126.266 Y122.708 E2.02738
G1 X126.213 Y123.257 E2.04353
G1 X126.081 Y123.792 E2.05966
G1 X125.874 Y124.302 E2.07577
G1 X125.595 Y124.777 E2.09189
G1 X125.366 Y125.075 E2.10289
G1 X123.321 Y127.489 E2.19549
G1 X122.936 Y127.883 E2.21161
G1 X122.497 Y128.216 E2.22774
G1 X122.015 Y128.483 E2.24387
G1 X121.499 Y128.677 E2.26
G1 X120.961 Y128.795 E2.27612
G1 X120.464 Y128.829 E2.2907
G1 X120.158 Y129.262 E2.30622
G1 X119.778 Y129.662 E2.32237
G1 X119.345 Y130.001 E2.33847
G1 X118.867 Y130.275 E2.35459
G1 X118.354 Y130.477 E2.37073
G1 X117.817 Y130.602 E2.38687
G1 X117.268 Y130.649 E2.40299
G1 X116.517 Y130.583 E2.42506
G1 X115.674 Y130.423 E2.45017
G1 X114.279 Y131.506 E2.50186
G1 X113.821 Y131.811 E2.51797
G1 X113.323 Y132.047 E2.5341
G1 X112.796 Y132.208 E2.55023
G1 X112.251 Y132.292 E2.56637
G1 X111.7 Y132.296 E2.5825
G1 X111.155 Y132.22 E2.5986
G1 X110.805 Y132.118 E2.60927
G1 X110.598 Y132.245 E2.61638
G1 X110.091 Y132.462 E2.63252
G1 X109.559 Y132.603 E2.64863
G1 X109.011 Y132.666 E2.66478
G1 X108.46 Y132.649 E2.68091
G1 X107.918 Y132.552 E2.69703
G1 X107.395 Y132.378 E2.71316
G1 X107.13 Y132.256 E2.7217
G1 X104.757 Y131.048 E2.79963
G1 X100.529 Y130.373 E2.92495
G1 X99.992 Y130.247 E2.94109
G1 X99.48 Y130.045 E2.9572
G1 X99.002 Y129.771 E2.97333
G1 X98.655 Y129.506 E2.98611
G1 X97.978 Y128.926 E3.0122
G1 X97.448 Y128.83 E3.02797
G1 X96.925 Y128.654 E3.04412
G1 X96.434 Y128.405 E3.06023
G1 X95.983 Y128.087 E3.07638
G1 X95.584 Y127.708 E3.09249
G1 X95.243 Y127.275 E3.10862
G1 X94.969 Y126.797 E3.12475
G1 X94.767 Y126.285 E3.14086
G1 X94.696 Y125.927 E3.15154
G1 X94.336 Y125.567 E3.16644
G1 X94.007 Y125.125 E3.18257
G1 X93.746 Y124.64 E3.19869
G1 X93.557 Y124.123 E3.2148
G1 X93.445 Y123.583 E3.23094
G1 X93.419 Y123.246 E3.24084
G1 X93.324 Y123.023 E3.24793
G1 X92.896 Y122.868 E3.26125
G1 X92.411 Y122.607 E3.27737
G1 X91.969 Y122.279 E3.29348
G1 X91.578 Y121.89 E3.30963
G1 X91.248 Y121.449 E3.32575
G1 X90.913 Y120.792 E3.34733
G1 X90.857 Y120.65 E3.3518
G1 X90.66 Y120.342 E3.3625
G1 X90.566 Y120.131 E3.36926
G1 X90.294 Y119.942 E3.37896
G1 X89.891 Y119.566 E3.39509
G1 X89.547 Y119.136 E3.41121
G1 X89.269 Y118.66 E3.42734
G1 X89.062 Y118.149 E3.44348
G1 X88.932 Y117.614 E3.45959
G1 X88.894 Y117.32 E3.46827
G1 X88.679 Y114.898 E3.53944
G1 X88.346 Y114.602 E3.55248
G1 X87.991 Y114.18 E3.56862
G1 X87.701 Y113.711 E3.58476
G1 X87.482 Y113.206 E3.60087
G1 X87.338 Y112.674 E3.617
G1 X87.273 Y112.127 E3.63312
G1 X87.282 Y111.641 E3.64735
G1 X87.382 Y110.426 E3.68303
G1 X87.279 Y109.954 E3.69717
G1 X87.241 Y109.404 E3.71331
G1 X87.283 Y108.855 E3.72942
G1 X87.404 Y108.318 E3.74554
G1 X87.636 Y107.731 E3.76401
G1 X87.643 Y107.717 E3.76447
G1 X87.645 Y107.704 E3.76485
G1 X87.81 Y107.179 E3.78096
G1 X88.048 Y106.682 E3.79709
G1 X88.389 Y106.208 E3.81418
G1 X88.75 Y105.465 E3.83836
G1 X88.714 Y105.347 E3.84197
G1 X88.63 Y104.802 E3.85811
G1 X88.626 Y104.251 E3.87423
G1 X88.701 Y103.705 E3.89037
G1 X88.855 Y103.176 E3.90649
G1 X89.083 Y102.675 E3.9226
G1 X89.314 Y102.318 E3.93505
G1 X89.329 Y101.932 E3.94635
G1 X89.429 Y101.39 E3.96249
G1 X89.608 Y100.869 E3.97861
G1 X89.859 Y100.379 E3.99472
G1 X90.179 Y99.93 E4.01086
G1 X90.561 Y99.533 E4.02699
G1 X90.996 Y99.194 E4.04313
G1 X91.17 Y99.095 E4.04899
G1 X91.075 Y97.849 E4.08556
G1 X91.073 Y97.298 E4.10169
G1 X91.151 Y96.753 E4.1178
G1 X91.306 Y96.224 E4.13394
G1 X91.537 Y95.724 E4.15006
G1 X91.837 Y95.262 E4.16618
G1 X92.201 Y94.848 E4.18232
G1 X92.621 Y94.492 E4.19843
G1 X93.088 Y94.199 E4.21457
G1 X93.593 Y93.978 E4.2307
G1 X94.106 Y93.837 E4.24627
G0 F1800 X94.434 Y94.19
G1 F1200 X94.545 Y93.732 E4.26007
G1 X94.745 Y93.251 E4.27531
G1 X95.016 Y92.805 E4.29059
G1 X95.351 Y92.407 E4.30582
G1 X95.744 Y92.064 E4.32108
G1 X96.184 Y91.785 E4.33633
G1 X96.662 Y91.577 E4.35159
G1 X97.166 Y91.444 E4.36685
G1 X97.684 Y91.39 E4.38209
G1 X98.01 Y91.397 E4.39163
G1 X98.056 Y91.4 E4.39298
G1 X98.063 Y91.389 E4.39336
G1 X98.413 Y91.003 E4.40862
G1 X98.818 Y90.675 E4.42387
G1 X99.269 Y90.413 E4.43914
G1 X99.754 Y90.223 E4.45438
G1 X100.263 Y90.109 E4.46965
G1 X100.671 Y90.075 E4.48163
G1 X101.846 Y90.048 E4.51603
G1 X102.036 Y89.823 E4.52465
G1 X102.453 Y89.409 E4.54185
G1 X103.092 Y88.875 E4.56622
G1 X103.516 Y88.573 E4.58146
G1 X103.982 Y88.338 E4.59673
G1 X104.478 Y88.178 E4.61199
G1 X105.144 Y88.086 E4.63167
G1 X105.932 Y88.056 E4.65475
G1 X105.955 Y88.036 E4.65564
G1 X106.396 Y87.758 E4.6709
G1 X106.874 Y87.55 E4.68616
G1 X107.378 Y87.418 E4.7014
G1 X107.896 Y87.365 E4.71665
G1 X108.385 Y87.388 E4.73097
G1 X110.59 Y87.65 E4.79597
G1 X111.101 Y87.751 E4.81121
G1 X111.591 Y87.929 E4.82647
G1 X111.947 Y88.129 E4.83842
G1 X114.28 Y88.466 E4.90741
G1 X114.789 Y88.58 E4.92268
G1 X115.274 Y88.77 E4.93793
G1 X115.725 Y89.032 E4.95319
G1 X116.225 Y89.454 E4.97234
G1 X117.157 Y90.408 E5.01138
G1 X119.402 Y90.458 E5.0771
G1 X119.921 Y90.509 E5.09237
G1 X120.426 Y90.64 E5.10764
G1 X120.904 Y90.846 E5.12287
G1 X121.346 Y91.122 E5.13812
G1 X121.473 Y91.232 E5.14304
G1 X121.94 Y91.441 E5.15802
G1 X122.378 Y91.724 E5.17328
G1 X122.767 Y92.07 E5.18852
G1 X123.099 Y92.472 E5.20378
G1 X123.365 Y92.92 E5.21903
G1 X123.493 Y93.237 E5.22903
G1 X124.63 Y94.304 E5.27467
G1 X124.982 Y94.689 E5.28994
G1 X125.271 Y95.123 E5.3052
G1 X125.49 Y95.596 E5.32046
G1 X125.496 Y95.615 E5.32104
G1 X126.121 Y96.299 E5.34816
G1 X126.413 Y96.491 E5.35839
G1 X126.8 Y96.84 E5.37364
G1 X127.015 Y97.089 E5.38327
G1 X128.208 Y98.618 E5.44003
G1 X128.496 Y99.053 E5.4553
G1 X128.714 Y99.526 E5.47054
G1 X128.869 Y100.082 E5.48744
G1 X129.071 Y101.158 E5.51948
G1 X129.084 Y101.17 E5.52
G1 X129.44 Y101.568 E5.53563
G1 X129.922 Y102.202 E5.55894
G1 X130.295 Y102.82 E5.58007
G1 X130.522 Y103.307 E5.59579
G1 X130.868 Y103.592 E5.60891
G1 X131.214 Y103.982 E5.62417
G1 X131.497 Y104.42 E5.63944
G1 X131.71 Y104.895 E5.65467
G1 X131.847 Y105.398 E5.66993
G1 X131.903 Y105.861 E5.68358
G1 X132.049 Y108.632 E5.7648
G1 X132.037 Y109.153 E5.78005
G1 X131.945 Y109.666 E5.79531
G1 X131.902 Y109.791 E5.79918
G1 X131.902 Y113.693 E5.91338
G1 X131.862 Y114.213 E5.92865
G1 X131.743 Y114.72 E5.94389
G1 X131.548 Y115.203 E5.95914
G1 X131.282 Y115.651 E5.97439
G1 X130.95 Y116.053 E5.98965
G1 X130.56 Y116.399 E6.0049
G1 X130.438 Y116.478 E6.00916
G1 X130.429 Y116.653 E6.01429
G1 X130.363 Y117.17 E6.02954
G1 X130.218 Y117.671 E6.04481
G1 X129.998 Y118.143 E6.06005
G1 X129.709 Y118.577 E6.07531
G1 X129.357 Y118.961 E6.09056
G1 X128.95 Y119.287 E6.10582
G1 X128.498 Y119.547 E6.12108
G1 X128.012 Y119.734 E6.13632
G1 X127.503 Y119.846 E6.15158
G1 X127.364 Y119.851 E6.15565
G1 X127.315 Y120.082 E6.16256
G1 X127.13 Y120.569 E6.17781
G1 X126.872 Y121.022 E6.19307
G1 X126.684 Y121.275 E6.20229
G1 X125.85 Y122.293 E6.24081
G1 X125.854 Y122.319 E6.24158
G1 X125.86 Y122.84 E6.25683
G1 X125.786 Y123.356 E6.27209
G1 X125.635 Y123.855 E6.28735
G1 X125.409 Y124.324 E6.30259
G1 X125.061 Y124.817 E6.32025
G1 X123.016 Y127.231 E6.41285
G1 X122.65 Y127.601 E6.42808
G1 X122.231 Y127.912 E6.44335
G1 X121.77 Y128.154 E6.45859
G1 X121.277 Y128.324 E6.47386
G1 X120.764 Y128.416 E6.48911
G1 X120.243 Y128.428 E6.50436
G1 X120.225 Y128.426 E6.50489
G1 X120.058 Y128.725 E6.51492
G1 X119.738 Y129.136 E6.53016
G1 X119.359 Y129.494 E6.54542
G1 X118.93 Y129.789 E6.56066
G1 X118.461 Y130.016 E6.57591
G1 X117.962 Y130.168 E6.59118
G1 X117.446 Y130.242 E6.60644
G1 X116.925 Y130.236 E6.62169
G1 X116.591 Y130.19 E6.63155
G1 X115.571 Y129.997 E6.66194
G1 X114.034 Y131.19 E6.71889
G1 X113.599 Y131.477 E6.73414
G1 X113.125 Y131.694 E6.7494
G1 X112.624 Y131.836 E6.76464
G1 X112.107 Y131.9 E6.77989
G1 X111.586 Y131.885 E6.79514
G1 X111.073 Y131.789 E6.81042
G1 X110.761 Y131.68 E6.82009
G1 X110.364 Y131.915 E6.83359
G1 X109.881 Y132.11 E6.84884
G1 X109.373 Y132.229 E6.86411
G1 X108.854 Y132.269 E6.87935
G1 X108.334 Y132.229 E6.89461
G1 X107.827 Y132.11 E6.90985
G1 X107.312 Y131.899 E6.92614
G1 X104.884 Y130.663 E7.00589
G1 X100.592 Y129.978 E7.1331
G1 X100.085 Y129.857 E7.14835
G1 X99.603 Y129.66 E7.16359
G1 X99.156 Y129.391 E7.17886
G1 X98.916 Y129.203 E7.18779
G1 X98.145 Y128.542 E7.21751
G1 X98.032 Y128.53 E7.22084
G1 X97.52 Y128.435 E7.23608
G1 X97.028 Y128.263 E7.25133
G1 X96.568 Y128.018 E7.26659
G1 X96.151 Y127.705 E7.28185
G1 X95.787 Y127.332 E7.2971
G1 X95.484 Y126.908 E7.31236
G1 X95.249 Y126.443 E7.32761
G1 X95.088 Y125.947 E7.34287
G1 X95.046 Y125.691 E7.35046
G1 X94.883 Y125.56 E7.35658
G1 X94.532 Y125.175 E7.37183
G1 X94.243 Y124.741 E7.38709
G1 X94.025 Y124.267 E7.40236
G1 X93.881 Y123.766 E7.41762
G1 X93.813 Y123.16 E7.43547
G1 X93.812 Y123.132 E7.43629
G1 X93.767 Y123.055 E7.4389
G1 X93.622 Y122.69 E7.45039
G1 X93.496 Y122.664 E7.45416
G1 X93.008 Y122.48 E7.46942
G1 X92.555 Y122.223 E7.48467
G1 X92.145 Y121.901 E7.49993
G1 X91.79 Y121.519 E7.51519
G1 X91.498 Y121.088 E7.53043
G1 X91.285 Y120.645 E7.54482
G1 X91.218 Y120.475 E7.55016
G1 X90.986 Y120.102 E7.56302
G1 X90.885 Y119.869 E7.57045
G1 X90.854 Y119.853 E7.57147
G1 X90.437 Y119.54 E7.58674
G1 X90.072 Y119.167 E7.60201
G1 X89.769 Y118.743 E7.61726
G1 X89.535 Y118.278 E7.6325
G1 X89.374 Y117.782 E7.64776
G1 X89.292 Y117.284 E7.66253
G1 X89.061 Y114.683 E7.73896
G1 X88.869 Y114.544 E7.7459
G1 X88.499 Y114.177 E7.76115
G1 X88.189 Y113.758 E7.77641
G1 X87.947 Y113.297 E7.79165
G1 X87.778 Y112.804 E7.8069
G1 X87.686 Y112.291 E7.82216
G1 X87.68 Y111.673 E7.84025
G1 X87.785 Y110.388 E7.87798
G1 X87.772 Y110.352 E7.8791
G1 X87.668 Y109.842 E7.89434
G1 X87.642 Y109.321 E7.9096
G1 X87.697 Y108.803 E7.92485
G1 X87.83 Y108.299 E7.94011
G1 X87.995 Y107.908 E7.95253
G1 X88.03 Y107.838 E7.95482
G1 X88.041 Y107.768 E7.95689
G1 X88.203 Y107.273 E7.97214
G1 X88.438 Y106.808 E7.98739
G1 X88.741 Y106.397 E8.00233
G1 X89.179 Y105.498 E8.0316
G1 X89.098 Y105.23 E8.0398
G1 X89.025 Y104.714 E8.05505
G1 X89.032 Y104.193 E8.0703
G1 X89.118 Y103.679 E8.08555
G1 X89.282 Y103.184 E8.10082
G1 X89.519 Y102.72 E8.11607
G1 X89.707 Y102.464 E8.12536
G1 X89.729 Y101.949 E8.14045
G1 X89.831 Y101.437 E8.15573
G1 X90.01 Y100.948 E8.17097
G1 X90.261 Y100.491 E8.18623
G1 X90.579 Y100.079 E8.20146
G1 X90.957 Y99.719 E8.21674
G1 X91.385 Y99.422 E8.23199
G1 X91.589 Y99.323 E8.23863
G1 X91.474 Y97.819 E8.28278
G1 X91.474 Y97.297 E8.29805
G1 X91.554 Y96.782 E8.31331
G1 X91.711 Y96.286 E8.32854
G1 X91.943 Y95.819 E8.3438
G1 X92.243 Y95.393 E8.35905
G1 X92.605 Y95.018 E8.3743
G1 X93.02 Y94.702 E8.38957
G1 X93.478 Y94.454 E8.40481
G1 X93.969 Y94.279 E8.42007
G1 X94.434 Y94.19 E8.43393
G0 F1800 X94.793 Y94.578
G1 F1200 X94.827 Y94.245 E8.44373
G1 X94.955 Y93.772 E8.45807
G1 X95.158 Y93.327 E8.47238
G1 X95.43 Y92.92 E8.48671
G1 X95.765 Y92.563 E8.50104
G1 X96.154 Y92.266 E8.51537
G1 X96.586 Y92.036 E8.52969
G1 X97.05 Y91.879 E8.54403
G1 X97.533 Y91.799 E8.55836
G1 X97.983 Y91.796 E8.57153
G1 X98.26 Y91.815 E8.57965
G1 X98.454 Y91.542 E8.58946
G1 X98.799 Y91.194 E8.6038
G1 X99.195 Y90.908 E8.6181
G1 X99.633 Y90.689 E8.63243
G1 X100.101 Y90.545 E8.64676
G1 X100.68 Y90.475 E8.66383
G1 X102.036 Y90.444 E8.70353
G1 X102.342 Y90.082 E8.7174
G1 X102.709 Y89.716 E8.73257
G1 X103.348 Y89.182 E8.75695
G1 X103.748 Y88.9 E8.77127
G1 X104.189 Y88.686 E8.78562
G1 X104.658 Y88.547 E8.79994
G1 X105.159 Y88.486 E8.81471
G1 X106.086 Y88.451 E8.84186
G1 X106.365 Y88.239 E8.85212
G1 X106.797 Y88.009 E8.86644
G1 X107.261 Y87.852 E8.88078
G1 X107.744 Y87.774 E8.8951
G1 X108.338 Y87.785 E8.91249
G1 X110.543 Y88.047 E8.97748
G1 X111.023 Y88.144 E8.99181
G1 X111.48 Y88.318 E9.00612
G1 X111.822 Y88.515 E9.01768
G1 X114.223 Y88.862 E9.08868
G1 X114.7 Y88.971 E9.103
G1 X115.153 Y89.157 E9.11734
G1 X115.57 Y89.413 E9.13166
G1 X115.939 Y89.734 E9.14597
G1 X116.985 Y90.804 E9.18977
G1 X119.393 Y90.858 E9.26027
G1 X119.88 Y90.909 E9.2746
G1 X120.352 Y91.038 E9.28892
G1 X120.797 Y91.242 E9.30325
G1 X121.203 Y91.516 E9.31758
G1 X121.288 Y91.597 E9.32102
G1 X121.385 Y91.625 E9.32397
G1 X121.827 Y91.836 E9.33831
G1 X122.229 Y92.116 E9.35265
G1 X122.579 Y92.458 E9.36697
G1 X122.87 Y92.851 E9.38128
G1 X123.092 Y93.287 E9.3956
G1 X123.14 Y93.455 E9.40072
G1 X124.356 Y94.596 E9.44952
G1 X124.685 Y94.959 E9.46386
G1 X124.95 Y95.37 E9.47818
G1 X125.12 Y95.796 E9.4916
G1 X125.859 Y96.605 E9.52367
G1 X126.192 Y96.826 E9.53537
G1 X126.699 Y97.336 E9.55642
G1 X127.892 Y98.865 E9.61318
G1 X128.161 Y99.274 E9.62751
G1 X128.359 Y99.721 E9.64182
