;FLAVOR:Marlin
;TIME:2820
;Filament used: 1.4388m
;Layer height: 0.16
;Generated with Cura_SteamEngine 3.6.0
M140 S70
M105
M190 S70
M104 S215
M105
M109 S215
M82 ;absolute extrusion mode
G28 ; home all axes
M117 Purge extruder
G92 E0 ; reset extruder
G1 Z1.0 F3000 ; move z up little to prevent scratching of surface
G1 X0.1 Y20 Z0.3 F5000.0 ; move to start-line position G1 X0.1 Y200.0 Z0.3 F1500.0 E15 ; draw 1st line
G1 X0.4 Y200.0 Z0.3 F5000.0 ; move to side a little
G1 X0.4 Y20 Z0.3 F1500.0 E30 ; draw 2nd line
G92 E0 ; reset extruder
G1 Z1.0 F3000 ; move z up little to prevent scratching of surface
M117 All systems go!
G92 E0
G1 F6000 E-5
;LAYER_COUNT:80
;LAYER:0
M107
M204 S5000
M205 X30 Y30
G0 F7200 X131.296 Y103.582 Z0.2
M204 S500
M205 X20 Y20
;TYPE:SKIRT
G1 F6000 E0
G1 F900 X131.751 Y103.138 E0.02326
G1 X132.497 Y102.603 E0.05685
G1 X132.763 Y102.447 E0.06813
G1 X133.331 Y102.161 E0.09139
G1 X133.93 Y101.948 E0.11465
G1 X134.551 Y101.811 E0.13792
G1 X135.308 Y101.752 E0.1657
G1 X147.497 Y101.716 E0.61165
G1 X148.132 Y101.754 E0.63492
G1 X148.757 Y101.872 E0.65819
G1 X149.485 Y102.116 E0.68629
G1 X149.896 Y102.29 E0.70261
G1 X150.465 Y102.575 E0.7259
G1 X150.993 Y102.928 E0.74913
G1 X151.474 Y103.345 E0.77242
G1 X151.975 Y103.919 E0.8003
G1 X152.159 Y104.165 E0.81154
G1 X152.507 Y104.697 E0.8348
G1 X152.786 Y105.269 E0.85808
G1 X153.044 Y106.086 E0.88943
G1 X153.111 Y106.384 E0.9006
G1 X153.211 Y107.012 E0.92387
G1 X153.234 Y107.503 E0.94185
G1 X153.2 Y127.728 E1.68181
G1 X153.159 Y128.362 E1.70505
G1 X153.039 Y128.987 E1.72833
G1 X152.841 Y129.591 E1.75159
G1 X152.554 Y130.192 E1.77596
G1 X152.41 Y130.449 E1.78673
G1 X152.065 Y130.984 E1.81002
G1 X151.656 Y131.47 E1.83326
G1 X151.189 Y131.902 E1.85654
G1 X150.853 Y132.152 E1.87186
G1 X150.546 Y132.362 E1.88547
G1 X149.999 Y132.688 E1.90877
G1 X149.417 Y132.942 E1.932
G1 X148.806 Y133.121 E1.95529
G1 X148.179 Y133.222 E1.97853
G1 X147.704 Y133.246 E1.99593
G1 X135.504 Y133.283 E2.44228
G1 X134.87 Y133.245 E2.46552
G1 X134.026 Y133.067 E2.49708
G1 X133.738 Y132.98 E2.50808
G1 X133.142 Y132.758 E2.53135
G1 X132.578 Y132.463 E2.55464
G1 X131.855 Y131.932 E2.58746
G1 X131.627 Y131.731 E2.59858
G1 X131.177 Y131.281 E2.62186
G1 X130.787 Y130.778 E2.64515
G1 X130.389 Y130.077 E2.67464
G1 X130.261 Y129.803 E2.68571
G1 X130.028 Y129.211 E2.70898
G1 X129.872 Y128.594 E2.73227
G1 X129.785 Y127.666 E2.76637
G1 X129.765 Y107.516 E3.50358
G1 X129.804 Y106.881 E3.52685
G1 X129.864 Y106.515 E3.54042
G1 X129.923 Y106.221 E3.55139
G1 X130.087 Y105.607 E3.57465
G1 X130.327 Y105.018 E3.59792
G1 X130.729 Y104.33 E3.62707
G1 X130.85 Y104.156 E3.63482
G0 F810 X130.902 Y104.081
G0 X131.296 Y103.582
M204 S5000
M205 X30 Y30
G0 F7200 X131.642 Y103.857
M204 S500
M205 X20 Y20
G1 F6000 E3.66142
G1 F900 X132.079 Y103.435 E3.68365
G1 X132.72 Y102.983 E3.71234
G1 X132.986 Y102.827 E3.72362
G1 X133.529 Y102.555 E3.74584
G1 X134.103 Y102.356 E3.76807
G1 X134.699 Y102.234 E3.79033
G1 X135.309 Y102.192 E3.8127
G1 X147.498 Y102.156 E4.25865
G1 X148.105 Y102.194 E4.2809
G1 X148.701 Y102.312 E4.30313
G1 X149.313 Y102.522 E4.3268
G1 X149.724 Y102.696 E4.34313
G1 X150.267 Y102.969 E4.36537
G1 X150.769 Y103.311 E4.38759
G1 X151.222 Y103.716 E4.40982
G1 X151.623 Y104.183 E4.43234
G1 X151.807 Y104.429 E4.44358
G1 X152.138 Y104.938 E4.46579
G1 X152.399 Y105.487 E4.48803
G1 X152.614 Y106.183 E4.51469
G1 X152.681 Y106.481 E4.52586
G1 X152.775 Y107.081 E4.54808
G1 X152.794 Y107.502 E4.5635
G1 X152.76 Y127.727 E5.30345
G1 X152.719 Y128.333 E5.32568
G1 X152.599 Y128.929 E5.34792
G1 X152.402 Y129.503 E5.37012
G1 X152.17 Y129.977 E5.38943
G1 X152.026 Y130.234 E5.40021
G1 X151.695 Y130.744 E5.42245
G1 X151.3 Y131.205 E5.44466
G1 X150.604 Y131.789 E5.4779
G1 X150.297 Y131.999 E5.49151
G1 X149.774 Y132.309 E5.51375
G1 X149.215 Y132.547 E5.53598
G1 X148.63 Y132.709 E5.55819
G1 X148.028 Y132.794 E5.58043
G1 X147.703 Y132.806 E5.59233
G1 X135.503 Y132.843 E6.03869
G1 X134.897 Y132.805 E6.0609
G1 X134.153 Y132.646 E6.08874
G1 X133.865 Y132.559 E6.09974
G1 X133.296 Y132.345 E6.12198
G1 X132.76 Y132.059 E6.14421
G1 X132.146 Y131.602 E6.17221
G1 X131.918 Y131.401 E6.18333
G1 X131.489 Y130.97 E6.20558
G1 X131.121 Y130.486 E6.22783
G1 X130.787 Y129.89 E6.25282
G1 X130.659 Y129.616 E6.26389
G1 X130.439 Y129.05 E6.28611
G1 X130.295 Y128.46 E6.30833
G1 X130.225 Y127.666 E6.33749
G1 X130.205 Y107.516 E7.0747
G1 X130.244 Y106.909 E7.09695
G1 X130.295 Y106.602 E7.10834
G1 X130.354 Y106.308 E7.11931
G1 X130.513 Y105.721 E7.14156
G1 X130.747 Y105.161 E7.16376
G1 X131.09 Y104.581 E7.18842
G1 X131.195 Y104.43 E7.19515
G0 F810 X131.263 Y104.332
G0 X131.642 Y103.857
M204 S5000
M205 X30 Y30
G0 F7200 X131.986 Y104.132
M204 S500
M205 X20 Y20
G1 F6000 E7.22174
G1 F900 X132.406 Y103.736 E7.24286
G1 X132.942 Y103.362 E7.26677
G1 X133.208 Y103.206 E7.27806
G1 X133.726 Y102.949 E7.29921
G1 X134.274 Y102.766 E7.32035
G1 X134.842 Y102.66 E7.34149
G1 X135.311 Y102.632 E7.35868
G1 X147.5 Y102.596 E7.80463
G1 X148.076 Y102.634 E7.82575
G1 X148.642 Y102.752 E7.8469
G1 X149.142 Y102.927 E7.86628
G1 X149.553 Y103.101 E7.88261
G1 X150.068 Y103.362 E7.90374
G1 X150.542 Y103.692 E7.92487
G1 X150.967 Y104.085 E7.94604
G1 X151.27 Y104.446 E7.96329
G1 X151.454 Y104.692 E7.97453
G1 X151.768 Y105.178 E7.9957
G1 X152.011 Y105.702 E8.01683
G1 X152.185 Y106.279 E8.03888
G1 X152.252 Y106.577 E8.05005
G1 X152.34 Y107.148 E8.07119
G1 X152.354 Y107.501 E8.08412
G1 X152.32 Y127.726 E8.82407
G1 X152.279 Y128.303 E8.84523
G1 X152.159 Y128.868 E8.86637
G1 X151.962 Y129.411 E8.8875
G1 X151.787 Y129.762 E8.90185
G1 X151.643 Y130.019 E8.91263
G1 X151.326 Y130.503 E8.9338
G1 X150.946 Y130.938 E8.95493
G1 X150.356 Y131.426 E8.98294
G1 X150.049 Y131.636 E8.99655
G1 X149.551 Y131.929 E9.01769
G1 X149.017 Y132.15 E9.03883
G1 X148.457 Y132.295 E9.06
G1 X147.702 Y132.366 E9.08774
G1 X135.502 Y132.403 E9.53409
G1 X134.925 Y132.365 E9.55525
G1 X134.28 Y132.224 E9.5794
G1 X133.992 Y132.137 E9.59041
G1 X133.452 Y131.932 E9.61154
G1 X132.945 Y131.655 E9.63268
G1 X132.437 Y131.272 E9.65596
G1 X132.209 Y131.071 E9.66708
G1 X131.803 Y130.659 E9.68824
G1 X131.457 Y130.196 E9.70939
G1 X131.186 Y129.704 E9.72994
G1 X131.058 Y129.43 E9.741
G1 X130.85 Y128.891 E9.76214
G1 X130.719 Y128.328 E9.78329
G1 X130.665 Y127.665 E9.80762
G1 X130.645 Y107.515 E10.54484
G1 X130.727 Y106.689 E10.5752
G1 X130.786 Y106.395 E10.58618
G1 X130.938 Y105.837 E10.60733
G1 X131.166 Y105.306 E10.62848
G1 X131.451 Y104.832 E10.64871
G1 X131.539 Y104.705 E10.65436
G0 F810 X131.624 Y104.583
G0 X131.986 Y104.132
M204 S5000
M205 X30 Y30
G0 F7200 X132.329 Y104.409
M204 S500
M205 X20 Y20
G1 F6000 E10.68096
G1 F900 X132.732 Y104.039 E10.70098
G1 X133.165 Y103.742 E10.72019
G1 X133.431 Y103.586 E10.73147
G1 X133.921 Y103.345 E10.75145
G1 X134.442 Y103.177 E10.77148
G1 X134.981 Y103.088 E10.79146
G1 X135.312 Y103.072 E10.80359
G1 X147.501 Y103.036 E11.24954
G1 X148.046 Y103.074 E11.26953
G1 X148.58 Y103.192 E11.28953
G1 X148.97 Y103.332 E11.3047
G1 X149.381 Y103.506 E11.32102
G1 X149.868 Y103.755 E11.34104
G1 X150.312 Y104.073 E11.36102
G1 X150.706 Y104.452 E11.38102
G1 X150.918 Y104.71 E11.39323
G1 X151.102 Y104.956 E11.40447
G1 X151.396 Y105.416 E11.42445
G1 X151.621 Y105.915 E11.44447
G1 X151.756 Y106.376 E11.46205
G1 X151.823 Y106.674 E11.47322
G1 X151.904 Y107.214 E11.4932
G1 X151.914 Y107.5 E11.50367
G1 X151.88 Y127.725 E12.24363
G1 X151.839 Y128.27 E12.26362
G1 X151.719 Y128.804 E12.28365
G1 X151.403 Y129.547 E12.31319
G1 X151.259 Y129.804 E12.32396
G1 X150.957 Y130.26 E12.34398
G1 X150.593 Y130.667 E12.36395
G1 X150.108 Y131.063 E12.38686
G1 X149.801 Y131.273 E12.40047
G1 X149.328 Y131.548 E12.42049
G1 X148.821 Y131.751 E12.44047
G1 X148.289 Y131.878 E12.46048
G1 X147.7 Y131.926 E12.4821
G1 X135.5 Y131.963 E12.92845
G1 X134.955 Y131.925 E12.94844
G1 X134.407 Y131.803 E12.96898
G1 X134.119 Y131.716 E12.97999
G1 X133.609 Y131.52 E12.99998
G1 X133.133 Y131.252 E13.01996
G1 X132.728 Y130.941 E13.03864
G1 X132.5 Y130.74 E13.04976
G1 X132.117 Y130.35 E13.06976
G1 X131.796 Y129.908 E13.08975
G1 X131.585 Y129.518 E13.10597
G1 X131.457 Y129.244 E13.11704
G1 X131.262 Y128.733 E13.13705
G1 X131.144 Y128.199 E13.15705
G1 X131.105 Y127.665 E13.17664
G1 X131.085 Y107.515 E13.91385
G1 X131.158 Y106.775 E13.94106
G1 X131.217 Y106.481 E13.95203
G1 X131.364 Y105.954 E13.97205
G1 X131.585 Y105.455 E13.99201
G1 X131.813 Y105.083 E14.00798
G1 X131.883 Y104.982 E14.01247
G0 F810 X131.986 Y104.834
G0 X132.329 Y104.409
M204 S5000
M205 X30 Y30
G0 F7200 X132.672 Y104.688
M204 S500
M205 X20 Y20
G1 F6000 E14.03907
G1 F900 X133.054 Y104.345 E14.05785
G1 X133.388 Y104.121 E14.07257
G1 X133.654 Y103.965 E14.08385
G1 X134.115 Y103.741 E14.1026
G1 X134.606 Y103.591 E14.12138
G1 X135.313 Y103.512 E14.14741
G1 X147.502 Y103.476 E14.59336
G1 X148.014 Y103.514 E14.61215
G1 X148.514 Y103.632 E14.63094
G1 X148.799 Y103.737 E14.64205
G1 X149.21 Y103.911 E14.65838
G1 X149.665 Y104.147 E14.67714
G1 X150.079 Y104.452 E14.69595
G1 X150.566 Y104.973 E14.72204
G1 X150.75 Y105.219 E14.73328
G1 X151.024 Y105.653 E14.75206
G1 X151.228 Y106.124 E14.77084
G1 X151.327 Y106.472 E14.78407
G1 X151.394 Y106.77 E14.79525
G1 X151.474 Y107.5 E14.82212
G1 X151.44 Y127.725 E15.56207
G1 X151.399 Y128.236 E15.58083
G1 X151.28 Y128.736 E15.59963
G1 X151.019 Y129.332 E15.62344
G1 X150.875 Y129.589 E15.63422
G1 X150.59 Y130.016 E15.653
G1 X150.242 Y130.394 E15.6718
G1 X149.859 Y130.7 E15.68973
G1 X149.552 Y130.91 E15.70334
G1 X149.107 Y131.166 E15.72212
G1 X148.628 Y131.35 E15.7409
G1 X148.126 Y131.457 E15.75967
G1 X147.699 Y131.486 E15.77533
G1 X135.499 Y131.523 E16.22169
G1 X134.987 Y131.485 E16.24047
G1 X134.535 Y131.382 E16.25743
G1 X134.247 Y131.295 E16.26844
G1 X133.768 Y131.109 E16.28724
G1 X133.325 Y130.851 E16.30599
G1 X133.019 Y130.611 E16.32022
G1 X132.791 Y130.41 E16.33134
G1 X132.433 Y130.042 E16.35012
G1 X132.137 Y129.623 E16.36889
G1 X131.983 Y129.332 E16.38094
G1 X131.855 Y129.058 E16.392
G1 X131.675 Y128.577 E16.41079
G1 X131.571 Y128.074 E16.42959
G1 X131.545 Y127.664 E16.44462
G1 X131.525 Y107.514 E17.18183
G1 X131.59 Y106.862 E17.2058
G1 X131.649 Y106.568 E17.21677
G1 X131.788 Y106.074 E17.23555
G1 X132.003 Y105.607 E17.25436
G1 X132.174 Y105.334 E17.26614
G1 X132.225 Y105.26 E17.26943
G0 F810 X132.347 Y105.085
G0 X132.672 Y104.688
M204 S5000
M205 X30 Y30
G0 F7200 X133.013 Y104.968
M204 S500
M205 X20 Y20
G1 F6000 E17.29603
G1 F900 X133.374 Y104.655 E17.31351
G1 X133.61 Y104.501 E17.32382
G1 X133.876 Y104.345 E17.3351
G1 X134.307 Y104.138 E17.35259
G1 X134.767 Y104.007 E17.37009
G1 X135.315 Y103.952 E17.39024
G1 X147.504 Y103.916 E17.83619
G1 X147.98 Y103.955 E17.85367
G1 X148.627 Y104.142 E17.87831
G1 X149.038 Y104.316 E17.89463
G1 X149.461 Y104.539 E17.91213
G1 X149.841 Y104.829 E17.92962
G1 X150.213 Y105.237 E17.94982
G1 X150.397 Y105.483 E17.96106
G1 X150.651 Y105.888 E17.97855
G1 X150.833 Y106.33 E17.99604
G1 X150.897 Y106.569 E18.00509
G1 X150.964 Y106.867 E18.01626
G1 X151.034 Y107.499 E18.03953
G1 X151 Y127.724 E18.77948
G1 X150.959 Y128.2 E18.79696
G1 X150.84 Y128.663 E18.81445
G1 X150.635 Y129.117 E18.83268
G1 X150.491 Y129.374 E18.84346
G1 X150.223 Y129.77 E18.86095
G1 X149.894 Y130.116 E18.87842
G1 X149.611 Y130.337 E18.89156
G1 X149.304 Y130.547 E18.90516
G1 X148.888 Y130.782 E18.92264
G1 X148.439 Y130.946 E18.94013
G1 X147.969 Y131.032 E18.95761
G1 X147.698 Y131.046 E18.96754
G1 X135.498 Y131.083 E19.41389
G1 X135.021 Y131.045 E19.4314
G1 X134.662 Y130.961 E19.44489
G1 X134.374 Y130.874 E19.4559
G1 X133.93 Y130.698 E19.47337
G1 X133.521 Y130.45 E19.49087
G1 X133.31 Y130.281 E19.50076
G1 X133.082 Y130.08 E19.51188
G1 X132.751 Y129.735 E19.52937
G1 X132.382 Y129.145 E19.55483
G1 X132.254 Y128.871 E19.5659
G1 X132.088 Y128.423 E19.58338
G1 X132 Y127.953 E19.60087
G1 X131.985 Y127.664 E19.61146
G1 X131.965 Y107.514 E20.34867
G1 X132.021 Y106.948 E20.36948
G1 X132.08 Y106.654 E20.38045
G1 X132.213 Y106.195 E20.39794
G1 X132.535 Y105.585 E20.42317
G1 X132.566 Y105.541 E20.42514
G0 F810 X132.708 Y105.336
G0 X133.013 Y104.968
M204 S5000
M205 X30 Y30
G0 F7200 X133.352 Y105.25
M204 S500
M205 X20 Y20
G1 F6000 E20.45174
G1 F900 X133.833 Y104.881 E20.47392
G1 X134.099 Y104.725 E20.4852
G1 X134.497 Y104.537 E20.5013
G1 X134.922 Y104.426 E20.51738
G1 X135.316 Y104.392 E20.53184
G1 X147.505 Y104.356 E20.97779
G1 X147.943 Y104.395 E20.99388
G1 X148.455 Y104.547 E21.01342
G1 X148.866 Y104.721 E21.02975
G1 X149.254 Y104.929 E21.04586
G1 X149.598 Y105.203 E21.06195
G1 X149.861 Y105.501 E21.07649
G1 X150.045 Y105.747 E21.08773
G1 X150.275 Y106.121 E21.10379
G1 X150.468 Y106.665 E21.12491
G1 X150.535 Y106.963 E21.13609
G1 X150.594 Y107.498 E21.15578
G1 X150.56 Y127.723 E21.89573
G1 X150.519 Y128.161 E21.91183
G1 X150.4 Y128.584 E21.92791
G1 X150.251 Y128.902 E21.94075
G1 X150.107 Y129.159 E21.95153
G1 X149.858 Y129.521 E21.96761
G1 X149.548 Y129.833 E21.9837
G1 X149.362 Y129.973 E21.99221
G1 X149.055 Y130.183 E22.00582
G1 X148.671 Y130.398 E22.02192
G1 X148.255 Y130.539 E22.03799
G1 X147.696 Y130.606 E22.05859
G1 X135.496 Y130.643 E22.50495
G1 X135.058 Y130.604 E22.52103
G1 X134.789 Y130.54 E22.53115
G1 X134.501 Y130.453 E22.54216
G1 X134.094 Y130.288 E22.55823
G1 X133.601 Y129.951 E22.58007
G1 X133.373 Y129.75 E22.59119
G1 X133.071 Y129.431 E22.60727
G1 X132.78 Y128.959 E22.62755
G1 X132.652 Y128.685 E22.63862
G1 X132.503 Y128.272 E22.65468
G1 X132.425 Y127.663 E22.67714
G1 X132.405 Y107.513 E23.41435
G1 X132.452 Y107.035 E23.43193
G1 X132.511 Y106.741 E23.4429
G1 X132.637 Y106.32 E23.45898
G1 X132.897 Y105.836 E23.47908
G1 X132.906 Y105.823 E23.47965
G0 F810 X133.07 Y105.587
G0 X133.352 Y105.25
M204 S5000
M205 X30 Y30
G0 F7200 X133.689 Y105.536
M204 S500
M205 X20 Y20
G1 F6000 E23.50625
G1 F900 X134.055 Y105.26 E23.52302
G1 X134.321 Y105.104 E23.53431
G1 X134.683 Y104.938 E23.54888
G1 X135.07 Y104.848 E23.56341
G1 X135.317 Y104.832 E23.57247
G1 X147.506 Y104.796 E24.01842
G1 X147.902 Y104.835 E24.03298
G1 X148.284 Y104.953 E24.04761
G1 X148.695 Y105.127 E24.06393
G1 X149.044 Y105.318 E24.07849
G1 X149.347 Y105.574 E24.093
G1 X149.509 Y105.764 E24.10214
G1 X149.693 Y106.01 E24.11338
G1 X149.897 Y106.351 E24.12791
G1 X150.039 Y106.762 E24.14382
G1 X150.106 Y107.06 E24.155
G1 X150.154 Y107.497 E24.17108
G1 X150.12 Y127.722 E24.91104
G1 X150.079 Y128.118 E24.9256
G1 X149.961 Y128.497 E24.94013
G1 X149.867 Y128.687 E24.94788
G1 X149.723 Y128.944 E24.95866
G1 X149.495 Y129.269 E24.97319
G1 X149.114 Y129.61 E24.99189
G1 X148.807 Y129.82 E25.0055
G1 X148.458 Y130.011 E25.02006
G1 X148.078 Y130.127 E25.03459
G1 X147.695 Y130.166 E25.04868
G1 X135.495 Y130.203 E25.49503
G1 X134.916 Y130.118 E25.51644
G1 X134.628 Y130.031 E25.52745
G1 X134.261 Y129.879 E25.54198
G1 X133.892 Y129.621 E25.55845
G1 X133.664 Y129.42 E25.56957
G1 X133.393 Y129.129 E25.58412
G1 X133.179 Y128.773 E25.59932
G1 X133.051 Y128.499 E25.61038
G1 X132.92 Y128.124 E25.62492
G1 X132.865 Y127.663 E25.6419
G1 X132.845 Y107.513 E26.37911
G1 X132.884 Y107.121 E26.39353
G1 X132.943 Y106.827 E26.4045
G1 X133.06 Y106.448 E26.41901
G1 X133.245 Y106.11 E26.43311
G0 F810 X133.258 Y106.087
G0 X133.431 Y105.838
G0 X133.689 Y105.536
M204 S5000
M205 X30 Y30
G0 F7200 X134.024 Y105.826
M204 S500
M205 X20 Y20
G1 F6000 E26.4597
G1 F900 X134.278 Y105.64 E26.47122
G1 X134.544 Y105.484 E26.4825
G1 X134.864 Y105.342 E26.49531
G1 X135.318 Y105.272 E26.51212
G1 X147.507 Y105.236 E26.95807
G1 X147.856 Y105.275 E26.97092
G1 X148.112 Y105.358 E26.98076
G1 X148.523 Y105.532 E26.99709
G1 X148.828 Y105.704 E27.0099
G1 X149.156 Y106.028 E27.02677
G1 X149.34 Y106.274 E27.03801
G1 X149.517 Y106.576 E27.05082
G1 X149.609 Y106.858 E27.06167
G1 X149.676 Y107.156 E27.07284
G1 X149.714 Y107.497 E27.0854
G1 X149.68 Y127.722 E27.82535
G1 X149.64 Y128.07 E27.83817
G1 X149.483 Y128.472 E27.85396
G1 X149.339 Y128.729 E27.86474
G1 X149.135 Y129.013 E27.87753
G1 X148.865 Y129.247 E27.8906
G1 X148.558 Y129.457 E27.90421
G1 X148.249 Y129.621 E27.91701
G1 X147.91 Y129.71 E27.92983
G1 X147.694 Y129.726 E27.93776
