;FLAVOR:Marlin
;TIME:2100
;Filament used: 0.711953m
;Layer height: 0.1
;Generated with Cura_SteamEngine 3.6.0
M140 S70
M105
M190 S70
M104 S215
M105
M109 S215
M82 ;absolute extrusion mode
G28 ; home all axes
M117 Purge extruder
G92 E0 ; reset extruder
G1 Z1.0 F3000 ; move z up little to prevent scratching of surface
G1 X0.1 Y20 Z0.3 F5000.0 ; move to start-line position G1 X0.1 Y200.0 Z0.3 F1500.0 E15 ; draw 1st line
G1 X0.4 Y200.0 Z0.3 F5000.0 ; move to side a little
G1 X0.4 Y20 Z0.3 F1500.0 E30 ; draw 2nd line
G92 E0 ; reset extruder
G1 Z1.0 F3000 ; move z up little to prevent scratching of surface
M117 All systems go!
G92 E0
G1 F6000 E-5
;LAYER_COUNT:127
;LAYER:0
M107
M204 S5000
M205 X30 Y30
G0 F7200 X83.751 Y103.138 Z0.2
M204 S500
M205 X20 Y20
;TYPE:SKIRT
G1 F6000 E0
G1 F900 X84.497 Y102.603 E0.03359
G1 X84.763 Y102.447 E0.04487
G1 X85.331 Y102.161 E0.06814
G1 X85.93 Y101.948 E0.09139
G1 X86.551 Y101.811 E0.11466
G1 X87.308 Y101.752 E0.14244
G1 X99.497 Y101.716 E0.58839
G1 X100.132 Y101.754 E0.61166
G1 X100.757 Y101.872 E0.63494
G1 X101.485 Y102.116 E0.66303
G1 X101.896 Y102.29 E0.67935
G1 X102.465 Y102.575 E0.70264
G1 X102.993 Y102.928 E0.72587
G1 X103.474 Y103.345 E0.74917
G1 X103.975 Y103.919 E0.77704
G1 X104.159 Y104.165 E0.78828
G1 X104.507 Y104.697 E0.81154
G1 X104.786 Y105.269 E0.83482
G1 X105.044 Y106.086 E0.86617
G1 X105.111 Y106.384 E0.87734
G1 X105.211 Y107.012 E0.90061
G1 X105.234 Y107.503 E0.91859
G1 X105.2 Y127.728 E1.65855
G1 X105.159 Y128.362 E1.68179
G1 X105.039 Y128.987 E1.70508
G1 X104.841 Y129.591 E1.72833
G1 X104.554 Y130.192 E1.7527
G1 X104.41 Y130.449 E1.76348
G1 X104.065 Y130.984 E1.78677
G1 X103.656 Y131.47 E1.81001
G1 X103.189 Y131.902 E1.83328
G1 X102.853 Y132.152 E1.8486
G1 X102.546 Y132.362 E1.86221
G1 X101.999 Y132.688 E1.88551
G1 X101.417 Y132.942 E1.90874
G1 X100.806 Y133.121 E1.93203
G1 X100.179 Y133.222 E1.95527
G1 X99.704 Y133.246 E1.97267
G1 X87.504 Y133.283 E2.41902
G1 X86.87 Y133.245 E2.44226
G1 X86.026 Y133.067 E2.47382
G1 X85.738 Y132.98 E2.48483
G1 X85.142 Y132.758 E2.50809
G1 X84.578 Y132.463 E2.53138
G1 X83.855 Y131.932 E2.5642
G1 X83.627 Y131.731 E2.57532
G1 X83.177 Y131.281 E2.5986
G1 X82.787 Y130.778 E2.62189
G1 X82.389 Y130.077 E2.65138
G1 X82.261 Y129.803 E2.66245
G1 X82.028 Y129.211 E2.68572
G1 X81.872 Y128.594 E2.70901
G1 X81.785 Y127.666 E2.74311
G1 X81.765 Y107.516 E3.48032
G1 X81.804 Y106.881 E3.5036
G1 X81.864 Y106.515 E3.51716
G1 X81.923 Y106.221 E3.52814
G1 X82.087 Y105.607 E3.55139
G1 X82.327 Y105.018 E3.57466
G1 X82.729 Y104.33 E3.60381
G1 X82.902 Y104.081 E3.6149
G1 X83.239 Y103.654 E3.6348
G0 F810 X83.296 Y103.582
G0 X83.751 Y103.138
M204 S5000
M205 X30 Y30
G0 F7200 X84.079 Y103.435
M204 S500
M205 X20 Y20
G1 F6000 E3.6614
G1 F900 X84.72 Y102.983 E3.6901
G1 X84.986 Y102.827 E3.70138
G1 X85.529 Y102.555 E3.7236
G1 X86.103 Y102.356 E3.74583
G1 X86.699 Y102.234 E3.76808
G1 X87.309 Y102.192 E3.79045
G1 X99.498 Y102.156 E4.2364
G1 X100.105 Y102.194 E4.25866
G1 X100.701 Y102.312 E4.28088
G1 X101.313 Y102.522 E4.30456
G1 X101.724 Y102.696 E4.32089
G1 X102.267 Y102.969 E4.34312
G1 X102.769 Y103.311 E4.36535
G1 X103.222 Y103.716 E4.38758
G1 X103.623 Y104.183 E4.4101
G1 X103.807 Y104.429 E4.42134
G1 X104.138 Y104.938 E4.44355
G1 X104.399 Y105.487 E4.46579
G1 X104.614 Y106.183 E4.49244
G1 X104.681 Y106.481 E4.50362
G1 X104.775 Y107.081 E4.52584
G1 X104.794 Y107.502 E4.54125
G1 X104.76 Y127.727 E5.28121
G1 X104.719 Y128.333 E5.30343
G1 X104.599 Y128.929 E5.32567
G1 X104.402 Y129.503 E5.34788
G1 X104.17 Y129.977 E5.36718
G1 X104.026 Y130.234 E5.37796
G1 X103.695 Y130.744 E5.40021
G1 X103.3 Y131.205 E5.42242
G1 X102.604 Y131.789 E5.45566
G1 X102.297 Y131.999 E5.46927
G1 X101.774 Y132.309 E5.49151
G1 X101.215 Y132.547 E5.51374
G1 X100.63 Y132.709 E5.53595
G1 X100.028 Y132.794 E5.55819
G1 X99.703 Y132.806 E5.57009
G1 X87.503 Y132.843 E6.01644
G1 X86.897 Y132.805 E6.03866
G1 X86.153 Y132.646 E6.06649
G1 X85.865 Y132.559 E6.0775
G1 X85.296 Y132.345 E6.09974
G1 X84.76 Y132.059 E6.12197
G1 X84.146 Y131.602 E6.14997
G1 X83.918 Y131.401 E6.16109
G1 X83.489 Y130.97 E6.18334
G1 X83.121 Y130.486 E6.20558
G1 X82.787 Y129.89 E6.23058
G1 X82.659 Y129.616 E6.24164
G1 X82.439 Y129.05 E6.26386
G1 X82.295 Y128.46 E6.28608
G1 X82.225 Y127.666 E6.31524
G1 X82.205 Y107.516 E7.05245
G1 X82.244 Y106.909 E7.07471
G1 X82.295 Y106.602 E7.08609
G1 X82.354 Y106.308 E7.09706
G1 X82.513 Y105.721 E7.11931
G1 X82.747 Y105.161 E7.14152
G1 X83.09 Y104.581 E7.16617
G1 X83.263 Y104.332 E7.17726
G1 X83.568 Y103.95 E7.19515
G0 F810 X83.642 Y103.857
G0 X84.079 Y103.435
M204 S5000
M205 X30 Y30
G0 F7200 X84.406 Y103.736
M204 S500
M205 X20 Y20
G1 F6000 E7.22175
G1 F900 X84.942 Y103.362 E7.24566
G1 X85.208 Y103.206 E7.25694
G1 X85.726 Y102.949 E7.2781
G1 X86.274 Y102.766 E7.29923
G1 X86.842 Y102.66 E7.32037
G1 X87.311 Y102.632 E7.33756
G1 X99.5 Y102.596 E7.78351
G1 X100.076 Y102.634 E7.80463
G1 X100.642 Y102.752 E7.82579
G1 X101.142 Y102.927 E7.84517
G1 X101.553 Y103.101 E7.8615
G1 X102.068 Y103.362 E7.88262
G1 X102.542 Y103.692 E7.90375
G1 X102.967 Y104.085 E7.92493
G1 X103.27 Y104.446 E7.94217
G1 X103.454 Y104.692 E7.95341
G1 X103.768 Y105.178 E7.97458
G1 X104.011 Y105.702 E7.99571
G1 X104.185 Y106.279 E8.01776
G1 X104.252 Y106.577 E8.02894
G1 X104.34 Y107.148 E8.05007
G1 X104.354 Y107.501 E8.063
G1 X104.32 Y127.726 E8.80296
G1 X104.279 Y128.303 E8.82412
G1 X104.159 Y128.868 E8.84525
G1 X103.962 Y129.411 E8.86638
G1 X103.787 Y129.762 E8.88073
G1 X103.643 Y130.019 E8.89151
G1 X103.326 Y130.503 E8.91268
G1 X102.946 Y130.938 E8.93381
G1 X102.356 Y131.426 E8.96182
G1 X102.049 Y131.636 E8.97543
G1 X101.551 Y131.929 E8.99657
G1 X101.017 Y132.15 E9.01772
G1 X100.457 Y132.295 E9.03888
G1 X99.702 Y132.366 E9.06662
G1 X87.502 Y132.403 E9.51298
G1 X86.925 Y132.365 E9.53413
G1 X86.28 Y132.224 E9.55829
G1 X85.992 Y132.137 E9.5693
G1 X85.452 Y131.932 E9.59043
G1 X84.945 Y131.655 E9.61157
G1 X84.437 Y131.272 E9.63484
G1 X84.209 Y131.071 E9.64596
G1 X83.803 Y130.659 E9.66712
G1 X83.457 Y130.196 E9.68827
G1 X83.186 Y129.704 E9.70882
G1 X83.058 Y129.43 E9.71989
G1 X82.85 Y128.891 E9.74102
G1 X82.719 Y128.328 E9.76217
G1 X82.665 Y127.665 E9.78651
G1 X82.645 Y107.515 E10.52372
G1 X82.727 Y106.689 E10.55409
G1 X82.786 Y106.395 E10.56506
G1 X82.938 Y105.837 E10.58622
G1 X83.166 Y105.306 E10.60736
G1 X83.451 Y104.832 E10.6276
G1 X83.624 Y104.583 E10.63869
G1 X83.893 Y104.249 E10.65438
G0 F810 X83.986 Y104.132
G0 X84.406 Y103.736
M204 S5000
M205 X30 Y30
G0 F7200 X84.732 Y104.039
M204 S500
M205 X20 Y20
G1 F6000 E10.68098
G1 F900 X85.165 Y103.742 E10.70019
G1 X85.431 Y103.586 E10.71147
G1 X85.921 Y103.345 E10.73145
G1 X86.442 Y103.177 E10.75148
G1 X86.981 Y103.088 E10.77146
G1 X87.312 Y103.072 E10.78359
G1 X99.501 Y103.036 E11.22954
G1 X100.046 Y103.074 E11.24953
G1 X100.58 Y103.192 E11.26953
G1 X100.97 Y103.332 E11.28469
G1 X101.381 Y103.506 E11.30102
G1 X101.868 Y103.755 E11.32103
G1 X102.312 Y104.073 E11.34101
G1 X102.706 Y104.452 E11.36102
G1 X102.918 Y104.71 E11.37323
G1 X103.102 Y104.956 E11.38447
G1 X103.396 Y105.416 E11.40445
G1 X103.621 Y105.915 E11.42447
G1 X103.756 Y106.376 E11.44205
G1 X103.823 Y106.674 E11.45322
G1 X103.904 Y107.214 E11.4732
G1 X103.914 Y107.5 E11.48367
G1 X103.88 Y127.725 E12.22363
G1 X103.839 Y128.27 E12.24362
G1 X103.719 Y128.804 E12.26365
G1 X103.403 Y129.547 E12.29319
G1 X103.259 Y129.804 E12.30396
G1 X102.957 Y130.26 E12.32397
G1 X102.593 Y130.667 E12.34395
G1 X102.108 Y131.063 E12.36686
G1 X101.801 Y131.273 E12.38047
G1 X101.328 Y131.548 E12.40048
G1 X100.821 Y131.751 E12.42047
G1 X100.289 Y131.878 E12.44048
G1 X99.7 Y131.926 E12.4621
G1 X87.5 Y131.963 E12.90845
G1 X86.955 Y131.925 E12.92844
G1 X86.407 Y131.803 E12.94898
G1 X86.119 Y131.716 E12.95998
G1 X85.609 Y131.52 E12.97997
G1 X85.133 Y131.252 E12.99996
G1 X84.728 Y130.941 E13.01864
G1 X84.5 Y130.74 E13.02976
G1 X84.117 Y130.35 E13.04976
G1 X83.796 Y129.908 E13.06975
G1 X83.585 Y129.518 E13.08597
G1 X83.457 Y129.244 E13.09703
G1 X83.262 Y128.733 E13.11704
G1 X83.144 Y128.199 E13.13705
G1 X83.105 Y127.665 E13.15664
G1 X83.085 Y107.515 E13.89385
G1 X83.158 Y106.775 E13.92106
G1 X83.217 Y106.481 E13.93203
G1 X83.364 Y105.954 E13.95205
G1 X83.585 Y105.455 E13.97201
G1 X83.813 Y105.083 E13.98798
G1 X83.986 Y104.834 E13.99907
G1 X84.216 Y104.549 E14.01247
G0 F810 X84.329 Y104.409
G0 X84.732 Y104.039
M204 S5000
M205 X30 Y30
G0 F7200 X85.054 Y104.345
M204 S500
M205 X20 Y20
G1 F6000 E14.03907
G1 F900 X85.388 Y104.121 E14.05378
G1 X85.654 Y103.965 E14.06506
G1 X86.115 Y103.741 E14.08381
G1 X86.606 Y103.591 E14.1026
G1 X87.313 Y103.512 E14.12862
G1 X99.502 Y103.476 E14.57457
G1 X100.014 Y103.514 E14.59336
G1 X100.514 Y103.632 E14.61215
G1 X100.799 Y103.737 E14.62327
G1 X101.21 Y103.911 E14.63959
G1 X101.665 Y104.147 E14.65835
G1 X102.079 Y104.452 E14.67716
G1 X102.566 Y104.973 E14.70325
G1 X102.75 Y105.219 E14.71449
G1 X103.024 Y105.653 E14.73327
G1 X103.228 Y106.124 E14.75205
G1 X103.327 Y106.472 E14.76529
G1 X103.394 Y106.77 E14.77646
G1 X103.474 Y107.5 E14.80333
G1 X103.44 Y127.725 E15.54328
G1 X103.399 Y128.236 E15.56204
G1 X103.28 Y128.736 E15.58084
G1 X103.019 Y129.332 E15.60465
G1 X102.875 Y129.589 E15.61543
G1 X102.59 Y130.016 E15.63421
G1 X102.242 Y130.394 E15.65301
G1 X101.859 Y130.7 E15.67094
G1 X101.552 Y130.91 E15.68455
G1 X101.107 Y131.166 E15.70333
G1 X100.628 Y131.35 E15.72211
G1 X100.126 Y131.457 E15.74089
G1 X99.699 Y131.486 E15.75654
G1 X87.499 Y131.523 E16.2029
G1 X86.987 Y131.485 E16.22168
G1 X86.535 Y131.382 E16.23864
G1 X86.247 Y131.295 E16.24965
G1 X85.768 Y131.109 E16.26845
G1 X85.325 Y130.851 E16.2872
G1 X85.019 Y130.611 E16.30143
G1 X84.791 Y130.41 E16.31255
G1 X84.433 Y130.042 E16.33134
G1 X84.137 Y129.623 E16.35011
G1 X83.983 Y129.332 E16.36215
G1 X83.855 Y129.058 E16.37322
G1 X83.675 Y128.577 E16.39201
G1 X83.571 Y128.074 E16.4108
G1 X83.545 Y127.664 E16.42583
G1 X83.525 Y107.514 E17.16304
G1 X83.59 Y106.862 E17.18701
G1 X83.649 Y106.568 E17.19798
G1 X83.788 Y106.074 E17.21676
G1 X84.003 Y105.607 E17.23557
G1 X84.174 Y105.334 E17.24735
G1 X84.347 Y105.085 E17.25845
G1 X84.537 Y104.853 E17.26942
G0 F810 X84.672 Y104.688
G0 X85.054 Y104.345
M204 S5000
M205 X30 Y30
G0 F7200 X85.374 Y104.655
M204 S500
M205 X20 Y20
G1 F6000 E17.29601
G1 F900 X85.61 Y104.501 E17.30632
G1 X85.876 Y104.345 E17.31761
G1 X86.307 Y104.138 E17.3351
G1 X86.767 Y104.007 E17.3526
G1 X87.315 Y103.952 E17.37275
G1 X99.504 Y103.916 E17.8187
G1 X99.98 Y103.955 E17.83617
G1 X100.627 Y104.142 E17.86081
G1 X101.038 Y104.316 E17.87714
G1 X101.461 Y104.539 E17.89464
G1 X101.841 Y104.829 E17.91213
G1 X102.213 Y105.237 E17.93233
G1 X102.397 Y105.483 E17.94356
G1 X102.651 Y105.888 E17.96106
G1 X102.833 Y106.33 E17.97854
G1 X102.897 Y106.569 E17.9876
G1 X102.964 Y106.867 E17.99877
G1 X103.034 Y107.499 E18.02203
G1 X103 Y127.724 E18.76199
G1 X102.959 Y128.2 E18.77947
G1 X102.84 Y128.663 E18.79696
G1 X102.635 Y129.117 E18.81518
G1 X102.491 Y129.374 E18.82596
G1 X102.223 Y129.77 E18.84346
G1 X101.894 Y130.116 E18.86092
G1 X101.611 Y130.337 E18.87406
G1 X101.304 Y130.547 E18.88767
G1 X100.888 Y130.782 E18.90515
G1 X100.439 Y130.946 E18.92264
G1 X99.969 Y131.032 E18.94012
G1 X99.698 Y131.046 E18.95005
G1 X87.498 Y131.083 E19.3964
G1 X87.021 Y131.045 E19.41391
G1 X86.662 Y130.961 E19.4274
G1 X86.374 Y130.874 E19.4384
G1 X85.93 Y130.698 E19.45588
G1 X85.521 Y130.45 E19.47338
G1 X85.31 Y130.281 E19.48327
G1 X85.082 Y130.08 E19.49439
G1 X84.751 Y129.735 E19.51188
G1 X84.382 Y129.145 E19.53734
G1 X84.254 Y128.871 E19.54841
G1 X84.088 Y128.423 E19.56589
G1 X84 Y127.953 E19.58338
G1 X83.985 Y127.664 E19.59397
G1 X83.965 Y107.514 E20.33118
G1 X84.021 Y106.948 E20.35199
G1 X84.08 Y106.654 E20.36296
G1 X84.213 Y106.195 E20.38044
G1 X84.535 Y105.585 E20.40568
G1 X84.708 Y105.336 E20.41677
G1 X84.854 Y105.16 E20.42514
G0 F810 X85.013 Y104.968
G0 X85.374 Y104.655
M204 S5000
M205 X30 Y30
G0 F7200 X85.352 Y105.25
M204 S500
M205 X20 Y20
G1 F6000 E20.45174
G1 F900 X85.833 Y104.881 E20.47391
G1 X86.099 Y104.725 E20.4852
G1 X86.497 Y104.537 E20.5013
G1 X86.922 Y104.426 E20.51737
G1 X87.316 Y104.392 E20.53184
G1 X99.505 Y104.356 E20.97779
G1 X99.943 Y104.395 E20.99388
G1 X100.455 Y104.547 E21.01342
G1 X100.866 Y104.721 E21.02975
G1 X101.254 Y104.929 E21.04585
G1 X101.598 Y105.203 E21.06194
G1 X101.861 Y105.501 E21.07649
G1 X102.045 Y105.747 E21.08773
G1 X102.275 Y106.121 E21.10379
G1 X102.468 Y106.665 E21.12491
G1 X102.535 Y106.963 E21.13608
G1 X102.594 Y107.498 E21.15577
G1 X102.56 Y127.723 E21.89573
G1 X102.519 Y128.161 E21.91183
G1 X102.4 Y128.584 E21.9279
G1 X102.251 Y128.902 E21.94075
G1 X102.107 Y129.159 E21.95153
G1 X101.858 Y129.521 E21.9676
G1 X101.548 Y129.833 E21.98369
G1 X101.362 Y129.973 E21.99221
G1 X101.055 Y130.183 E22.00582
G1 X100.671 Y130.398 E22.02192
G1 X100.255 Y130.539 E22.03799
G1 X99.696 Y130.606 E22.05859
G1 X87.496 Y130.643 E22.50494
G1 X87.058 Y130.604 E22.52103
G1 X86.789 Y130.54 E22.53115
G1 X86.501 Y130.453 E22.54215
G1 X86.094 Y130.288 E22.55822
G1 X85.601 Y129.951 E22.58007
G1 X85.373 Y129.75 E22.59119
G1 X85.071 Y129.431 E22.60726
G1 X84.78 Y128.959 E22.62755
G1 X84.652 Y128.685 E22.63861
G1 X84.503 Y128.272 E22.65468
G1 X84.425 Y127.663 E22.67714
G1 X84.405 Y107.513 E23.41435
G1 X84.452 Y107.035 E23.43192
G1 X84.511 Y106.741 E23.44289
G1 X84.637 Y106.32 E23.45897
G1 X84.897 Y105.836 E23.47907
G1 X84.906 Y105.823 E23.47965
G0 F810 X85.07 Y105.587
G0 X85.352 Y105.25
M204 S5000
M205 X30 Y30
G0 F7200 X85.689 Y105.536
M204 S500
M205 X20 Y20
G1 F6000 E23.50625
G1 F900 X86.055 Y105.26 E23.52302
G1 X86.321 Y105.104 E23.5343
G1 X86.683 Y104.938 E23.54887
G1 X87.07 Y104.848 E23.56341
G1 X87.317 Y104.832 E23.57247
G1 X99.506 Y104.796 E24.01842
G1 X99.902 Y104.835 E24.03297
G1 X100.284 Y104.953 E24.0476
G1 X100.695 Y105.127 E24.06393
G1 X101.044 Y105.318 E24.07849
G1 X101.347 Y105.574 E24.093
G1 X101.509 Y105.764 E24.10213
G1 X101.693 Y106.01 E24.11337
G1 X101.897 Y106.351 E24.12791
G1 X102.039 Y106.762 E24.14382
G1 X102.106 Y107.06 E24.155
G1 X102.154 Y107.497 E24.17108
G1 X102.12 Y127.722 E24.91104
G1 X102.079 Y128.118 E24.9256
G1 X101.961 Y128.497 E24.94012
G1 X101.867 Y128.687 E24.94788
G1 X101.723 Y128.944 E24.95866
G1 X101.495 Y129.269 E24.97318
G1 X101.114 Y129.61 E24.99189
G1 X100.807 Y129.82 E25.0055
G1 X100.458 Y130.011 E25.02005
G1 X100.078 Y130.127 E25.03459
G1 X99.695 Y130.166 E25.04867
G1 X87.495 Y130.203 E25.49503
G1 X86.916 Y130.118 E25.51644
G1 X86.628 Y130.031 E25.52744
G1 X86.261 Y129.879 E25.54198
G1 X85.892 Y129.621 E25.55845
G1 X85.664 Y129.42 E25.56957
G1 X85.393 Y129.129 E25.58412
G1 X85.179 Y128.773 E25.59932
G1 X85.051 Y128.499 E25.61038
G1 X84.92 Y128.124 E25.62491
G1 X84.865 Y127.663 E25.6419
G1 X84.845 Y107.513 E26.37911
G1 X84.884 Y107.121 E26.39352
G1 X84.943 Y106.827 E26.40449
G1 X85.06 Y106.448 E26.41901
G1 X85.245 Y106.11 E26.4331
G0 F810 X85.258 Y106.087
G0 X85.431 Y105.838
G0 X85.689 Y105.536
M204 S5000
M205 X30 Y30
G0 F7200 X86.024 Y105.826
M204 S500
M205 X20 Y20
G1 F6000 E26.4597
G1 F900 X86.278 Y105.64 E26.47122
G1 X86.544 Y105.484 E26.4825
G1 X86.864 Y105.342 E26.49531
G1 X87.318 Y105.272 E26.51212
G1 X99.507 Y105.236 E26.95807
G1 X99.856 Y105.275 E26.97091
G1 X100.112 Y105.358 E26.98076
G1 X100.523 Y105.532 E26.99709
G1 X100.828 Y105.704 E27.0099
G1 X101.156 Y106.028 E27.02677
G1 X101.34 Y106.274 E27.03801
G1 X101.517 Y106.576 E27.05081
G1 X101.609 Y106.858 E27.06167
G1 X101.676 Y107.156 E27.07284
G1 X101.714 Y107.497 E27.08539
G1 X101.68 Y127.722 E27.82535
G1 X101.64 Y128.07 E27.83817
G1 X101.483 Y128.472 E27.85396
G1 X101.339 Y128.729 E27.86473
G1 X101.135 Y129.013 E27.87753
G1 X100.865 Y129.247 E27.8906
G1 X100.558 Y129.457 E27.90421
G1 X100.249 Y129.621 E27.91701
G1 X99.91 Y129.71 E27.92983
G1 X99.694 Y129.726 E27.93775
G1 X87.494 Y129.763 E28.38411
G1 X87.044 Y129.697 E28.40075
G1 X86.756 Y129.61 E28.41175
G1 X86.434 Y129.471 E28.42458
G1 X86.183 Y129.291 E28.43589
G1 X85.955 Y129.09 E28.44701
G1 X85.72 Y128.83 E28.45983
G1 X85.578 Y128.587 E28.47012
G1 X85.45 Y128.313 E28.48119
