;FLAVOR:RepRap
;TIME:3569
;Generated with Cura_SteamEngine 2.3.1
M190 S70
M104 S200
M109 S200
G28 ; home all axes
M117 Purge extruder
G92 E0 ; reset extruder
G1 Z1.0 F3000 ; move z up little to prevent scratching of surface
G1 X0.1 Y20 Z0.3 F5000.0 ; move to start-line position G1 X0.1 Y200.0 Z0.3 F1500.0 E15 ; draw 1st line
G1 X0.4 Y200.0 Z0.3 F5000.0 ; move to side a little
G1 X0.4 Y20 Z0.3 F1500.0 E30 ; draw 2nd line
G92 E0 ; reset extruder
G1 Z1.0 F3000 ; move z up little to prevent scratching of surface
M117 All systems go!
;LAYER_COUNT:200
;LAYER:0
M117 INDICATOR-Layer0
M107
G1 F4200 E-5
G0 F1800 X99.761 Y93.371 Z.16
G0 X99.411 Y93.797
;TYPE:SKIRT
G1 F4200 E0
G1 F1200 X99.761 Y93.371 E0.01614
G1 X100.168 Y93 E0.03226
G1 X100.626 Y92.692 E0.04841
G1 X101.122 Y92.454 E0.06451
G1 X101.648 Y92.29 E0.08064
G1 X102.192 Y92.204 E0.09676
G1 X102.514 Y92.19 E0.10619
G1 X114.815 Y92.19 E0.46623
G1 X115.365 Y92.23 E0.48237
G1 X115.903 Y92.349 E0.4985
G1 X116.418 Y92.545 E0.51463
G1 X116.899 Y92.813 E0.53074
G1 X117.337 Y93.147 E0.54686
G1 X117.721 Y93.542 E0.56299
G1 X117.918 Y93.796 E0.5724
G1 X119.917 Y96.623 E0.67374
G1 X120.201 Y97.095 E0.68986
G1 X120.415 Y97.603 E0.70599
G1 X120.553 Y98.136 E0.72211
G1 X120.614 Y98.817 E0.74212
G1 X120.614 Y118.186 E1.30903
G1 X120.574 Y118.736 E1.32517
G1 X120.455 Y119.274 E1.3413
G1 X120.259 Y119.789 E1.35742
G1 X120.21 Y119.877 E1.36037
G1 X120.433 Y120.184 E1.37148
G1 X120.688 Y120.672 E1.38759
G1 X120.871 Y121.192 E1.40373
G1 X120.976 Y121.733 E1.41986
G1 X121.003 Y122.186 E1.43314
G1 X121.003 Y122.56 E1.44409
G1 X120.963 Y123.11 E1.46023
G1 X120.844 Y123.648 E1.47636
G1 X120.648 Y124.163 E1.49248
G1 X120.38 Y124.644 E1.5086
G1 X120.046 Y125.082 E1.52472
G1 X119.651 Y125.466 E1.54085
G1 X119.205 Y125.79 E1.55698
G1 X118.717 Y126.045 E1.5731
G1 X118.197 Y126.228 E1.58923
G1 X117.656 Y126.333 E1.60536
G1 X117.203 Y126.36 E1.61864
G1 X100.297 Y126.361 E2.11346
G1 X99.748 Y126.321 E2.12957
G1 X99.21 Y126.202 E2.1457
G1 X98.695 Y126.007 E2.16182
G1 X98.213 Y125.739 E2.17796
G1 X97.775 Y125.404 E2.1941
G1 X97.391 Y125.009 E2.21023
G1 X97.06 Y124.552 E2.22674
G1 X96.83 Y124.178 E2.23959
G1 X96.576 Y123.689 E2.25572
G1 X96.396 Y123.168 E2.27185
G1 X96.293 Y122.627 E2.28797
G1 X96.269 Y122.076 E2.30412
G1 X96.325 Y121.528 E2.32024
G1 X96.459 Y120.994 E2.33635
G1 X96.67 Y120.485 E2.35248
G1 X96.952 Y120.011 E2.36862
G1 X97.097 Y119.832 E2.37536
G1 X97.029 Y119.702 E2.37966
G1 X96.847 Y119.182 E2.39578
G1 X96.741 Y118.641 E2.41192
G1 X96.718 Y118.361 E2.42014
G1 X96.648 Y116.832 E2.46494
G1 X96.663 Y116.277 E2.48119
G1 X96.715 Y115.761 E2.49637
G1 X96.715 Y98.818 E2.99227
G1 X96.755 Y98.268 E3.00841
G1 X96.874 Y97.73 E3.02454
G1 X97.07 Y97.215 E3.04067
G1 X97.412 Y96.625 E3.06063
G1 X99.411 Y93.797 E3.16199
G0 F1800 X99.738 Y94.027
G1 F1200 X100.07 Y93.626 E3.17723
G1 X100.46 Y93.28 E3.19249
G1 X100.898 Y92.998 E3.20774
G1 X101.375 Y92.787 E3.223
G1 X101.877 Y92.65 E3.23823
G1 X102.514 Y92.59 E3.25696
G1 X114.815 Y92.59 E3.617
G1 X115.335 Y92.63 E3.63226
G1 X115.842 Y92.749 E3.64751
G1 X116.325 Y92.944 E3.66275
G1 X116.773 Y93.21 E3.678
G1 X117.175 Y93.542 E3.69326
G1 X117.591 Y94.027 E3.71196
G1 X119.59 Y96.854 E3.8133
G1 X119.857 Y97.301 E3.82854
G1 X120.053 Y97.784 E3.8438
G1 X120.173 Y98.291 E3.85905
G1 X120.214 Y98.817 E3.87449
G1 X120.214 Y118.186 E4.4414
G1 X120.174 Y118.706 E4.45666
G1 X120.055 Y119.213 E4.47191
G1 X119.86 Y119.696 E4.48715
G1 X119.726 Y119.922 E4.49484
G1 X119.909 Y120.128 E4.50291
G1 X120.192 Y120.565 E4.51815
G1 X120.404 Y121.041 E4.5334
G1 X120.542 Y121.544 E4.54866
G1 X120.603 Y122.186 E4.56754
G1 X120.603 Y122.56 E4.57849
G1 X120.563 Y123.08 E4.59375
G1 X120.444 Y123.587 E4.60899
G1 X120.249 Y124.07 E4.62424
G1 X119.983 Y124.518 E4.63949
G1 X119.651 Y124.92 E4.65475
G1 X119.261 Y125.266 E4.67001
G1 X118.823 Y125.549 E4.68527
G1 X118.348 Y125.762 E4.70051
G1 X117.845 Y125.899 E4.71577
G1 X117.203 Y125.96 E4.73464
G1 X100.297 Y125.961 E5.22946
G1 X99.778 Y125.921 E5.2447
G1 X99.27 Y125.802 E5.25997
G1 X98.787 Y125.607 E5.27521
G1 X98.339 Y125.341 E5.29046
G1 X97.937 Y125.009 E5.30572
G1 X97.591 Y124.619 E5.32098
G1 X97.401 Y124.342 E5.33081
G1 X97.171 Y123.968 E5.34366
G1 X96.933 Y123.505 E5.3589
G1 X96.768 Y123.01 E5.37417
G1 X96.681 Y122.496 E5.38943
G1 X96.674 Y121.975 E5.40468
G1 X96.746 Y121.459 E5.41993
G1 X96.896 Y120.96 E5.43518
G1 X97.121 Y120.49 E5.45043
G1 X97.415 Y120.059 E5.4657
G1 X97.576 Y119.887 E5.4726
G1 X97.525 Y119.808 E5.47535
G1 X97.313 Y119.333 E5.49058
G1 X97.175 Y118.83 E5.50584
G1 X97.118 Y118.342 E5.52022
G1 X97.048 Y116.813 E5.56502
G1 X97.061 Y116.317 E5.57954
G1 X97.115 Y115.782 E5.59528
G1 X97.115 Y98.818 E6.0918
G1 X97.155 Y98.298 E6.10707
G1 X97.274 Y97.791 E6.12231
G1 X97.469 Y97.308 E6.13755
G1 X97.739 Y96.855 E6.15299
G1 X99.738 Y94.027 E6.25435
G0 F1800 X100.064 Y94.258
G1 F1200 X100.378 Y93.883 E6.26867
G1 X100.749 Y93.564 E6.28299
G1 X101.168 Y93.309 E6.29735
G1 X101.621 Y93.126 E6.31165
G1 X102.099 Y93.019 E6.32598
G1 X102.514 Y92.99 E6.33816
G1 X114.815 Y92.99 E6.6982
G1 X115.303 Y93.03 E6.71253
G1 X115.778 Y93.149 E6.72686
G1 X116.227 Y93.343 E6.74117
G1 X116.639 Y93.608 E6.75551
G1 X117.002 Y93.936 E6.76983
G1 X117.264 Y94.258 E6.78198
G1 X119.263 Y97.085 E6.88332
G1 X119.513 Y97.506 E6.89765
G1 X119.69 Y97.963 E6.912
G1 X119.79 Y98.442 E6.92632
G1 X119.814 Y98.817 E6.93732
G1 X119.814 Y118.186 E7.50423
G1 X119.774 Y118.674 E7.51856
G1 X119.655 Y119.149 E7.53289
G1 X119.461 Y119.598 E7.54721
G1 X119.218 Y119.977 E7.56038
G1 X119.39 Y120.132 E7.56716
G1 X119.695 Y120.515 E7.58149
G1 X119.933 Y120.942 E7.5958
G1 X120.099 Y121.403 E7.61014
G1 X120.188 Y121.884 E7.62446
G1 X120.203 Y122.186 E7.63331
G1 X120.203 Y122.56 E7.64425
G1 X120.163 Y123.048 E7.65858
G1 X120.044 Y123.523 E7.67292
G1 X119.85 Y123.972 E7.68723
G1 X119.585 Y124.384 E7.70157
G1 X119.257 Y124.747 E7.71589
G1 X118.874 Y125.052 E7.73022
G1 X118.446 Y125.29 E7.74455
G1 X117.986 Y125.456 E7.75887
G1 X117.505 Y125.545 E7.77319
G1 X117.203 Y125.56 E7.78204
G1 X100.297 Y125.561 E8.27686
G1 X99.809 Y125.521 E8.29119
G1 X99.334 Y125.402 E8.30552
G1 X98.885 Y125.208 E8.31984
G1 X98.474 Y124.943 E8.33415
G1 X98.11 Y124.615 E8.34849
G1 X97.742 Y124.133 E8.36624
G1 X97.512 Y123.759 E8.37909
G1 X97.29 Y123.322 E8.39344
G1 X97.142 Y122.855 E8.40777
G1 X97.073 Y122.371 E8.42208
G1 X97.083 Y121.881 E8.43643
G1 X97.172 Y121.4 E8.45075
G1 X97.338 Y120.94 E8.46506
G1 X97.578 Y120.513 E8.4794
G1 X97.883 Y120.13 E8.49373
G1 X98.09 Y119.943 E8.50189
G1 X98.023 Y119.859 E8.50504
G1 X97.784 Y119.431 E8.51938
G1 X97.618 Y118.971 E8.5337
G1 X97.517 Y118.324 E8.55286
G1 X97.447 Y116.795 E8.59766
G1 X97.459 Y116.357 E8.61049
G1 X97.515 Y115.802 E8.62681
G1 X97.515 Y98.818 E9.12392
G1 X97.555 Y98.33 E9.13825
G1 X97.674 Y97.855 E9.15258
G1 X97.868 Y97.406 E9.1669
G1 X98.065 Y97.086 E9.1779
G1 X100.064 Y94.258 E9.27926
G0 F1800 X100.391 Y94.489
G1 F1200 X100.685 Y94.142 E9.29257
G1 X101.036 Y93.851 E9.30592
G1 X101.432 Y93.626 E9.31925
G1 X101.862 Y93.473 E9.33261
G1 X102.514 Y93.39 E9.35184
G1 X114.815 Y93.39 E9.71188
G1 X115.269 Y93.43 E9.72522
G1 X115.709 Y93.548 E9.73855
G1 X116.121 Y93.742 E9.75188
G1 X116.494 Y94.005 E9.76524
G1 X116.938 Y94.489 E9.78446
G1 X118.937 Y97.316 E9.8858
G1 X119.166 Y97.71 E9.89914
G1 X119.324 Y98.137 E9.91247
G1 X119.404 Y98.586 E9.92582
G1 X119.414 Y98.817 E9.93258
G1 X119.414 Y118.186 E10.49949
G1 X119.374 Y118.64 E10.51283
G1 X119.256 Y119.08 E10.52617
G1 X119.062 Y119.492 E10.53949
G1 X118.799 Y119.865 E10.55285
G1 X118.636 Y120.027 E10.55958
G1 X118.882 Y120.2 E10.56838
G1 X119.202 Y120.524 E10.58171
G1 X119.462 Y120.899 E10.59507
G1 X119.652 Y121.313 E10.6084
G1 X119.767 Y121.754 E10.62174
G1 X119.803 Y122.186 E10.63443
G1 X119.803 Y122.56 E10.64537
G1 X119.763 Y123.014 E10.65871
G1 X119.645 Y123.454 E10.67205
G1 X119.451 Y123.866 E10.68537
G1 X119.188 Y124.239 E10.69873
G1 X118.865 Y124.56 E10.71206
G1 X118.49 Y124.819 E10.7254
G1 X118.076 Y125.009 E10.73873
G1 X117.635 Y125.124 E10.75207
G1 X117.203 Y125.16 E10.76476
G1 X100.297 Y125.161 E11.25958
G1 X99.843 Y125.121 E11.27292
G1 X99.403 Y125.003 E11.28625
G1 X98.991 Y124.809 E11.29958
G1 X98.618 Y124.547 E11.31292
G1 X98.298 Y124.223 E11.32625
G1 X98.082 Y123.923 E11.33707
G1 X97.852 Y123.549 E11.34992
G1 X97.649 Y123.141 E11.36326
G1 X97.519 Y122.705 E11.37658
G1 X97.468 Y122.252 E11.38992
G1 X97.496 Y121.797 E11.40326
G1 X97.604 Y121.354 E11.41661
G1 X97.787 Y120.937 E11.42994
G1 X98.04 Y120.558 E11.44327
G1 X98.356 Y120.23 E11.45661
G1 X98.667 Y120.003 E11.46787
G1 X98.515 Y119.85 E11.47419
G1 X98.255 Y119.475 E11.48754
G1 X98.065 Y119.061 E11.50088
G1 X97.95 Y118.62 E11.51421
G1 X97.917 Y118.306 E11.52346
G1 X97.847 Y116.777 E11.56825
G1 X97.857 Y116.397 E11.57938
G1 X97.915 Y115.822 E11.5963
G1 X97.915 Y98.818 E12.09398
G1 X97.955 Y98.364 E12.10732
G1 X98.073 Y97.924 E12.12066
G1 X98.267 Y97.512 E12.13399
G1 X98.392 Y97.317 E12.14077
G1 X100.391 Y94.489 E12.24213
G0 F1800 X100.717 Y94.72
G1 F1200 X100.991 Y94.403 E12.25439
G1 X101.319 Y94.143 E12.26664
G1 X101.691 Y93.95 E12.27891
G1 X102.093 Y93.831 E12.29118
G1 X102.514 Y93.79 E12.30356
G1 X114.815 Y93.79 E12.6636
G1 X115.232 Y93.83 E12.67586
G1 X115.634 Y93.948 E12.68812
G1 X116.006 Y94.141 E12.70039
G1 X116.335 Y94.4 E12.71264
G1 X116.611 Y94.72 E12.72501
G1 X118.61 Y97.547 E12.82635
G1 X118.819 Y97.91 E12.83861
G1 X118.954 Y98.307 E12.85088
G1 X119.014 Y98.817 E12.86591
G1 X119.014 Y118.186 E13.43282
G1 X118.974 Y118.603 E13.44509
G1 X118.856 Y119.005 E13.45735
G1 X118.663 Y119.377 E13.46961
G1 X118.404 Y119.706 E13.48187
G1 X118.087 Y119.98 E13.49413
G1 X117.876 Y120.101 E13.50125
G1 X118.022 Y120.144 E13.50571
G1 X118.394 Y120.336 E13.51796
G1 X118.723 Y120.596 E13.53023
G1 X118.997 Y120.913 E13.5425
G1 X119.206 Y121.276 E13.55476
G1 X119.342 Y121.673 E13.56704
G1 X119.403 Y122.186 E13.58216
G1 X119.403 Y122.56 E13.59311
G1 X119.363 Y122.977 E13.60537
G1 X119.245 Y123.379 E13.61763
G1 X119.052 Y123.751 E13.6299
G1 X118.793 Y124.08 E13.64215
G1 X118.476 Y124.354 E13.65442
G1 X118.113 Y124.563 E13.66668
G1 X117.716 Y124.699 E13.67896
G1 X117.203 Y124.76 E13.69408
G1 X100.297 Y124.761 E14.1889
G1 X99.88 Y124.721 E14.20116
G1 X99.478 Y124.603 E14.21342
G1 X99.106 Y124.411 E14.22568
G1 X98.777 Y124.151 E14.23795
G1 X98.423 Y123.713 E14.25443
G1 X98.193 Y123.339 E14.26728
G1 X98.008 Y122.963 E14.27955
G1 X97.899 Y122.559 E14.2918
G1 X97.867 Y122.141 E14.30407
G1 X97.916 Y121.725 E14.31633
G1 X98.043 Y121.325 E14.32861
G1 X98.243 Y120.957 E14.34087
G1 X98.509 Y120.634 E14.35312
G1 X98.832 Y120.366 E14.3654
G1 X99.2 Y120.165 E14.37767
G1 X99.429 Y120.092 E14.38471
G1 X99.323 Y120.037 E14.3882
G1 X98.994 Y119.777 E14.40048
G1 X98.72 Y119.46 E14.41274
G1 X98.511 Y119.097 E14.425
G1 X98.375 Y118.701 E14.43726
G1 X98.316 Y118.288 E14.44947
G1 X98.246 Y116.759 E14.49426
G1 X98.255 Y116.437 E14.50369
G1 X98.315 Y115.842 E14.5212
G1 X98.315 Y98.818 E15.01947
G1 X98.355 Y98.401 E15.03173
G1 X98.473 Y97.999 E15.04399
G1 X98.718 Y97.548 E15.05902
G1 X100.717 Y94.72 E15.16038
G0 F1800 X101.044 Y94.951
G1 F1200 X101.294 Y94.666 E15.17148
G1 X101.598 Y94.44 E15.18256
G1 X101.943 Y94.283 E15.19366
G1 X102.313 Y94.201 E15.20475
G1 X102.514 Y94.19 E15.21064
G1 X114.815 Y94.19 E15.57068
G1 X115.192 Y94.23 E15.58177
G1 X115.552 Y94.348 E15.59286
G1 X115.879 Y94.538 E15.60393
G1 X116.16 Y94.793 E15.61504
G1 X116.285 Y94.951 E15.62094
G1 X118.284 Y97.778 E15.72228
G1 X118.469 Y98.108 E15.73335
G1 X118.58 Y98.471 E15.74446
G1 X118.614 Y98.817 E15.75463
G1 X118.614 Y118.186 E16.32154
G1 X118.574 Y118.563 E16.33264
G1 X118.456 Y118.923 E16.34373
G1 X118.266 Y119.25 E16.3548
G1 X118.011 Y119.531 E16.3659
G1 X117.702 Y119.751 E16.37701
G1 X117.355 Y119.903 E16.38809
G1 X116.815 Y119.986 E16.40408
G1 X113.415 Y119.987 E16.5036
G1 X113.038 Y119.947 E16.5147
G1 X112.678 Y119.829 E16.52578
G1 X112.35 Y119.639 E16.53688
G1 X112.07 Y119.384 E16.54796
G1 X111.849 Y119.076 E16.55906
G1 X111.767 Y118.889 E16.56503
G1 X111.756 Y118.923 E16.56608
G1 X111.566 Y119.25 E16.57715
G1 X111.311 Y119.531 E16.58826
G1 X111.002 Y119.751 E16.59936
G1 X110.655 Y119.903 E16.61045
G1 X110.115 Y119.986 E16.62644
G1 X107.216 Y119.987 E16.71129
G1 X106.839 Y119.947 E16.72238
G1 X106.479 Y119.829 E16.73347
G1 X106.151 Y119.639 E16.74457
G1 X105.871 Y119.384 E16.75565
G1 X105.65 Y119.076 E16.76675
G1 X105.568 Y118.889 E16.77272
G1 X105.557 Y118.923 E16.77377
G1 X105.367 Y119.25 E16.78484
G1 X105.112 Y119.531 E16.79595
G1 X104.803 Y119.751 E16.80705
G1 X104.456 Y119.903 E16.81814
G1 X103.916 Y119.986 E16.83413
G1 X100.515 Y119.987 E16.93367
G1 X100.138 Y119.947 E16.94477
G1 X99.778 Y119.829 E16.95585
G1 X99.45 Y119.639 E16.96695
G1 X99.17 Y119.384 E16.97803
G1 X98.949 Y119.076 E16.98913
G1 X98.797 Y118.729 E17.00022
G1 X98.716 Y118.269 E17.01389
G1 X98.646 Y116.74 E17.05869
G1 X98.653 Y116.477 E17.06639
G1 X98.715 Y115.862 E17.08448
G1 X98.715 Y98.818 E17.58334
G1 X98.755 Y98.441 E17.59443
G1 X98.873 Y98.081 E17.60552
G1 X99.045 Y97.779 E17.6157
G1 X101.044 Y94.951 E17.71706
G0 F1800 X101.371 Y95.182
G1 F1200 X101.595 Y94.934 E17.72684
G1 X101.871 Y94.746 E17.73661
G1 X102.184 Y94.629 E17.74639
G1 X102.514 Y94.59 E17.75612
G1 X114.815 Y94.59 E18.11616
G1 X115.147 Y94.63 E18.12594
G1 X115.459 Y94.747 E18.1357
G1 X115.736 Y94.935 E18.1455
G1 X115.958 Y95.182 E18.15522
G1 X117.957 Y98.009 E18.25656
G1 X118.116 Y98.303 E18.26634
G1 X118.201 Y98.626 E18.27611
G1 X118.214 Y98.817 E18.28172
G1 X118.214 Y118.186 E18.84863
G1 X118.174 Y118.518 E18.85842
G1 X118.057 Y118.83 E18.86817
G1 X117.869 Y119.107 E18.87797
G1 X117.621 Y119.33 E18.88773
G1 X117.327 Y119.489 E18.89751
G1 X117.003 Y119.573 E18.90731
G1 X116.814 Y119.586 E18.91285
G1 X113.414 Y119.587 E19.01237
G1 X113.083 Y119.547 E19.02213
G1 X112.77 Y119.43 E19.03191
G1 X112.494 Y119.242 E19.04168
G1 X112.27 Y118.994 E19.05146
G1 X112.111 Y118.7 E19.06124
G1 X112.027 Y118.377 E19.07101
G1 X112.014 Y118.187 E19.07659
G1 X112.014 Y109.552 E19.32932
G1 X111.514 Y109.552 E19.34396
G1 X111.514 Y118.186 E19.59667
G1 X111.474 Y118.518 E19.60645
G1 X111.357 Y118.83 E19.61621
G1 X111.169 Y119.107 E19.626
G1 X110.921 Y119.33 E19.63577
G1 X110.627 Y119.489 E19.64555
G1 X110.303 Y119.573 E19.65535
G1 X110.114 Y119.586 E19.66089
G1 X107.215 Y119.587 E19.74574
G1 X106.884 Y119.547 E19.7555
G1 X106.571 Y119.43 E19.76528
G1 X106.295 Y119.242 E19.77505
G1 X106.071 Y118.994 E19.78484
G1 X105.912 Y118.7 E19.79462
G1 X105.828 Y118.377 E19.80439
G1 X105.815 Y118.187 E19.80996
G1 X105.815 Y109.552 E20.0627
G1 X105.315 Y109.552 E20.07733
G1 X105.315 Y118.186 E20.33004
G1 X105.275 Y118.518 E20.33983
G1 X105.158 Y118.83 E20.34958
G1 X104.97 Y119.107 E20.35938
G1 X104.722 Y119.33 E20.36914
G1 X104.428 Y119.489 E20.37892
G1 X104.104 Y119.573 E20.38872
G1 X103.915 Y119.586 E20.39427
G1 X100.514 Y119.587 E20.49381
G1 X100.183 Y119.547 E20.50357
G1 X99.87 Y119.43 E20.51335
G1 X99.594 Y119.242 E20.52312
G1 X99.37 Y118.994 E20.5329
G1 X99.211 Y118.7 E20.54269
G1 X99.115 Y118.251 E20.55612
G1 X99.045 Y116.722 E20.60092
G1 X99.051 Y116.518 E20.6069
G1 X99.115 Y115.883 E20.62558
G1 X99.115 Y98.818 E21.12505
G1 X99.155 Y98.486 E21.13484
G1 X99.272 Y98.174 E21.14459
G1 X99.372 Y98.01 E21.15021
G1 X101.371 Y95.182 E21.25158
G0 F1800 X101.697 Y95.413
G1 F1200 X101.891 Y95.208 E21.25984
G1 X102.134 Y95.065 E21.26809
G1 X102.514 Y94.99 E21.27943
G1 X114.815 Y94.99 E21.63946
G1 X115.094 Y95.03 E21.64771
G1 X115.351 Y95.146 E21.65597
G1 X115.631 Y95.413 E21.66729
G1 X117.63 Y98.24 E21.76863
G1 X117.759 Y98.491 E21.77689
G1 X117.814 Y98.817 E21.78657
G1 X117.814 Y118.186 E22.35348
G1 X117.774 Y118.465 E22.36173
G1 X117.658 Y118.722 E22.36998
G1 X117.475 Y118.937 E22.37824
G1 X117.239 Y119.091 E22.38649
G1 X116.969 Y119.174 E22.39476
G1 X116.814 Y119.186 E22.39931
G1 X113.414 Y119.187 E22.49882
G1 X113.135 Y119.147 E22.50707
G1 X112.878 Y119.031 E22.51533
G1 X112.663 Y118.848 E22.52359
G1 X112.509 Y118.612 E22.53184
G1 X112.426 Y118.342 E22.5401
