;FLAVOR:RepRap
;TIME:5040
;Generated with Cura_SteamEngine 2.3.1
M190 S70
M104 S200
M109 S200
G28 ; home all axes
M117 Purge extruder
G92 E0 ; reset extruder
G1 Z1.0 F3000 ; move z up little to prevent scratching of surface
G1 X0.1 Y20 Z0.3 F5000.0 ; move to start-line position G1 X0.1 Y200.0 Z0.3 F1500.0 E15 ; draw 1st line
G1 X0.4 Y200.0 Z0.3 F5000.0 ; move to side a little
G1 X0.4 Y20 Z0.3 F1500.0 E30 ; draw 2nd line
G92 E0 ; reset extruder
G1 Z1.0 F3000 ; move z up little to prevent scratching of surface
M117 All systems go!
;LAYER_COUNT:114
;LAYER:0
M117 INDICATOR-Layer0
M107
G1 F4200 E-5
G0 F1800 X101.21 Y75.846 Z.16
;TYPE:SKIRT
G1 F4200 E0
G1 F1200 X101.507 Y75.457 E0.01432
G1 X102.108 Y74.767 E0.04111
G1 X102.455 Y74.417 E0.05553
G1 X103.15 Y73.802 E0.0827
G1 X103.564 Y73.484 E0.09797
G1 X104.388 Y72.936 E0.12694
G1 X104.829 Y72.683 E0.14182
G1 X105.665 Y72.276 E0.16903
G1 X106.242 Y72.052 E0.18715
G1 X107.566 Y71.657 E0.22759
G1 X108.295 Y71.515 E0.24933
G1 X109.663 Y71.386 E0.28955
G1 X110.399 Y71.388 E0.31109
G1 X111.766 Y71.525 E0.3513
G1 X112.495 Y71.671 E0.37306
G1 X113.827 Y72.077 E0.41382
G1 X114.404 Y72.306 E0.43199
G1 X115.231 Y72.715 E0.45899
G1 X115.65 Y72.957 E0.47315
G1 X116.405 Y73.459 E0.49969
G1 X116.802 Y73.762 E0.51431
G1 X117.495 Y74.368 E0.54125
G1 X117.845 Y74.716 E0.5557
G1 X118.455 Y75.408 E0.5827
G1 X118.823 Y75.901 E0.6007
G1 X119.558 Y77.072 E0.64117
G1 X119.848 Y77.633 E0.65965
G1 X120.206 Y78.494 E0.68695
G1 X120.393 Y79.071 E0.7047
G1 X120.71 Y80.4 E0.74469
G1 X120.804 Y81.011 E0.76278
G1 X120.87 Y81.934 E0.78987
G1 X120.88 Y82.205 E0.7978
G1 X120.881 Y103.557 E1.42275
G1 X123.767 Y106.442 E1.54219
G1 X124.127 Y106.858 E1.55829
G1 X124.423 Y107.323 E1.57443
G1 X124.649 Y107.825 E1.59054
G1 X124.8 Y108.355 E1.60667
G1 X124.88 Y109.129 E1.62944
G1 X124.881 Y145.748 E2.70124
G1 X124.841 Y146.297 E2.71735
G1 X124.722 Y146.835 E2.73348
G1 X124.527 Y147.351 E2.74963
G1 X124.259 Y147.832 E2.76574
G1 X123.924 Y148.27 E2.78188
G1 X123.529 Y148.654 E2.79801
G1 X123.083 Y148.978 E2.81414
G1 X122.595 Y149.233 E2.83026
G1 X122.075 Y149.416 E2.84639
G1 X121.534 Y149.521 E2.86252
G1 X121.081 Y149.548 E2.8758
G1 X112.148 Y149.548 E3.13726
G1 X111.598 Y149.508 E3.1534
G1 X111.06 Y149.389 E3.16953
G1 X110.545 Y149.193 E3.18566
G1 X110.064 Y148.925 E3.20178
G1 X109.461 Y148.435 E3.22452
G1 X109 Y147.974 E3.2436
G1 X108.538 Y148.435 E3.2627
G1 X108.121 Y148.795 E3.27883
G1 X107.657 Y149.092 E3.29495
G1 X107.154 Y149.318 E3.31109
G1 X106.624 Y149.469 E3.32722
G1 X105.851 Y149.548 E3.34996
G1 X98.919 Y149.548 E3.55286
G1 X98.369 Y149.508 E3.569
G1 X97.831 Y149.389 E3.58512
G1 X97.316 Y149.193 E3.60125
G1 X96.835 Y148.925 E3.61737
G1 X96.397 Y148.591 E3.63349
G1 X96.013 Y148.196 E3.64961
G1 X95.689 Y147.75 E3.66575
G1 X95.434 Y147.262 E3.68186
G1 X95.251 Y146.742 E3.698
G1 X95.146 Y146.201 E3.71413
G1 X95.119 Y145.748 E3.72741
G1 X95.12 Y109.129 E4.79921
G1 X95.16 Y108.579 E4.81535
G1 X95.279 Y108.041 E4.83148
G1 X95.475 Y107.526 E4.84761
G1 X95.743 Y107.045 E4.86372
G1 X96.233 Y106.442 E4.88646
G1 X99.12 Y103.555 E5.00596
G1 X99.134 Y81.779 E5.64332
G1 X99.185 Y81.159 E5.66153
G1 X99.411 Y79.798 E5.70191
G1 X99.56 Y79.202 E5.71989
G1 X99.856 Y78.327 E5.74693
G1 X100.045 Y77.87 E5.7614
G1 X100.45 Y77.045 E5.7883
G1 X100.699 Y76.613 E5.8029
G1 X101.21 Y75.846 E5.82987
G0 F1800 X101.542 Y76.068
G1 F1200 X101.808 Y75.72 E5.84269
G1 X102.409 Y75.03 E5.86948
G1 X102.72 Y74.717 E5.88239
G1 X103.415 Y74.102 E5.90955
G1 X103.785 Y73.817 E5.92322
G1 X104.609 Y73.269 E5.95219
G1 X105.004 Y73.043 E5.96551
G1 X105.84 Y72.636 E5.99272
G1 X106.356 Y72.435 E6.00893
G1 X107.68 Y72.04 E6.04937
G1 X108.333 Y71.913 E6.06884
G1 X109.701 Y71.784 E6.10906
G1 X110.359 Y71.786 E6.12832
G1 X111.726 Y71.923 E6.16853
G1 X112.378 Y72.054 E6.18799
G1 X113.71 Y72.46 E6.22875
G1 X114.226 Y72.664 E6.24499
G1 X115.053 Y73.073 E6.27199
G1 X115.429 Y73.29 E6.2847
G1 X116.184 Y73.792 E6.31124
G1 X116.539 Y74.064 E6.32433
G1 X117.232 Y74.67 E6.35127
G1 X117.545 Y74.981 E6.36418
G1 X118.155 Y75.673 E6.39118
G1 X118.484 Y76.113 E6.40727
G1 X119.219 Y77.284 E6.44773
G1 X119.478 Y77.787 E6.46429
G1 X119.836 Y78.648 E6.49158
G1 X120.004 Y79.164 E6.50747
G1 X120.321 Y80.493 E6.54746
G1 X120.405 Y81.039 E6.56362
G1 X120.471 Y81.962 E6.59071
G1 X120.48 Y82.205 E6.59783
G1 X120.481 Y103.723 E7.22763
G1 X123.484 Y106.725 E7.35192
G1 X123.823 Y107.12 E7.36715
G1 X124.098 Y107.563 E7.38241
G1 X124.302 Y108.043 E7.39768
G1 X124.43 Y108.548 E7.41292
G1 X124.48 Y109.129 E7.42999
G1 X124.481 Y145.748 E8.50179
G1 X124.441 Y146.268 E8.51706
G1 X124.322 Y146.775 E8.5323
G1 X124.127 Y147.258 E8.54754
G1 X123.861 Y147.706 E8.56279
G1 X123.529 Y148.108 E8.57805
G1 X123.139 Y148.454 E8.59331
G1 X122.702 Y148.737 E8.60855
G1 X122.226 Y148.95 E8.62382
G1 X121.723 Y149.087 E8.63907
G1 X121.081 Y149.148 E8.65795
G1 X112.148 Y149.148 E8.91941
G1 X111.628 Y149.108 E8.93467
G1 X111.121 Y148.989 E8.94992
G1 X110.638 Y148.794 E8.96516
G1 X110.19 Y148.528 E8.98041
G1 X109.744 Y148.152 E8.99748
G1 X109 Y147.408 E9.02828
G1 X108.255 Y148.152 E9.0591
G1 X107.859 Y148.491 E9.07436
G1 X107.417 Y148.766 E9.08959
G1 X106.937 Y148.97 E9.10486
G1 X106.432 Y149.098 E9.12011
G1 X105.851 Y149.148 E9.13717
G1 X98.919 Y149.148 E9.34007
G1 X98.399 Y149.108 E9.35533
G1 X97.892 Y148.989 E9.37057
G1 X97.409 Y148.794 E9.38582
G1 X96.961 Y148.528 E9.40107
G1 X96.559 Y148.196 E9.41633
G1 X96.213 Y147.806 E9.43159
G1 X95.93 Y147.368 E9.44685
G1 X95.717 Y146.893 E9.46209
G1 X95.58 Y146.39 E9.47735
G1 X95.519 Y145.748 E9.49622
G1 X95.52 Y109.129 E10.56802
G1 X95.56 Y108.609 E10.58328
G1 X95.679 Y108.102 E10.59853
G1 X95.874 Y107.619 E10.61377
G1 X96.141 Y107.171 E10.62904
G1 X96.516 Y106.725 E10.64609
G1 X99.52 Y103.721 E10.77044
G1 X99.534 Y81.779 E11.41265
G1 X99.58 Y81.224 E11.42895
G1 X99.806 Y79.863 E11.46933
G1 X99.939 Y79.33 E11.48541
G1 X100.235 Y78.455 E11.51245
G1 X100.404 Y78.047 E11.52537
G1 X100.809 Y77.222 E11.55227
G1 X101.031 Y76.835 E11.56533
G1 X101.542 Y76.068 E11.59231
G0 F1800 X101.875 Y76.29
G1 F1200 X102.11 Y75.983 E11.60362
G1 X102.711 Y75.293 E11.63041
G1 X102.985 Y75.016 E11.64181
G1 X103.68 Y74.401 E11.66897
G1 X104.007 Y74.15 E11.68104
G1 X104.831 Y73.602 E11.71
G1 X105.179 Y73.403 E11.72174
G1 X106.015 Y72.996 E11.74895
G1 X106.47 Y72.818 E11.76325
G1 X107.794 Y72.423 E11.80369
G1 X108.37 Y72.311 E11.82086
G1 X109.738 Y72.182 E11.86108
G1 X110.319 Y72.184 E11.87809
G1 X111.686 Y72.321 E11.9183
G1 X112.262 Y72.436 E11.93549
G1 X113.594 Y72.842 E11.97625
G1 X114.049 Y73.023 E11.99058
G1 X114.876 Y73.432 E12.01758
G1 X115.207 Y73.623 E12.02877
G1 X115.962 Y74.125 E12.05531
G1 X116.276 Y74.365 E12.06687
G1 X116.969 Y74.971 E12.09382
G1 X117.244 Y75.245 E12.10518
G1 X117.854 Y75.937 E12.13218
G1 X118.145 Y76.326 E12.1464
G1 X118.88 Y77.497 E12.18686
G1 X119.109 Y77.94 E12.20146
G1 X119.467 Y78.801 E12.22875
G1 X119.615 Y79.257 E12.24278
G1 X119.932 Y80.586 E12.28277
G1 X120.006 Y81.068 E12.29705
G1 X120.072 Y81.991 E12.32413
G1 X120.08 Y82.205 E12.3304
G1 X120.081 Y103.888 E12.96504
G1 X123.201 Y107.007 E13.09416
G1 X123.518 Y107.381 E13.10851
G1 X123.77 Y107.8 E13.12282
G1 X123.95 Y108.255 E13.13714
G1 X124.054 Y108.734 E13.15149
G1 X124.08 Y109.129 E13.16308
G1 X124.081 Y145.748 E14.23487
G1 X124.041 Y146.236 E14.24921
G1 X123.922 Y146.711 E14.26354
G1 X123.728 Y147.16 E14.27785
G1 X123.463 Y147.572 E14.29219
G1 X123.135 Y147.935 E14.30651
G1 X122.752 Y148.24 E14.32084
G1 X122.325 Y148.478 E14.33515
G1 X121.864 Y148.644 E14.34949
G1 X121.383 Y148.733 E14.36381
G1 X121.081 Y148.748 E14.37266
G1 X112.148 Y148.748 E14.63412
G1 X111.66 Y148.708 E14.64845
G1 X111.185 Y148.589 E14.66278
G1 X110.736 Y148.395 E14.6771
G1 X110.324 Y148.13 E14.69143
G1 X110.027 Y147.869 E14.70301
G1 X109.028 Y146.87 E14.74436
G1 X109 Y146.837 E14.74563
G1 X108.971 Y146.87 E14.74691
G1 X107.972 Y147.869 E14.78826
G1 X107.599 Y148.186 E14.80259
G1 X107.179 Y148.438 E14.81693
G1 X106.724 Y148.618 E14.83125
G1 X106.246 Y148.722 E14.84556
G1 X105.851 Y148.748 E14.85715
G1 X98.919 Y148.748 E15.06004
G1 X98.431 Y148.708 E15.07437
G1 X97.956 Y148.589 E15.08871
G1 X97.507 Y148.395 E15.10302
G1 X97.095 Y148.13 E15.11736
G1 X96.732 Y147.802 E15.13168
G1 X96.427 Y147.419 E15.14601
G1 X96.189 Y146.991 E15.16034
G1 X96.023 Y146.531 E15.17466
G1 X95.934 Y146.05 E15.18897
G1 X95.919 Y145.748 E15.19782
G1 X95.92 Y109.129 E16.26962
G1 X95.96 Y108.641 E16.28395
G1 X96.079 Y108.166 E16.29829
G1 X96.273 Y107.717 E16.3126
G1 X96.538 Y107.305 E16.32694
G1 X96.799 Y107.008 E16.33851
G1 X99.92 Y103.887 E16.4677
G1 X99.934 Y81.779 E17.11478
G1 X99.975 Y81.29 E17.12914
G1 X100.201 Y79.929 E17.16952
G1 X100.318 Y79.459 E17.1837
G1 X100.614 Y78.584 E17.21073
G1 X100.763 Y78.223 E17.22216
G1 X101.168 Y77.398 E17.24906
G1 X101.364 Y77.057 E17.26057
G1 X101.875 Y76.29 E17.28755
G0 F1800 X102.208 Y76.511
G1 F1200 X102.411 Y76.245 E17.29734
G1 X103.012 Y75.555 E17.32413
G1 X103.25 Y75.316 E17.334
G1 X103.945 Y74.701 E17.36116
G1 X104.228 Y74.483 E17.37162
G1 X105.052 Y73.935 E17.40058
G1 X105.354 Y73.762 E17.41077
G1 X106.19 Y73.355 E17.43798
G1 X106.585 Y73.202 E17.45038
G1 X107.909 Y72.807 E17.49082
G1 X108.408 Y72.709 E17.5057
G1 X109.776 Y72.58 E17.54592
G1 X110.279 Y72.582 E17.56064
G1 X111.646 Y72.719 E17.60085
G1 X112.145 Y72.819 E17.61575
G1 X113.477 Y73.225 E17.65651
G1 X113.872 Y73.381 E17.66894
G1 X114.699 Y73.79 E17.69594
G1 X114.986 Y73.956 E17.70565
G1 X115.741 Y74.458 E17.73218
G1 X116.013 Y74.666 E17.7422
G1 X116.706 Y75.272 E17.76915
G1 X116.944 Y75.51 E17.779
G1 X117.554 Y76.202 E17.806
G1 X117.806 Y76.539 E17.81832
G1 X118.541 Y77.71 E17.85878
G1 X118.74 Y78.094 E17.87144
G1 X119.098 Y78.955 E17.89873
G1 X119.226 Y79.35 E17.91089
G1 X119.543 Y80.679 E17.95088
G1 X119.607 Y81.097 E17.96325
G1 X119.673 Y82.02 E17.99034
G1 X119.68 Y82.205 E17.99576
G1 X119.681 Y104.054 E18.63525
G1 X122.918 Y107.29 E18.76922
G1 X123.211 Y107.639 E18.78256
G1 X123.438 Y108.034 E18.79589
G1 X123.593 Y108.463 E18.80924
G1 X123.68 Y109.129 E18.8289
G1 X123.681 Y145.748 E19.9007
G1 X123.641 Y146.202 E19.91404
G1 X123.523 Y146.642 E19.92737
G1 X123.329 Y147.054 E19.9407
G1 X123.066 Y147.427 E19.95406
G1 X122.743 Y147.747 E19.96737
G1 X122.368 Y148.007 E19.98072
G1 X121.954 Y148.197 E19.99406
G1 X121.513 Y148.312 E20.00739
G1 X121.081 Y148.348 E20.02008
G1 X112.148 Y148.348 E20.28154
G1 X111.694 Y148.308 E20.29488
G1 X111.254 Y148.19 E20.30821
G1 X110.842 Y147.996 E20.32154
G1 X110.31 Y147.586 E20.3412
G1 X109.311 Y146.587 E20.38255
G1 X109.018 Y146.238 E20.39589
G1 X108.992 Y146.193 E20.39741
G1 X108.688 Y146.587 E20.41198
G1 X107.689 Y147.586 E20.45333
G1 X107.34 Y147.879 E20.46667
G1 X106.945 Y148.106 E20.48
G1 X106.517 Y148.261 E20.49332
G1 X105.851 Y148.348 E20.51298
G1 X98.919 Y148.348 E20.71587
G1 X98.465 Y148.308 E20.72921
G1 X98.025 Y148.19 E20.74255
G1 X97.613 Y147.996 E20.75588
G1 X97.24 Y147.733 E20.76923
G1 X96.919 Y147.41 E20.78256
G1 X96.66 Y147.035 E20.7959
G1 X96.47 Y146.621 E20.80923
G1 X96.355 Y146.18 E20.82257
G1 X96.319 Y145.748 E20.83526
G1 X96.32 Y109.129 E21.90706
G1 X96.36 Y108.675 E21.9204
G1 X96.478 Y108.235 E21.93373
G1 X96.672 Y107.823 E21.94706
G1 X97.082 Y107.291 E21.96672
G1 X100.32 Y104.053 E22.10075
G1 X100.334 Y81.779 E22.75269
G1 X100.369 Y81.355 E22.76514
G1 X100.595 Y79.994 E22.80552
G1 X100.697 Y79.587 E22.8178
G1 X100.993 Y78.712 E22.84484
G1 X101.122 Y78.399 E22.85474
G1 X101.527 Y77.574 E22.88164
G1 X101.697 Y77.278 E22.89163
G1 X102.208 Y76.511 E22.91861
G0 F1800 X102.541 Y76.733
G1 F1200 X102.713 Y76.508 E22.9269
G1 X103.314 Y75.818 E22.95368
G1 X103.515 Y75.615 E22.96204
G1 X104.21 Y75 E22.98921
G1 X104.45 Y74.816 E22.99806
G1 X105.274 Y74.268 E23.02702
G1 X105.529 Y74.122 E23.03562
G1 X106.365 Y73.715 E23.06284
G1 X106.699 Y73.585 E23.07333
G1 X108.023 Y73.19 E23.11377
G1 X108.445 Y73.108 E23.12635
G1 X109.813 Y72.979 E23.16657
G1 X110.239 Y72.98 E23.17903
G1 X111.606 Y73.117 E23.21925
G1 X112.028 Y73.202 E23.23185
G1 X113.36 Y73.608 E23.2726
G1 X113.694 Y73.74 E23.28311
G1 X114.521 Y74.149 E23.31012
G1 X114.764 Y74.289 E23.31833
G1 X115.519 Y74.791 E23.34486
G1 X115.749 Y74.967 E23.35334
G1 X116.442 Y75.573 E23.38028
G1 X116.644 Y75.774 E23.38862
G1 X117.254 Y76.466 E23.41562
G1 X117.467 Y76.751 E23.42604
G1 X118.202 Y77.922 E23.4665
G1 X118.37 Y78.247 E23.47721
G1 X118.728 Y79.108 E23.5045
G1 X118.837 Y79.443 E23.51482
G1 X119.154 Y80.772 E23.55481
G1 X119.208 Y81.125 E23.56526
G1 X119.274 Y82.048 E23.59234
G1 X119.28 Y82.205 E23.59694
G1 X119.281 Y104.22 E24.2413
G1 X122.635 Y107.573 E24.38011
G1 X122.902 Y107.896 E24.39237
G1 X123.103 Y108.264 E24.40464
G1 X123.23 Y108.663 E24.4169
G1 X123.28 Y109.129 E24.43062
G1 X123.281 Y145.748 E25.50242
G1 X123.241 Y146.165 E25.51468
G1 X123.123 Y146.567 E25.52694
G1 X122.93 Y146.939 E25.53921
G1 X122.671 Y147.268 E25.55146
G1 X122.354 Y147.542 E25.56372
G1 X121.991 Y147.751 E25.57598
G1 X121.594 Y147.887 E25.58827
G1 X121.081 Y147.948 E25.60339
G1 X112.148 Y147.948 E25.86485
G1 X111.731 Y147.908 E25.87711
G1 X111.329 Y147.79 E25.88937
G1 X110.957 Y147.597 E25.90164
G1 X110.592 Y147.304 E25.91534
G1 X109.593 Y146.305 E25.95669
G1 X109.327 Y145.981 E25.96896
G1 X109.126 Y145.614 E25.9812
G1 X108.999 Y145.214 E25.99349
G1 X108.998 Y145.206 E25.99372
G1 X108.892 Y145.568 E26.00476
G1 X108.699 Y145.94 E26.01703
G1 X108.406 Y146.305 E26.03073
G1 X107.407 Y147.304 E26.07208
G1 X107.083 Y147.57 E26.08435
G1 X106.716 Y147.771 E26.0966
G1 X106.316 Y147.898 E26.10888
G1 X105.851 Y147.948 E26.12257
G1 X98.919 Y147.948 E26.32546
G1 X98.502 Y147.908 E26.33772
G1 X98.1 Y147.79 E26.34999
G1 X97.728 Y147.597 E26.36225
G1 X97.399 Y147.338 E26.37451
G1 X97.125 Y147.021 E26.38677
G1 X96.916 Y146.658 E26.39903
G1 X96.78 Y146.261 E26.41131
G1 X96.719 Y145.748 E26.42643
G1 X96.72 Y109.129 E27.49823
G1 X96.76 Y108.712 E27.51049
G1 X96.878 Y108.31 E27.52276
G1 X97.071 Y107.938 E27.53502
G1 X97.364 Y107.573 E27.54872
G1 X100.72 Y104.217 E27.68764
G1 X100.734 Y81.78 E28.34434
G1 X100.764 Y81.421 E28.35489
G1 X100.99 Y80.06 E28.39527
G1 X101.076 Y79.715 E28.40567
G1 X101.372 Y78.84 E28.43271
G1 X101.481 Y78.576 E28.44107
G1 X101.886 Y77.751 E28.46797
G1 X102.03 Y77.5 E28.47644
G1 X102.541 Y76.733 E28.50341
G0 F1800 X102.874 Y76.955
G1 F1200 X103.015 Y76.771 E28.5102
G1 X103.616 Y76.081 E28.53698
G1 X103.78 Y75.915 E28.54381
G1 X104.475 Y75.3 E28.57097
G1 X104.671 Y75.149 E28.57821
G1 X105.495 Y74.601 E28.60718
G1 X105.704 Y74.482 E28.61422
G1 X106.54 Y74.075 E28.64143
G1 X106.813 Y73.968 E28.65002
G1 X108.137 Y73.573 E28.69045
G1 X108.483 Y73.506 E28.70077
G1 X109.851 Y73.377 E28.74099
G1 X110.199 Y73.378 E28.75117
G1 X111.566 Y73.515 E28.79138
G1 X111.912 Y73.584 E28.80171
G1 X113.244 Y73.99 E28.84247
G1 X113.517 Y74.099 E28.85107
G1 X114.344 Y74.508 E28.87808
G1 X114.543 Y74.622 E28.88479
G1 X115.298 Y75.124 E28.91132
G1 X115.486 Y75.268 E28.91826
G1 X116.179 Y75.874 E28.9452
G1 X116.344 Y76.039 E28.95203
G1 X116.954 Y76.731 E28.97903
G1 X117.129 Y76.964 E28.98756
G1 X117.864 Y78.135 E29.02803
G1 X118.001 Y78.401 E29.03678
G1 X118.359 Y79.262 E29.06407
G1 X118.448 Y79.535 E29.07248
G1 X118.765 Y80.864 E29.11247
G1 X118.809 Y81.154 E29.12105
G1 X118.875 Y82.077 E29.14814
G1 X118.88 Y82.205 E29.15189
G1 X118.881 Y104.385 E29.80107
G1 X122.353 Y107.856 E29.94477
G1 X122.591 Y108.151 E29.95586
G1 X122.762 Y108.489 E29.96695
G1 X122.859 Y108.855 E29.97803
G1 X122.88 Y109.129 E29.98607
G1 X122.881 Y145.748 E31.05787
G1 X122.841 Y146.125 E31.06897
G1 X122.723 Y146.485 E31.08006
G1 X122.533 Y146.812 E31.09113
G1 X122.278 Y147.093 E31.10223
G1 X121.97 Y147.313 E31.11331
G1 X121.622 Y147.465 E31.12442
G1 X121.081 Y147.548 E31.14044
G1 X112.148 Y147.548 E31.4019
G1 X111.771 Y147.508 E31.413
G1 X111.411 Y147.39 E31.42409
G1 X111.084 Y147.2 E31.43516
G1 X110.875 Y147.021 E31.44321
G1 X109.876 Y146.022 E31.48456
G1 X109.638 Y145.727 E31.49566
G1 X109.467 Y145.389 E31.50674
G1 X109.37 Y145.023 E31.51783
G1 X109.349 Y144.75 E31.52584
