;FLAVOR:Marlin
;TIME:5731
;Filament used: 4.27704m
;Layer height: 0.16
;Generated with Cura_SteamEngine 3.6.0
M140 S70
M105
M190 S70
M104 S215
M105
M109 S215
M82 ;absolute extrusion mode
G28 ; home all axes
M117 Purge extruder
G92 E0 ; reset extruder
G1 Z1.0 F3000 ; move z up little to prevent scratching of surface
G1 X0.1 Y20 Z0.3 F5000.0 ; move to start-line position G1 X0.1 Y200.0 Z0.3 F1500.0 E15 ; draw 1st line
G1 X0.4 Y200.0 Z0.3 F5000.0 ; move to side a little
G1 X0.4 Y20 Z0.3 F1500.0 E30 ; draw 2nd line
G92 E0 ; reset extruder
G1 Z1.0 F3000 ; move z up little to prevent scratching of surface
M117 All systems go!
G92 E0
G1 F6000 E-5
;LAYER_COUNT:144
;LAYER:0
M107
M204 S5000
M205 X30 Y30
G0 F7200 X73.327 Y75.94 Z0.2
M204 S500
M205 X20 Y20
;TYPE:SKIRT
G1 F6000 E0
G1 F900 X73.833 Y75.5 E0.02453
G1 X74.246 Y75.186 E0.04351
G1 X74.775 Y74.834 E0.06676
G1 X75.402 Y74.527 E0.0923
G1 X75.889 Y74.329 E0.11154
G1 X76.492 Y74.127 E0.1348
G1 X77.182 Y73.993 E0.16052
G1 X77.698 Y73.93 E0.17954
G1 X78.333 Y73.893 E0.20281
G1 X79.018 Y73.943 E0.22794
G1 X79.521 Y74.014 E0.24652
G1 X80.144 Y74.142 E0.26979
G1 X80.697 Y74.327 E0.29113
G1 X81.171 Y74.517 E0.30981
G1 X81.818 Y74.832 E0.33614
G1 X107.506 Y89.662 E1.42134
G1 X107.555 Y89.633 E1.42342
G1 X108.715 Y89.019 E1.47144
G1 X109.122 Y88.826 E1.48792
G1 X110.345 Y88.312 E1.53645
G1 X110.769 Y88.156 E1.55298
G1 X112.037 Y87.752 E1.60167
G1 X112.465 Y87.636 E1.6179
G1 X113.762 Y87.345 E1.66653
G1 X114.202 Y87.266 E1.68288
G1 X115.509 Y87.092 E1.73112
G1 X115.952 Y87.053 E1.74739
G1 X117.28 Y86.994 E1.79603
G1 X117.734 Y86.994 E1.81264
G1 X119.061 Y87.054 E1.86124
G1 X119.5 Y87.093 E1.87736
G1 X120.807 Y87.267 E1.9256
G1 X121.254 Y87.347 E1.94222
G1 X122.551 Y87.64 E1.99086
G1 X122.972 Y87.755 E2.00683
G1 X124.24 Y88.159 E2.05552
G1 X124.668 Y88.317 E2.07221
G1 X125.891 Y88.832 E2.12076
G1 X126.297 Y89.025 E2.13721
G1 X127.455 Y89.639 E2.18516
G1 X127.494 Y89.662 E2.18682
G1 X153.182 Y74.832 E3.27202
G1 X153.821 Y74.521 E3.29802
G1 X154.31 Y74.324 E3.31731
G1 X154.914 Y74.123 E3.34059
G1 X155.577 Y73.996 E3.36529
G1 X156.092 Y73.932 E3.38428
G1 X156.727 Y73.893 E3.40756
G1 X157.409 Y73.941 E3.43257
G1 X157.93 Y74.013 E3.45181
G1 X158.553 Y74.139 E3.47507
G1 X159.218 Y74.369 E3.50081
G1 X159.695 Y74.572 E3.51978
G1 X160.264 Y74.857 E3.54306
G1 X160.824 Y75.236 E3.5678
G1 X161.236 Y75.557 E3.58691
G1 X161.712 Y75.979 E3.61018
G1 X162.144 Y76.473 E3.63419
G1 X162.454 Y76.878 E3.65285
G1 X162.818 Y77.424 E3.67686
G1 X165.822 Y82.628 E3.8967
G1 X166.129 Y83.256 E3.92227
G1 X166.327 Y83.744 E3.94154
G1 X166.528 Y84.347 E3.96479
G1 X166.66 Y85.03 E3.99024
G1 X166.723 Y85.544 E4.00919
G1 X166.761 Y86.179 E4.03246
G1 X166.713 Y86.853 E4.05719
G1 X166.641 Y87.374 E4.07643
G1 X166.515 Y87.997 E4.09968
G1 X166.287 Y88.658 E4.12526
G1 X166.085 Y89.134 E4.14418
G1 X165.8 Y89.702 E4.16743
G1 X165.417 Y90.268 E4.19244
G1 X165.095 Y90.681 E4.2116
G1 X164.674 Y91.157 E4.23485
G1 X164.181 Y91.588 E4.2588
G1 X163.776 Y91.898 E4.27746
G1 X163.23 Y92.262 E4.30147
G1 X142.606 Y104.17 E5.17277
G1 X142.876 Y104.637 E5.1925
G1 X143.155 Y105.322 E5.21956
G1 X143.449 Y106.227 E5.25438
G1 X143.608 Y106.843 E5.27765
G1 X143.687 Y107.474 E5.30092
G1 X143.687 Y108.109 E5.32415
G1 X143.607 Y108.74 E5.34742
G1 X143.448 Y109.357 E5.37073
G1 X142.969 Y110.828 E5.42733
G1 X142.735 Y111.419 E5.45059
G1 X142.428 Y111.976 E5.47386
G1 X142.054 Y112.49 E5.49711
G1 X141.618 Y112.953 E5.52038
G1 X141.137 Y113.351 E5.54322
G1 X140.574 Y113.761 E5.5687
G1 X140.037 Y114.103 E5.592
G1 X139.462 Y114.374 E5.61525
G1 X138.857 Y114.571 E5.63853
G1 X138.233 Y114.691 E5.66178
G1 X137.598 Y114.731 E5.68506
G1 X136.964 Y114.691 E5.7083
G1 X136.339 Y114.573 E5.73157
G1 X136.113 Y114.499 E5.74027
G1 X135.74 Y115.39 E5.77561
G1 X135.55 Y115.793 E5.79191
G1 X134.936 Y116.96 E5.84016
G1 X134.713 Y117.343 E5.85637
G1 X134.001 Y118.449 E5.90449
G1 X133.745 Y118.81 E5.92069
G1 X132.935 Y119.855 E5.96906
G1 X132.642 Y120.2 E5.98562
G1 X131.745 Y121.165 E6.03382
G1 X131.439 Y121.467 E6.04955
G1 X130.467 Y122.349 E6.09757
G1 X130.113 Y122.642 E6.11438
G1 X129.048 Y123.445 E6.16318
G1 X128.689 Y123.693 E6.17915
G1 X127.583 Y124.386 E6.2269
G1 X127.56 Y124.399 E6.22786
G1 X127.559 Y154.054 E7.31283
G1 X127.511 Y154.746 E7.3382
G1 X127.438 Y155.275 E7.35774
G1 X127.312 Y155.898 E7.381
G1 X127.084 Y156.56 E7.40661
G1 X126.882 Y157.036 E7.42553
G1 X126.597 Y157.604 E7.44878
G1 X126.214 Y158.17 E7.47378
G1 X125.892 Y158.583 E7.49294
G1 X125.471 Y159.059 E7.51619
G1 X124.964 Y159.5 E7.54078
G1 X124.551 Y159.814 E7.55976
G1 X124.022 Y160.166 E7.58301
G1 X123.386 Y160.477 E7.60891
G1 X122.899 Y160.674 E7.62813
G1 X122.296 Y160.875 E7.65138
G1 X121.65 Y161.001 E7.67546
G1 X121.139 Y161.067 E7.69431
G1 X120.49 Y161.109 E7.71811
G1 X114.494 Y161.108 E7.93748
G1 X113.803 Y161.06 E7.96282
G1 X113.274 Y160.987 E7.98236
G1 X112.651 Y160.861 E8.00561
G1 X111.985 Y160.631 E8.03139
G1 X111.508 Y160.428 E8.05036
G1 X110.939 Y160.143 E8.07364
G1 X110.379 Y159.764 E8.09838
G1 X109.967 Y159.443 E8.11749
G1 X109.491 Y159.021 E8.14076
G1 X109.049 Y158.513 E8.1654
G1 X108.735 Y158.1 E8.18438
G1 X108.383 Y157.571 E8.20763
G1 X108.074 Y156.94 E8.23333
G1 X107.876 Y156.452 E8.2526
G1 X107.675 Y155.849 E8.27585
G1 X107.546 Y155.193 E8.30031
G1 X107.481 Y154.686 E8.31902
G1 X107.44 Y154.043 E8.34259
G1 X107.44 Y124.399 E9.42715
G1 X107.386 Y124.368 E9.42943
G1 X106.268 Y123.664 E9.47776
G1 X105.905 Y123.412 E9.49393
G1 X104.851 Y122.612 E9.54234
G1 X104.504 Y122.324 E9.55884
G1 X103.522 Y121.43 E9.60743
G1 X103.205 Y121.115 E9.62378
G1 X102.3 Y120.132 E9.67266
G1 X102.013 Y119.791 E9.68897
G1 X101.209 Y118.746 E9.73721
G1 X100.953 Y118.381 E9.75352
G1 X100.245 Y117.271 E9.80169
G1 X100.021 Y116.884 E9.81805
G1 X99.404 Y115.697 E9.86699
G1 X99.216 Y115.292 E9.88333
G1 X98.955 Y114.659 E9.90838
G1 X98.738 Y114.732 E9.91675
G1 X98.115 Y114.858 E9.94001
G1 X97.481 Y114.905 E9.96327
G1 X96.846 Y114.872 E9.98653
G1 X96.22 Y114.759 E10.0098
G1 X95.613 Y114.569 E10.03307
G1 X95.035 Y114.305 E10.05632
G1 X94.444 Y113.934 E10.08185
G1 X93.761 Y113.436 E10.11278
G1 X93.272 Y113.029 E10.13605
G1 X92.837 Y112.565 E10.15932
G1 X92.464 Y112.05 E10.18259
G1 X92.159 Y111.492 E10.20585
G1 X91.931 Y110.914 E10.22859
G1 X91.428 Y109.37 E10.288
G1 X91.269 Y108.755 E10.31124
G1 X91.189 Y108.124 E10.33451
G1 X91.189 Y107.488 E10.35778
G1 X91.268 Y106.857 E10.38104
G1 X91.427 Y106.237 E10.40446
G1 X91.745 Y105.26 E10.44205
G1 X91.98 Y104.669 E10.46532
G1 X92.287 Y104.112 E10.48859
G1 X92.289 Y104.109 E10.48872
G1 X71.758 Y92.254 E11.3561
G1 X71.175 Y91.861 E11.38182
G1 X70.761 Y91.538 E11.40103
G1 X70.286 Y91.117 E11.42426
G1 X69.846 Y90.611 E11.44879
G1 X69.532 Y90.198 E11.46777
G1 X69.18 Y89.669 E11.49102
G1 X68.871 Y89.038 E11.51672
G1 X68.673 Y88.55 E11.53599
G1 X68.472 Y87.947 E11.55925
G1 X68.339 Y87.262 E11.58478
G1 X68.276 Y86.747 E11.60376
G1 X68.239 Y86.113 E11.62699
G1 X68.287 Y85.439 E11.65171
G1 X68.359 Y84.919 E11.67092
G1 X68.485 Y84.296 E11.69418
G1 X68.7 Y83.668 E11.71846
G1 X68.894 Y83.202 E11.73693
G1 X69.184 Y82.616 E11.76085
G1 X72.191 Y77.411 E11.98077
G1 X72.583 Y76.829 E12.00645
G1 X72.849 Y76.488 E12.02227
G0 F810 X72.906 Y76.415
G0 X73.327 Y75.94
M204 S5000
M205 X30 Y30
G0 F7200 X73.657 Y76.233
M204 S500
M205 X20 Y20
G1 F6000 E12.04887
G1 F900 X74.099 Y75.85 E12.07027
G1 X74.512 Y75.536 E12.08925
G1 X75.019 Y75.201 E12.11148
G1 X75.568 Y74.934 E12.13381
G1 X76.055 Y74.736 E12.15305
G1 X76.632 Y74.545 E12.17529
G1 X77.235 Y74.43 E12.19774
G1 X77.751 Y74.367 E12.21676
G1 X78.358 Y74.333 E12.23901
G1 X78.957 Y74.378 E12.26098
G1 X79.46 Y74.449 E12.27957
G1 X80.054 Y74.574 E12.30178
G1 X80.533 Y74.736 E12.32028
G1 X81.007 Y74.926 E12.33896
G1 X81.598 Y75.213 E12.363
G1 X107.507 Y90.171 E13.45754
G1 X107.761 Y90.022 E13.46831
G1 X108.921 Y89.408 E13.51633
G1 X109.292 Y89.232 E13.53135
G1 X110.515 Y88.718 E13.57989
G1 X110.902 Y88.575 E13.59498
G1 X112.17 Y88.171 E13.64367
G1 X112.562 Y88.065 E13.65853
G1 X113.859 Y87.774 E13.70716
G1 X114.26 Y87.702 E13.72207
G1 X115.567 Y87.528 E13.77031
G1 X115.972 Y87.493 E13.78518
G1 X117.3 Y87.434 E13.83381
G1 X117.714 Y87.434 E13.84896
G1 X119.041 Y87.494 E13.89756
G1 X119.442 Y87.529 E13.91229
G1 X120.749 Y87.703 E13.96053
G1 X121.157 Y87.777 E13.9757
G1 X122.454 Y88.07 E14.02435
G1 X122.839 Y88.174 E14.03894
G1 X124.107 Y88.578 E14.08763
G1 X124.497 Y88.722 E14.10284
G1 X125.72 Y89.237 E14.15139
G1 X126.091 Y89.413 E14.16641
G1 X127.249 Y90.027 E14.21436
G1 X127.493 Y90.171 E14.22473
G1 X153.402 Y75.213 E15.31927
G1 X153.986 Y74.929 E15.34303
G1 X154.475 Y74.732 E15.36232
G1 X155.052 Y74.542 E15.38454
G1 X155.631 Y74.432 E15.40611
G1 X156.146 Y74.368 E15.42509
G1 X156.753 Y74.333 E15.44734
G1 X157.348 Y74.376 E15.46916
G1 X157.869 Y74.448 E15.48841
G1 X158.465 Y74.571 E15.51067
G1 X159.046 Y74.774 E15.53319
G1 X159.523 Y74.977 E15.55215
G1 X160.065 Y75.251 E15.57437
G1 X160.553 Y75.584 E15.59599
G1 X160.965 Y75.905 E15.6151
G1 X161.419 Y76.309 E15.63733
G1 X161.795 Y76.741 E15.65828
G1 X162.105 Y77.146 E15.67694
G1 X162.437 Y77.644 E15.69884
G1 X165.441 Y82.848 E15.91868
G1 X165.721 Y83.421 E15.94201
G1 X165.919 Y83.909 E15.96128
G1 X166.11 Y84.486 E15.98352
G1 X166.224 Y85.084 E16.00579
G1 X166.287 Y85.598 E16.02474
G1 X166.321 Y86.205 E16.04698
G1 X166.278 Y86.792 E16.06851
G1 X166.206 Y87.313 E16.08775
G1 X166.083 Y87.909 E16.11002
G1 X165.882 Y88.486 E16.13237
G1 X165.68 Y88.962 E16.15129
G1 X165.406 Y89.504 E16.17351
G1 X165.07 Y89.998 E16.19537
G1 X164.748 Y90.411 E16.21453
G1 X164.344 Y90.864 E16.23674
G1 X163.913 Y91.239 E16.25764
G1 X163.508 Y91.549 E16.2763
G1 X163.01 Y91.881 E16.2982
G1 X141.969 Y104.03 E17.18711
G1 X142.028 Y104.098 E17.19041
G1 X142.362 Y104.606 E17.21265
G1 X142.626 Y105.153 E17.23487
G1 X142.737 Y105.458 E17.24675
G1 X143.031 Y106.363 E17.28156
G1 X143.18 Y106.952 E17.30379
G1 X143.251 Y107.555 E17.326
G1 X143.242 Y108.163 E17.34825
G1 X143.153 Y108.764 E17.37048
G1 X143.03 Y109.22 E17.38776
G1 X142.551 Y110.691 E17.44436
G1 X142.325 Y111.256 E17.46662
G1 X142.027 Y111.785 E17.48883
G1 X141.663 Y112.271 E17.51105
G1 X141.237 Y112.705 E17.5333
G1 X140.878 Y112.996 E17.5502
G1 X140.315 Y113.406 E17.57569
G1 X139.801 Y113.73 E17.59792
G1 X139.249 Y113.985 E17.62016
G1 X138.669 Y114.164 E17.64237
G1 X138.07 Y114.267 E17.66461
G1 X137.463 Y114.289 E17.68683
G1 X136.858 Y114.232 E17.70906
G1 X136.266 Y114.096 E17.73128
G1 X135.864 Y113.946 E17.74698
G1 X135.842 Y114.006 E17.74932
G1 X135.334 Y115.22 E17.79747
G1 X135.161 Y115.588 E17.81235
G1 X134.547 Y116.755 E17.86059
G1 X134.343 Y117.105 E17.87541
G1 X133.631 Y118.211 E17.92354
G1 X133.398 Y118.54 E17.93829
G1 X132.588 Y119.585 E17.98666
G1 X132.32 Y119.9 E18.00179
G1 X131.423 Y120.865 E18.04999
G1 X131.144 Y121.141 E18.06435
G1 X130.172 Y122.023 E18.11237
G1 X129.848 Y122.291 E18.12775
G1 X128.783 Y123.094 E18.17655
G1 X128.455 Y123.32 E18.19113
G1 X127.349 Y124.013 E18.23888
G1 X127.12 Y124.143 E18.24851
G1 X127.119 Y154.054 E19.34284
G1 X127.076 Y154.686 E19.36602
G1 X127.003 Y155.215 E19.38555
G1 X126.88 Y155.81 E19.40778
G1 X126.679 Y156.388 E19.43017
G1 X126.477 Y156.864 E19.44909
G1 X126.203 Y157.406 E19.47131
G1 X125.867 Y157.9 E19.49317
G1 X125.545 Y158.313 E19.51233
G1 X125.141 Y158.766 E19.53453
G1 X124.698 Y159.15 E19.55598
G1 X124.285 Y159.464 E19.57496
G1 X123.778 Y159.799 E19.5972
G1 X123.221 Y160.069 E19.61984
G1 X122.734 Y160.266 E19.63906
G1 X122.157 Y160.456 E19.66129
G1 X121.594 Y160.565 E19.68227
G1 X121.083 Y160.631 E19.70112
G1 X120.49 Y160.669 E19.72286
G1 X114.494 Y160.668 E19.94223
G1 X113.863 Y160.625 E19.96537
G1 X113.334 Y160.552 E19.98491
G1 X112.739 Y160.429 E20.00714
G1 X112.157 Y160.226 E20.02969
G1 X111.68 Y160.023 E20.04865
G1 X111.138 Y159.749 E20.07087
G1 X110.65 Y159.416 E20.09249
G1 X110.238 Y159.095 E20.1116
G1 X109.784 Y158.691 E20.13383
G1 X109.399 Y158.247 E20.15533
G1 X109.085 Y157.834 E20.17431
G1 X108.75 Y157.327 E20.19655
G1 X108.482 Y156.775 E20.219
G1 X108.284 Y156.287 E20.23826
G1 X108.093 Y155.71 E20.2605
G1 X107.983 Y155.137 E20.28185
G1 X107.918 Y154.63 E20.30055
G1 X107.88 Y154.043 E20.32207
G1 X107.88 Y124.143 E21.41599
G1 X107.62 Y123.995 E21.42694
G1 X106.502 Y123.291 E21.47528
G1 X106.171 Y123.062 E21.49
G1 X105.117 Y122.262 E21.53841
G1 X104.8 Y121.998 E21.55351
G1 X103.818 Y121.104 E21.60209
G1 X103.529 Y120.817 E21.617
G1 X102.624 Y119.834 E21.66588
G1 X102.361 Y119.522 E21.68081
G1 X101.557 Y118.477 E21.72905
G1 X101.324 Y118.144 E21.74392
G1 X100.616 Y117.034 E21.79209
G1 X100.412 Y116.681 E21.807
G1 X99.795 Y115.494 E21.85595
G1 X99.623 Y115.125 E21.87084
G1 X99.2 Y114.1 E21.91141
G1 X98.921 Y114.216 E21.92246
G1 X98.334 Y114.375 E21.94471
G1 X97.732 Y114.455 E21.96693
G1 X97.124 Y114.455 E21.98918
G1 X96.522 Y114.376 E22.01139
G1 X95.935 Y114.218 E22.03363
G1 X95.374 Y113.985 E22.05586
G1 X94.703 Y113.578 E22.08457
G1 X94.02 Y113.08 E22.11549
G1 X93.554 Y112.691 E22.1377
G1 X93.143 Y112.243 E22.15995
G1 X92.794 Y111.746 E22.18216
G1 X92.513 Y111.207 E22.2044
G1 X92.349 Y110.778 E22.22121
G1 X91.846 Y109.234 E22.28062
G1 X91.696 Y108.645 E22.30286
G1 X91.625 Y108.042 E22.32507
G1 X91.634 Y107.434 E22.34732
G1 X91.722 Y106.833 E22.36954
G1 X91.846 Y106.373 E22.38697
G1 X92.164 Y105.396 E22.42456
G1 X92.389 Y104.832 E22.44678
G1 X92.687 Y104.302 E22.46902
G1 X92.934 Y103.973 E22.48407
G1 X71.978 Y91.873 E23.3694
G1 X71.446 Y91.515 E23.39286
G1 X71.032 Y91.192 E23.41207
G1 X70.579 Y90.787 E23.4343
G1 X70.196 Y90.345 E23.4557
G1 X69.882 Y89.932 E23.47468
G1 X69.547 Y89.425 E23.49691
G1 X69.279 Y88.873 E23.51936
G1 X69.081 Y88.385 E23.53863
G1 X68.89 Y87.808 E23.56087
G1 X68.776 Y87.209 E23.58318
G1 X68.713 Y86.694 E23.60216
G1 X68.679 Y86.087 E23.6244
G1 X68.723 Y85.499 E23.64597
G1 X68.795 Y84.979 E23.66518
G1 X68.917 Y84.384 E23.6874
G1 X69.106 Y83.837 E23.70858
G1 X69.3 Y83.371 E23.72704
G1 X69.565 Y82.836 E23.74889
G1 X72.572 Y77.631 E23.96881
G1 X72.929 Y77.1 E23.99222
G1 X73.179 Y76.78 E24.00708
G0 F810 X73.252 Y76.686
G0 X73.657 Y76.233
M204 S5000
M205 X30 Y30
G0 F7200 X73.986 Y76.527
M204 S500
M205 X20 Y20
G1 F6000 E24.03368
G1 F900 X74.365 Y76.201 E24.05197
G1 X74.778 Y75.887 E24.07095
G1 X75.261 Y75.569 E24.09211
G1 X75.734 Y75.342 E24.1113
G1 X76.221 Y75.144 E24.13053
G1 X76.77 Y74.964 E24.15167
G1 X77.288 Y74.867 E24.17095
G1 X77.804 Y74.804 E24.18997
G1 X78.382 Y74.774 E24.21115
G1 X78.895 Y74.814 E24.22997
G1 X79.398 Y74.885 E24.24856
G1 X79.964 Y75.005 E24.26973
G1 X80.369 Y75.144 E24.28539
G1 X80.843 Y75.334 E24.30408
G1 X81.378 Y75.594 E24.32584
G1 X107.515 Y90.684 E25.43002
G1 X107.652 Y90.595 E25.436
G1 X107.967 Y90.411 E25.44934
G1 X109.127 Y89.797 E25.49736
G1 X109.462 Y89.637 E25.51094
G1 X110.685 Y89.123 E25.55948
G1 X111.036 Y88.994 E25.57316
G1 X112.304 Y88.59 E25.62185
G1 X112.658 Y88.494 E25.63527
G1 X113.955 Y88.203 E25.6839
G1 X114.318 Y88.139 E25.69739
G1 X115.625 Y87.965 E25.74563
G1 X115.991 Y87.932 E25.75907
G1 X117.319 Y87.873 E25.80771
G1 X117.694 Y87.873 E25.82143
G1 X119.021 Y87.933 E25.87003
G1 X119.384 Y87.966 E25.88336
G1 X120.691 Y88.14 E25.9316
G1 X121.06 Y88.206 E25.94532
G1 X122.357 Y88.499 E25.99396
G1 X122.705 Y88.593 E26.00715
G1 X123.973 Y88.997 E26.05584
G1 X124.326 Y89.128 E26.06962
G1 X125.549 Y89.643 E26.11817
G1 X125.885 Y89.802 E26.13177
G1 X127.043 Y90.416 E26.17972
G1 X127.358 Y90.601 E26.19309
G1 X127.485 Y90.683 E26.19862
G1 X153.622 Y75.594 E27.30278
G1 X154.15 Y75.337 E27.32426
G1 X154.639 Y75.14 E27.34355
G1 X155.189 Y74.961 E27.36471
G1 X155.686 Y74.869 E27.3832
G1 X156.201 Y74.805 E27.40219
G1 X156.778 Y74.773 E27.42333
G1 X157.288 Y74.812 E27.44205
G1 X157.809 Y74.884 E27.46129
G1 X158.375 Y75.003 E27.48245
G1 X158.874 Y75.179 E27.50181
G1 X159.351 Y75.382 E27.52078
G1 X159.866 Y75.644 E27.54192
G1 X160.283 Y75.931 E27.56044
G1 X160.695 Y76.252 E27.57954
G1 X161.125 Y76.638 E27.60069
G1 X161.445 Y77.008 E27.61858
G1 X161.755 Y77.413 E27.63724
G1 X162.056 Y77.864 E27.65708
G1 X165.06 Y83.068 E27.87692
