;FLAVOR:Marlin
;TIME:4263
;Filament used: 2.72269m
;Layer height: 0.16
;Generated with Cura_SteamEngine 3.6.0
M140 S70
M105
M190 S70
M104 S215
M105
M109 S215
M82 ;absolute extrusion mode
G28 ; home all axes
M117 Purge extruder
G92 E0 ; reset extruder
G1 Z1.0 F3000 ; move z up little to prevent scratching of surface
G1 X0.1 Y20 Z0.3 F5000.0 ; move to start-line position G1 X0.1 Y200.0 Z0.3 F1500.0 E15 ; draw 1st line
G1 X0.4 Y200.0 Z0.3 F5000.0 ; move to side a little
G1 X0.4 Y20 Z0.3 F1500.0 E30 ; draw 2nd line
G92 E0 ; reset extruder
G1 Z1.0 F3000 ; move z up little to prevent scratching of surface
M117 All systems go!
G92 E0
G1 F6000 E-5
;LAYER_COUNT:88
;LAYER:0
M107
M204 S5000
M205 X30 Y30
G0 F7200 X87.529 Y99.254 Z0.2
M204 S500
M205 X20 Y20
;TYPE:SKIRT
G1 F6000 E0
G1 F900 X88.055 Y98.896 E0.02328
G1 X88.622 Y98.608 E0.04655
G1 X89.22 Y98.392 E0.06981
G1 X89.841 Y98.254 E0.09308
G1 X90.63 Y98.192 E0.12204
G1 X144.37 Y98.192 E2.08818
G1 X145.005 Y98.232 E2.11146
G1 X145.629 Y98.351 E2.1347
G1 X146.234 Y98.548 E2.15797
G1 X146.809 Y98.819 E2.18123
G1 X147.346 Y99.16 E2.2045
G1 X147.948 Y99.674 E2.23347
G1 X148.077 Y99.803 E2.24014
G1 X148.497 Y100.28 E2.26339
G1 X148.855 Y100.806 E2.28667
G1 X149.143 Y101.373 E2.30994
G1 X149.359 Y101.971 E2.3332
G1 X149.497 Y102.592 E2.35647
G1 X149.559 Y103.381 E2.38543
G1 X149.559 Y134.423 E3.52114
G1 X149.519 Y135.058 E3.54442
G1 X149.4 Y135.682 E3.56766
G1 X149.203 Y136.287 E3.59093
G1 X148.932 Y136.862 E3.61419
G1 X148.591 Y137.399 E3.63746
G1 X148.077 Y138.001 E3.66643
G1 X147.948 Y138.13 E3.6731
G1 X147.471 Y138.55 E3.69635
G1 X146.945 Y138.908 E3.71963
G1 X146.378 Y139.196 E3.7429
G1 X145.78 Y139.412 E3.76616
G1 X145.159 Y139.55 E3.78943
G1 X144.37 Y139.612 E3.81839
G1 X90.63 Y139.612 E5.78453
G1 X89.995 Y139.572 E5.80781
G1 X89.371 Y139.453 E5.83105
G1 X88.766 Y139.256 E5.85433
G1 X88.191 Y138.985 E5.87758
G1 X87.654 Y138.644 E5.90086
G1 X87.052 Y138.13 E5.92982
G1 X86.923 Y138.001 E5.93649
G1 X86.503 Y137.524 E5.95975
G1 X86.145 Y136.998 E5.98302
G1 X85.857 Y136.431 E6.00629
G1 X85.641 Y135.833 E6.02955
G1 X85.503 Y135.212 E6.05283
G1 X85.441 Y134.423 E6.08178
G1 X85.441 Y103.381 E7.21749
G1 X85.481 Y102.746 E7.24077
G1 X85.6 Y102.122 E7.26401
G1 X85.797 Y101.517 E7.28729
G1 X86.068 Y100.942 E7.31054
G1 X86.409 Y100.405 E7.33382
G1 X86.923 Y99.803 E7.36278
G1 X86.987 Y99.739 E7.36609
G0 F810 X87.052 Y99.674
G0 X87.529 Y99.254
M204 S5000
M205 X30 Y30
G0 F7200 X87.82 Y99.585
M204 S500
M205 X20 Y20
G1 F6000 E7.39269
G1 F900 X88.326 Y99.248 E7.41493
G1 X88.871 Y98.98 E7.43715
G1 X89.447 Y98.786 E7.45939
G1 X90.043 Y98.669 E7.48161
G1 X90.63 Y98.632 E7.50313
G1 X144.37 Y98.632 E9.46927
G1 X144.976 Y98.672 E9.49149
G1 X145.572 Y98.791 E9.51372
G1 X146.147 Y98.987 E9.53595
G1 X146.691 Y99.258 E9.55818
G1 X147.196 Y99.597 E9.58044
G1 X147.637 Y99.985 E9.60193
G1 X147.766 Y100.114 E9.6086
G1 X148.166 Y100.571 E9.63082
G1 X148.503 Y101.077 E9.65306
G1 X148.771 Y101.622 E9.67528
G1 X148.965 Y102.198 E9.69752
G1 X149.082 Y102.794 E9.71974
G1 X149.119 Y103.381 E9.74126
G1 X149.119 Y134.423 E10.87697
G1 X149.079 Y135.029 E10.89919
G1 X148.96 Y135.625 E10.92142
G1 X148.764 Y136.2 E10.94365
G1 X148.493 Y136.744 E10.96588
G1 X148.154 Y137.249 E10.98814
G1 X147.766 Y137.69 E11.00963
G1 X147.637 Y137.819 E11.0163
G1 X147.18 Y138.219 E11.03852
G1 X146.674 Y138.556 E11.06076
G1 X146.129 Y138.824 E11.08298
G1 X145.553 Y139.018 E11.10522
G1 X144.957 Y139.135 E11.12744
G1 X144.37 Y139.172 E11.14896
G1 X90.63 Y139.172 E13.1151
G1 X90.024 Y139.132 E13.13732
G1 X89.428 Y139.013 E13.15956
G1 X88.853 Y138.817 E13.18178
G1 X88.309 Y138.546 E13.20402
G1 X87.804 Y138.207 E13.22627
G1 X87.363 Y137.819 E13.24776
G1 X87.234 Y137.69 E13.25443
G1 X86.834 Y137.233 E13.27665
G1 X86.497 Y136.727 E13.2989
G1 X86.229 Y136.182 E13.32112
G1 X86.035 Y135.606 E13.34335
G1 X85.918 Y135.01 E13.36558
G1 X85.881 Y134.423 E13.38709
G1 X85.881 Y103.381 E14.5228
G1 X85.921 Y102.775 E14.54502
G1 X86.04 Y102.179 E14.56726
G1 X86.236 Y101.604 E14.58948
G1 X86.507 Y101.06 E14.61172
G1 X86.846 Y100.555 E14.63397
G1 X87.234 Y100.114 E14.65546
G1 X87.278 Y100.07 E14.65774
G0 F810 X87.363 Y99.985
G0 X87.82 Y99.585
M204 S5000
M205 X30 Y30
G0 F7200 X88.11 Y99.917
M204 S500
M205 X20 Y20
G1 F6000 E14.68434
G1 F900 X88.594 Y99.601 E14.70548
G1 X89.117 Y99.355 E14.72663
G1 X89.669 Y99.184 E14.74777
G1 X90.24 Y99.09 E14.76894
G1 X90.63 Y99.072 E14.78323
G1 X144.37 Y99.072 E16.74937
G1 X144.947 Y99.112 E16.77053
G1 X145.512 Y99.231 E16.79165
G1 X146.056 Y99.427 E16.81281
G1 X146.567 Y99.696 E16.83394
G1 X147.037 Y100.033 E16.85509
G1 X147.326 Y100.296 E16.86939
G1 X147.455 Y100.425 E16.87607
G1 X147.834 Y100.861 E16.8972
G1 X148.15 Y101.345 E16.91835
G1 X148.396 Y101.868 E16.93949
G1 X148.567 Y102.42 E16.96064
G1 X148.661 Y102.991 E16.98181
G1 X148.679 Y103.381 E16.99609
G1 X148.679 Y134.423 E18.1318
G1 X148.639 Y135 E18.15296
G1 X148.52 Y135.565 E18.17408
G1 X148.324 Y136.109 E18.19524
G1 X148.055 Y136.62 E18.21637
G1 X147.718 Y137.09 E18.23753
G1 X147.455 Y137.379 E18.25182
G1 X147.326 Y137.508 E18.2585
G1 X146.89 Y137.887 E18.27963
G1 X146.406 Y138.203 E18.30078
G1 X145.883 Y138.449 E18.32193
G1 X145.331 Y138.62 E18.34307
G1 X144.76 Y138.714 E18.36424
G1 X144.37 Y138.732 E18.37852
G1 X90.63 Y138.732 E20.34466
G1 X90.053 Y138.692 E20.36583
G1 X89.488 Y138.573 E20.38695
G1 X88.944 Y138.377 E20.40811
G1 X88.433 Y138.108 E20.42923
G1 X87.963 Y137.771 E20.45039
G1 X87.674 Y137.508 E20.46469
G1 X87.545 Y137.379 E20.47136
G1 X87.166 Y136.943 E20.4925
G1 X86.85 Y136.459 E20.51365
G1 X86.604 Y135.936 E20.53479
G1 X86.433 Y135.384 E20.55593
G1 X86.339 Y134.813 E20.57711
G1 X86.321 Y134.423 E20.59139
G1 X86.321 Y103.381 E21.7271
G1 X86.361 Y102.804 E21.74826
G1 X86.48 Y102.239 E21.76938
G1 X86.676 Y101.695 E21.79054
G1 X86.945 Y101.184 E21.81167
G1 X87.282 Y100.714 E21.83282
G1 X87.545 Y100.425 E21.84712
G1 X87.568 Y100.402 E21.84831
G0 F810 X87.674 Y100.296
G0 X88.11 Y99.917
M204 S5000
M205 X30 Y30
G0 F7200 X88.399 Y100.25
M204 S500
M205 X20 Y20
G1 F6000 E21.87491
G1 F900 X88.861 Y99.957 E21.89492
G1 X89.36 Y99.734 E21.91492
G1 X89.886 Y99.587 E21.9349
G1 X90.63 Y99.512 E21.96226
G1 X144.37 Y99.512 E23.9284
G1 X144.915 Y99.552 E23.94839
G1 X145.449 Y99.671 E23.96841
G1 X145.959 Y99.866 E23.98839
G1 X146.436 Y100.134 E24.0084
G1 X147.015 Y100.607 E24.03576
G1 X147.144 Y100.736 E24.04243
G1 X147.501 Y101.15 E24.06243
G1 X147.794 Y101.612 E24.08245
G1 X148.017 Y102.111 E24.10244
G1 X148.164 Y102.637 E24.12243
G1 X148.239 Y103.381 E24.14978
G1 X148.239 Y134.423 E25.28549
G1 X148.199 Y134.968 E25.30548
G1 X148.08 Y135.502 E25.3255
G1 X147.885 Y136.012 E25.34548
G1 X147.617 Y136.489 E25.36549
G1 X147.144 Y137.068 E25.39285
G1 X147.015 Y137.197 E25.39952
G1 X146.601 Y137.554 E25.41952
G1 X146.139 Y137.847 E25.43954
G1 X145.64 Y138.07 E25.45953
G1 X145.114 Y138.217 E25.47952
G1 X144.37 Y138.292 E25.50687
G1 X90.63 Y138.292 E27.47301
G1 X90.085 Y138.252 E27.49301
G1 X89.551 Y138.133 E27.51302
G1 X89.041 Y137.938 E27.533
G1 X88.564 Y137.67 E27.55302
G1 X87.985 Y137.197 E27.58037
G1 X87.856 Y137.068 E27.58704
G1 X87.499 Y136.654 E27.60705
G1 X87.206 Y136.192 E27.62706
G1 X86.983 Y135.693 E27.64706
G1 X86.836 Y135.167 E27.66704
G1 X86.761 Y134.423 E27.6944
G1 X86.761 Y103.381 E28.8301
G1 X86.801 Y102.836 E28.8501
G1 X86.92 Y102.302 E28.87011
G1 X87.115 Y101.792 E28.89009
G1 X87.383 Y101.315 E28.91011
G1 X87.856 Y100.736 E28.93746
G1 X87.857 Y100.735 E28.93751
G0 F810 X87.985 Y100.607
G0 X88.399 Y100.25
M204 S5000
M205 X30 Y30
G0 F7200 X88.687 Y100.585
M204 S500
M205 X20 Y20
G1 F6000 E28.96411
G1 F900 X89.124 Y100.316 E28.98289
G1 X89.598 Y100.118 E29.00168
G1 X90.096 Y99.995 E29.02045
G1 X90.63 Y99.952 E29.04005
G1 X144.37 Y99.952 E31.00619
G1 X144.882 Y99.992 E31.02498
G1 X145.381 Y100.111 E31.04374
G1 X145.856 Y100.306 E31.06253
G1 X146.295 Y100.572 E31.08131
G1 X146.703 Y100.919 E31.10091
G1 X146.832 Y101.048 E31.10758
G1 X147.166 Y101.438 E31.12637
G1 X147.435 Y101.875 E31.14514
G1 X147.633 Y102.349 E31.16393
G1 X147.756 Y102.847 E31.1827
G1 X147.799 Y103.381 E31.2023
G1 X147.799 Y134.423 E32.33801
G1 X147.759 Y134.935 E32.3568
G1 X147.64 Y135.434 E32.37557
G1 X147.445 Y135.909 E32.39435
G1 X147.179 Y136.348 E32.41313
G1 X146.832 Y136.756 E32.43273
G1 X146.703 Y136.885 E32.4394
G1 X146.313 Y137.219 E32.45819
G1 X145.876 Y137.488 E32.47696
G1 X145.402 Y137.686 E32.49576
G1 X144.904 Y137.809 E32.51452
G1 X144.37 Y137.852 E32.53412
G1 X90.63 Y137.852 E34.50026
G1 X90.118 Y137.812 E34.51905
G1 X89.619 Y137.693 E34.53782
G1 X89.144 Y137.498 E34.55661
G1 X88.705 Y137.232 E34.57539
G1 X88.297 Y136.885 E34.59498
G1 X88.168 Y136.756 E34.60166
G1 X87.834 Y136.366 E34.62044
G1 X87.565 Y135.929 E34.63922
G1 X87.367 Y135.455 E34.65801
G1 X87.244 Y134.957 E34.67678
G1 X87.201 Y134.423 E34.69638
G1 X87.201 Y103.381 E35.83209
G1 X87.241 Y102.869 E35.85088
G1 X87.36 Y102.37 E35.86964
G1 X87.555 Y101.895 E35.88843
G1 X87.821 Y101.456 E35.90721
G1 X88.148 Y101.072 E35.92566
G0 F810 X88.168 Y101.048
G0 X88.297 Y100.919
G0 X88.687 Y100.585
M204 S5000
M205 X30 Y30
G0 F7200 X88.973 Y100.921
M204 S500
M205 X20 Y20
G1 F6000 E35.95226
G1 F900 X89.384 Y100.678 E35.96973
G1 X89.83 Y100.506 E35.98722
G1 X90.298 Y100.411 E36.00469
G1 X90.63 Y100.392 E36.01686
G1 X144.37 Y100.392 E37.983
G1 X144.846 Y100.432 E38.00047
G1 X145.309 Y100.551 E38.01796
G1 X145.746 Y100.745 E38.03546
G1 X146.144 Y101.009 E38.05293
G1 X146.392 Y101.23 E38.06508
G1 X146.521 Y101.359 E38.07176
G1 X146.83 Y101.724 E38.08925
G1 X147.073 Y102.135 E38.10672
G1 X147.245 Y102.581 E38.12421
G1 X147.34 Y103.049 E38.14168
G1 X147.359 Y103.381 E38.15385
G1 X147.359 Y134.423 E39.28956
G1 X147.319 Y134.899 E39.30703
G1 X147.2 Y135.362 E39.32452
G1 X147.006 Y135.799 E39.34201
G1 X146.742 Y136.197 E39.35949
G1 X146.521 Y136.445 E39.37164
G1 X146.392 Y136.574 E39.37832
G1 X146.027 Y136.883 E39.39581
G1 X145.616 Y137.126 E39.41328
G1 X145.17 Y137.298 E39.43077
G1 X144.702 Y137.393 E39.44824
G1 X144.37 Y137.412 E39.46041
G1 X90.63 Y137.412 E41.42655
G1 X90.154 Y137.372 E41.44402
G1 X89.691 Y137.253 E41.46151
G1 X89.254 Y137.059 E41.47901
G1 X88.856 Y136.795 E41.49648
G1 X88.608 Y136.574 E41.50863
G1 X88.479 Y136.445 E41.51531
G1 X88.17 Y136.08 E41.5328
G1 X87.927 Y135.669 E41.55027
G1 X87.755 Y135.223 E41.56776
G1 X87.66 Y134.755 E41.58523
G1 X87.641 Y134.423 E41.5974
G1 X87.641 Y103.381 E42.73311
G1 X87.681 Y102.905 E42.75058
G1 X87.8 Y102.442 E42.76807
G1 X87.994 Y102.005 E42.78557
G1 X88.258 Y101.607 E42.80304
G1 X88.435 Y101.409 E42.81276
G0 F810 X88.479 Y101.359
G0 X88.608 Y101.23
G0 X88.973 Y100.921
M204 S5000
M205 X30 Y30
G0 F7200 X89.257 Y101.26
M204 S500
M205 X20 Y20
G1 F6000 E42.83935
G1 F900 X89.64 Y101.044 E42.85544
G1 X90.055 Y100.901 E42.8715
G1 X90.63 Y100.832 E42.89269
G1 X144.37 Y100.832 E44.85883
G1 X144.808 Y100.872 E44.87492
G1 X145.231 Y100.99 E44.89099
G1 X145.626 Y101.183 E44.90707
G1 X146.081 Y101.541 E44.92825
G1 X146.21 Y101.67 E44.93493
G1 X146.491 Y102.008 E44.95101
G1 X146.707 Y102.391 E44.9671
G1 X146.85 Y102.806 E44.98316
G1 X146.919 Y103.381 E45.00434
G1 X146.919 Y134.423 E46.14005
G1 X146.879 Y134.861 E46.15614
G1 X146.761 Y135.284 E46.17221
G1 X146.568 Y135.679 E46.18829
G1 X146.21 Y136.134 E46.20948
G1 X146.081 Y136.263 E46.21615
G1 X145.743 Y136.544 E46.23223
G1 X145.36 Y136.76 E46.24832
G1 X144.945 Y136.903 E46.26438
G1 X144.37 Y136.972 E46.28557
G1 X90.63 Y136.972 E48.25171
G1 X90.192 Y136.932 E48.2678
G1 X89.769 Y136.814 E48.28386
G1 X89.374 Y136.621 E48.29995
G1 X88.919 Y136.263 E48.32113
G1 X88.79 Y136.134 E48.3278
G1 X88.509 Y135.796 E48.34389
G1 X88.293 Y135.413 E48.35997
G1 X88.15 Y134.998 E48.37603
G1 X88.081 Y134.423 E48.39722
G1 X88.081 Y103.381 E49.53293
G1 X88.121 Y102.943 E49.54902
G1 X88.239 Y102.52 E49.56509
G1 X88.432 Y102.125 E49.58117
G1 X88.725 Y101.753 E49.5985
G0 F810 X88.79 Y101.67
G0 X88.919 Y101.541
G0 X89.257 Y101.26
M204 S5000
M205 X30 Y30
G0 F7200 X89.538 Y101.6
M204 S500
M205 X20 Y20
G1 F6000 E49.62509
G1 F900 X89.89 Y101.416 E49.63962
G1 X90.271 Y101.305 E49.65414
G1 X90.63 Y101.272 E49.66733
G1 X144.37 Y101.272 E51.63347
G1 X144.765 Y101.312 E51.648
G1 X145.145 Y101.43 E51.66256
G1 X145.493 Y101.622 E51.6771
G1 X145.77 Y101.852 E51.69027
G1 X145.899 Y101.981 E51.69694
G1 X146.151 Y102.289 E51.7115
G1 X146.335 Y102.641 E51.72604
G1 X146.446 Y103.022 E51.74055
G1 X146.479 Y103.381 E51.75374
G1 X146.479 Y134.423 E52.88945
G1 X146.439 Y134.818 E52.90398
G1 X146.321 Y135.198 E52.91853
G1 X146.129 Y135.546 E52.93308
G1 X145.899 Y135.823 E52.94625
G1 X145.77 Y135.952 E52.95292
G1 X145.462 Y136.204 E52.96748
G1 X145.11 Y136.388 E52.98201
G1 X144.729 Y136.499 E52.99653
G1 X144.37 Y136.532 E53.00972
G1 X90.63 Y136.532 E54.97586
G1 X90.235 Y136.492 E54.99039
G1 X89.855 Y136.374 E55.00495
G1 X89.507 Y136.182 E55.01949
G1 X89.23 Y135.952 E55.03266
G1 X89.101 Y135.823 E55.03933
G1 X88.849 Y135.515 E55.05389
G1 X88.665 Y135.163 E55.06843
G1 X88.554 Y134.782 E55.08294
G1 X88.521 Y134.423 E55.09613
G1 X88.521 Y103.381 E56.23184
G1 X88.561 Y102.986 E56.24637
G1 X88.679 Y102.606 E56.26092
G1 X88.871 Y102.258 E56.27547
G1 X89.007 Y102.094 E56.28326
G0 F810 X89.101 Y101.981
G0 X89.23 Y101.852
G0 X89.538 Y101.6
M204 S5000
M205 X30 Y30
G0 F7200 X89.815 Y101.945
M204 S500
M205 X20 Y20
G1 F6000 E56.30986
G1 F900 X90.132 Y101.795 E56.32269
G1 X90.63 Y101.712 E56.34116
G1 X144.37 Y101.712 E58.3073
G1 X144.718 Y101.752 E58.32012
G1 X145.048 Y101.869 E58.33293
G1 X145.459 Y102.163 E58.35141
G1 X145.588 Y102.292 E58.35809
G1 X145.806 Y102.566 E58.3709
G1 X145.956 Y102.883 E58.38373
G1 X146.039 Y103.381 E58.4022
G1 X146.039 Y134.423 E59.53791
G1 X145.999 Y134.771 E59.55072
G1 X145.882 Y135.101 E59.56353
G1 X145.588 Y135.512 E59.58202
G1 X145.459 Y135.641 E59.5887
G1 X145.185 Y135.859 E59.60151
G1 X144.868 Y136.009 E59.61434
G1 X144.37 Y136.092 E59.63281
G1 X90.63 Y136.092 E61.59895
G1 X90.282 Y136.052 E61.61176
G1 X89.952 Y135.935 E61.62457
G1 X89.541 Y135.641 E61.64306
G1 X89.412 Y135.512 E61.64974
G1 X89.194 Y135.238 E61.66255
G1 X89.044 Y134.921 E61.67538
G1 X88.961 Y134.423 E61.69385
G1 X88.961 Y103.381 E62.82956
G1 X89.001 Y103.033 E62.84237
G1 X89.118 Y102.703 E62.85518
G1 X89.299 Y102.45 E62.86656
G0 F810 X89.412 Y102.292
G0 X89.541 Y102.163
G0 X89.815 Y101.945
M204 S5000
M205 X30 Y30
G0 F7200 X89.852 Y102.474
M204 S500
M205 X20 Y20
G1 F6000 E62.89316
G1 F900 X90.088 Y102.295 E62.904
G1 X90.363 Y102.185 E62.91483
G1 X90.63 Y102.152 E62.92468
G1 X144.37 Y102.152 E64.89082
G1 X144.663 Y102.192 E64.90164
G1 X144.935 Y102.308 E64.91245
G1 X145.148 Y102.474 E64.92233
G1 X145.277 Y102.603 E64.92901
G1 X145.456 Y102.839 E64.93985
G1 X145.566 Y103.114 E64.95068
G1 X145.599 Y103.381 E64.96052
G1 X145.599 Y134.423 E66.09623
G1 X145.559 Y134.716 E66.10705
G1 X145.443 Y134.988 E66.11787
G1 X145.277 Y135.201 E66.12775
G1 X145.148 Y135.33 E66.13442
G1 X144.912 Y135.509 E66.14526
G1 X144.637 Y135.619 E66.1561
G1 X144.37 Y135.652 E66.16594
G1 X90.63 Y135.652 E68.13208
G1 X90.337 Y135.612 E68.1429
G1 X90.065 Y135.496 E68.15372
G1 X89.852 Y135.33 E68.1636
G1 X89.723 Y135.201 E68.17027
G1 X89.544 Y134.965 E68.18111
G1 X89.434 Y134.69 E68.19194
G1 X89.401 Y134.423 E68.20179
G1 X89.401 Y103.381 E69.33749
G1 X89.441 Y103.088 E69.34831
G1 X89.449 Y103.069 E69.34907
G0 F810 X89.557 Y102.816
G0 X89.723 Y102.603
G0 X89.852 Y102.474
M204 S5000
M205 X30 Y30
G0 F7200 X90.163 Y102.785
M204 S500
M205 X20 Y20
G1 F6000 E69.37567
G1 F900 X90.351 Y102.654 E69.38405
G1 X90.63 Y102.592 E69.39451
G1 X144.37 Y102.592 E71.36065
G1 X144.595 Y102.632 E71.36901
G1 X144.837 Y102.785 E71.37948
G1 X144.966 Y102.914 E71.38616
G1 X145.097 Y103.102 E71.39454
G1 X145.159 Y103.381 E71.405
G1 X145.159 Y134.423 E72.5407
G1 X145.119 Y134.648 E72.54906
G1 X144.966 Y134.89 E72.55954
G1 X144.837 Y135.019 E72.56621
G1 X144.649 Y135.15 E72.5746
G1 X144.37 Y135.212 E72.58505
G1 X90.63 Y135.212 E74.55119
G1 X90.405 Y135.172 E74.55955
G1 X90.163 Y135.019 E74.57003
G1 X90.034 Y134.89 E74.5767
