;FLAVOR:Marlin
;TIME:3012
;Filament used: 1.95734m
;Layer height: 0.16
;Generated with Cura_SteamEngine 3.6.0
M140 S70
M105
M190 S70
M104 S215
M105
M109 S215
M82 ;absolute extrusion mode
G28 ; home all axes
M117 Purge extruder
G92 E0 ; reset extruder
G1 Z1.0 F3000 ; move z up little to prevent scratching of surface
G1 X0.1 Y20 Z0.3 F5000.0 ; move to start-line position G1 X0.1 Y200.0 Z0.3 F1500.0 E15 ; draw 1st line
G1 X0.4 Y200.0 Z0.3 F5000.0 ; move to side a little
G1 X0.4 Y20 Z0.3 F1500.0 E30 ; draw 2nd line
G92 E0 ; reset extruder
G1 Z1.0 F3000 ; move z up little to prevent scratching of surface
M117 All systems go!
G92 E0
G1 F6000 E-5
;LAYER_COUNT:72
;LAYER:0
M107
M204 S5000
M205 X30 Y30
G0 F7200 X87.051 Y98.27 Z0.2
M204 S500
M205 X20 Y20
;TYPE:SKIRT
G1 F6000 E0
G1 F900 X87.528 Y97.85 E0.02325
G1 X88.054 Y97.492 E0.04653
G1 X88.621 Y97.204 E0.0698
G1 X89.219 Y96.988 E0.09306
G1 X89.84 Y96.85 E0.11633
G1 X90.629 Y96.788 E0.14529
G1 X144.371 Y96.788 E2.1115
G1 X145.006 Y96.828 E2.13478
G1 X145.63 Y96.947 E2.15802
G1 X146.235 Y97.144 E2.1813
G1 X146.81 Y97.415 E2.20456
G1 X147.347 Y97.756 E2.22783
G1 X147.949 Y98.27 E2.25679
G1 X148.078 Y98.399 E2.26347
G1 X148.498 Y98.876 E2.28672
G1 X148.856 Y99.402 E2.31
G1 X149.144 Y99.969 E2.33326
G1 X149.36 Y100.567 E2.35653
G1 X149.498 Y101.188 E2.3798
G1 X149.56 Y101.977 E2.40876
G1 X149.56 Y133.023 E3.54461
G1 X149.52 Y133.658 E3.56789
G1 X149.401 Y134.282 E3.59113
G1 X149.204 Y134.887 E3.61441
G1 X148.933 Y135.462 E3.63766
G1 X148.592 Y135.999 E3.66094
G1 X148.078 Y136.601 E3.6899
G1 X147.949 Y136.73 E3.69657
G1 X147.472 Y137.15 E3.71982
G1 X146.946 Y137.508 E3.7431
G1 X146.379 Y137.796 E3.76637
G1 X145.781 Y138.012 E3.78963
G1 X145.16 Y138.15 E3.81291
G1 X144.371 Y138.212 E3.84186
G1 X90.629 Y138.212 E5.80807
G1 X89.994 Y138.172 E5.83135
G1 X89.37 Y138.053 E5.85459
G1 X88.765 Y137.856 E5.87787
G1 X88.19 Y137.585 E5.90113
G1 X87.653 Y137.244 E5.9244
G1 X87.051 Y136.73 E5.95336
G1 X86.922 Y136.601 E5.96004
G1 X86.502 Y136.124 E5.98329
G1 X86.144 Y135.598 E6.00657
G1 X85.856 Y135.031 E6.02984
G1 X85.64 Y134.433 E6.0531
G1 X85.502 Y133.812 E6.07637
G1 X85.44 Y133.023 E6.10533
G1 X85.44 Y101.977 E7.24118
G1 X85.48 Y101.342 E7.26446
G1 X85.599 Y100.718 E7.2877
G1 X85.796 Y100.113 E7.31098
G1 X86.067 Y99.538 E7.33424
G1 X86.408 Y99.001 E7.35751
G1 X86.568 Y98.813 E7.36654
G0 F810 X86.922 Y98.399
G0 X87.051 Y98.27
M204 S5000
M205 X30 Y30
G0 F7200 X87.362 Y98.581
M204 S500
M205 X20 Y20
G1 F6000 E7.39314
G1 F900 X87.819 Y98.181 E7.41536
G1 X88.325 Y97.844 E7.4376
G1 X88.87 Y97.576 E7.45982
G1 X89.446 Y97.382 E7.48206
G1 X90.042 Y97.265 E7.50428
G1 X90.629 Y97.228 E7.5258
G1 X144.371 Y97.228 E9.49201
G1 X144.977 Y97.268 E9.51423
G1 X145.573 Y97.387 E9.53647
G1 X146.148 Y97.583 E9.55869
G1 X146.692 Y97.854 E9.58093
G1 X147.197 Y98.193 E9.60318
G1 X147.638 Y98.581 E9.62467
G1 X147.767 Y98.71 E9.63135
G1 X148.167 Y99.167 E9.65356
G1 X148.504 Y99.673 E9.67581
G1 X148.772 Y100.218 E9.69803
G1 X148.966 Y100.794 E9.72026
G1 X149.083 Y101.39 E9.74249
G1 X149.12 Y101.977 E9.764
G1 X149.12 Y133.023 E10.89986
G1 X149.08 Y133.629 E10.92208
G1 X148.961 Y134.225 E10.94431
G1 X148.765 Y134.8 E10.96654
G1 X148.494 Y135.344 E10.98877
G1 X148.155 Y135.849 E11.01103
G1 X147.767 Y136.29 E11.03252
G1 X147.638 Y136.419 E11.03919
G1 X147.181 Y136.819 E11.06141
G1 X146.675 Y137.156 E11.08365
G1 X146.13 Y137.424 E11.10587
G1 X145.554 Y137.618 E11.12811
G1 X144.958 Y137.735 E11.15033
G1 X144.371 Y137.772 E11.17185
G1 X90.629 Y137.772 E13.13806
G1 X90.023 Y137.732 E13.16028
G1 X89.427 Y137.613 E13.18252
G1 X88.852 Y137.417 E13.20475
G1 X88.308 Y137.146 E13.22698
G1 X87.803 Y136.807 E13.24923
G1 X87.362 Y136.419 E13.27072
G1 X87.233 Y136.29 E13.2774
G1 X86.833 Y135.833 E13.29962
G1 X86.496 Y135.327 E13.32186
G1 X86.228 Y134.782 E13.34408
G1 X86.034 Y134.206 E13.36632
G1 X85.917 Y133.61 E13.38854
G1 X85.88 Y133.023 E13.41006
G1 X85.88 Y101.977 E14.54591
G1 X85.92 Y101.371 E14.56813
G1 X86.039 Y100.775 E14.59037
G1 X86.235 Y100.2 E14.61259
G1 X86.506 Y99.656 E14.63483
G1 X86.845 Y99.151 E14.65708
G1 X86.873 Y99.119 E14.65864
G0 F810 X87.233 Y98.71
G0 X87.362 Y98.581
M204 S5000
M205 X30 Y30
G0 F7200 X87.673 Y98.892
M204 S500
M205 X20 Y20
G1 F6000 E14.68523
G1 F900 X88.109 Y98.513 E14.70637
G1 X88.593 Y98.197 E14.72752
G1 X89.116 Y97.951 E14.74866
G1 X89.668 Y97.78 E14.76981
G1 X90.239 Y97.686 E14.79098
G1 X90.629 Y97.668 E14.80526
G1 X144.371 Y97.668 E16.77147
G1 X144.948 Y97.708 E16.79264
G1 X145.513 Y97.827 E16.81376
G1 X146.057 Y98.023 E16.83492
G1 X146.568 Y98.292 E16.85604
G1 X147.038 Y98.629 E16.8772
G1 X147.327 Y98.892 E16.8915
G1 X147.456 Y99.021 E16.89817
G1 X147.835 Y99.457 E16.91931
G1 X148.151 Y99.941 E16.94046
G1 X148.397 Y100.464 E16.9616
G1 X148.568 Y101.016 E16.98274
G1 X148.662 Y101.587 E17.00392
G1 X148.68 Y101.977 E17.0182
G1 X148.68 Y133.023 E18.15405
G1 X148.64 Y133.6 E18.17521
G1 X148.521 Y134.165 E18.19634
G1 X148.325 Y134.709 E18.21749
G1 X148.056 Y135.22 E18.23862
G1 X147.719 Y135.69 E18.25978
G1 X147.456 Y135.979 E18.27408
G1 X147.327 Y136.108 E18.28075
G1 X146.891 Y136.487 E18.30189
G1 X146.407 Y136.803 E18.32304
G1 X145.884 Y137.049 E18.34418
G1 X145.332 Y137.22 E18.36532
G1 X144.761 Y137.314 E18.3865
G1 X144.371 Y137.332 E18.40078
G1 X90.629 Y137.332 E20.36699
G1 X90.052 Y137.292 E20.38815
G1 X89.487 Y137.173 E20.40928
G1 X88.943 Y136.977 E20.43043
G1 X88.432 Y136.708 E20.45156
G1 X87.962 Y136.371 E20.47272
G1 X87.673 Y136.108 E20.48702
G1 X87.544 Y135.979 E20.49369
G1 X87.165 Y135.543 E20.51483
G1 X86.849 Y135.059 E20.53597
G1 X86.603 Y134.536 E20.55712
G1 X86.432 Y133.984 E20.57826
G1 X86.338 Y133.413 E20.59943
G1 X86.32 Y133.023 E20.61372
G1 X86.32 Y101.977 E21.74957
G1 X86.36 Y101.4 E21.77073
G1 X86.479 Y100.835 E21.79186
G1 X86.675 Y100.291 E21.81301
G1 X86.944 Y99.78 E21.83414
G1 X87.191 Y99.436 E21.84963
G0 F810 X87.281 Y99.31
G0 X87.544 Y99.021
G0 X87.673 Y98.892
M204 S5000
M205 X30 Y30
G0 F7200 X87.984 Y99.203
M204 S500
M205 X20 Y20
G1 F6000 E21.87623
G1 F900 X88.398 Y98.846 E21.89623
G1 X88.86 Y98.553 E21.91625
G1 X89.359 Y98.33 E21.93624
G1 X89.885 Y98.183 E21.95623
G1 X90.629 Y98.108 E21.98358
G1 X144.371 Y98.108 E23.9498
G1 X144.916 Y98.148 E23.96979
G1 X145.45 Y98.267 E23.98981
G1 X145.96 Y98.462 E24.00978
G1 X146.437 Y98.73 E24.0298
G1 X147.016 Y99.203 E24.05715
G1 X147.145 Y99.332 E24.06383
G1 X147.502 Y99.746 E24.08383
G1 X147.795 Y100.208 E24.10384
G1 X148.018 Y100.707 E24.12384
G1 X148.165 Y101.233 E24.14382
G1 X148.24 Y101.977 E24.17118
G1 X148.24 Y133.023 E25.30703
G1 X148.2 Y133.568 E25.32703
G1 X148.081 Y134.102 E25.34704
G1 X147.886 Y134.612 E25.36702
G1 X147.618 Y135.089 E25.38704
G1 X147.145 Y135.668 E25.41439
G1 X147.016 Y135.797 E25.42106
G1 X146.602 Y136.154 E25.44106
G1 X146.14 Y136.447 E25.46108
G1 X145.641 Y136.67 E25.48108
G1 X145.115 Y136.817 E25.50106
G1 X144.371 Y136.892 E25.52842
G1 X90.629 Y136.892 E27.49463
G1 X90.084 Y136.852 E27.51462
G1 X89.55 Y136.733 E27.53464
G1 X89.04 Y136.538 E27.55461
G1 X88.563 Y136.27 E27.57463
G1 X87.984 Y135.797 E27.60199
G1 X87.855 Y135.668 E27.60866
G1 X87.498 Y135.254 E27.62866
G1 X87.205 Y134.792 E27.64868
G1 X86.982 Y134.293 E27.66867
G1 X86.835 Y133.767 E27.68865
G1 X86.76 Y133.023 E27.71601
G1 X86.76 Y101.977 E28.85187
G1 X86.8 Y101.432 E28.87186
G1 X86.919 Y100.898 E28.89188
G1 X87.114 Y100.388 E28.91185
G1 X87.382 Y99.911 E28.93187
G1 X87.51 Y99.754 E28.93928
G0 F810 X87.855 Y99.332
G0 X87.984 Y99.203
M204 S5000
M205 X30 Y30
G0 F7200 X88.296 Y99.515
M204 S500
M205 X20 Y20
G1 F6000 E28.96588
G1 F900 X88.686 Y99.181 E28.98466
G1 X89.123 Y98.912 E29.00344
G1 X89.597 Y98.714 E29.02223
G1 X90.095 Y98.591 E29.041
G1 X90.629 Y98.548 E29.0606
G1 X144.371 Y98.548 E31.02681
G1 X144.883 Y98.588 E31.0456
G1 X145.382 Y98.707 E31.06437
G1 X145.857 Y98.902 E31.08316
G1 X146.296 Y99.168 E31.10194
G1 X146.704 Y99.515 E31.12153
G1 X146.833 Y99.644 E31.12821
G1 X147.167 Y100.034 E31.14699
G1 X147.436 Y100.471 E31.16577
G1 X147.634 Y100.945 E31.18456
G1 X147.757 Y101.443 E31.20333
G1 X147.8 Y101.977 E31.22293
G1 X147.8 Y133.023 E32.35878
G1 X147.76 Y133.535 E32.37757
G1 X147.641 Y134.034 E32.39634
G1 X147.446 Y134.509 E32.41513
G1 X147.18 Y134.948 E32.43391
G1 X146.833 Y135.356 E32.4535
G1 X146.704 Y135.485 E32.46018
G1 X146.314 Y135.819 E32.47896
G1 X145.877 Y136.088 E32.49774
G1 X145.403 Y136.286 E32.51653
G1 X144.905 Y136.409 E32.5353
G1 X144.371 Y136.452 E32.5549
G1 X90.629 Y136.452 E34.52111
G1 X90.117 Y136.412 E34.5399
G1 X89.618 Y136.293 E34.55867
G1 X89.143 Y136.098 E34.57745
G1 X88.704 Y135.832 E34.59623
G1 X88.296 Y135.485 E34.61583
G1 X88.167 Y135.356 E34.6225
G1 X87.833 Y134.966 E34.64129
G1 X87.564 Y134.529 E34.66006
G1 X87.366 Y134.055 E34.67886
G1 X87.243 Y133.557 E34.69763
G1 X87.2 Y133.023 E34.71723
G1 X87.2 Y101.977 E35.85308
G1 X87.24 Y101.465 E35.87187
G1 X87.359 Y100.966 E35.89064
G1 X87.554 Y100.491 E35.90942
G1 X87.815 Y100.06 E35.92786
G0 F810 X87.82 Y100.052
G0 X88.167 Y99.644
G0 X88.296 Y99.515
M204 S5000
M205 X30 Y30
G0 F7200 X88.607 Y99.826
M204 S500
M205 X20 Y20
G1 F6000 E35.95446
G1 F900 X88.972 Y99.517 E35.97195
G1 X89.383 Y99.274 E35.98942
G1 X89.829 Y99.102 E36.00691
G1 X90.297 Y99.007 E36.02438
G1 X90.629 Y98.988 E36.03655
G1 X144.371 Y98.988 E38.00276
G1 X144.847 Y99.028 E38.02024
G1 X145.31 Y99.147 E38.03773
G1 X145.747 Y99.341 E38.05522
G1 X146.145 Y99.605 E38.07269
G1 X146.393 Y99.826 E38.08485
G1 X146.522 Y99.955 E38.09152
G1 X146.831 Y100.32 E38.10902
G1 X147.074 Y100.731 E38.12649
G1 X147.246 Y101.177 E38.14398
G1 X147.341 Y101.645 E38.16145
G1 X147.36 Y101.977 E38.17361
G1 X147.36 Y133.023 E39.30947
G1 X147.32 Y133.499 E39.32694
G1 X147.201 Y133.962 E39.34443
G1 X147.007 Y134.399 E39.36193
G1 X146.743 Y134.797 E39.3794
G1 X146.522 Y135.045 E39.39155
G1 X146.393 Y135.174 E39.39823
G1 X146.028 Y135.483 E39.41572
G1 X145.617 Y135.726 E39.43319
G1 X145.171 Y135.898 E39.45068
G1 X144.703 Y135.993 E39.46815
G1 X144.371 Y136.012 E39.48032
G1 X90.629 Y136.012 E41.44653
G1 X90.153 Y135.972 E41.46401
G1 X89.69 Y135.853 E41.4815
G1 X89.253 Y135.659 E41.49899
G1 X88.855 Y135.395 E41.51646
G1 X88.607 Y135.174 E41.52862
G1 X88.478 Y135.045 E41.53529
G1 X88.169 Y134.68 E41.55279
G1 X87.926 Y134.269 E41.57026
G1 X87.754 Y133.823 E41.58775
G1 X87.659 Y133.355 E41.60522
G1 X87.64 Y133.023 E41.61738
G1 X87.64 Y101.977 E42.75324
G1 X87.68 Y101.501 E42.77071
G1 X87.799 Y101.038 E42.7882
G1 X87.993 Y100.601 E42.8057
G1 X88.14 Y100.38 E42.81541
G0 F810 X88.257 Y100.203
G0 X88.478 Y99.955
G0 X88.607 Y99.826
M204 S5000
M205 X30 Y30
G0 F7200 X88.918 Y100.137
M204 S500
M205 X20 Y20
G1 F6000 E42.84201
G1 F900 X89.256 Y99.856 E42.85809
G1 X89.639 Y99.64 E42.87417
G1 X90.054 Y99.497 E42.89023
G1 X90.629 Y99.428 E42.91142
G1 X144.371 Y99.428 E44.87764
G1 X144.809 Y99.468 E44.89373
G1 X145.232 Y99.586 E44.90979
G1 X145.627 Y99.779 E44.92588
G1 X146.082 Y100.137 E44.94706
G1 X146.211 Y100.266 E44.95373
G1 X146.492 Y100.604 E44.96982
G1 X146.708 Y100.987 E44.9859
G1 X146.851 Y101.402 E45.00196
G1 X146.92 Y101.977 E45.02315
G1 X146.92 Y133.023 E46.159
G1 X146.88 Y133.461 E46.1751
G1 X146.762 Y133.884 E46.19116
G1 X146.569 Y134.279 E46.20725
G1 X146.211 Y134.734 E46.22843
G1 X146.082 Y134.863 E46.2351
G1 X145.744 Y135.144 E46.25118
G1 X145.361 Y135.36 E46.26727
G1 X144.946 Y135.503 E46.28333
G1 X144.371 Y135.572 E46.30452
G1 X90.629 Y135.572 E48.27073
G1 X90.191 Y135.532 E48.28682
G1 X89.768 Y135.414 E48.30289
G1 X89.373 Y135.221 E48.31897
G1 X88.918 Y134.863 E48.34016
G1 X88.789 Y134.734 E48.34683
G1 X88.508 Y134.396 E48.36291
G1 X88.292 Y134.013 E48.379
G1 X88.149 Y133.598 E48.39506
G1 X88.08 Y133.023 E48.41625
G1 X88.08 Y101.977 E49.5521
G1 X88.12 Y101.539 E49.56819
G1 X88.238 Y101.116 E49.58426
G1 X88.431 Y100.721 E49.60034
G1 X88.452 Y100.695 E49.60157
G0 F810 X88.789 Y100.266
G0 X88.918 Y100.137
M204 S5000
M205 X30 Y30
G0 F7200 X89.229 Y100.448
M204 S500
M205 X20 Y20
G1 F6000 E49.62816
G1 F900 X89.537 Y100.196 E49.64272
G1 X89.889 Y100.012 E49.65725
G1 X90.27 Y99.901 E49.67177
G1 X90.629 Y99.868 E49.68496
G1 X144.371 Y99.868 E51.65118
G1 X144.766 Y99.908 E51.6657
G1 X145.146 Y100.026 E51.68026
G1 X145.494 Y100.218 E51.6948
G1 X145.771 Y100.448 E51.70797
G1 X145.9 Y100.577 E51.71465
G1 X146.152 Y100.885 E51.72921
G1 X146.336 Y101.237 E51.74374
G1 X146.447 Y101.618 E51.75826
G1 X146.48 Y101.977 E51.77145
G1 X146.48 Y133.023 E52.9073
G1 X146.44 Y133.418 E52.92183
G1 X146.322 Y133.798 E52.93638
G1 X146.13 Y134.146 E52.95093
G1 X145.9 Y134.423 E52.9641
G1 X145.771 Y134.552 E52.97077
G1 X145.463 Y134.804 E52.98533
G1 X145.111 Y134.988 E52.99986
G1 X144.73 Y135.099 E53.01438
G1 X144.371 Y135.132 E53.02757
G1 X90.629 Y135.132 E54.99378
G1 X90.234 Y135.092 E55.00831
G1 X89.854 Y134.974 E55.02287
G1 X89.506 Y134.782 E55.03741
G1 X89.229 Y134.552 E55.05058
G1 X89.1 Y134.423 E55.05726
G1 X88.848 Y134.115 E55.07182
G1 X88.664 Y133.763 E55.08635
G1 X88.553 Y133.382 E55.10087
G1 X88.52 Y133.023 E55.11406
G1 X88.52 Y101.977 E56.24991
G1 X88.56 Y101.582 E56.26444
G1 X88.678 Y101.202 E56.27899
G1 X88.781 Y101.016 E56.28677
G0 F810 X88.87 Y100.854
G0 X89.1 Y100.577
G0 X89.229 Y100.448
M204 S5000
M205 X30 Y30
G0 F7200 X89.54 Y100.759
M204 S500
M205 X20 Y20
G1 F6000 E56.31337
G1 F900 X89.814 Y100.541 E56.32618
G1 X90.131 Y100.391 E56.33901
G1 X90.629 Y100.308 E56.35748
G1 X144.371 Y100.308 E58.32369
G1 X144.719 Y100.348 E58.33651
G1 X145.049 Y100.465 E58.34932
G1 X145.46 Y100.759 E58.36781
G1 X145.589 Y100.888 E58.37448
G1 X145.807 Y101.162 E58.38729
G1 X145.957 Y101.479 E58.40012
G1 X146.04 Y101.977 E58.4186
G1 X146.04 Y133.023 E59.55445
G1 X146 Y133.371 E59.56726
G1 X145.883 Y133.701 E59.58007
G1 X145.589 Y134.112 E59.59856
G1 X145.46 Y134.241 E59.60524
G1 X145.186 Y134.459 E59.61805
G1 X144.869 Y134.609 E59.63088
G1 X144.371 Y134.692 E59.64935
G1 X90.629 Y134.692 E61.61556
G1 X90.281 Y134.652 E61.62838
G1 X89.951 Y134.535 E61.64119
G1 X89.54 Y134.241 E61.65968
G1 X89.411 Y134.112 E61.66635
G1 X89.193 Y133.838 E61.67916
G1 X89.043 Y133.521 E61.69199
G1 X88.96 Y133.023 E61.71046
G1 X88.96 Y101.977 E62.84632
G1 X89 Y101.629 E62.85913
G1 X89.104 Y101.336 E62.87051
G0 F810 X89.117 Y101.299
G0 X89.411 Y100.888
G0 X89.54 Y100.759
M204 S5000
M205 X30 Y30
G0 F7200 X89.851 Y101.07
M204 S500
M205 X20 Y20
G1 F6000 E62.89711
G1 F900 X90.087 Y100.891 E62.90794
G1 X90.362 Y100.781 E62.91878
G1 X90.629 Y100.748 E62.92862
G1 X144.371 Y100.748 E64.89483
G1 X144.664 Y100.788 E64.90565
G1 X144.936 Y100.904 E64.91647
G1 X145.149 Y101.07 E64.92635
G1 X145.278 Y101.199 E64.93303
G1 X145.457 Y101.435 E64.94386
G1 X145.567 Y101.71 E64.9547
G1 X145.6 Y101.977 E64.96454
G1 X145.6 Y133.023 E66.1004
G1 X145.56 Y133.316 E66.11121
G1 X145.444 Y133.588 E66.12203
G1 X145.278 Y133.801 E66.13191
G1 X145.149 Y133.93 E66.13859
G1 X144.913 Y134.109 E66.14943
G1 X144.638 Y134.219 E66.16026
G1 X144.371 Y134.252 E66.1701
G1 X90.629 Y134.252 E68.13632
G1 X90.336 Y134.212 E68.14714
G1 X90.064 Y134.096 E68.15795
G1 X89.851 Y133.93 E68.16783
G1 X89.722 Y133.801 E68.17451
G1 X89.543 Y133.565 E68.18535
G1 X89.433 Y133.29 E68.19618
G1 X89.4 Y133.023 E68.20603
G1 X89.4 Y101.977 E69.34188
G1 X89.44 Y101.684 E69.3527
G1 X89.448 Y101.665 E69.35345
G0 F810 X89.556 Y101.412
G0 X89.722 Y101.199
G0 X89.851 Y101.07
M204 S5000
M205 X30 Y30
G0 F7200 X90.162 Y101.381
M204 S500
M205 X20 Y20
G1 F6000 E69.38005
G1 F900 X90.35 Y101.25 E69.38843
G1 X90.629 Y101.188 E69.39889
G1 X144.371 Y101.188 E71.3651
G1 X144.596 Y101.228 E71.37346
G1 X144.838 Y101.381 E71.38394
G1 X144.967 Y101.51 E71.39061
G1 X145.098 Y101.698 E71.399
G1 X145.16 Y101.977 E71.40945
G1 X145.16 Y133.023 E72.54531
G1 X145.12 Y133.248 E72.55367
G1 X144.967 Y133.49 E72.56414
G1 X144.838 Y133.619 E72.57082
G1 X144.65 Y133.75 E72.5792
G1 X144.371 Y133.812 E72.58966
G1 X90.629 Y133.812 E74.55587
G1 X90.404 Y133.772 E74.56423
G1 X90.162 Y133.619 E74.57471
G1 X90.033 Y133.49 E74.58138
G1 X89.902 Y133.302 E74.58976
G1 X89.84 Y133.023 E74.60022
G1 X89.84 Y102.008 E75.73494
G0 F810 X89.84 Y101.977
