;FLAVOR:Marlin
;TIME:11357
;Filament used: 13.8709m
;Layer height: 0.2
;Generated with Cura_SteamEngine 3.6.0
M140 S70
M105
M190 S70
M104 S215
M105
M109 S215
M82 ;absolute extrusion mode
G28 ; home all axes
M117 Purge extruder
G92 E0 ; reset extruder
G1 Z1.0 F3000 ; move z up little to prevent scratching of surface
G1 X0.1 Y20 Z0.3 F5000.0 ; move to start-line position G1 X0.1 Y200.0 Z0.3 F1500.0 E15 ; draw 1st line
G1 X0.4 Y200.0 Z0.3 F5000.0 ; move to side a little
G1 X0.4 Y20 Z0.3 F1500.0 E30 ; draw 2nd line
G92 E0 ; reset extruder
G1 Z1.0 F3000 ; move z up little to prevent scratching of surface
M117 All systems go!
G92 E0
G1 F6000 E-5
;LAYER_COUNT:169
;LAYER:0
M107
M204 S5000
M205 X30 Y30
G0 F7200 X92.043 Y73.901 Z0.2
M204 S500
M205 X20 Y20
;TYPE:SKIRT
G1 F6000 E0
G1 F900 X92.47 Y73.43 E0.02326
G1 X92.953 Y73.016 E0.04653
G1 X93.483 Y72.665 E0.06979
G1 X94.054 Y72.384 E0.09307
G1 X94.655 Y72.177 E0.11633
G1 X95.277 Y72.047 E0.13958
G1 X95.985 Y71.995 E0.16555
G1 X97.716 Y71.99 E0.22888
G1 X97.735 Y71.956 E0.23031
G1 X98.11 Y71.443 E0.25356
G1 X98.547 Y70.981 E0.27682
G1 X98.951 Y70.641 E0.29614
G1 X101.951 Y68.376 E0.43367
G1 X102.482 Y68.025 E0.45696
G1 X103.052 Y67.744 E0.48021
G1 X103.653 Y67.537 E0.50346
G1 X104.276 Y67.406 E0.52675
G1 X104.909 Y67.355 E0.54999
G1 X105.545 Y67.383 E0.57328
G1 X106.171 Y67.491 E0.59652
G1 X106.78 Y67.677 E0.61982
G1 X107.36 Y67.938 E0.64309
G1 X107.902 Y68.269 E0.66632
G1 X108.399 Y68.666 E0.6896
G1 X108.843 Y69.122 E0.71288
G1 X109.225 Y69.63 E0.73614
G1 X109.541 Y70.182 E0.75941
G1 X109.785 Y70.769 E0.78266
G1 X109.954 Y71.382 E0.80593
G1 X110.038 Y71.973 E0.82777
G1 X121.941 Y71.973 E1.26325
G1 X121.98 Y71.36 E1.28572
G1 X122.099 Y70.736 E1.30897
G1 X122.296 Y70.131 E1.33224
G1 X122.567 Y69.556 E1.3555
G1 X122.908 Y69.019 E1.37877
G1 X123.313 Y68.529 E1.40203
G1 X123.777 Y68.094 E1.4253
G1 X124.292 Y67.721 E1.44857
G1 X124.85 Y67.415 E1.47185
G1 X125.441 Y67.181 E1.49511
G1 X126.057 Y67.024 E1.51836
G1 X126.688 Y66.945 E1.54163
G1 X127.324 Y66.945 E1.5649
G1 X127.955 Y67.026 E1.58817
G1 X128.571 Y67.185 E1.61145
G1 X129.161 Y67.42 E1.63468
G1 X129.718 Y67.727 E1.65795
G1 X130.373 Y68.223 E1.68801
G1 X133.373 Y70.906 E1.83526
G1 X133.82 Y71.359 E1.85855
G1 X134.206 Y71.864 E1.8818
G1 X134.269 Y71.973 E1.88641
G1 X135.998 Y71.973 E1.94966
G1 X136.633 Y72.013 E1.97294
G1 X137.257 Y72.132 E1.99618
G1 X137.862 Y72.329 E2.01946
G1 X138.437 Y72.6 E2.04272
G1 X138.974 Y72.941 E2.06599
G1 X139.464 Y73.346 E2.08925
G1 X139.899 Y73.81 E2.11252
G1 X140.272 Y74.325 E2.13578
G1 X140.578 Y74.883 E2.15907
G1 X140.812 Y75.474 E2.18232
G1 X140.969 Y76.09 E2.20558
G1 X141.055 Y76.856 E2.23378
G1 X144.057 Y162.494 E5.36887
G1 X144.039 Y163.129 E5.39211
G1 X143.942 Y163.758 E5.4154
G1 X143.767 Y164.369 E5.43865
G1 X143.516 Y164.954 E5.46194
G1 X143.194 Y165.502 E5.48519
G1 X142.806 Y166.006 E5.50846
G1 X142.357 Y166.457 E5.53175
G1 X141.856 Y166.848 E5.555
G1 X141.31 Y167.173 E5.57825
G1 X140.727 Y167.427 E5.60151
G1 X140.116 Y167.606 E5.62481
G1 X139.489 Y167.707 E5.64804
G1 X139 Y167.731 E5.66595
G1 X103.004 Y167.731 E6.98291
G1 X102.369 Y167.691 E7.00619
G1 X101.745 Y167.572 E7.02943
G1 X101.14 Y167.375 E7.05271
G1 X100.565 Y167.104 E7.07596
G1 X100.028 Y166.763 E7.09924
G1 X99.538 Y166.358 E7.12249
G1 X99.103 Y165.894 E7.14576
G1 X98.73 Y165.379 E7.16903
G1 X98.424 Y164.821 E7.19231
G1 X98.19 Y164.23 E7.21557
G1 X98.033 Y163.614 E7.23882
G1 X97.961 Y163.084 E7.25839
G1 X90.957 Y77.468 E10.40122
G1 X90.945 Y76.832 E10.42449
G1 X91.013 Y76.199 E10.44778
G1 X91.16 Y75.581 E10.47102
G1 X91.383 Y74.985 E10.4943
G1 X91.637 Y74.503 E10.51424
G0 F810 X91.679 Y74.422
G0 X92.043 Y73.901
M204 S5000
M205 X30 Y30
G0 F7200 X92.491 Y74.05
M204 S500
M205 X20 Y20
G1 F6000 E10.54084
G1 F900 X92.915 Y73.616 E10.56303
G1 X93.393 Y73.241 E10.58526
G1 X93.916 Y72.932 E10.60749
G1 X94.475 Y72.694 E10.62971
G1 X95.061 Y72.531 E10.65197
G1 X95.663 Y72.447 E10.67421
G1 X95.986 Y72.435 E10.68603
G1 X97.972 Y72.429 E10.75869
G1 X98.028 Y72.319 E10.76321
G1 X98.372 Y71.819 E10.78541
G1 X98.779 Y71.367 E10.80767
G1 X99.216 Y70.992 E10.82873
G1 X102.216 Y68.727 E10.96626
G1 X102.724 Y68.393 E10.9885
G1 X103.271 Y68.13 E11.01071
G1 X103.849 Y67.94 E11.03297
G1 X104.446 Y67.827 E11.0552
G1 X105.053 Y67.794 E11.07744
G1 X105.658 Y67.841 E11.09964
G1 X106.253 Y67.967 E11.12189
G1 X106.826 Y68.17 E11.14413
G1 X107.367 Y68.446 E11.16635
G1 X107.867 Y68.791 E11.18858
G1 X108.318 Y69.199 E11.21083
G1 X108.711 Y69.662 E11.23305
G1 X109.04 Y70.173 E11.25528
G1 X109.299 Y70.722 E11.27749
G1 X109.484 Y71.301 E11.29973
G1 X109.591 Y71.899 E11.32196
G1 X109.62 Y72.413 E11.34079
G1 X122.38 Y72.413 E11.80763
G1 X122.38 Y71.995 E11.82292
G1 X122.42 Y71.389 E11.84514
G1 X122.539 Y70.793 E11.86738
G1 X122.735 Y70.218 E11.88961
G1 X123.006 Y69.674 E11.91184
G1 X123.345 Y69.169 E11.93409
G1 X123.747 Y68.714 E11.95631
G1 X124.206 Y68.316 E11.97853
G1 X124.713 Y67.981 E12.00077
G1 X125.259 Y67.715 E12.02299
G1 X125.836 Y67.524 E12.04522
G1 X126.433 Y67.41 E12.06746
G1 X127.04 Y67.375 E12.08971
G1 X127.646 Y67.42 E12.11194
G1 X128.24 Y67.545 E12.13415
G1 X128.814 Y67.746 E12.1564
G1 X129.356 Y68.021 E12.17863
G1 X130.08 Y68.551 E12.21146
G1 X133.08 Y71.234 E12.35871
G1 X133.505 Y71.668 E12.38093
G1 X133.87 Y72.154 E12.40317
G1 X134.016 Y72.413 E12.41405
G1 X135.998 Y72.413 E12.48656
G1 X136.604 Y72.453 E12.50878
G1 X137.2 Y72.572 E12.53102
G1 X137.775 Y72.768 E12.55324
G1 X138.319 Y73.039 E12.57548
G1 X138.824 Y73.378 E12.59773
G1 X139.279 Y73.78 E12.61994
G1 X139.677 Y74.239 E12.64217
G1 X140.012 Y74.746 E12.6644
G1 X140.278 Y75.292 E12.68662
G1 X140.469 Y75.869 E12.70886
G1 X140.583 Y76.466 E12.7311
G1 X140.615 Y76.871 E12.74596
G1 X143.617 Y162.509 E15.88105
G1 X143.598 Y163.116 E15.90327
G1 X143.5 Y163.716 E15.92551
G1 X143.324 Y164.298 E15.94776
G1 X143.073 Y164.851 E15.96998
G1 X142.752 Y165.367 E15.99221
G1 X142.366 Y165.836 E16.01443
G1 X141.921 Y166.25 E16.03667
G1 X141.426 Y166.603 E16.05891
G1 X140.889 Y166.887 E16.08114
G1 X140.32 Y167.098 E16.10334
G1 X139.727 Y167.233 E16.12559
G1 X139 Y167.291 E16.15227
G1 X103.004 Y167.291 E17.46923
G1 X102.398 Y167.251 E17.49145
G1 X101.802 Y167.132 E17.51368
G1 X101.227 Y166.936 E17.53591
G1 X100.683 Y166.665 E17.55815
G1 X100.178 Y166.326 E17.5804
G1 X99.723 Y165.924 E17.60261
G1 X99.325 Y165.465 E17.62484
G1 X98.99 Y164.958 E17.64707
G1 X98.724 Y164.412 E17.66929
G1 X98.533 Y163.835 E17.69153
G1 X98.399 Y163.048 E17.72074
G1 X91.395 Y77.432 E20.86356
G1 X91.386 Y76.824 E20.88581
G1 X91.456 Y76.221 E20.90802
G1 X91.605 Y75.631 E20.93028
G1 X91.83 Y75.067 E20.9525
G1 X92.069 Y74.64 E20.9704
G0 F810 X92.127 Y74.537
G0 X92.491 Y74.05
M204 S5000
M205 X30 Y30
G0 F7200 X92.574 Y74.66
M204 S500
M205 X20 Y20
G1 F6000 E20.997
G1 F900 X92.938 Y74.21 E21.01817
G1 X93.359 Y73.815 E21.03929
G1 X93.831 Y73.482 E21.06043
G1 X94.345 Y73.217 E21.08158
G1 X94.89 Y73.025 E21.10273
G1 X95.457 Y72.91 E21.12389
G1 X95.987 Y72.875 E21.14333
G1 X98.243 Y72.868 E21.22586
G1 X98.343 Y72.654 E21.23451
G1 X98.658 Y72.169 E21.25566
G1 X99.036 Y71.732 E21.2768
G1 X99.481 Y71.343 E21.29843
G1 X102.481 Y69.078 E21.43596
G1 X102.966 Y68.763 E21.45711
G1 X103.489 Y68.517 E21.47826
G1 X104.041 Y68.346 E21.4994
G1 X104.611 Y68.252 E21.52054
G1 X105.189 Y68.238 E21.54169
G1 X105.763 Y68.304 E21.56283
G1 X106.322 Y68.449 E21.58396
G1 X106.857 Y68.669 E21.60512
G1 X107.356 Y68.961 E21.62628
G1 X107.809 Y69.319 E21.6474
G1 X108.209 Y69.736 E21.66854
G1 X108.548 Y70.204 E21.68968
G1 X108.819 Y70.715 E21.71084
G1 X109.017 Y71.258 E21.73199
G1 X109.138 Y71.823 E21.75313
G1 X109.18 Y72.414 E21.77481
G1 X109.18 Y72.853 E21.79087
G1 X122.82 Y72.853 E22.2899
G1 X122.82 Y71.995 E22.32129
G1 X122.86 Y71.418 E22.34246
G1 X122.979 Y70.853 E22.36358
G1 X123.175 Y70.309 E22.38474
G1 X123.444 Y69.798 E22.40586
G1 X123.781 Y69.328 E22.42702
G1 X124.18 Y68.91 E22.44816
G1 X124.632 Y68.55 E22.4693
G1 X125.13 Y68.257 E22.49044
G1 X125.663 Y68.034 E22.51158
G1 X126.223 Y67.888 E22.53276
G1 X126.796 Y67.82 E22.55387
G1 X127.374 Y67.832 E22.57502
G1 X127.945 Y67.923 E22.59617
G1 X128.497 Y68.092 E22.61729
G1 X129.021 Y68.336 E22.63844
G1 X129.507 Y68.65 E22.65961
G1 X129.787 Y68.879 E22.67284
G1 X132.787 Y71.562 E22.82009
G1 X133.19 Y71.976 E22.84123
G1 X133.532 Y72.442 E22.86238
G1 X133.753 Y72.853 E22.87945
G1 X135.998 Y72.853 E22.96159
G1 X136.575 Y72.893 E22.98275
G1 X137.14 Y73.012 E23.00387
G1 X137.684 Y73.208 E23.02503
G1 X138.195 Y73.477 E23.04616
G1 X138.665 Y73.814 E23.06732
G1 X139.083 Y74.213 E23.08846
G1 X139.443 Y74.665 E23.1096
G1 X139.736 Y75.163 E23.13074
G1 X139.959 Y75.696 E23.15188
G1 X140.105 Y76.256 E23.17305
G1 X140.175 Y76.887 E23.19628
G1 X143.177 Y162.525 E26.33137
G1 X143.158 Y163.102 E26.35249
G1 X143.058 Y163.672 E26.37366
G1 X142.882 Y164.222 E26.39479
G1 X142.631 Y164.742 E26.41591
G1 X142.31 Y165.223 E26.43707
G1 X141.927 Y165.655 E26.45819
G1 X141.487 Y166.031 E26.47937
G1 X141 Y166.342 E26.50051
G1 X140.474 Y166.582 E26.52166
G1 X139.921 Y166.748 E26.54278
G1 X139.35 Y166.836 E26.56392
G1 X139 Y166.851 E26.57674
G1 X103.004 Y166.851 E27.89369
G1 X102.427 Y166.811 E27.91485
G1 X101.862 Y166.692 E27.93598
G1 X101.318 Y166.496 E27.95713
G1 X100.807 Y166.227 E27.97826
G1 X100.337 Y165.89 E27.99942
G1 X99.919 Y165.491 E28.02056
G1 X99.559 Y165.039 E28.0417
G1 X99.266 Y164.541 E28.06284
G1 X99.043 Y164.008 E28.08398
G1 X98.897 Y163.448 E28.10516
G1 X98.838 Y163.012 E28.12125
G1 X91.834 Y77.396 E31.26408
G1 X91.827 Y76.818 E31.28522
G1 X91.899 Y76.245 E31.30635
G1 X92.05 Y75.687 E31.3275
G1 X92.219 Y75.293 E31.34319
G0 F810 X92.277 Y75.155
G0 X92.574 Y74.66
M204 S5000
M205 X30 Y30
G0 F7200 X93.022 Y74.792
M204 S500
M205 X20 Y20
G1 F6000 E31.36979
G1 F900 X93.384 Y74.382 E31.3898
G1 X93.801 Y74.029 E31.40979
G1 X94.266 Y73.741 E31.4298
G1 X94.767 Y73.524 E31.44977
G1 X95.295 Y73.382 E31.46978
G1 X95.989 Y73.315 E31.49528
G1 X98.53 Y73.307 E31.58825
G1 X98.68 Y72.958 E31.60215
G1 X98.966 Y72.492 E31.62215
G1 X99.317 Y72.073 E31.64215
G1 X99.746 Y71.694 E31.66309
G1 X102.746 Y69.429 E31.80062
G1 X103.206 Y69.133 E31.82063
G1 X103.703 Y68.906 E31.84062
G1 X104.228 Y68.754 E31.86062
G1 X104.77 Y68.681 E31.88063
G1 X105.317 Y68.687 E31.90064
G1 X105.856 Y68.773 E31.92061
G1 X106.378 Y68.937 E31.94063
G1 X106.87 Y69.175 E31.96063
G1 X107.322 Y69.482 E31.98062
G1 X107.725 Y69.852 E32.00063
G1 X108.069 Y70.277 E32.02064
G1 X108.348 Y70.747 E32.04063
G1 X108.555 Y71.253 E32.06064
G1 X108.686 Y71.783 E32.08061
G1 X108.74 Y72.414 E32.10378
G1 X108.74 Y73.293 E32.13594
G1 X123.26 Y73.293 E32.66717
G1 X123.26 Y71.995 E32.71466
G1 X123.3 Y71.45 E32.73465
G1 X123.419 Y70.916 E32.75467
G1 X123.614 Y70.406 E32.77465
G1 X123.882 Y69.929 E32.79466
G1 X124.217 Y69.497 E32.81466
G1 X124.61 Y69.118 E32.83464
G1 X125.055 Y68.8 E32.85465
G1 X125.542 Y68.551 E32.87466
G1 X126.059 Y68.375 E32.89464
G1 X126.597 Y68.277 E32.91465
G1 X127.143 Y68.258 E32.93464
G1 X127.687 Y68.319 E32.95466
G1 X128.215 Y68.458 E32.97464
G1 X128.718 Y68.673 E32.99465
G1 X129.184 Y68.959 E33.01466
G1 X129.493 Y69.207 E33.02915
G1 X132.493 Y71.89 E33.1764
G1 X132.873 Y72.283 E33.1964
G1 X133.191 Y72.728 E33.21641
G1 X133.441 Y73.214 E33.23641
G1 X133.468 Y73.293 E33.23946
G1 X135.998 Y73.293 E33.33203
G1 X136.543 Y73.333 E33.35202
G1 X137.077 Y73.452 E33.37204
G1 X137.587 Y73.647 E33.39201
G1 X138.064 Y73.915 E33.41203
G1 X138.496 Y74.25 E33.43203
G1 X138.875 Y74.643 E33.45201
G1 X139.193 Y75.088 E33.47202
G1 X139.442 Y75.575 E33.49203
G1 X139.618 Y76.092 E33.51201
G1 X139.736 Y76.902 E33.54196
G1 X142.738 Y162.54 E36.67705
G1 X142.717 Y163.086 E36.69704
G1 X142.617 Y163.624 E36.71706
G1 X142.439 Y164.141 E36.73706
G1 X142.188 Y164.626 E36.75704
G1 X141.869 Y165.07 E36.77704
G1 X141.489 Y165.463 E36.79704
G1 X141.055 Y165.796 E36.81706
G1 X140.578 Y166.062 E36.83704
G1 X140.067 Y166.256 E36.85704
G1 X139.533 Y166.373 E36.87704
G1 X139 Y166.411 E36.89659
G1 X103.004 Y166.411 E38.21354
G1 X102.459 Y166.371 E38.23354
G1 X101.925 Y166.252 E38.25355
G1 X101.415 Y166.057 E38.27353
G1 X100.938 Y165.789 E38.29355
G1 X100.506 Y165.454 E38.31355
G1 X100.127 Y165.061 E38.33352
G1 X99.809 Y164.616 E38.35353
G1 X99.56 Y164.129 E38.37354
G1 X99.384 Y163.612 E38.39352
G1 X99.276 Y162.976 E38.41713
G1 X92.272 Y77.36 E41.55995
G1 X92.268 Y76.813 E41.57996
G1 X92.343 Y76.272 E41.59995
G1 X92.496 Y75.747 E41.61995
G1 X92.649 Y75.414 E41.63336
G0 F810 X92.724 Y75.25
G0 X93.022 Y74.792
M204 S5000
M205 X30 Y30
G0 F7200 X93.47 Y74.936
M204 S500
M205 X20 Y20
G1 F6000 E41.65996
G1 F900 X93.829 Y74.57 E41.67871
G1 X94.241 Y74.263 E41.69751
G1 X94.695 Y74.024 E41.71628
G1 X95.181 Y73.858 E41.73507
G1 X95.687 Y73.77 E41.75386
G1 X95.99 Y73.755 E41.76496
G1 X98.837 Y73.746 E41.86912
G1 X98.846 Y73.707 E41.87059
G1 X99.035 Y73.229 E41.88939
G1 X99.296 Y72.787 E41.90817
G1 X99.622 Y72.391 E41.92694
G1 X100.012 Y72.045 E41.94601
G1 X103.012 Y69.78 E42.08354
G1 X103.444 Y69.504 E42.1023
G1 X103.914 Y69.298 E42.12107
G1 X104.411 Y69.167 E42.13988
G1 X104.922 Y69.115 E42.15867
G1 X105.434 Y69.143 E42.17743
G1 X105.936 Y69.25 E42.19621
G1 X106.416 Y69.433 E42.215
G1 X106.861 Y69.689 E42.23379
G1 X107.261 Y70.011 E42.25257
G1 X107.607 Y70.39 E42.27135
G1 X107.889 Y70.819 E42.29013
G1 X108.101 Y71.287 E42.30893
G1 X108.239 Y71.781 E42.32769
G1 X108.3 Y72.414 E42.35096
G1 X108.3 Y73.733 E42.39922
G1 X123.7 Y73.733 E42.96264
G1 X123.7 Y71.995 E43.02623
G1 X123.74 Y71.483 E43.04502
G1 X123.859 Y70.984 E43.06379
G1 X124.054 Y70.509 E43.08257
G1 X124.32 Y70.07 E43.10135
G1 X124.651 Y69.677 E43.12015
G1 X125.039 Y69.341 E43.13893
G1 X125.474 Y69.069 E43.1577
G1 X125.947 Y68.868 E43.1765
G1 X126.444 Y68.742 E43.19526
G1 X126.956 Y68.695 E43.21407
G1 X127.468 Y68.728 E43.23284
G1 X127.969 Y68.841 E43.25163
G1 X128.447 Y69.029 E43.27043
G1 X128.889 Y69.289 E43.28919
G1 X129.2 Y69.535 E43.3037
G1 X132.2 Y72.218 E43.45094
G1 X132.555 Y72.589 E43.46973
G1 X132.848 Y73.011 E43.48853
G1 X133.072 Y73.473 E43.50731
G1 X133.151 Y73.733 E43.51725
G1 X135.998 Y73.733 E43.62141
G1 X136.51 Y73.773 E43.6402
G1 X137.009 Y73.892 E43.65897
G1 X137.484 Y74.087 E43.67776
G1 X137.923 Y74.353 E43.69654
G1 X138.316 Y74.684 E43.71534
G1 X138.652 Y75.072 E43.73411
G1 X138.924 Y75.507 E43.75288
G1 X139.125 Y75.98 E43.77169
G1 X139.251 Y76.477 E43.79045
G1 X139.296 Y76.917 E43.80663
G1 X142.298 Y162.555 E46.94172
G1 X142.276 Y163.068 E46.9605
G1 X142.175 Y163.572 E46.97931
G1 X141.997 Y164.053 E46.99807
G1 X141.746 Y164.501 E47.01686
G1 X141.429 Y164.905 E47.03565
G1 X141.053 Y165.255 E47.05444
G1 X140.627 Y165.542 E47.07324
G1 X140.162 Y165.76 E47.09202
G1 X139.669 Y165.902 E47.1108
G1 X139 Y165.971 E47.1354
G1 X103.004 Y165.971 E48.45236
G1 X102.492 Y165.931 E48.47115
G1 X101.993 Y165.812 E48.48991
G1 X101.518 Y165.617 E48.5087
G1 X101.079 Y165.351 E48.52748
G1 X100.686 Y165.02 E48.54628
G1 X100.35 Y164.632 E48.56506
G1 X100.078 Y164.197 E48.58383
G1 X99.877 Y163.724 E48.60263
G1 X99.751 Y163.227 E48.62139
G1 X99.715 Y162.94 E48.63197
G1 X92.711 Y77.324 E51.77479
G1 X92.709 Y76.811 E51.79356
G1 X92.787 Y76.303 E51.81237
G1 X92.942 Y75.814 E51.83113
G1 X93.077 Y75.545 E51.84215
G0 F810 X93.172 Y75.355
G0 X93.47 Y74.936
M204 S5000
M205 X30 Y30
G0 F7200 X93.917 Y75.095
M204 S500
M205 X20 Y20
G1 F6000 E51.86874
G1 F900 X94.272 Y74.776 E51.88621
G1 X94.676 Y74.52 E51.9037
G1 X95.117 Y74.335 E51.9212
G1 X95.582 Y74.226 E51.93867
G1 X95.991 Y74.195 E51.95368
G1 X99.193 Y74.185 E52.07083
G1 X99.244 Y73.915 E52.08088
G1 X99.41 Y73.467 E52.09836
G1 X99.648 Y73.052 E52.11587
G1 X99.951 Y72.683 E52.13333
G1 X100.277 Y72.396 E52.14922
G1 X103.277 Y70.131 E52.28675
G1 X103.681 Y69.876 E52.30423
G1 X104.122 Y69.692 E52.32171
G1 X104.587 Y69.584 E52.33918
G1 X105.064 Y69.555 E52.35666
G1 X105.54 Y69.605 E52.37417
G1 X106 Y69.734 E52.39165
G1 X106.432 Y69.938 E52.40913
G1 X106.824 Y70.211 E52.42661
G1 X107.166 Y70.546 E52.44412
G1 X107.446 Y70.933 E52.4616
G1 X107.659 Y71.361 E52.47909
G1 X107.797 Y71.818 E52.49656
