;FLAVOR:Marlin
;TIME:1975
;Filament used: 1.19673m
;Layer height: 0.16
;Generated with Cura_SteamEngine 3.6.0
M140 S70
M105
M190 S70
M104 S215
M105
M109 S215
M82 ;absolute extrusion mode
G28 ; home all axes
M117 Purge extruder
G92 E0 ; reset extruder
G1 Z1.0 F3000 ; move z up little to prevent scratching of surface
G1 X0.1 Y20 Z0.3 F5000.0 ; move to start-line position G1 X0.1 Y200.0 Z0.3 F1500.0 E15 ; draw 1st line
G1 X0.4 Y200.0 Z0.3 F5000.0 ; move to side a little
G1 X0.4 Y20 Z0.3 F1500.0 E30 ; draw 2nd line
G92 E0 ; reset extruder
G1 Z1.0 F3000 ; move z up little to prevent scratching of surface
M117 All systems go!
G92 E0
G1 F6000 E-5
;LAYER_COUNT:125
;LAYER:0
M107
M204 S5000
M205 X30 Y30
G0 F7200 X107.903 Y99.538 Z0.2
M204 S500
M205 X20 Y20
;TYPE:SKIRT
G1 F6000 E0
G1 F900 X108.354 Y99.092 E0.02321
G1 X109.164 Y98.387 E0.06249
G1 X109.669 Y98 E0.08577
G1 X110.557 Y97.405 E0.12488
G1 X111.102 Y97.088 E0.14795
G1 X112.061 Y96.606 E0.18721
G1 X112.645 Y96.357 E0.21044
G1 X113.64 Y96.005 E0.24906
G1 X114.254 Y95.83 E0.27241
G1 X115.304 Y95.602 E0.31172
G1 X115.931 Y95.507 E0.33493
G1 X116.991 Y95.413 E0.37386
G1 X117.625 Y95.396 E0.39706
G1 X118.679 Y95.435 E0.43565
G1 X119.306 Y95.498 E0.45871
G1 X120.361 Y95.67 E0.49781
G1 X120.979 Y95.811 E0.52101
G1 X122.006 Y96.114 E0.56018
G1 X122.602 Y96.331 E0.58339
G1 X123.569 Y96.754 E0.622
G1 X124.137 Y97.047 E0.64539
G1 X125.059 Y97.598 E0.68468
G1 X125.582 Y97.956 E0.70787
G1 X126.424 Y98.615 E0.74699
G1 X126.9 Y99.039 E0.77031
G1 X127.646 Y99.792 E0.80909
G1 X128.062 Y100.268 E0.83222
G1 X128.719 Y101.122 E0.87164
G1 X129.075 Y101.651 E0.89497
G1 X129.614 Y102.572 E0.93401
G1 X129.898 Y103.136 E0.95711
G1 X130.307 Y104.091 E0.99512
G1 X130.523 Y104.701 E1.0188
G1 X130.832 Y105.789 E1.06018
G1 X130.967 Y106.404 E1.08321
G1 X131.122 Y107.415 E1.12064
G1 X131.178 Y108.04 E1.14359
G1 X131.208 Y109.111 E1.18279
G1 X131.185 Y109.751 E1.20622
G1 X131.082 Y110.792 E1.2445
G1 X130.982 Y111.414 E1.26754
G1 X130.741 Y112.476 E1.30739
G1 X130.559 Y113.092 E1.33089
G1 X130.193 Y114.094 E1.36991
G1 X129.938 Y114.675 E1.39313
G1 X129.447 Y115.628 E1.43235
G1 X129.124 Y116.17 E1.45543
G1 X128.52 Y117.052 E1.49454
G1 X128.128 Y117.554 E1.51785
G1 X127.427 Y118.343 E1.55646
G1 X126.968 Y118.797 E1.58008
G1 X126.159 Y119.502 E1.61934
G1 X125.66 Y119.885 E1.64236
G1 X124.773 Y120.482 E1.68147
G1 X124.23 Y120.8 E1.7045
G1 X123.739 Y121.048 E1.72462
G1 X123.674 Y121.279 E1.7334
G1 X123.57 Y122.434 E1.77583
G1 X123.57 Y122.862 E1.79149
G1 X123.674 Y124.015 E1.83384
G1 X124.006 Y125.184 E1.8783
G1 X124.436 Y126.004 E1.91218
G1 X124.693 Y126.293 E1.92633
G1 X125.416 Y126.345 E1.95285
G1 X125.976 Y126.429 E1.97357
G1 X126.597 Y126.563 E1.99681
G1 X127.361 Y126.846 E2.02662
G1 X127.857 Y127.077 E2.04663
G1 X128.416 Y127.381 E2.06991
G1 X129.123 Y127.919 E2.10242
G1 X129.516 Y128.276 E2.12184
G1 X129.959 Y128.732 E2.1451
G1 X130.341 Y129.24 E2.16836
G1 X130.535 Y129.559 E2.18202
G1 X130.785 Y130.008 E2.20082
G1 X131.059 Y130.582 E2.22409
G1 X131.258 Y131.186 E2.24736
G1 X131.358 Y131.653 E2.26483
G1 X131.439 Y132.148 E2.28318
G1 X131.502 Y132.781 E2.30645
G1 X131.485 Y133.416 E2.32969
G1 X131.416 Y133.909 E2.34791
G1 X131.322 Y134.404 E2.36634
G1 X131.164 Y135.02 E2.38961
G1 X130.931 Y135.612 E2.41288
G1 X130.71 Y136.03 E2.43018
G1 X130.45 Y136.471 E2.44891
G1 X130.093 Y136.997 E2.47217
G1 X129.673 Y137.475 E2.49545
G1 X129.411 Y137.72 E2.50857
G1 X129.013 Y138.066 E2.52787
G1 X128.508 Y138.452 E2.55112
G1 X127.754 Y138.868 E2.58263
G1 X127.254 Y139.091 E2.60266
G1 X126.658 Y139.313 E2.62593
G1 X125.868 Y139.485 E2.65551
G1 X125.326 Y139.558 E2.67552
G1 X124.692 Y139.603 E2.69877
G1 X123.948 Y139.554 E2.72605
G1 X123.392 Y139.476 E2.74659
G1 X122.548 Y139.28 E2.77829
G1 X112.462 Y139.28 E3.1473
G1 X111.567 Y139.485 E3.18089
G1 X111.008 Y139.56 E3.20153
G1 X110.374 Y139.605 E3.22478
G1 X109.584 Y139.549 E3.25376
G1 X109.024 Y139.465 E3.27447
G1 X108.403 Y139.331 E3.29772
G1 X107.639 Y139.048 E3.32752
G1 X107.143 Y138.817 E3.34754
G1 X106.584 Y138.513 E3.37082
G1 X105.877 Y137.975 E3.40333
G1 X105.484 Y137.618 E3.42275
G1 X105.041 Y137.162 E3.44601
G1 X104.659 Y136.654 E3.46927
G1 X104.465 Y136.335 E3.48293
G1 X104.215 Y135.886 E3.50173
G1 X103.941 Y135.312 E3.525
G1 X103.742 Y134.708 E3.54827
G1 X103.642 Y134.241 E3.56574
G1 X103.561 Y133.746 E3.58409
G1 X103.498 Y133.113 E3.60736
G1 X103.515 Y132.478 E3.6306
G1 X103.584 Y131.985 E3.64882
G1 X103.678 Y131.49 E3.66725
G1 X103.836 Y130.874 E3.69052
G1 X104.069 Y130.282 E3.71379
G1 X104.29 Y129.864 E3.73109
G1 X104.55 Y129.423 E3.74982
G1 X104.907 Y128.897 E3.77308
G1 X105.327 Y128.419 E3.79636
G1 X105.589 Y128.174 E3.80948
G1 X105.987 Y127.828 E3.82878
G1 X106.492 Y127.442 E3.85203
G1 X107.242 Y127.027 E3.88339
G1 X107.741 Y126.804 E3.90339
G1 X108.337 Y126.582 E3.92666
G1 X109.133 Y126.409 E3.95646
G1 X109.692 Y126.334 E3.9771
G1 X110.307 Y126.29 E3.99965
G1 X110.564 Y126.002 E4.01378
G1 X110.995 Y125.183 E4.04764
G1 X111.326 Y124.015 E4.09205
G1 X111.43 Y122.86 E4.13448
G1 X111.43 Y122.432 E4.15014
G1 X111.326 Y121.279 E4.19249
G1 X111.21 Y120.87 E4.20805
G1 X111.153 Y120.842 E4.21037
G1 X110.234 Y120.291 E4.24957
G1 X109.714 Y119.933 E4.27267
G1 X108.872 Y119.273 E4.31181
G1 X108.39 Y118.843 E4.33544
G1 X107.644 Y118.086 E4.37433
G1 X107.232 Y117.612 E4.39731
G1 X106.579 Y116.76 E4.43658
G1 X106.226 Y116.235 E4.45973
G1 X105.686 Y115.311 E4.49888
G1 X105.4 Y114.741 E4.52221
G1 X104.986 Y113.769 E4.56087
G1 X104.771 Y113.161 E4.58446
G1 X104.478 Y112.123 E4.62392
G1 X104.346 Y111.509 E4.6469
G1 X104.187 Y110.464 E4.68557
G1 X104.131 Y109.84 E4.70849
G1 X104.102 Y108.77 E4.74765
G1 X104.126 Y108.124 E4.7713
G1 X104.234 Y107.055 E4.81061
G1 X104.338 Y106.425 E4.83397
G1 X104.575 Y105.399 E4.8725
G1 X104.754 Y104.796 E4.89551
G1 X105.124 Y103.787 E4.93483
G1 X105.382 Y103.202 E4.95822
G1 X105.876 Y102.248 E4.99753
G1 X106.197 Y101.711 E5.02042
G1 X106.799 Y100.834 E5.05934
G1 X107.198 Y100.327 E5.08294
G1 X107.419 Y100.08 E5.09507
G0 F810 X107.903 Y99.538
M204 S5000
M205 X30 Y30
G0 F7200 X108.231 Y99.831
M204 S500
M205 X20 Y20
G1 F6000 E5.12167
G1 F900 X108.643 Y99.424 E5.14285
G1 X109.453 Y98.719 E5.18214
G1 X109.914 Y98.366 E5.20338
G1 X110.802 Y97.771 E5.24249
G1 X111.299 Y97.481 E5.26354
G1 X112.258 Y96.999 E5.30281
G1 X112.792 Y96.772 E5.32404
G1 X113.787 Y96.42 E5.36266
G1 X114.348 Y96.26 E5.384
G1 X115.398 Y96.032 E5.42331
G1 X115.97 Y95.945 E5.44448
G1 X117.03 Y95.851 E5.48341
G1 X117.609 Y95.836 E5.5046
G1 X118.663 Y95.875 E5.54319
G1 X119.235 Y95.932 E5.56422
G1 X120.29 Y96.104 E5.60333
G1 X120.854 Y96.233 E5.6245
G1 X121.881 Y96.536 E5.66367
G1 X122.426 Y96.734 E5.68489
G1 X123.393 Y97.157 E5.7235
G1 X123.911 Y97.424 E5.74482
G1 X124.833 Y97.975 E5.78412
G1 X125.31 Y98.303 E5.8053
G1 X126.152 Y98.962 E5.84442
G1 X126.587 Y99.348 E5.86569
G1 X127.333 Y100.101 E5.90447
G1 X127.713 Y100.536 E5.92561
G1 X128.37 Y101.39 E5.96503
G1 X128.695 Y101.873 E5.98633
G1 X129.234 Y102.794 E6.02537
G1 X129.494 Y103.309 E6.04648
G1 X129.903 Y104.264 E6.08449
G1 X130.1 Y104.821 E6.1061
G1 X130.409 Y105.909 E6.14748
G1 X130.532 Y106.471 E6.16853
G1 X130.687 Y107.482 E6.20595
G1 X130.738 Y108.053 E6.22692
G1 X130.768 Y109.124 E6.26612
G1 X130.748 Y109.708 E6.2875
G1 X130.645 Y110.749 E6.32577
G1 X130.552 Y111.316 E6.3468
G1 X130.311 Y112.378 E6.38664
G1 X130.146 Y112.941 E6.4081
G1 X129.78 Y113.943 E6.44713
G1 X129.547 Y114.474 E6.46835
G1 X129.056 Y115.427 E6.50757
G1 X128.761 Y115.921 E6.52862
G1 X128.157 Y116.803 E6.56773
G1 X127.799 Y117.262 E6.58903
G1 X127.098 Y118.051 E6.62764
G1 X126.679 Y118.465 E6.64919
G1 X125.87 Y119.17 E6.68845
G1 X125.415 Y119.52 E6.70945
G1 X124.528 Y120.117 E6.74857
G1 X124.031 Y120.408 E6.76964
G1 X123.369 Y120.742 E6.79677
G1 X123.238 Y121.204 E6.81434
G1 X123.13 Y122.405 E6.85846
G1 X123.13 Y122.891 E6.87624
G1 X123.238 Y124.09 E6.92028
G1 X123.596 Y125.35 E6.9682
G1 X124.071 Y126.256 E7.00563
G1 X124.482 Y126.716 E7.0282
G1 X124.52 Y126.739 E7.02982
G1 X124.674 Y126.729 E7.03547
G1 X125.35 Y126.78 E7.06027
G1 X125.91 Y126.864 E7.08099
G1 X126.504 Y126.994 E7.10324
G1 X127.175 Y127.245 E7.12945
G1 X127.671 Y127.476 E7.14947
G1 X128.204 Y127.768 E7.1717
G1 X128.827 Y128.244 E7.20039
G1 X129.22 Y128.601 E7.21981
G1 X129.642 Y129.039 E7.24206
G1 X130.15 Y129.774 E7.27475
G1 X130.4 Y130.223 E7.29355
G1 X130.661 Y130.772 E7.31579
G1 X130.846 Y131.35 E7.338
G1 X130.923 Y131.724 E7.35197
G1 X131.004 Y132.219 E7.37032
G1 X131.063 Y132.824 E7.39256
G1 X131.041 Y133.431 E7.41478
G1 X130.984 Y133.827 E7.42942
G1 X130.89 Y134.322 E7.44785
G1 X130.738 Y134.91 E7.47007
G1 X130.509 Y135.473 E7.49231
G1 X130.331 Y135.806 E7.50612
G1 X130.071 Y136.247 E7.52485
G1 X129.728 Y136.749 E7.5471
G1 X129.122 Y137.388 E7.57932
G1 X128.724 Y137.734 E7.59861
G1 X128.24 Y138.101 E7.62083
G1 X127.575 Y138.466 E7.64859
G1 X127.075 Y138.689 E7.66862
G1 X126.505 Y138.9 E7.69085
G1 X125.81 Y139.049 E7.71686
G1 X125.268 Y139.122 E7.73687
G1 X124.661 Y139.163 E7.75913
G1 X124.009 Y139.118 E7.78304
G1 X123.453 Y139.04 E7.80358
G1 X122.659 Y138.856 E7.8334
G1 X122.61 Y138.84 E7.83528
G1 X112.396 Y138.84 E8.20897
G1 X112.338 Y138.859 E8.21121
G1 X111.508 Y139.049 E8.24236
G1 X110.949 Y139.124 E8.26299
G1 X110.343 Y139.165 E8.28522
G1 X109.65 Y139.114 E8.31064
G1 X109.09 Y139.03 E8.33136
G1 X108.496 Y138.9 E8.3536
G1 X107.825 Y138.649 E8.37981
G1 X107.329 Y138.418 E8.39983
G1 X106.796 Y138.126 E8.42207
G1 X106.173 Y137.65 E8.45075
G1 X105.78 Y137.293 E8.47018
G1 X105.358 Y136.855 E8.49243
G1 X104.85 Y136.12 E8.52512
G1 X104.6 Y135.671 E8.54392
G1 X104.339 Y135.122 E8.56616
G1 X104.154 Y134.544 E8.58836
G1 X104.077 Y134.17 E8.60233
G1 X103.996 Y133.675 E8.62068
G1 X103.937 Y133.07 E8.64292
G1 X103.959 Y132.463 E8.66515
G1 X104.016 Y132.067 E8.67978
G1 X104.11 Y131.572 E8.69822
G1 X104.262 Y130.984 E8.72044
G1 X104.491 Y130.421 E8.74267
G1 X104.669 Y130.088 E8.75649
G1 X104.929 Y129.647 E8.77522
G1 X105.272 Y129.145 E8.79746
G1 X105.878 Y128.506 E8.82968
G1 X106.276 Y128.16 E8.84898
G1 X106.76 Y127.793 E8.8712
G1 X107.422 Y127.429 E8.89884
G1 X107.921 Y127.206 E8.91884
G1 X108.491 Y126.995 E8.94107
G1 X109.192 Y126.845 E8.9673
G1 X109.751 Y126.77 E8.98794
G1 X110.357 Y126.729 E9.01016
G1 X110.482 Y126.737 E9.01474
G1 X110.517 Y126.716 E9.01623
G1 X110.93 Y126.253 E9.03893
G1 X111.405 Y125.349 E9.07629
G1 X111.762 Y124.09 E9.12417
G1 X111.87 Y122.889 E9.16829
G1 X111.87 Y122.403 E9.18607
G1 X111.762 Y121.204 E9.23011
G1 X111.58 Y120.564 E9.25446
G1 X111.379 Y120.464 E9.26267
G1 X110.46 Y119.913 E9.30187
G1 X109.986 Y119.587 E9.32292
G1 X109.144 Y118.927 E9.36206
G1 X108.703 Y118.534 E9.38368
G1 X107.957 Y117.777 E9.42256
G1 X107.581 Y117.344 E9.44354
G1 X106.928 Y116.492 E9.48281
G1 X106.606 Y116.013 E9.50393
G1 X106.066 Y115.089 E9.54309
G1 X105.804 Y114.568 E9.56442
G1 X105.39 Y113.596 E9.60307
G1 X105.195 Y113.041 E9.6246
G1 X104.902 Y112.003 E9.66406
G1 X104.781 Y111.443 E9.68502
G1 X104.622 Y110.398 E9.72369
G1 X104.571 Y109.828 E9.74463
G1 X104.542 Y108.758 E9.78379
G1 X104.563 Y108.169 E9.80535
G1 X104.671 Y107.1 E9.84466
G1 X104.767 Y106.524 E9.86603
G1 X105.004 Y105.498 E9.90455
G1 X105.167 Y104.947 E9.92557
G1 X105.537 Y103.938 E9.96489
G1 X105.772 Y103.405 E9.98621
G1 X106.266 Y102.451 E10.02551
G1 X106.56 Y101.96 E10.04645
G1 X107.162 Y101.083 E10.08537
G1 X107.526 Y100.62 E10.10691
G1 X107.747 Y100.373 E10.11904
G0 F810 X108.231 Y99.831
M204 S5000
M205 X30 Y30
G0 F7200 X108.559 Y100.124
M204 S500
M205 X20 Y20
G1 F6000 E10.14564
G1 F900 X108.932 Y99.756 E10.16481
G1 X109.742 Y99.051 E10.2041
G1 X110.159 Y98.731 E10.22333
G1 X111.047 Y98.136 E10.26243
G1 X111.497 Y97.874 E10.28149
G1 X112.456 Y97.392 E10.32075
G1 X112.939 Y97.186 E10.33996
G1 X113.934 Y96.834 E10.37858
G1 X114.441 Y96.69 E10.39786
G1 X115.491 Y96.462 E10.43717
G1 X116.009 Y96.383 E10.45634
G1 X117.069 Y96.289 E10.49528
G1 X117.593 Y96.276 E10.51445
G1 X118.647 Y96.315 E10.55304
G1 X119.165 Y96.366 E10.57209
G1 X120.22 Y96.538 E10.61119
G1 X120.73 Y96.655 E10.63034
G1 X121.757 Y96.958 E10.66951
G1 X122.249 Y97.137 E10.68867
G1 X123.216 Y97.56 E10.72728
G1 X123.685 Y97.802 E10.74659
G1 X124.607 Y98.353 E10.78589
G1 X125.039 Y98.649 E10.80505
G1 X125.881 Y99.308 E10.84417
G1 X126.274 Y99.658 E10.86342
G1 X127.02 Y100.411 E10.9022
G1 X127.364 Y100.804 E10.92131
G1 X128.021 Y101.658 E10.96073
G1 X128.316 Y102.096 E10.98005
G1 X128.855 Y103.017 E11.01909
G1 X129.089 Y103.482 E11.03814
G1 X129.498 Y104.437 E11.07615
G1 X129.677 Y104.941 E11.09571
G1 X129.986 Y106.029 E11.13709
G1 X130.097 Y106.538 E11.15615
G1 X130.252 Y107.549 E11.19358
G1 X130.298 Y108.065 E11.21253
G1 X130.328 Y109.136 E11.25173
G1 X130.31 Y109.665 E11.27109
G1 X130.207 Y110.706 E11.30936
G1 X130.123 Y111.219 E11.32838
G1 X129.882 Y112.281 E11.36823
G1 X129.732 Y112.79 E11.38764
G1 X129.366 Y113.792 E11.42667
G1 X129.156 Y114.272 E11.44584
G1 X128.665 Y115.225 E11.48506
G1 X128.398 Y115.673 E11.50414
G1 X127.794 Y116.555 E11.54325
G1 X127.47 Y116.969 E11.56248
G1 X126.769 Y117.758 E11.6011
G1 X126.39 Y118.133 E11.6206
G1 X125.581 Y118.838 E11.65986
G1 X125.169 Y119.155 E11.67888
G1 X124.282 Y119.752 E11.718
G1 X123.833 Y120.015 E11.73704
G1 X122.999 Y120.437 E11.77124
G1 X122.804 Y121.122 E11.79729
G1 X122.69 Y122.389 E11.84383
G1 X122.69 Y122.908 E11.86282
G1 X122.804 Y124.172 E11.90926
G1 X123.184 Y125.511 E11.96018
G1 X123.708 Y126.51 E12.00145
G1 X124.198 Y127.059 E12.02837
G1 X124.41 Y127.187 E12.03743
G1 X124.702 Y127.169 E12.04814
G1 X125.285 Y127.215 E12.06953
G1 X125.845 Y127.299 E12.09025
G1 X126.409 Y127.424 E12.11139
G1 X126.99 Y127.644 E12.13412
G1 X127.486 Y127.875 E12.15413
G1 X127.992 Y128.154 E12.17527
G1 X128.532 Y128.57 E12.20021
G1 X128.925 Y128.927 E12.21964
G1 X129.324 Y129.344 E12.24075
G1 X129.766 Y129.988 E12.26933
G1 X130.016 Y130.437 E12.28813
G1 X130.262 Y130.96 E12.30928
G1 X130.489 Y131.795 E12.34094
G1 X130.57 Y132.29 E12.35929
G1 X130.624 Y132.865 E12.38042
G1 X130.598 Y133.443 E12.40159
G1 X130.552 Y133.745 E12.41276
G1 X130.458 Y134.24 E12.4312
G1 X130.311 Y134.799 E12.45234
G1 X129.952 Y135.583 E12.48389
G1 X129.692 Y136.024 E12.50262
G1 X129.365 Y136.5 E12.52375
G1 X128.833 Y137.056 E12.5519
G1 X128.435 Y137.402 E12.5712
G1 X127.974 Y137.75 E12.59233
G1 X127.396 Y138.065 E12.61641
G1 X126.896 Y138.288 E12.63644
G1 X126.353 Y138.486 E12.65759
G1 X125.751 Y138.613 E12.6801
G1 X125.209 Y138.686 E12.70011
G1 X124.632 Y138.723 E12.72126
G1 X124.07 Y138.682 E12.74188
G1 X123.514 Y138.604 E12.76242
G1 X122.795 Y138.438 E12.78941
G1 X122.679 Y138.4 E12.79388
G1 X112.325 Y138.4 E13.17269
G1 X112.2 Y138.441 E13.17751
G1 X111.45 Y138.613 E13.20566
G1 X110.891 Y138.688 E13.22629
G1 X110.314 Y138.725 E13.24745
G1 X109.715 Y138.679 E13.26943
G1 X109.155 Y138.595 E13.29014
G1 X108.591 Y138.47 E13.31128
G1 X108.01 Y138.25 E13.33401
G1 X107.514 Y138.019 E13.35403
G1 X107.008 Y137.74 E13.37517
G1 X106.468 Y137.324 E13.40011
G1 X106.075 Y136.967 E13.41953
G1 X105.676 Y136.55 E13.44065
G1 X105.234 Y135.906 E13.46922
G1 X104.984 Y135.457 E13.48803
G1 X104.738 Y134.934 E13.50917
G1 X104.511 Y134.099 E13.54083
G1 X104.43 Y133.604 E13.55918
G1 X104.376 Y133.029 E13.58031
G1 X104.402 Y132.451 E13.60148
G1 X104.448 Y132.149 E13.61265
G1 X104.542 Y131.654 E13.63109
G1 X104.689 Y131.095 E13.65224
G1 X105.048 Y130.311 E13.68378
G1 X105.308 Y129.87 E13.70251
G1 X105.635 Y129.394 E13.72364
G1 X106.167 Y128.838 E13.7518
G1 X106.565 Y128.492 E13.77109
G1 X107.026 Y128.144 E13.79222
G1 X107.602 Y127.831 E13.81621
G1 X108.101 Y127.608 E13.8362
G1 X108.643 Y127.409 E13.85733
G1 X109.25 Y127.281 E13.88002
G1 X109.809 Y127.206 E13.90066
G1 X110.386 Y127.169 E13.92181
G1 X110.595 Y127.184 E13.92948
G1 X110.799 Y127.06 E13.93821
G1 X111.293 Y126.506 E13.96537
G1 X111.816 Y125.512 E14.00646
G1 X112.196 Y124.172 E14.05742
G1 X112.31 Y122.905 E14.10396
G1 X112.31 Y122.386 E14.12295
G1 X112.196 Y121.122 E14.16938
G1 X111.951 Y120.258 E14.20224
G1 X111.606 Y120.087 E14.21633
G1 X110.687 Y119.536 E14.25553
