;FLAVOR:Marlin
;TIME:5563
;Filament used: 4.86916m
;Layer height: 0.16
;Generated with Cura_SteamEngine 3.6.0
M140 S70
M105
M190 S70
M104 S215
M105
M109 S215
M82 ;absolute extrusion mode
G28 ; home all axes
M117 Purge extruder
G92 E0 ; reset extruder
G1 Z1.0 F3000 ; move z up little to prevent scratching of surface
G1 X0.1 Y20 Z0.3 F5000.0 ; move to start-line position G1 X0.1 Y200.0 Z0.3 F1500.0 E15 ; draw 1st line
G1 X0.4 Y200.0 Z0.3 F5000.0 ; move to side a little
G1 X0.4 Y20 Z0.3 F1500.0 E30 ; draw 2nd line
G92 E0 ; reset extruder
G1 Z1.0 F3000 ; move z up little to prevent scratching of surface
M117 All systems go!
G92 E0
G1 F6000 E-5
;LAYER_COUNT:63
;LAYER:0
M107
M204 S5000
M205 X30 Y30
G0 F7200 X80.043 Y25.95 Z0.2
M204 S500
M205 X20 Y20
;TYPE:SKIRT
G1 F6000 E0
G1 F900 X80.24 Y25.345 E0.02328
G1 X80.511 Y24.77 E0.04653
G1 X80.852 Y24.233 E0.06981
G1 X81.366 Y23.631 E0.09877
G1 X81.495 Y23.502 E0.10544
G1 X81.972 Y23.082 E0.1287
G1 X82.498 Y22.724 E0.15197
G1 X83.065 Y22.436 E0.17524
G1 X83.663 Y22.22 E0.1985
G1 X84.284 Y22.082 E0.22178
G1 X85.083 Y22.02 E0.2511
G1 X101.504 Y22.054 E0.85188
G1 X102.139 Y22.095 E0.87516
G1 X102.763 Y22.216 E0.89842
G1 X103.368 Y22.414 E0.92171
G1 X103.943 Y22.686 E0.94498
G1 X104.479 Y23.028 E0.96824
G1 X105.161 Y23.627 E1.00145
G1 X106.127 Y24.643 E1.05274
G1 X106.535 Y25.131 E1.07601
G1 X106.879 Y25.666 E1.09928
G1 X107.154 Y26.24 E1.12257
G1 X107.354 Y26.843 E1.14581
G1 X107.476 Y27.467 E1.16907
G1 X107.52 Y28.13 E1.19338
G1 X107.52 Y156.804 E5.90107
G1 X107.818 Y159.536 E6.00162
G1 X108.323 Y162.274 E6.10348
G1 X109.048 Y165.061 E6.20884
G1 X109.957 Y167.732 E6.31206
G1 X111.059 Y170.317 E6.41487
G1 X112.36 Y172.845 E6.51889
G1 X113.843 Y175.27 E6.62289
G1 X115.481 Y177.554 E6.72572
G1 X117.296 Y179.728 E6.82934
G1 X119.264 Y181.761 E6.93286
G1 X121.383 Y183.652 E7.03676
G1 X123.602 Y185.358 E7.13917
G1 X125.993 Y186.93 E7.24386
G1 X128.46 Y188.305 E7.34719
G1 X131.01 Y189.49 E7.45007
G1 X133.666 Y190.494 E7.55395
G1 X136.385 Y191.3 E7.65771
G1 X136.663 Y191.361 E7.66812
G1 X136.879 Y191.186 E7.67829
G1 X137.648 Y190.672 E7.71213
G1 X138.774 Y190.059 E7.75904
G1 X139.62 Y189.694 E7.79274
G1 X140.858 Y189.289 E7.8404
G1 X141.787 Y189.079 E7.87525
G1 X143.057 Y188.916 E7.92209
G1 X143.976 Y188.883 E7.95574
G1 X145.26 Y188.953 E8.00278
G1 X146.177 Y189.087 E8.03669
G1 X147.419 Y189.388 E8.08344
G1 X148.299 Y189.69 E8.11748
G1 X149.471 Y190.216 E8.16448
G1 X150.276 Y190.669 E8.19828
G1 X151.325 Y191.394 E8.24493
G1 X152.036 Y191.989 E8.27885
G1 X152.941 Y192.899 E8.32581
G1 X153.526 Y193.605 E8.35935
G1 X154.249 Y194.659 E8.40611
G1 X154.704 Y195.475 E8.44029
G1 X155.222 Y196.647 E8.48717
G1 X155.518 Y197.526 E8.52111
G1 X155.813 Y198.771 E8.56792
G1 X155.943 Y199.686 E8.60173
G1 X156.007 Y200.967 E8.64866
G1 X155.969 Y201.885 E8.68227
G1 X155.8 Y203.157 E8.72922
G1 X155.589 Y204.076 E8.76372
G1 X155.189 Y205.289 E8.81045
G1 X154.828 Y206.124 E8.84373
G1 X154.216 Y207.248 E8.89055
G1 X153.697 Y208.022 E8.92465
G1 X152.889 Y209.015 E8.97148
G1 X152.243 Y209.675 E9.00527
G1 X151.264 Y210.508 E9.0523
G1 X150.503 Y211.043 E9.08633
G1 X149.391 Y211.681 E9.13324
G1 X148.549 Y212.066 E9.16711
G1 X147.344 Y212.489 E9.21384
G1 X146.451 Y212.714 E9.24753
G1 X145.187 Y212.912 E9.29434
G1 X144.258 Y212.971 E9.32839
G1 X142.977 Y212.934 E9.37528
G1 X142.059 Y212.823 E9.40911
G1 X140.804 Y212.553 E9.45608
G1 X139.923 Y212.277 E9.48985
G1 X138.746 Y211.787 E9.5365
G1 X137.927 Y211.354 E9.57039
G1 X136.852 Y210.653 E9.61735
G1 X136.122 Y210.075 E9.65141
G1 X135.196 Y209.191 E9.69825
G1 X134.59 Y208.497 E9.73196
G1 X133.842 Y207.463 E9.77865
G1 X133.373 Y206.672 E9.81229
G1 X133.35 Y206.625 E9.81421
G1 X132.887 Y206.545 E9.8314
G1 X132.55 Y206.475 E9.84399
G1 X129.277 Y205.68 E9.96722
G1 X128.951 Y205.589 E9.9796
G1 X125.738 Y204.577 E10.10285
G1 X125.416 Y204.464 E10.11533
G1 X122.282 Y203.239 E10.23844
G1 X121.97 Y203.105 E10.25086
G1 X118.917 Y201.669 E10.3743
G1 X118.612 Y201.512 E10.38685
G1 X115.684 Y199.884 E10.50942
G1 X115.393 Y199.71 E10.52183
G1 X112.552 Y197.871 E10.64564
G1 X112.274 Y197.677 E10.65804
G1 X109.581 Y195.666 E10.78101
G1 X109.316 Y195.454 E10.79343
G1 X106.762 Y193.265 E10.91649
G1 X106.509 Y193.032 E10.92908
G1 X104.101 Y190.666 E11.05259
G1 X103.867 Y190.421 E11.06498
G1 X101.639 Y187.917 E11.18761
G1 X101.422 Y187.655 E11.20005
G1 X99.349 Y184.984 E11.32375
G1 X99.149 Y184.709 E11.33619
G1 X97.268 Y181.916 E11.45939
G1 X97.087 Y181.626 E11.4719
G1 X95.403 Y178.72 E11.59478
G1 X95.242 Y178.419 E11.60727
G1 X93.754 Y175.398 E11.73048
G1 X93.615 Y175.09 E11.74284
G1 X92.334 Y171.982 E11.86583
G1 X92.214 Y171.662 E11.87833
G1 X91.14 Y168.458 E12.00196
G1 X91.043 Y168.133 E12.01437
G1 X90.189 Y164.875 E12.1376
G1 X90.114 Y164.542 E12.15009
G1 X89.482 Y161.234 E12.2733
G1 X89.429 Y160.897 E12.28578
G1 X89.022 Y157.564 E12.40863
G1 X88.985 Y156.951 E12.4311
G1 X88.984 Y87.14 E14.98521
G1 X85.073 Y87.14 E15.1283
G1 X84.438 Y87.1 E15.15158
G1 X83.814 Y86.981 E15.17482
G1 X83.209 Y86.784 E15.1981
G1 X82.634 Y86.513 E15.22136
G1 X82.097 Y86.172 E15.24463
G1 X81.495 Y85.658 E15.27359
G1 X81.366 Y85.529 E15.28027
G1 X80.946 Y85.052 E15.30352
G1 X80.588 Y84.526 E15.3268
G1 X80.3 Y83.959 E15.35006
G1 X80.084 Y83.361 E15.37333
G1 X79.946 Y82.74 E15.3966
G1 X79.884 Y81.951 E15.42556
G1 X79.884 Y27.209 E17.42836
G1 X79.919 Y26.665 E17.4483
G0 F810 X79.924 Y26.574
G0 X80.043 Y25.95
M204 S5000
M205 X30 Y30
G0 F7200 X80.483 Y26.007
M204 S500
M205 X20 Y20
G1 F6000 E17.4749
G1 F900 X80.679 Y25.432 E17.49712
G1 X80.95 Y24.888 E17.51936
G1 X81.289 Y24.383 E17.54161
G1 X81.677 Y23.942 E17.5631
G1 X81.806 Y23.813 E17.56978
G1 X82.263 Y23.413 E17.592
G1 X82.769 Y23.076 E17.61424
G1 X83.314 Y22.808 E17.63646
G1 X83.89 Y22.614 E17.6587
G1 X84.486 Y22.497 E17.68092
G1 X85.083 Y22.46 E17.7028
G1 X101.504 Y22.494 E18.30358
G1 X102.11 Y22.535 E18.32581
G1 X102.705 Y22.656 E18.34802
G1 X103.28 Y22.853 E18.37026
G1 X103.824 Y23.124 E18.39249
G1 X104.327 Y23.465 E18.41473
G1 X104.842 Y23.931 E18.44014
G1 X105.808 Y24.947 E18.49143
G1 X106.197 Y25.414 E18.51366
G1 X106.521 Y25.927 E18.53586
G1 X106.775 Y26.479 E18.55809
G1 X106.954 Y27.06 E18.58034
G1 X107.056 Y27.659 E18.60257
G1 X107.08 Y28.13 E18.61982
G1 X107.08 Y156.825 E23.32828
G1 X107.384 Y159.61 E23.43077
G1 X107.892 Y162.368 E23.53338
G1 X108.627 Y165.191 E23.6401
G1 X109.544 Y167.883 E23.74415
G1 X110.661 Y170.505 E23.84842
G1 X111.977 Y173.063 E23.95367
G1 X113.469 Y175.502 E24.05827
G1 X115.134 Y177.824 E24.16281
G1 X116.973 Y180.027 E24.2678
G1 X118.965 Y182.086 E24.37261
G1 X121.096 Y183.987 E24.47709
G1 X123.351 Y185.72 E24.58114
G1 X125.765 Y187.307 E24.68684
G1 X128.252 Y188.694 E24.79102
G1 X130.849 Y189.9 E24.89578
G1 X133.52 Y190.91 E25.00026
G1 X136.276 Y191.727 E25.10542
G1 X136.776 Y191.836 E25.12415
G1 X137.156 Y191.528 E25.14204
G1 X137.858 Y191.058 E25.17295
G1 X138.984 Y190.445 E25.21986
G1 X139.757 Y190.112 E25.25065
G1 X140.995 Y189.707 E25.29831
G1 X141.843 Y189.516 E25.33011
G1 X143.113 Y189.353 E25.37695
G1 X143.952 Y189.322 E25.40767
G1 X145.236 Y189.392 E25.45472
G1 X146.073 Y189.515 E25.48567
G1 X147.315 Y189.816 E25.53242
G1 X148.119 Y190.091 E25.56351
G1 X149.291 Y190.617 E25.61051
G1 X150.026 Y191.031 E25.64137
G1 X151.075 Y191.756 E25.68803
G1 X151.724 Y192.299 E25.71899
G1 X152.629 Y193.209 E25.76594
G1 X153.163 Y193.854 E25.79658
G1 X153.886 Y194.908 E25.84334
G1 X154.302 Y195.653 E25.87456
G1 X154.82 Y196.825 E25.92144
G1 X155.09 Y197.628 E25.95243
G1 X155.385 Y198.873 E25.99924
G1 X155.503 Y199.707 E26.03006
G1 X155.567 Y200.988 E26.07699
G1 X155.533 Y201.827 E26.10771
G1 X155.364 Y203.099 E26.15465
G1 X155.172 Y203.938 E26.18614
G1 X154.772 Y205.151 E26.23287
G1 X154.442 Y205.913 E26.26325
G1 X153.83 Y207.037 E26.31008
G1 X153.356 Y207.744 E26.34122
G1 X152.548 Y208.737 E26.38806
G1 X151.958 Y209.34 E26.41892
G1 X150.979 Y210.173 E26.46595
G1 X150.284 Y210.661 E26.49702
G1 X149.172 Y211.299 E26.54392
G1 X148.403 Y211.651 E26.57487
G1 X147.198 Y212.074 E26.62159
G1 X146.383 Y212.279 E26.65234
G1 X145.119 Y212.477 E26.69915
G1 X144.271 Y212.531 E26.73023
G1 X142.99 Y212.494 E26.77712
G1 X142.151 Y212.393 E26.80804
G1 X140.896 Y212.123 E26.855
G1 X140.092 Y211.871 E26.88583
G1 X138.915 Y211.381 E26.93247
G1 X138.167 Y210.986 E26.96342
G1 X137.092 Y210.285 E27.01038
G1 X136.426 Y209.757 E27.04147
G1 X135.5 Y208.873 E27.08831
G1 X134.947 Y208.239 E27.11909
G1 X134.199 Y207.205 E27.16578
G1 X133.771 Y206.483 E27.19649
G1 X133.65 Y206.23 E27.20675
G1 X132.961 Y206.111 E27.23233
G1 X132.654 Y206.047 E27.2438
G1 X129.381 Y205.252 E27.36703
G1 X129.083 Y205.17 E27.37834
G1 X125.87 Y204.158 E27.50158
G1 X125.576 Y204.054 E27.51299
G1 X122.442 Y202.829 E27.6361
G1 X122.158 Y202.707 E27.64741
G1 X119.105 Y201.271 E27.77084
G1 X118.826 Y201.128 E27.78232
G1 X115.898 Y199.5 E27.90488
G1 X115.632 Y199.34 E27.91624
G1 X112.791 Y197.501 E28.04006
G1 X112.538 Y197.325 E28.05133
G1 X109.845 Y195.314 E28.1743
G1 X109.602 Y195.12 E28.18568
G1 X107.048 Y192.931 E28.30874
G1 X106.817 Y192.718 E28.32024
G1 X104.409 Y190.352 E28.44375
G1 X104.195 Y190.128 E28.45508
G1 X101.967 Y187.624 E28.57771
G1 X101.769 Y187.386 E28.58904
G1 X99.696 Y184.715 E28.71273
G1 X99.514 Y184.463 E28.72411
G1 X97.633 Y181.67 E28.84731
G1 X97.468 Y181.405 E28.85873
G1 X95.784 Y178.499 E28.98161
G1 X95.636 Y178.224 E28.99303
G1 X94.148 Y175.203 E29.11624
G1 X94.022 Y174.923 E29.12747
G1 X92.741 Y171.815 E29.25046
G1 X92.632 Y171.522 E29.2619
G1 X91.558 Y168.318 E29.38553
G1 X91.469 Y168.021 E29.39688
G1 X90.615 Y164.763 E29.5201
G1 X90.546 Y164.459 E29.53151
G1 X89.914 Y161.151 E29.65472
G1 X89.866 Y160.844 E29.66609
G1 X89.459 Y157.511 E29.78894
G1 X89.425 Y156.951 E29.80946
G1 X89.424 Y86.7 E32.37968
G1 X85.073 Y86.7 E32.53886
G1 X84.467 Y86.66 E32.56108
G1 X83.871 Y86.541 E32.58332
G1 X83.296 Y86.345 E32.60555
G1 X82.752 Y86.074 E32.62778
G1 X82.247 Y85.735 E32.65003
G1 X81.806 Y85.347 E32.67152
G1 X81.677 Y85.218 E32.6782
G1 X81.277 Y84.761 E32.70042
G1 X80.94 Y84.255 E32.72266
G1 X80.672 Y83.71 E32.74488
G1 X80.478 Y83.134 E32.76712
G1 X80.361 Y82.538 E32.78934
G1 X80.324 Y81.951 E32.81086
G1 X80.324 Y27.209 E34.81366
G1 X80.357 Y26.722 E34.83152
G0 F810 X80.364 Y26.603
G0 X80.483 Y26.007
M204 S5000
M205 X30 Y30
G0 F7200 X80.923 Y26.067
M204 S500
M205 X20 Y20
G1 F6000 E34.85811
G1 F900 X81.119 Y25.523 E34.87927
G1 X81.388 Y25.012 E34.9004
G1 X81.725 Y24.542 E34.92156
G1 X81.988 Y24.253 E34.93585
G1 X82.117 Y24.124 E34.94253
G1 X82.553 Y23.745 E34.96366
G1 X83.037 Y23.429 E34.98481
G1 X83.56 Y23.183 E35.00596
G1 X84.112 Y23.012 E35.0271
G1 X84.683 Y22.918 E35.04827
G1 X85.082 Y22.9 E35.06288
G1 X101.503 Y22.934 E35.66366
G1 X102.079 Y22.975 E35.68479
G1 X102.644 Y23.095 E35.70592
G1 X103.188 Y23.293 E35.7271
G1 X103.699 Y23.563 E35.74825
G1 X104.167 Y23.901 E35.76937
G1 X104.523 Y24.234 E35.7872
G1 X105.489 Y25.25 E35.8385
G1 X105.858 Y25.695 E35.85965
G1 X106.161 Y26.187 E35.88079
G1 X106.394 Y26.716 E35.90193
G1 X106.551 Y27.272 E35.92307
G1 X106.64 Y28.13 E35.95463
G1 X106.64 Y156.854 E40.66415
G1 X106.945 Y159.654 E40.76719
G1 X107.466 Y162.478 E40.87226
G1 X108.203 Y165.309 E40.97928
G1 X109.135 Y168.046 E41.08507
G1 X110.26 Y170.688 E41.19013
G1 X111.595 Y173.282 E41.29686
G1 X113.104 Y175.748 E41.40263
G1 X114.787 Y178.095 E41.5083
G1 X116.643 Y180.318 E41.61425
G1 X118.66 Y182.402 E41.72036
G1 X120.818 Y184.328 E41.82618
G1 X123.1 Y186.082 E41.93148
G1 X125.532 Y187.681 E42.03797
G1 X128.053 Y189.087 E42.14358
G1 X130.666 Y190.301 E42.24899
G1 X133.391 Y191.331 E42.35557
G1 X136.167 Y192.153 E42.4615
G1 X136.89 Y192.312 E42.48858
G1 X137.434 Y191.87 E42.51422
G1 X138.068 Y191.445 E42.54215
G1 X139.194 Y190.832 E42.58905
G1 X139.893 Y190.53 E42.61691
G1 X141.131 Y190.125 E42.66457
G1 X141.899 Y189.952 E42.69337
G1 X143.169 Y189.789 E42.74022
G1 X143.929 Y189.761 E42.76804
G1 X145.213 Y189.831 E42.81509
G1 X145.97 Y189.943 E42.84308
G1 X147.212 Y190.244 E42.88984
G1 X147.939 Y190.492 E42.91794
G1 X149.111 Y191.018 E42.96494
G1 X149.776 Y191.393 E42.99287
G1 X150.825 Y192.118 E43.03953
G1 X151.412 Y192.609 E43.06752
G1 X152.317 Y193.519 E43.11448
G1 X152.8 Y194.103 E43.14221
G1 X153.523 Y195.157 E43.18897
G1 X153.899 Y195.831 E43.21721
G1 X154.417 Y197.003 E43.26409
G1 X154.661 Y197.729 E43.29211
G1 X154.956 Y198.974 E43.33892
G1 X155.064 Y199.729 E43.36682
G1 X155.128 Y201.01 E43.41375
G1 X155.097 Y201.77 E43.44158
G1 X154.928 Y203.042 E43.48852
G1 X154.754 Y203.8 E43.51698
G1 X154.354 Y205.013 E43.56371
G1 X154.055 Y205.703 E43.59122
G1 X153.443 Y206.827 E43.63804
G1 X153.014 Y207.466 E43.6662
G1 X152.206 Y208.459 E43.71304
G1 X151.673 Y209.005 E43.74095
G1 X150.694 Y209.838 E43.78798
G1 X150.065 Y210.28 E43.81611
G1 X148.953 Y210.918 E43.86301
G1 X148.258 Y211.236 E43.89098
G1 X147.053 Y211.659 E43.9377
G1 X146.315 Y211.845 E43.96555
G1 X145.051 Y212.043 E44.01235
G1 X144.283 Y212.091 E44.04051
G1 X143.002 Y212.054 E44.08739
G1 X142.244 Y211.962 E44.11533
G1 X140.989 Y211.692 E44.1623
G1 X140.261 Y211.465 E44.19019
G1 X139.084 Y210.975 E44.23684
G1 X138.408 Y210.617 E44.26483
G1 X137.333 Y209.916 E44.31178
G1 X136.73 Y209.438 E44.33993
G1 X135.804 Y208.554 E44.38677
G1 X135.303 Y207.981 E44.41462
G1 X134.555 Y206.947 E44.46131
G1 X134.168 Y206.294 E44.48908
G1 X133.95 Y205.835 E44.50767
G1 X133.036 Y205.678 E44.5416
G1 X132.757 Y205.62 E44.55202
G1 X129.484 Y204.825 E44.67525
G1 X129.215 Y204.75 E44.68547
G1 X126.002 Y203.738 E44.80871
G1 X125.736 Y203.644 E44.81904
G1 X122.602 Y202.419 E44.94214
G1 X122.345 Y202.308 E44.95239
G1 X119.292 Y200.872 E45.07582
G1 X119.04 Y200.743 E45.08618
G1 X116.112 Y199.115 E45.20875
G1 X115.872 Y198.971 E45.21899
G1 X113.031 Y197.132 E45.34281
G1 X112.801 Y196.972 E45.35306
G1 X110.108 Y194.961 E45.47602
G1 X109.889 Y194.786 E45.48628
G1 X107.335 Y192.597 E45.60935
G1 X107.125 Y192.405 E45.61976
G1 X104.717 Y190.039 E45.74327
G1 X104.524 Y189.836 E45.75351
G1 X102.296 Y187.332 E45.87614
G1 X102.117 Y187.116 E45.8864
G1 X100.044 Y184.445 E46.0101
G1 X99.879 Y184.217 E46.0204
G1 X97.998 Y181.424 E46.1436
G1 X97.848 Y181.185 E46.15392
G1 X96.164 Y178.279 E46.2768
G1 X96.031 Y178.03 E46.28713
G1 X94.543 Y175.009 E46.41034
G1 X94.428 Y174.755 E46.42054
G1 X93.147 Y171.647 E46.54353
G1 X93.049 Y171.383 E46.55383
G1 X91.975 Y168.179 E46.67746
G1 X91.895 Y167.91 E46.68773
G1 X91.041 Y164.652 E46.81096
G1 X90.978 Y164.376 E46.82131
G1 X90.346 Y161.068 E46.94453
G1 X90.303 Y160.791 E46.95479
G1 X89.896 Y157.458 E47.07763
G1 X89.865 Y156.951 E47.09622
G1 X89.864 Y86.26 E49.68253
G1 X85.073 Y86.26 E49.85781
G1 X84.496 Y86.22 E49.87897
G1 X83.931 Y86.101 E49.9001
G1 X83.387 Y85.905 E49.92125
G1 X82.876 Y85.636 E49.94238
G1 X82.406 Y85.299 E49.96354
G1 X82.117 Y85.036 E49.97784
G1 X81.988 Y84.907 E49.98451
G1 X81.609 Y84.471 E50.00565
G1 X81.293 Y83.987 E50.02679
G1 X81.047 Y83.464 E50.04794
G1 X80.876 Y82.912 E50.06908
G1 X80.782 Y82.341 E50.09025
G1 X80.764 Y81.951 E50.10454
G1 X80.764 Y27.209 E52.10734
G1 X80.794 Y26.781 E52.12303
G0 F810 X80.804 Y26.632
G0 X80.923 Y26.067
M204 S5000
M205 X30 Y30
G0 F7200 X81.363 Y26.13
M204 S500
M205 X20 Y20
G1 F6000 E52.14963
G1 F900 X81.558 Y25.62 E52.16961
G1 X81.826 Y25.143 E52.18963
G1 X82.299 Y24.564 E52.21698
G1 X82.428 Y24.435 E52.22365
G1 X82.842 Y24.078 E52.24365
G1 X83.304 Y23.785 E52.26367
G1 X83.803 Y23.562 E52.28367
G1 X84.329 Y23.415 E52.30365
G1 X85.081 Y23.34 E52.3313
G1 X101.502 Y23.374 E52.93208
G1 X102.047 Y23.415 E52.95208
G1 X102.58 Y23.535 E52.97206
G1 X103.09 Y23.732 E52.99207
G1 X103.566 Y24.001 E53.01207
G1 X103.998 Y24.336 E53.03207
G1 X104.204 Y24.537 E53.0426
G1 X105.17 Y25.553 E53.09389
G1 X105.517 Y25.976 E53.11391
G1 X105.799 Y26.444 E53.1339
G1 X106.009 Y26.949 E53.15391
G1 X106.143 Y27.479 E53.17391
G1 X106.2 Y28.13 E53.19782
G1 X106.2 Y156.875 E57.9081
G1 X106.511 Y159.727 E58.01306
G1 X107.035 Y162.572 E58.1189
G1 X107.782 Y165.439 E58.2273
G1 X108.718 Y168.19 E58.33361
G1 X109.868 Y170.888 E58.44091
