;FLAVOR:RepRap
;TIME:4402
;Generated with Cura_SteamEngine 2.3.1
M190 S70
M104 S215
M109 S215
G28 ; home all axes
M117 Purge extruder
G92 E0 ; reset extruder
G1 Z1.0 F3000 ; move z up little to prevent scratching of surface
G1 X0.1 Y20 Z0.3 F5000.0 ; move to start-line position G1 X0.1 Y200.0 Z0.3 F1500.0 E15 ; draw 1st line
G1 X0.4 Y200.0 Z0.3 F5000.0 ; move to side a little
G1 X0.4 Y20 Z0.3 F1500.0 E30 ; draw 2nd line
G92 E0 ; reset extruder
G1 Z1.0 F3000 ; move z up little to prevent scratching of surface

M117 All systems go!
;LAYER_COUNT:63
;LAYER:0
M117 INDICATOR-Layer0
M107
G1 F4200 E-5
G0 F1800 X20.315 Y82.95 Z.16
;TYPE:SKIRT
G1 F4200 E0
G1 F1200 X21.088 Y82.871 E0.02274
G1 X149.875 Y82.871 E3.7922
G1 X152.726 Y82.56 E3.87614
G1 X155.561 Y82.039 E3.96051
G1 X158.44 Y81.29 E4.04758
G1 X161.181 Y80.354 E4.13235
G1 X163.87 Y79.211 E4.21787
G1 X166.47 Y77.871 E4.30348
G1 X168.971 Y76.343 E4.38926
G1 X171.336 Y74.645 E4.47448
G1 X173.582 Y72.771 E4.56009
G1 X175.686 Y70.735 E4.64579
G1 X177.622 Y68.565 E4.73091
G1 X179.407 Y66.242 E4.81665
G1 X181.013 Y63.8 E4.9022
G1 X182.437 Y61.245 E4.98781
G1 X183.657 Y58.615 E5.07267
G1 X184.7 Y55.861 E5.15886
G1 X185.531 Y53.058 E5.24443
G1 X185.73 Y52.148 E5.27169
G1 X185.181 Y51.474 E5.29714
G1 X184.789 Y50.891 E5.3177
G1 X184.174 Y49.761 E5.35536
G1 X183.903 Y49.132 E5.3754
G1 X183.504 Y47.92 E5.41275
G1 X183.346 Y47.231 E5.43344
G1 X183.178 Y45.963 E5.47088
G1 X183.149 Y45.28 E5.49088
G1 X183.211 Y43.999 E5.52842
G1 X183.31 Y43.306 E5.54891
G1 X183.605 Y42.062 E5.58633
G1 X183.827 Y41.401 E5.60674
G1 X184.346 Y40.228 E5.64428
G1 X184.685 Y39.62 E5.66466
G1 X185.409 Y38.562 E5.70218
G1 X185.852 Y38.027 E5.72251
G1 X186.754 Y37.121 E5.75993
G1 X187.288 Y36.675 E5.78029
G1 X188.344 Y35.946 E5.81785
G1 X188.946 Y35.606 E5.83809
G1 X190.113 Y35.082 E5.87553
G1 X190.771 Y34.857 E5.89588
G1 X192.011 Y34.555 E5.93324
G1 X192.703 Y34.453 E5.95371
G1 X193.989 Y34.383 E5.99141
G1 X194.678 Y34.408 E6.01158
G1 X195.946 Y34.57 E6.049
G1 X196.632 Y34.723 E6.06957
G1 X197.846 Y35.115 E6.10691
G1 X198.484 Y35.388 E6.12722
G1 X199.615 Y35.999 E6.16485
G1 X200.192 Y36.382 E6.18512
G1 X201.191 Y37.186 E6.22265
G1 X201.69 Y37.67 E6.243
G1 X202.525 Y38.642 E6.2805
G1 X202.93 Y39.211 E6.30094
G1 X203.571 Y40.316 E6.33833
G1 X203.861 Y40.94 E6.35847
G1 X204.293 Y42.144 E6.39591
G1 X204.468 Y42.824 E6.41646
G1 X204.671 Y44.087 E6.45391
G1 X204.718 Y44.773 E6.47403
G1 X204.69 Y46.055 E6.51156
G1 X204.61 Y46.751 E6.53207
G1 X204.347 Y48.006 E6.5696
G1 X204.143 Y48.67 E6.58993
G1 X203.656 Y49.856 E6.62745
G1 X203.331 Y50.478 E6.648
G1 X202.634 Y51.555 E6.68554
G1 X202.209 Y52.097 E6.7057
G1 X201.334 Y53.025 E6.74303
G1 X200.809 Y53.488 E6.76352
G1 X199.77 Y54.246 E6.80117
G1 X199.178 Y54.6 E6.82135
G1 X198.503 Y54.925 E6.84328
G1 X198.309 Y56.041 E6.87644
G1 X198.258 Y56.286 E6.88376
G1 X197.468 Y59.545 E6.98191
G1 X197.399 Y59.792 E6.98942
G1 X196.383 Y63.016 E7.08835
G1 X196.299 Y63.256 E7.0958
G1 X195.079 Y66.38 E7.19396
G1 X194.977 Y66.616 E7.20148
G1 X193.544 Y69.662 E7.30001
G1 X193.428 Y69.889 E7.30747
G1 X191.793 Y72.832 E7.40601
G1 X191.661 Y73.051 E7.41349
G1 X189.826 Y75.887 E7.51236
G1 X189.682 Y76.096 E7.51979
G1 X187.671 Y78.791 E7.61821
G1 X187.509 Y78.992 E7.62576
G1 X185.321 Y81.543 E7.72413
G1 X185.149 Y81.731 E7.73159
G1 X182.782 Y84.142 E7.83048
G1 X182.596 Y84.319 E7.838
G1 X180.09 Y86.549 E7.93618
G1 X179.894 Y86.712 E7.94364
G1 X177.229 Y88.781 E8.04239
G1 X177.021 Y88.931 E8.0499
G1 X174.221 Y90.816 E8.14869
G1 X174.004 Y90.952 E8.15619
G1 X171.093 Y92.639 E8.25466
G1 X170.868 Y92.759 E8.26212
G1 X167.858 Y94.243 E8.36035
G1 X167.627 Y94.348 E8.36778
G1 X164.516 Y95.631 E8.46627
G1 X164.275 Y95.721 E8.4738
G1 X161.068 Y96.796 E8.5728
G1 X160.825 Y96.869 E8.58023
G1 X157.575 Y97.722 E8.67857
G1 X157.323 Y97.778 E8.68613
G1 X154.022 Y98.409 E8.78449
G1 X153.769 Y98.449 E8.79199
G1 X150.417 Y98.858 E8.89083
G1 X149.957 Y98.886 E8.90432
G1 X78.889 Y98.887 E10.9844
G1 X78.889 Y104.167 E11.13894
G1 X78.849 Y104.717 E11.15508
G1 X78.73 Y105.255 E11.17121
G1 X78.534 Y105.77 E11.18734
G1 X78.266 Y106.251 E11.20345
G1 X77.932 Y106.689 E11.21957
G1 X77.537 Y107.073 E11.2357
G1 X77.091 Y107.397 E11.25183
G1 X76.603 Y107.652 E11.26795
G1 X76.083 Y107.835 E11.28408
G1 X75.542 Y107.94 E11.30021
G1 X75.089 Y107.967 E11.31349
G1 X20.089 Y107.967 E12.92329
G1 X19.539 Y107.927 E12.93943
G1 X19.001 Y107.808 E12.95555
G1 X18.486 Y107.612 E12.97168
G1 X18.005 Y107.344 E12.9878
G1 X17.567 Y107.01 E13.00392
G1 X17.183 Y106.615 E13.02004
G1 X16.859 Y106.169 E13.03618
G1 X16.604 Y105.681 E13.05229
G1 X16.421 Y105.161 E13.06843
G1 X16.316 Y104.62 E13.08456
G1 X16.289 Y104.167 E13.09784
G1 X16.289 Y87.67 E13.58069
G1 X16.329 Y87.12 E13.59683
G1 X16.448 Y86.582 E13.61296
G1 X16.644 Y86.067 E13.62909
G1 X16.912 Y85.586 E13.6452
G1 X17.402 Y84.983 E13.66794
G1 X18.401 Y83.984 E13.7093
G1 X18.818 Y83.624 E13.72542
G1 X19.282 Y83.327 E13.74154
G1 X19.785 Y83.101 E13.75768
G1 X20.315 Y82.95 E13.77381
G1 F4200 E8.77381
G0 F1800 X21.088 Y83.271
G1 F4200 E13.77381
G1 F1200 X149.9 Y83.271 E17.544
G1 X152.774 Y82.958 E17.62862
G1 X155.664 Y82.426 E17.71463
G1 X158.535 Y81.679 E17.80146
G1 X161.328 Y80.726 E17.88783
G1 X164.047 Y79.57 E17.97431
G1 X166.666 Y78.22 E18.06055
G1 X169.188 Y76.679 E18.14705
G1 X171.58 Y74.962 E18.23323
G1 X173.847 Y73.07 E18.31966
G1 X175.973 Y71.013 E18.40624
G1 X177.935 Y68.814 E18.4925
G1 X179.732 Y66.475 E18.57883
G1 X181.354 Y64.009 E18.66522
G1 X182.795 Y61.424 E18.75184
G1 X184.026 Y58.77 E18.83747
G1 X185.078 Y55.995 E18.92433
G1 X185.917 Y53.164 E19.01076
G1 X186.161 Y52.044 E19.04431
G1 X185.491 Y51.221 E19.07537
G1 X185.141 Y50.699 E19.09376
G1 X184.526 Y49.569 E19.13142
G1 X184.283 Y49.007 E19.14934
G1 X183.884 Y47.795 E19.18668
G1 X183.742 Y47.179 E19.20519
G1 X183.574 Y45.911 E19.24262
G1 X183.549 Y45.3 E19.26052
G1 X183.611 Y44.019 E19.29806
G1 X183.699 Y43.398 E19.31642
G1 X183.994 Y42.154 E19.35384
G1 X184.193 Y41.563 E19.37209
G1 X184.712 Y40.39 E19.40963
G1 X185.015 Y39.846 E19.42786
G1 X185.739 Y38.788 E19.46538
G1 X186.136 Y38.309 E19.48359
G1 X187.038 Y37.403 E19.52101
G1 X187.515 Y37.004 E19.53921
G1 X188.571 Y36.275 E19.57677
G1 X189.11 Y35.971 E19.59488
G1 X190.277 Y35.447 E19.63232
G1 X190.865 Y35.246 E19.65051
G1 X192.105 Y34.944 E19.68787
G1 X192.725 Y34.852 E19.70621
G1 X194.011 Y34.782 E19.74391
G1 X194.627 Y34.804 E19.76195
G1 X195.895 Y34.966 E19.79936
G1 X196.509 Y35.103 E19.81778
G1 X197.723 Y35.495 E19.85511
G1 X198.294 Y35.74 E19.8733
G1 X199.425 Y36.351 E19.91093
G1 X199.941 Y36.693 E19.92904
G1 X200.94 Y37.497 E19.96658
G1 X201.387 Y37.93 E19.98479
G1 X202.222 Y38.902 E20.0223
G1 X202.584 Y39.412 E20.0406
G1 X203.225 Y40.517 E20.07799
G1 X203.484 Y41.075 E20.096
G1 X203.916 Y42.279 E20.13344
G1 X204.073 Y42.887 E20.15182
G1 X204.276 Y44.15 E20.18926
G1 X204.318 Y44.764 E20.20727
G1 X204.29 Y46.046 E20.2448
G1 X204.219 Y46.669 E20.26316
G1 X203.956 Y47.924 E20.30069
G1 X203.773 Y48.518 E20.31888
G1 X203.286 Y49.704 E20.3564
G1 X202.995 Y50.26 E20.37477
G1 X202.298 Y51.337 E20.41232
G1 X201.918 Y51.822 E20.43035
G1 X201.043 Y52.75 E20.46768
G1 X200.573 Y53.165 E20.48604
G1 X199.534 Y53.923 E20.52368
G1 X199.005 Y54.24 E20.54173
G1 X198.144 Y54.655 E20.5697
G1 X197.915 Y55.972 E20.60883
G1 X197.869 Y56.192 E20.61541
G1 X197.079 Y59.451 E20.71356
G1 X197.018 Y59.672 E20.72027
G1 X196.002 Y62.896 E20.81921
G1 X195.926 Y63.111 E20.82588
G1 X194.706 Y66.235 E20.92404
G1 X194.616 Y66.445 E20.93073
G1 X193.183 Y69.491 E21.02926
G1 X193.078 Y69.695 E21.03597
G1 X191.443 Y72.638 E21.13451
G1 X191.326 Y72.834 E21.14119
G1 X189.491 Y75.67 E21.24006
G1 X189.361 Y75.856 E21.2467
G1 X187.35 Y78.551 E21.34512
G1 X187.206 Y78.732 E21.35189
G1 X185.018 Y81.283 E21.45026
G1 X184.863 Y81.451 E21.45695
G1 X182.496 Y83.862 E21.55584
G1 X182.33 Y84.02 E21.56255
G1 X179.824 Y86.25 E21.66073
G1 X179.649 Y86.396 E21.6674
G1 X176.984 Y88.465 E21.76615
G1 X176.798 Y88.599 E21.77286
G1 X173.998 Y90.484 E21.87165
G1 X173.804 Y90.606 E21.87836
G1 X170.893 Y92.293 E21.97684
G1 X170.691 Y92.401 E21.98354
G1 X167.681 Y93.885 E22.08176
G1 X167.474 Y93.978 E22.08841
G1 X164.363 Y95.261 E22.1869
G1 X164.148 Y95.342 E22.19363
G1 X160.941 Y96.417 E22.29262
G1 X160.723 Y96.482 E22.29928
G1 X157.473 Y97.335 E22.39763
G1 X157.248 Y97.386 E22.40438
G1 X153.947 Y98.017 E22.50275
G1 X153.721 Y98.052 E22.50944
G1 X150.369 Y98.461 E22.60828
G1 X149.957 Y98.486 E22.62036
G1 X78.489 Y98.487 E24.71215
G1 X78.489 Y104.167 E24.8784
G1 X78.449 Y104.687 E24.89366
G1 X78.33 Y105.194 E24.90891
G1 X78.135 Y105.677 E24.92415
G1 X77.869 Y106.125 E24.9394
G1 X77.537 Y106.527 E24.95466
G1 X77.147 Y106.873 E24.96992
G1 X76.709 Y107.156 E24.98518
G1 X76.234 Y107.369 E25.00042
G1 X75.731 Y107.506 E25.01568
G1 X75.089 Y107.567 E25.03455
G1 X20.089 Y107.567 E26.64434
G1 X19.569 Y107.527 E26.65961
G1 X19.062 Y107.408 E26.67485
G1 X18.579 Y107.213 E26.6901
G1 X18.131 Y106.947 E26.70535
G1 X17.729 Y106.615 E26.72061
G1 X17.383 Y106.225 E26.73587
G1 X17.1 Y105.787 E26.75113
G1 X16.887 Y105.312 E26.76637
G1 X16.75 Y104.809 E26.78162
G1 X16.689 Y104.167 E26.8005
G1 X16.689 Y87.67 E27.28335
G1 X16.729 Y87.15 E27.29861
G1 X16.848 Y86.643 E27.31386
G1 X17.043 Y86.16 E27.3291
G1 X17.309 Y85.712 E27.34435
G1 X17.685 Y85.266 E27.36143
G1 X18.684 Y84.267 E27.40278
G1 X19.08 Y83.928 E27.41803
G1 X19.522 Y83.653 E27.43327
G1 X20.002 Y83.449 E27.44854
G1 X20.507 Y83.321 E27.46378
G1 X21.088 Y83.271 E27.48085
G0 F1800 X21.088 Y83.671
G1 F1200 X149.925 Y83.671 E31.25177
G1 X152.835 Y83.354 E31.33745
G1 X155.743 Y82.819 E31.42399
G1 X158.656 Y82.061 E31.51209
G1 X161.468 Y81.101 E31.59906
G1 X164.208 Y79.936 E31.6862
G1 X166.869 Y78.565 E31.77382
G1 X169.415 Y77.009 E31.86115
G1 X171.824 Y75.28 E31.94794
G1 X174.114 Y73.368 E32.03526
G1 X176.268 Y71.285 E32.12296
G1 X178.231 Y69.085 E32.20926
G1 X180.062 Y66.701 E32.29724
G1 X181.698 Y64.214 E32.38437
G1 X183.151 Y61.608 E32.4717
G1 X184.399 Y58.917 E32.55852
G1 X185.456 Y56.127 E32.64584
G1 X186.304 Y53.265 E32.73321
G1 X186.593 Y51.942 E32.77285
G1 X185.801 Y50.969 E32.80957
G1 X185.492 Y50.508 E32.82581
G1 X184.877 Y49.378 E32.86347
G1 X184.662 Y48.882 E32.87929
G1 X184.263 Y47.67 E32.91664
G1 X184.139 Y47.126 E32.93297
G1 X183.971 Y45.858 E32.9704
G1 X183.949 Y45.319 E32.98619
G1 X184.011 Y44.038 E33.02373
G1 X184.088 Y43.491 E33.0399
G1 X184.383 Y42.247 E33.07732
G1 X184.559 Y41.725 E33.09344
G1 X185.078 Y40.552 E33.13098
G1 X185.345 Y40.072 E33.14706
G1 X186.069 Y39.014 E33.18458
G1 X186.419 Y38.591 E33.20065
G1 X187.321 Y37.685 E33.23807
G1 X187.743 Y37.333 E33.25416
G1 X188.799 Y36.604 E33.29171
G1 X189.274 Y36.336 E33.30768
G1 X190.441 Y35.812 E33.34512
G1 X190.96 Y35.634 E33.36118
G1 X192.2 Y35.332 E33.39853
G1 X192.747 Y35.251 E33.41472
G1 X194.033 Y35.181 E33.45241
G1 X194.576 Y35.201 E33.46832
G1 X195.844 Y35.363 E33.50573
G1 X196.386 Y35.484 E33.52199
G1 X197.6 Y35.876 E33.55932
G1 X198.104 Y36.092 E33.57537
G1 X199.235 Y36.703 E33.613
G1 X199.69 Y37.005 E33.62898
G1 X200.689 Y37.809 E33.66651
G1 X201.084 Y38.191 E33.6826
G1 X201.919 Y39.163 E33.7201
G1 X202.238 Y39.613 E33.73625
G1 X202.879 Y40.718 E33.77364
G1 X203.108 Y41.21 E33.78952
G1 X203.54 Y42.414 E33.82696
G1 X203.678 Y42.951 E33.84319
G1 X203.881 Y44.214 E33.88063
G1 X203.918 Y44.756 E33.89653
G1 X203.89 Y46.038 E33.93406
G1 X203.827 Y46.587 E33.95024
G1 X203.564 Y47.842 E33.98777
G1 X203.403 Y48.367 E34.00384
G1 X202.916 Y49.553 E34.04137
G1 X202.66 Y50.043 E34.05755
G1 X201.963 Y51.12 E34.09509
G1 X201.627 Y51.548 E34.11102
G1 X200.752 Y52.476 E34.14835
G1 X200.337 Y52.842 E34.16455
G1 X199.298 Y53.6 E34.20219
G1 X198.831 Y53.879 E34.21811
G1 X197.785 Y54.383 E34.2521
G1 X197.521 Y55.904 E34.29728
G1 X197.481 Y56.098 E34.30308
G1 X196.691 Y59.357 E34.40123
G1 X196.636 Y59.552 E34.40716
G1 X195.62 Y62.776 E34.5061
G1 X195.553 Y62.965 E34.51197
G1 X194.333 Y66.089 E34.61013
G1 X194.254 Y66.275 E34.61604
G1 X192.821 Y69.321 E34.71457
G1 X192.728 Y69.501 E34.7205
G1 X191.093 Y72.444 E34.81904
G1 X190.99 Y72.617 E34.82493
G1 X189.155 Y75.453 E34.9238
G1 X189.04 Y75.617 E34.92966
G1 X187.029 Y78.312 E35.02808
G1 X186.902 Y78.471 E35.03404
G1 X184.714 Y81.022 E35.1324
G1 X184.578 Y81.171 E35.13831
G1 X182.211 Y83.582 E35.2372
G1 X182.064 Y83.721 E35.24312
G1 X179.558 Y85.951 E35.3413
G1 X179.404 Y86.08 E35.34718
G1 X176.739 Y88.149 E35.44593
G1 X176.574 Y88.268 E35.45189
G1 X173.774 Y90.153 E35.55068
G1 X173.603 Y90.26 E35.55658
G1 X170.692 Y91.947 E35.65506
G1 X170.515 Y92.042 E35.66094
G1 X167.505 Y93.526 E35.75916
G1 X167.322 Y93.608 E35.76503
G1 X164.211 Y94.891 E35.86353
G1 X164.02 Y94.962 E35.86949
G1 X160.813 Y96.037 E35.96849
G1 X160.622 Y96.095 E35.97433
G1 X157.372 Y96.948 E36.07268
G1 X157.173 Y96.993 E36.07865
G1 X153.872 Y97.624 E36.17702
G1 X153.672 Y97.655 E36.18294
G1 X150.32 Y98.064 E36.28178
G1 X149.957 Y98.086 E36.29242
G1 X78.089 Y98.087 E38.39592
G1 X78.089 Y104.167 E38.57388
G1 X78.049 Y104.655 E38.58821
G1 X77.93 Y105.13 E38.60254
G1 X77.736 Y105.579 E38.61685
G1 X77.471 Y105.991 E38.63119
G1 X77.143 Y106.354 E38.64551
G1 X76.76 Y106.659 E38.65984
G1 X76.332 Y106.897 E38.67418
G1 X75.872 Y107.063 E38.68849
G1 X75.391 Y107.152 E38.70281
G1 X75.089 Y107.167 E38.71166
G1 X20.089 Y107.167 E40.32145
G1 X19.601 Y107.127 E40.33578
G1 X19.126 Y107.008 E40.35011
G1 X18.677 Y106.814 E40.36443
G1 X18.265 Y106.549 E40.37876
G1 X17.902 Y106.221 E40.39308
G1 X17.597 Y105.838 E40.40741
G1 X17.359 Y105.41 E40.42175
G1 X17.193 Y104.95 E40.43606
G1 X17.104 Y104.469 E40.45038
G1 X17.089 Y104.167 E40.45923
G1 X17.089 Y87.67 E40.94208
G1 X17.129 Y87.182 E40.95641
G1 X17.248 Y86.707 E40.97074
G1 X17.442 Y86.258 E40.98506
G1 X17.707 Y85.846 E40.9994
G1 X17.968 Y85.549 E41.01097
G1 X18.967 Y84.55 E41.05232
G1 X19.34 Y84.233 E41.06665
G1 X19.76 Y83.981 E41.08098
G1 X20.215 Y83.801 E41.0953
G1 X20.693 Y83.697 E41.10962
G1 X21.088 Y83.671 E41.12121
G0 F1800 X21.088 Y84.071
G1 F1200 X149.941 Y84.071 E44.8926
G1 X152.896 Y83.749 E44.9796
G1 X155.832 Y83.209 E45.06697
G1 X158.767 Y82.445 E45.15574
G1 X161.614 Y81.473 E45.24379
G1 X164.386 Y80.295 E45.33195
G1 X167.055 Y78.919 E45.41984
G1 X169.641 Y77.339 E45.50854
G1 X172.067 Y75.598 E45.59593
G1 X174.38 Y73.667 E45.68412
G1 X176.555 Y71.563 E45.7727
G1 X178.544 Y69.334 E45.86013
G1 X180.39 Y66.931 E45.94882
G1 X182.037 Y64.427 E46.03655
G1 X183.511 Y61.782 E46.12517
G1 X184.766 Y59.077 E46.21245
G1 X185.833 Y56.261 E46.30059
G1 X186.694 Y53.355 E46.3893
G1 X187.029 Y51.821 E46.43526
G1 X186.919 Y51.708 E46.43987
G1 X186.111 Y50.716 E46.47732
G1 X185.843 Y50.317 E46.49139
G1 X185.228 Y49.187 E46.52904
G1 X185.042 Y48.757 E46.54276
G1 X184.643 Y47.545 E46.5801
G1 X184.536 Y47.073 E46.59427
G1 X184.368 Y45.805 E46.63171
G1 X184.348 Y45.338 E46.64539
G1 X184.41 Y44.057 E46.68292
G1 X184.477 Y43.583 E46.69694
G1 X184.772 Y42.339 E46.73436
G1 X184.924 Y41.887 E46.74831
G1 X185.443 Y40.714 E46.78586
G1 X185.675 Y40.298 E46.7998
G1 X186.399 Y39.24 E46.83732
G1 X186.702 Y38.874 E46.85123
G1 X187.604 Y37.968 E46.88865
G1 X187.97 Y37.662 E46.90261
G1 X189.026 Y36.933 E46.94017
G1 X189.438 Y36.701 E46.95401
G1 X190.605 Y36.177 E46.99145
G1 X191.055 Y36.023 E47.00537
G1 X192.295 Y35.721 E47.04272
G1 X192.769 Y35.651 E47.05675
G1 X194.055 Y35.581 E47.09444
G1 X194.525 Y35.598 E47.10821
G1 X195.793 Y35.76 E47.14562
G1 X196.263 Y35.865 E47.15972
G1 X197.477 Y36.257 E47.19706
G1 X197.914 Y36.443 E47.21096
G1 X199.045 Y37.054 E47.24858
G1 X199.439 Y37.316 E47.26243
G1 X200.438 Y38.12 E47.29997
G1 X200.78 Y38.452 E47.31392
G1 X201.615 Y39.424 E47.35142
G1 X201.892 Y39.813 E47.3654
G1 X202.533 Y40.918 E47.40279
G1 X202.731 Y41.345 E47.41656
G1 X203.163 Y42.549 E47.454
G1 X203.283 Y43.014 E47.46806
G1 X203.486 Y44.277 E47.5055
G1 X203.518 Y44.747 E47.51929
G1 X203.49 Y46.029 E47.55682
G1 X203.436 Y46.505 E47.57084
G1 X203.173 Y47.76 E47.60837
G1 X203.033 Y48.215 E47.62231
G1 X202.546 Y49.401 E47.65983
G1 X202.324 Y49.826 E47.67387
G1 X201.627 Y50.903 E47.71141
